/* XPM */
static char * mining_down2_xpm[] = {
"64 64 410 2",
"  	c #785E4E",
". 	c #775D4D",
"+ 	c #765C4C",
"@ 	c #6A5244",
"# 	c #5B463A",
"$ 	c #584438",
"% 	c #594539",
"& 	c #705748",
"* 	c #544238",
"= 	c #2B2522",
"- 	c #201E1D",
"; 	c #23201E",
"> 	c #6B5345",
", 	c #524035",
"' 	c #3B3836",
") 	c #2A373C",
"! 	c #2B393D",
"~ 	c #2B383D",
"{ 	c #6E5647",
"] 	c #57453A",
"^ 	c #2F2D2C",
"/ 	c #2C393E",
"( 	c #37484E",
"_ 	c #394A50",
": 	c #38494F",
"< 	c #6C5546",
"[ 	c #4F3D32",
"} 	c #393534",
"| 	c #313E42",
"1 	c #35454B",
"2 	c #3A4B51",
"3 	c #755C4C",
"4 	c #6C5446",
"5 	c #59463F",
"6 	c #38333A",
"7 	c #2E3943",
"8 	c #394B51",
"9 	c #6F5748",
"0 	c #37323A",
"a 	c #3D4156",
"b 	c #3E485A",
"c 	c #3A4A52",
"d 	c #6D5546",
"e 	c #403128",
"f 	c #252939",
"g 	c #41465F",
"h 	c #434D61",
"i 	c #3B4A53",
"j 	c #394A4F",
"k 	c #6D5547",
"l 	c #423229",
"m 	c #232737",
"n 	c #3E435B",
"o 	c #414B5E",
"p 	c #191C29",
"q 	c #2E3446",
"r 	c #35414E",
"s 	c #37474D",
"t 	c #384A4E",
"u 	c #37494F",
"v 	c #31474F",
"w 	c #2C454F",
"x 	c #090B13",
"y 	c #1A1E2A",
"z 	c #313B49",
"A 	c #414F5D",
"B 	c #3F4F5C",
"C 	c #454F55",
"D 	c #5E5D55",
"E 	c #6B6655",
"F 	c #080207",
"G 	c #1E1928",
"H 	c #454A64",
"I 	c #5D6687",
"J 	c #505C7B",
"K 	c #636064",
"L 	c #A48D63",
"M 	c #C3A466",
"N 	c #020005",
"O 	c #221829",
"P 	c #484A66",
"Q 	c #5E668A",
"R 	c #505B80",
"S 	c #72696C",
"T 	c #C4A56D",
"U 	c #E8C170",
"V 	c #433329",
"W 	c #140911",
"X 	c #211525",
"Y 	c #2F2E42",
"Z 	c #3B4159",
"` 	c #384463",
" .	c #716769",
"..	c #654E3F",
"+.	c #705643",
"@.	c #664D3D",
"#.	c #3A2A29",
"$.	c #0D0D1D",
"%.	c #161D29",
"&.	c #1D2C45",
"*.	c #5A5557",
"=.	c #A1885C",
"-.	c #C0A05E",
";.	c #151C28",
">.	c #01051B",
",.	c #362627",
"'.	c #654C3C",
").	c #72594A",
"!.	c #574337",
"~.	c #644C3B",
"{.	c #9D785E",
"].	c #9B775C",
"^.	c #553F31",
"/.	c #000315",
"(.	c #171C26",
"_.	c #252631",
":.	c #3C3638",
"<.	c #594B3B",
"[.	c #67553B",
"}.	c #1A1E27",
"|.	c #18161B",
"1.	c #5B4535",
"2.	c #9C785D",
"3.	c #6C5445",
"4.	c #614B3D",
"5.	c #755946",
"6.	c #947157",
"7.	c #B48A6B",
"8.	c #A98164",
"9.	c #674638",
"0.	c #220011",
"a.	c #281D1F",
"b.	c #5C4034",
"c.	c #785340",
"d.	c #795342",
"e.	c #775141",
"f.	c #5A3F32",
"g.	c #392C28",
"h.	c #68503F",
"i.	c #B48B6C",
"j.	c #B38A6B",
"k.	c #5C473B",
"l.	c #4C3A2D",
"m.	c #937157",
"n.	c #BA8F6F",
"o.	c #C09473",
"p.	c #AD8366",
"q.	c #805746",
"r.	c #4D2926",
"s.	c #3A241B",
"t.	c #7D553E",
"u.	c #A47153",
"v.	c #A97455",
"w.	c #A87355",
"x.	c #7B533C",
"y.	c #4E382A",
"z.	c #916F56",
"A.	c #B98F6F",
"B.	c #BF9373",
"C.	c #473528",
"D.	c #977459",
"E.	c #BF9473",
"F.	c #C29574",
"G.	c #B98D6E",
"H.	c #A77C61",
"I.	c #7B5A47",
"J.	c #442E21",
"K.	c #81573E",
"L.	c #AC7656",
"M.	c #B17A59",
"N.	c #B07958",
"O.	c #80563D",
"P.	c #4D3728",
"Q.	c #967459",
"R.	c #483629",
"S.	c #967359",
"T.	c #BE9272",
"U.	c #C19574",
"V.	c #BD9271",
"W.	c #9E795E",
"X.	c #6E523E",
"Y.	c #805941",
"Z.	c #9B6B4E",
"`.	c #9E6D4F",
" +	c #9D6C4F",
".+	c #9E6C4F",
"++	c #9F7A5F",
"@+	c #BE9372",
"#+	c #C19473",
"$+	c #B78D6D",
"%+	c #A47E61",
"&+	c #85634B",
"*+	c #654532",
"=+	c #5F3F2C",
"-+	c #60412E",
";+	c #654531",
">+	c #B68D6D",
",+	c #584538",
"'+	c #473629",
")+	c #BF9372",
"!+	c #BB9070",
"~+	c #8C6952",
"{+	c #482C23",
"]+	c #503224",
"^+	c #60402E",
"/+	c #61412E",
"(+	c #5E3E2B",
"_+	c #674733",
":+	c #977257",
"<+	c #BC9070",
"[+	c #5A4639",
"}+	c #49372A",
"|+	c #957358",
"1+	c #BD9171",
"2+	c #936B55",
"3+	c #6B3F34",
"4+	c #885942",
"5+	c #9D6C4E",
"6+	c #9D6B4E",
"7+	c #9F6E51",
"8+	c #AF8162",
"9+	c #BE9271",
"0+	c #675143",
"a+	c #5C4739",
"b+	c #7F614B",
"c+	c #B68C6D",
"d+	c #966C56",
"e+	c #76453A",
"f+	c #98644B",
"g+	c #AE7858",
"h+	c #AF7858",
"i+	c #B07A5A",
"j+	c #B88766",
"k+	c #BF9271",
"l+	c #765D4D",
"m+	c #6F5747",
"n+	c #554235",
"o+	c #69503D",
"p+	c #A78063",
"q+	c #956B55",
"r+	c #724438",
"s+	c #96634A",
"t+	c #AD7757",
"u+	c #AB7555",
"v+	c #A97556",
"w+	c #B38464",
"x+	c #C09573",
"y+	c #735A4B",
"z+	c #564131",
"A+	c #A37D61",
"B+	c #8E6953",
"C+	c #633E31",
"D+	c #916147",
"E+	c #875D44",
"F+	c #9F775B",
"G+	c #4E3C31",
"H+	c #5A4433",
"I+	c #B88C6C",
"J+	c #85644D",
"K+	c #523728",
"L+	c #8D6045",
"M+	c #8E6146",
"N+	c #573B2A",
"O+	c #87664E",
"P+	c #5A4434",
"Q+	c #A57F62",
"R+	c #BD8E6D",
"S+	c #AF7F60",
"T+	c #7C5841",
"U+	c #4E3525",
"V+	c #8D6146",
"W+	c #8D6046",
"X+	c #4C3324",
"Y+	c #7B5841",
"Z+	c #4E3B2C",
"`+	c #B2896A",
" @	c #AF7E5E",
".@	c #7C5740",
"+@	c #493022",
"@@	c #81563F",
"#@	c #9F6B4F",
"$@	c #2C1F17",
"%@	c #523E2E",
"&@	c #86674F",
"*@	c #C09372",
"=@	c #B6896A",
"-@	c #84634B",
";@	c #3E271D",
">@	c #5F362C",
",@	c #78473A",
"'@	c #0E0907",
")@	c #050009",
"!@	c #5A4335",
"~@	c #A17C60",
"{@	c #9A765B",
"]@	c #765744",
"^@	c #482521",
"/@	c #522124",
"(@	c #5F2A2C",
"_@	c #190D0F",
":@	c #27131D",
"<@	c #3A2526",
"[@	c #49352A",
"}@	c #4D3A2C",
"|@	c #4E392B",
"1@	c #53312A",
"2@	c #582929",
"3@	c #5C292A",
"4@	c #5E2B2B",
"5@	c #1B0F11",
"6@	c #2A1620",
"7@	c #2C1623",
"8@	c #180517",
"9@	c #070010",
"0@	c #1A0214",
"a@	c #3D1A22",
"b@	c #4E2428",
"c@	c #4A2223",
"d@	c #461E1E",
"e@	c #4B2224",
"f@	c #1D1011",
"g@	c #301820",
"h@	c #3A1E27",
"i@	c #391D26",
"j@	c #361C26",
"k@	c #331B25",
"l@	c #341B26",
"m@	c #351C24",
"n@	c #311E1D",
"o@	c #291A15",
"p@	c #1D0E0C",
"q@	c #241015",
"r@	c #321922",
"s@	c #341C26",
"t@	c #271212",
"u@	c #441F22",
"v@	c #52272A",
"w@	c #51262A",
"x@	c #482329",
"y@	c #371D27",
"z@	c #29161F",
"A@	c #2D1E1F",
"B@	c #4E3C32",
"C@	c #523F34",
"D@	c #2B2019",
"E@	c #080407",
"F@	c #1C0D15",
"G@	c #291620",
"H@	c #2C1513",
"I@	c #512424",
"J@	c #602C2C",
"K@	c #5F2C2C",
"L@	c #201019",
"M@	c #2F221C",
"N@	c #624C3F",
"O@	c #6B5445",
"P@	c #4B3A2F",
"Q@	c #271D17",
"R@	c #130B0A",
"S@	c #211019",
"T@	c #2D1513",
"U@	c #522424",
"V@	c #612D2C",
"W@	c #1F1018",
"X@	c #2E221C",
"Y@	c #634D40",
"Z@	c #755B4C",
"`@	c #534035",
" #	c #261B16",
".#	c #281212",
"+#	c #462023",
"@#	c #54272B",
"##	c #53272B",
"$#	c #48222A",
"%#	c #331B26",
"&#	c #1D0F18",
"*#	c #2C211B",
"=#	c #2C1521",
"-#	c #351B28",
";#	c #301928",
">#	c #271625",
",#	c #180C18",
"'#	c #31241E",
")#	c #4D3B31",
"!#	c #0E070E",
"~#	c #1C1020",
"{#	c #221528",
"]#	c #221527",
"^#	c #1F1223",
"/#	c #1D111E",
"(#	c #392B27",
"_#	c #544136",
":#	c #735A4A",
"<#	c #241A18",
"[#	c #1E1220",
"}#	c #231426",
"|#	c #221425",
"1#	c #2C201D",
"2#	c #574438",
"3#	c #715849",
"4#	c #685143",
"5#	c #523F35",
"6#	c #312423",
"7#	c #160B18",
"8#	c #3A2B27",
"9#	c #775D4E",
"0#	c #2B201A",
"a#	c #30241D",
"b#	c #695244",
"c#	c #634D3F",
"                                                                                                                                ",
"                                                                                                                                ",
"                                                                                                                                ",
"                                                                                                                                ",
"                                                                                                                                ",
"                                                                                                                                ",
"                                                                                                                                ",
"                                                                                                                                ",
"                                                                                                                                ",
"                                                                                                                                ",
"                                                                                                                                ",
"                                                                                                                                ",
"                                                                                                                                ",
"                                                                                                                                ",
"                                                                                                                                ",
"                                                                                                                                ",
"                                                                                                                                ",
"                                                                                                                                ",
"                                                        . + + + + + + .                                                         ",
"                                                      . @ # $ % % $ # @ .                                                       ",
"                                                    . & * = - ; ; - = * & .                                                     ",
"                                                    > , ' ) ! ~ ~ ! ) ' , >                                                     ",
"                                                + { ] ^ / ( _ : : _ ( / ^ ] { +                                                 ",
"                                                < [ } | 1 _ 2 _ _ 2 _ 1 | } [ <                                                 ",
"                                            3 4 5 6 7 ( 8 _ _ _ _ _ _ 8 ( 7 6 5 4 3                                             ",
"                                            9 [ 0 a b c _ _ _ _ _ _ _ _ c b a 0 [ 9                                             ",
"                                            d e f g h i j _ _ _ _ _ _ j i h g f e d                                             ",
"                                            k l m n o c j _ _ _ _ _ _ j c o n m l k                                             ",
"                                            k l p q r s t u v w w v u t s r q p l k                                             ",
"                                            k l x y z A B C D E E D C B A z y x l k                                             ",
"                                            k l F G H I J K L M M L K J I H G F l k                                             ",
"                                            { l N O P Q R S T U U T S R Q P O N l {                                             ",
"                                            d V W X Y Z `  .T U U T  .` Z Y X W V d                                             ",
"                                        . d ..+.@.#.$.%.&.*.=.-.-.=.*.&.;.>.,.'.+...d .                                         ",
"                                        ).!.~.{.].^./.(._.:.<.[.[.<.:._.}.|.1.2.{.~.!.).                                        ",
"                                    . 3.4.5.6.7.8.9.0.a.b.c.d.e.e.d.c.f.g.h.6.i.j.6.5.4.3..                                     ",
"                                    + k.l.m.n.o.p.q.r.s.t.u.v.w.w.v.u.x.y.z.A.B.B.A.m.l.k.+                                     ",
"                                    + $ C.D.E.F.G.H.I.J.K.L.M.N.N.M.L.O.P.Q.B.F.F.B.D.C.$ +                                     ",
"                                    + % R.S.T.U.o.V.W.X.Y.Z.`. + +.+Z.Y.X.++@+U.U.T.S.R.% +                                     ",
"                                    + % R.S.T.U.#+o.$+%+&+*+=+-+-+=+;+&+%+>+E.o.U.T.S.R.% +                                     ",
"                                    + ,+'+D.)+U.o.o.F.!+~+{+]+^+/+(+_+:+<+U.o.o.U.)+D.'+,++                                     ",
"                                    + [+}+|+1+o.o.o.F.!+2+3+4+5+.+6+7+8+9+U.o.o.o.1+|+}+[++                                     ",
"                                    . 0+a+b+++c+o.o.U.!+d+e+f+g+h+h+i+j+k+o.o.o.c+++b+a+0+.                                     ",
"                                      l+m+n+o+p+o.o.U.!+q+r+s+t+t+u+v+w+9+x+o.o.p+o+n+m+l+                                      ",
"                                        y+[ z+A+o.o.F.!+B+C+D+t+t+6+E+F+1+U.o.o.A+z+[ y+                                        ",
"                                        ).G+H+%+#+o.#+I+J+K+L+t+t+M+N+O+I+#+o.#+%+H+G+).                                        ",
"                                        ).G+P+Q+U.o.R+S+T+U+V+g+g+W+X+Y+S+R+o.U.Q+P+G+).                                        ",
"                                        ).G+Z+z.`+1+R+ @.@+@@@#@#@@@+@.@ @R+1+`+z.Z+G+).                                        ",
"                                        ).G+$@%@&@j.*@=@-@;@>@,@,@>@;@-@=@*@j.&@%@$@G+).                                        ",
"                                        ).G+'@)@!@z.~@{@]@^@/@(@(@/@^@]@{@~@z.!@)@'@G+).                                        ",
"                                        ).G+_@:@<@[@}@|@1@2@3@4@4@3@2@1@|@}@[@<@:@_@G+).                                        ",
"                                        ).G+5@6@7@8@9@0@a@b@c@d@d@e@b@a@0@9@8@7@6@5@G+).                                        ",
"                                        ).G+f@g@h@i@j@k@l@m@n@o@p@q@r@s@k@j@i@h@g@f@G+).                                        ",
"                                        ).G+t@u@v@w@x@y@z@A@B@C@D@E@F@G@y@x@w@v@u@t@G+).                                        ",
"                                        ).G+H@I@J@K@w@i@L@M@N@O@P@Q@R@S@i@w@K@J@I@H@G+).                                        ",
"                                        ).G+T@U@V@J@v@i@W@X@Y@Z@O@`@ #W@i@v@J@V@U@T@G+).                                        ",
"                                        ).G+.#+#@###$#%#&#*#N@    N@*#&#%#$###@#+#.#G+).                                        ",
"                                        ).G+5@=#-#-#;#>#,#'#Y@    Y@'#,#>#;#-#-#=#5@G+).                                        ",
"                                        ).)#!#~#{#]#^#/#(#_#4     4 _#(#/#^#]#{#~#!#)#).                                        ",
"                                        :#C@<#[#}#|#/#1#2#3#.     . 3#2#1#/#|#}#[#<#C@:#                                        ",
"                                        3 4#5#6#7#7#8#2#<             < 2#8#7#7#6#5#4#3                                         ",
"                                          9#d P@0#a#_#3#                3#_#a#0#P@d 9#                                          ",
"                                            3 b#N@c#4 .                 . 4 c#N@b#3                                             ",
"                                                                                                                                "};
