/* XPM */
static char * mining_left0_xpm[] = {
"64 64 584 2",
"  	c #785E4E",
". 	c #765C4D",
"+ 	c #6B5345",
"@ 	c #624D3F",
"# 	c #624C3F",
"$ 	c #675042",
"% 	c #735A4A",
"& 	c #6F5749",
"* 	c #52413A",
"= 	c #342B2E",
"- 	c #322A2D",
"; 	c #332B2D",
"> 	c #30292C",
", 	c #453835",
"' 	c #685145",
") 	c #765D4D",
"! 	c #6A5244",
"~ 	c #594946",
"{ 	c #525066",
"] 	c #4F5676",
"^ 	c #505676",
"/ 	c #50536E",
"( 	c #55494E",
"_ 	c #644E40",
": 	c #745B4B",
"< 	c #745B4C",
"[ 	c #574337",
"} 	c #373340",
"| 	c #555C7D",
"1 	c #677097",
"2 	c #687098",
"3 	c #697199",
"4 	c #60688D",
"5 	c #454861",
"6 	c #4A3D3E",
"7 	c #6A5347",
"8 	c #765C4C",
"9 	c #523F34",
"0 	c #1B1D29",
"a 	c #3B4059",
"b 	c #4A506E",
"c 	c #4B516F",
"d 	c #4A516F",
"e 	c #4F5370",
"f 	c #515571",
"g 	c #4E5370",
"h 	c #4E5574",
"i 	c #555C7E",
"j 	c #545772",
"k 	c #504447",
"l 	c #634D40",
"m 	c #755B4C",
"n 	c #5C473B",
"o 	c #3A2C24",
"p 	c #342825",
"q 	c #372C29",
"r 	c #2D2424",
"s 	c #19161B",
"t 	c #221B1E",
"u 	c #2C2222",
"v 	c #1D1514",
"w 	c #2F3347",
"x 	c #565E80",
"y 	c #5A6285",
"z 	c #43465F",
"A 	c #504448",
"B 	c #6A5348",
"C 	c #775D4D",
"D 	c #6F5748",
"E 	c #664F42",
"F 	c #665042",
"G 	c #544135",
"H 	c #251B15",
"I 	c #1B0F01",
"J 	c #27190C",
"K 	c #170900",
"L 	c #151722",
"M 	c #34384F",
"N 	c #545773",
"O 	c #4A3E40",
"P 	c #554136",
"Q 	c #2C2119",
"R 	c #1E140F",
"S 	c #281D16",
"T 	c #392A22",
"U 	c #413228",
"V 	c #423329",
"W 	c #4C4757",
"X 	c #5A5F80",
"Y 	c #282631",
"Z 	c #584438",
"` 	c #6D5547",
" .	c #4B3A2F",
"..	c #2F231C",
"+.	c #291D16",
"@.	c #1F1510",
"#.	c #564337",
"$.	c #6C5546",
"%.	c #6E5647",
"&.	c #614E48",
"*.	c #433E4A",
"=.	c #25293A",
"-.	c #261E1F",
";.	c #5A4639",
">.	c #3A2C23",
",.	c #19100C",
"'.	c #201610",
").	c #271D17",
"!.	c #5F4A3D",
"~.	c #4C3A30",
"{.	c #392B23",
"].	c #170F0B",
"^.	c #271B15",
"/.	c #1E150F",
"(.	c #261C15",
"_.	c #5B463A",
":.	c #735A4B",
"<.	c #72594A",
"[.	c #755C4C",
"}.	c #675143",
"|.	c #4A392E",
"1.	c #0E0704",
"2.	c #19100A",
"3.	c #130B06",
"4.	c #18110C",
"5.	c #3F3027",
"6.	c #5B473A",
"7.	c #705849",
"8.	c #503D32",
"9.	c #201712",
"0.	c #120C08",
"a.	c #070403",
"b.	c #020406",
"c.	c #080C0F",
"d.	c #070B0E",
"e.	c #06070B",
"f.	c #0A0A0D",
"g.	c #362A23",
"h.	c #604B3E",
"i.	c #695244",
"j.	c #4C3B30",
"k.	c #2D221B",
"l.	c #000000",
"m.	c #000C15",
"n.	c #142028",
"o.	c #151F27",
"p.	c #101720",
"q.	c #0F161F",
"r.	c #1E1C20",
"s.	c #3D2F29",
"t.	c #6C5445",
"u.	c #534034",
"v.	c #2B1F18",
"w.	c #483628",
"x.	c #604937",
"y.	c #634B39",
"z.	c #624B39",
"A.	c #524136",
"B.	c #2D2E31",
"C.	c #14222C",
"D.	c #151E28",
"E.	c #151D28",
"F.	c #131A25",
"G.	c #0B1119",
"H.	c #3B2E27",
"I.	c #614B3E",
"J.	c #715849",
"K.	c #4A392F",
"L.	c #2A1F18",
"M.	c #31241A",
"N.	c #7F614A",
"O.	c #A78063",
"P.	c #AC8466",
"Q.	c #AB8366",
"R.	c #AA8265",
"S.	c #8D6C54",
"T.	c #45362D",
"U.	c #000F1D",
"V.	c #151D27",
"W.	c #151D29",
"X.	c #141C27",
"Y.	c #121A24",
"Z.	c #1F1D21",
"`.	c #382C26",
" +	c #5A463A",
".+	c #32261E",
"++	c #2D1F19",
"@+	c #916F56",
"#+	c #BE9372",
"$+	c #C39775",
"%+	c #C09372",
"&+	c #BC8D6D",
"*+	c #997256",
"=+	c #463225",
"-+	c #000010",
";+	c #131B26",
">+	c #131C26",
",+	c #101821",
"'+	c #0B1016",
")+	c #3E3029",
"!+	c #34271F",
"~+	c #100E00",
"{+	c #473723",
"]+	c #917055",
"^+	c #BA8F6F",
"/+	c #C09473",
"(+	c #BD906F",
"_+	c #B48362",
":+	c #93684C",
"<+	c #503829",
"[+	c #13161B",
"}+	c #171D27",
"|+	c #171F2B",
"1+	c #19212D",
"2+	c #19202C",
"3+	c #171E2A",
"4+	c #1E1D23",
"5+	c #352922",
"6+	c #5E493C",
"7+	c #3B2D22",
"8+	c #6F5C31",
"9+	c #9F834C",
"0+	c #9D7E52",
"a+	c #99765A",
"b+	c #B1886A",
"c+	c #BE9170",
"d+	c #B88968",
"e+	c #A87C5E",
"f+	c #8D6B52",
"g+	c #644D3C",
"h+	c #2B262A",
"i+	c #242C3F",
"j+	c #343A4E",
"k+	c #353B50",
"l+	c #272C3C",
"m+	c #1E191D",
"n+	c #3F3123",
"o+	c #907744",
"p+	c #C5A45F",
"q+	c #9D824B",
"r+	c #654E38",
"s+	c #9F7A5F",
"t+	c #BF9372",
"u+	c #BE9271",
"v+	c #B78D6D",
"w+	c #8B6A51",
"x+	c #382D2B",
"y+	c #2A334A",
"z+	c #414760",
"A+	c #424861",
"B+	c #31364A",
"C+	c #241F23",
"D+	c #594539",
"E+	c #3A2D22",
"F+	c #6A5834",
"G+	c #927A4A",
"H+	c #6D5B34",
"I+	c #503D2B",
"J+	c #9D785D",
"K+	c #C19574",
"L+	c #C29675",
"M+	c #BE9272",
"N+	c #906E54",
"O+	c #322622",
"P+	c #0E2137",
"Q+	c #31374B",
"R+	c #32384C",
"S+	c #252939",
"T+	c #221B1D",
"U+	c #352820",
"V+	c #1C191A",
"W+	c #292627",
"X+	c #030E16",
"Y+	c #4C392B",
"Z+	c #9F7A5E",
"`+	c #BD9271",
" @	c #9B775C",
".@	c #604938",
"+@	c #352B29",
"@@	c #191E28",
"#@	c #141D29",
"$@	c #171F2A",
"%@	c #10161F",
"&@	c #1E1714",
"*@	c #342720",
"=@	c #070416",
"-@	c #0D0622",
";@	c #4B382B",
">@	c #B58C6C",
",@	c #6C5340",
"'@	c #1B181A",
")@	c #02131F",
"!@	c #0D131C",
"~@	c #1D1614",
"{@	c #00000E",
"]@	c #281A21",
"^@	c #533E33",
"/@	c #765A45",
"(@	c #957258",
"_@	c #AB8466",
":@	c #BB9070",
"<@	c #C29674",
"[@	c #B88D6E",
"}@	c #80624B",
"|@	c #1F1715",
"1@	c #030D1E",
"2@	c #181A26",
"3@	c #121822",
"4@	c #282222",
"5@	c #44352C",
"6@	c #775D4E",
"7@	c #664F41",
"8@	c #392A21",
"9@	c #000001",
"0@	c #32241D",
"a@	c #84654E",
"b@	c #A17B60",
"c@	c #7E604A",
"d@	c #7B5E48",
"e@	c #AE8567",
"f@	c #C19473",
"g@	c #201615",
"h@	c #0E071D",
"i@	c #1C1321",
"j@	c #1A1419",
"k@	c #48382F",
"l@	c #654B3B",
"m@	c #6D4C37",
"n@	c #563827",
"o@	c #302016",
"p@	c #715641",
"q@	c #8A6951",
"r@	c #594333",
"s@	c #5C4231",
"t@	c #A3795C",
"u@	c #BC8E6D",
"v@	c #7E6049",
"w@	c #110A0B",
"x@	c #000011",
"y@	c #2F2123",
"z@	c #49382F",
"A@	c #634331",
"B@	c #96664A",
"C@	c #875D43",
"D@	c #4D3627",
"E@	c #453427",
"F@	c #4D392B",
"G@	c #2D2118",
"H@	c #593C2B",
"I@	c #9B6C4F",
"J@	c #B68464",
"K@	c #BD8F6F",
"L@	c #86664E",
"M@	c #392A1F",
"N@	c #110A09",
"O@	c #3F3028",
"P@	c #685143",
"Q@	c #6D5546",
"R@	c #403128",
"S@	c #62412E",
"T@	c #9E6D4F",
"U@	c #A57558",
"V@	c #946F55",
"W@	c #906E55",
"X@	c #84654D",
"Y@	c #503C2D",
"Z@	c #99694C",
"`@	c #B27D5D",
" #	c #B68564",
".#	c #A78164",
"+#	c #85654E",
"@#	c #4E3B2C",
"##	c #423229",
"$#	c #61402D",
"%#	c #B58363",
"&#	c #BB8F6E",
"*#	c #B2896A",
"=#	c #81624C",
"-#	c #694B37",
";#	c #926549",
">#	c #A77253",
",#	c #AD7959",
"'#	c #B78766",
")#	c #BF9271",
"!#	c #6A503D",
"~#	c #9E6D50",
"{#	c #B78565",
"]#	c #AC8467",
"^#	c #947056",
"/#	c #795640",
"(#	c #855A41",
"_#	c #A77355",
":#	c #B88666",
"<#	c #B08869",
"[#	c #6D533F",
"}#	c #6B4E3C",
"|#	c #613E2D",
"1#	c #926449",
"2#	c #AC7D5E",
"3#	c #BA8C6C",
"4#	c #BE906F",
"5#	c #AB8163",
"6#	c #6A4F3B",
"7#	c #AF8467",
"8#	c #795242",
"9#	c #4F2722",
"0#	c #5D3D2C",
"a#	c #8B6248",
"b#	c #AD7B5C",
"c#	c #B48060",
"d#	c #A17355",
"e#	c #644532",
"f#	c #BA8B6A",
"g#	c #BA8B6B",
"h#	c #AA7D60",
"i#	c #7D5041",
"j#	c #501F23",
"k#	c #441F1D",
"l#	c #704736",
"m#	c #936149",
"n#	c #9A664C",
"o#	c #8A5B43",
"p#	c #543627",
"q#	c #61412E",
"r#	c #9E6C4F",
"s#	c #B07A5A",
"t#	c #B07C5C",
"u#	c #B17D5D",
"v#	c #B17D5C",
"w#	c #A26F53",
"x#	c #79493B",
"y#	c #5C2829",
"z#	c #5B2929",
"A#	c #64332E",
"B#	c #6E3C34",
"C#	c #703E35",
"D#	c #64372F",
"E#	c #3C1F19",
"F#	c #9F6D50",
"G#	c #B37F5E",
"H#	c #B78666",
"I#	c #B58464",
"J#	c #A06B4F",
"K#	c #784739",
"L#	c #5F2A2B",
"M#	c #602C2C",
"N#	c #5F2B2C",
"O#	c #5E292B",
"P#	c #552426",
"Q#	c #321314",
"R#	c #61422F",
"S#	c #98694C",
"T#	c #B07F60",
"U#	c #BB8D6C",
"V#	c #B07E5F",
"W#	c #9A674D",
"X#	c #754438",
"Y#	c #612C2C",
"Z#	c #572727",
"`#	c #331414",
" $	c #63493A",
".$	c #714E3A",
"+$	c #93694E",
"@$	c #B18161",
"#$	c #B88766",
"$$	c #B18061",
"%$	c #9A6950",
"&$	c #7F4E3E",
"*$	c #6A3831",
"=$	c #654F41",
"-$	c #3F2D24",
";$	c #6D4834",
">$	c #9B694E",
",$	c #A57153",
"'$	c #9C694E",
")$	c #7E4D3D",
"!$	c #632F2D",
"~$	c #35271F",
"{$	c #4F2D23",
"]$	c #764738",
"^$	c #7E4C3C",
"/$	c #79473A",
"($	c #5F2B2B",
"_$	c #362820",
":$	c #3D1919",
"<$	c #602B2C",
"[$	c #3D1A1A",
"}$	c #5B2A2A",
"|$	c #362720",
"1$	c #612D2D",
"2$	c #34261F",
"3$	c #5C2A2A",
"4$	c #452823",
"5$	c #532727",
"6$	c #6C5446",
"7$	c #564136",
"8$	c #3C211D",
"9$	c #4D2222",
"0$	c #5E2B2B",
"a$	c #2B1D18",
"b$	c #3C1A1D",
"c$	c #54272A",
"d$	c #5D2B2C",
"e$	c #562727",
"f$	c #4D2725",
"g$	c #49322A",
"h$	c #715949",
"i$	c #291D18",
"j$	c #29141B",
"k$	c #412027",
"l$	c #431D1D",
"m$	c #3C2821",
"n$	c #604A3D",
"o$	c #271C17",
"p$	c #23121B",
"q$	c #351B25",
"r$	c #401E22",
"s$	c #3C1919",
"t$	c #23121A",
"u$	c #2D1822",
"v$	c #210F16",
"w$	c #331515",
"x$	c #552626",
"y$	c #261C17",
"z$	c #180F18",
"A$	c #1F141E",
"B$	c #0A0810",
"C$	c #2D1111",
"D$	c #542626",
"E$	c #241B16",
"F$	c #0A0C15",
"G$	c #0E111C",
"H$	c #02070F",
"I$	c #2E1212",
"J$	c #090C15",
"K$	c #0C111B",
"L$	c #01070F",
"M$	c #47372D",
"N$	c #2A211F",
"O$	c #0B0E16",
"P$	c #00050A",
"Q$	c #270F11",
"R$	c #4A2125",
"S$	c #54272B",
"T$	c #55272B",
"U$	c #502528",
"V$	c #351619",
"W$	c #4D3C32",
"X$	c #1B1512",
"Y$	c #000102",
"Z$	c #17080F",
"`$	c #2E1622",
" %	c #361B28",
".%	c #351B28",
"+%	c #331A25",
"@%	c #200E17",
"#%	c #372922",
"$%	c #291E18",
"%%	c #0C060F",
"&%	c #1D1122",
"*%	c #231528",
"=%	c #221427",
"-%	c #1D1123",
";%	c #1E131E",
">%	c #3C2D29",
",%	c #6B5445",
"'%	c #49382E",
")%	c #211718",
"!%	c #201321",
"~%	c #231426",
"{%	c #231425",
"]%	c #1D111D",
"^%	c #30241F",
"/%	c #5B473B",
"(%	c #4F3D33",
"_%	c #2D2021",
":%	c #160B19",
"<%	c #170C18",
"[%	c #3D2E29",
"}%	c #6A5344",
"|%	c #47362C",
"1%	c #291E19",
"2%	c #33261F",
"3%	c #614C3F",
"                                                                                                                                ",
"                                                          . + @ # @ @ @ @ # $ %                                                 ",
"                                                          & * = - ; ; ; ; > , ' )                                               ",
"                                                      ) ! ~ { ] ^ ] ] ] ] ^ / ( _ :                                             ",
"                                                      < [ } | 1 2 2 2 2 2 3 4 5 6 7 8                                           ",
"                                                      : 9 0 a b c d c e f g h i j k l 8                                         ",
"                                                      m n o p q q r s t u v w x y z A B :                                       ",
"                                                      C D $ E $ F G H I J K L M c y N O l )                                     ",
"                                                              m + P Q R S T U V W X c Y Z 8                                     ",
"                                                              `  ...+.@.S #.$.%.&.*.=.-.;.8                                     ",
"                                                              + >.,.+.'.).!.    D Z ~.9 $ C                                     ",
"                                                        . < m F {.].^./.(._.:   ) :.<.% [.                                      ",
"                                                      C }.#.G |.).1.2.3.4.5.6.7.                                                ",
"                                                    8 ` 8.9.0.0.a.b.c.d.e.f.g.h.% C                                             ",
"                                                    i.j.k.l.l.l.l.m.n.o.p.q.r.s.;.<.                                            ",
"                                                m t.u.v.w.x.y.y.z.A.B.C.D.E.F.G.H.I.J.C                                         ",
"                                                + K.L.M.N.O.P.Q.R.S.T.U.V.W.X.Y.Z.`. +:.                                        ",
"                                                E .+l.++@+#+$+%+&+*+=+-+;+V.>+>+,+'+)+!.D C                                     ",
"                                                F !+~+{+]+^+/+(+_+:+<+[+}+|+1+1+2+3+4+5+6+.                                     ",
"                                                F 7+8+9+0+a+b+c+d+e+f+g+h+i+j+k+k+j+l+m+Z 8                                     ",
"                                                F n+o+p+q+r+s+t+%+u+v+w+x+y+z+A+A+z+B+C+D+8                                     ",
"                                                F E+F+G+H+I+J+/+K+L+M+N+O+P+Q+R+R+Q+S+T+D+8                                     ",
"                                                F U+V+W+X+Y+Z+/+K+K+`+ @.@+@@@#@|+$@%@&@D+8                                     ",
"                                                F *@=@-@-+;@Z+/+K+/+t+>@s+,@'@)@X.>+!@~@D+8                                     ",
"                                                $ !+{@]@^@/@(@_@:@/+/+<@[@}@|@1@2@3@4@5@l )                                     ",
"                                              6@7@8@9@0@a@b@c@d@e@f@/+<@[@}@g@h@i@j@k@i.:                                       ",
"                                            : F l@m@n@o@p@q@r@s@t@u@t+L+v+v@w@x@y@z@l 8                                         ",
"                                            %.|.A@B@C@D@E@F@G@H@I@J@K@K+[@L@M@N@O@P@8                                           ",
"                                            Q@R@S@T@U@V@W@X@Y@n@Z@`@ #u@:@.#+#@#V %.                                            ",
"                                            ` ##$#T@%#&##+*#=#-#;#>#,#'#)#/+P.!###`                                             ",
"                                            ` ##$#~#{#)#L+`+]#^#/#(#_#:#t+$+<#[###`                                             ",
"                                            ` ##$#T@ #u+K+/+K+Q.}#|#1#2#3#4#5#6###`                                             ",
"                                            ` ##$#T@ #c+/+/+K+7#8#9#0#a#b#c#d#e###`                                             ",
"                                            ` ##$#T@c#d+f#f#g#h#i#j#k#l#m#n#o#p###`                                             ",
"                                            ` ##q#r#s#t#u#u#v#w#x#y#z#A#B#C#D#E###`                                             ",
"                                            Q@R@q#F#G#J@H#I#u#J#K#L#M#N#O#O#P#Q###`                                             ",
"                                            %.|.R#S#T#U#c+3#V#W#X#L#M#M#M#Y#Z#`###`                                             ",
"                                            : F  $.$+$@$#$$$%$&$*$N#M#M#M#Y#Z#`###`                                             ",
"                                              6@=$-$;$>$,$'$)$!$M#M#M#M#M#Y#Z#`###`                                             ",
"                                                $ ~${$]$^$/$*$($N#M#M#M#M#Y#Z#`###`                                             ",
"                                                F _$:$z#M#N#M#M#M#M#M#M#M#Y#Z#`###`                                             ",
"                                                F _$:$z#M#<$M#M#M#M#M#M#M#Y#Z#`###`                                             ",
"                                                F _$[$}$Y#M#M#M#M#M#M#M#M#Y#Z#`###`                                             ",
"                                                F _$[$}$Y#M#M#M#M#M#M#M#M#Y#Z#`###`                                             ",
"                                                F _$[$}$Y#M#M#M#M#M#M#M#M#Y#Z#`###`                                             ",
"                                                F |$[$}$1$M#M#M#M#M#M#M#M#Y#Z#`###`                                             ",
"                                                E 2$[$3$1$M#M#M#M#M#M#M#M#Y#Z#`###`                                             ",
"                                                +  .4$5$3$M#M#M#M#M#M#M#M#1$Z#`#U `                                             ",
"                                                m 6$7$8$9$0$M#M#M#M#M#M#M#Y#Z#`#V `                                             ",
"                                                  6@6+a$b$c$d$M#M#M#M#M#0$e$f$g$D+h$                                            ",
"                                                  C 6+i$j$k$c$0$M#M#M#Y#3$l$m$n$% C                                             ",
"                                                  C 6+o$p$q$r$9$z#M#M#1$z#s$U+$                                                 ",
"                                                  C 6+o$t$u$v$w$x$Y#M#Y#}$[$_$F                                                 ",
"                                                  C 6+y$z$A$B$C$D$Y#M#Y#}$[$_$F                                                 ",
"                                                  C 6+E$F$G$H$I$x$Y#M#1$}$[$_$F                                                 ",
"                                                  C 6+E$J$K$L$I$x$Y#M#1$}$[$_$F                                                 ",
"                                                  C $ M$N$O$P$Q$R$S$S$T$U$V$2$F                                                 ",
"                                                    m + W$X$Y$Z$`$ %.% %+%@%#%$                                                 ",
"                                                      C 7@ .$%%%&%*%=%-%;%>%[ %.                                                ",
"                                                        . ,%'%)%!%~%{%]%^%/%<.C                                                 ",
"                                                          [.F (%_%:%<%[%;.%.                                                    ",
"                                                            C }%|%1%2%Z %                                                       ",
"                                                              : P@3%l %.6@                                                      ",
"                                                                                                                                "};
