/* XPM */
static char * mining_right4_xpm[] = {
"64 64 650 2",
"  	c #785E4E",
". 	c #775D4D",
"+ 	c #755B4C",
"@ 	c #745B4B",
"# 	c #765C4C",
"$ 	c #715949",
"% 	c #5D483B",
"& 	c #534034",
"* 	c #544135",
"= 	c #534035",
"- 	c #554236",
"; 	c #665042",
"> 	c #735A4B",
", 	c #624D40",
"' 	c #382C25",
") 	c #131112",
"! 	c #1A1717",
"~ 	c #1D1D1D",
"{ 	c #1F2020",
"] 	c #1C1E1F",
"^ 	c #252322",
"/ 	c #4F3F36",
"( 	c #6D5647",
"_ 	c #3F312A",
": 	c #201E21",
"< 	c #131C24",
"[ 	c #1A252C",
"} 	c #253238",
"| 	c #2D3B40",
"1 	c #383837",
"2 	c #4D3D33",
"3 	c #695244",
"4 	c #72594A",
"5 	c #644E40",
"6 	c #0C1118",
"7 	c #131A25",
"8 	c #19242E",
"9 	c #212F38",
"0 	c #303F46",
"a 	c #38494F",
"b 	c #394A50",
"c 	c #37484E",
"d 	c #25343A",
"e 	c #20181A",
"f 	c #6A5345",
"g 	c #6F5748",
"h 	c #765D4D",
"i 	c #5F4A3D",
"j 	c #3C2E27",
"k 	c #211E22",
"l 	c #121924",
"m 	c #151D27",
"n 	c #223038",
"o 	c #304047",
"p 	c #394B51",
"q 	c #3A4B51",
"r 	c #2C383D",
"s 	c #1B1A16",
"t 	c #31241A",
"u 	c #3D2E24",
"v 	c #3C2E25",
"w 	c #564337",
"x 	c #634D40",
"y 	c #44352D",
"z 	c #121317",
"A 	c #0F1720",
"B 	c #131B26",
"C 	c #141C26",
"D 	c #18232C",
"E 	c #212F37",
"F 	c #2F3F46",
"G 	c #394A4F",
"H 	c #40505E",
"I 	c #525D71",
"J 	c #736B65",
"K 	c #8D7548",
"L 	c #927842",
"M 	c #816A3B",
"N 	c #4B3D1F",
"O 	c #46362C",
"P 	c #705849",
"Q 	c #654F41",
"R 	c #3C2E26",
"S 	c #201D21",
"T 	c #181F2A",
"U 	c #19202C",
"V 	c #19202D",
"W 	c #19212D",
"X 	c #1D2732",
"Y 	c #24313B",
"Z 	c #314048",
"` 	c #394950",
" .	c #394A51",
"..	c #48576E",
"+.	c #6A7090",
"@.	c #A89588",
"#.	c #D4B16D",
"$.	c #DCB768",
"%.	c #C4A35D",
"&.	c #746035",
"*.	c #47372C",
"=.	c #614C3E",
"-.	c #291F1D",
";.	c #232838",
">.	c #33394E",
",.	c #353B50",
"'.	c #343A4F",
").	c #353C51",
"!.	c #384054",
"~.	c #3D4759",
"{.	c #404C5D",
"].	c #47546F",
"^.	c #656987",
"/.	c #B29B84",
"(.	c #E6C074",
"_.	c #F0C772",
":.	c #D5B166",
"<.	c #7F693A",
"[.	c #624C3F",
"}.	c #2C2321",
"|.	c #2D3245",
"1.	c #40465F",
"2.	c #424861",
"3.	c #414761",
"4.	c #424761",
"5.	c #424962",
"6.	c #434962",
"7.	c #404864",
"8.	c #515368",
"9.	c #A28B6B",
"0.	c #D7B36B",
"a.	c #E1BB6C",
"b.	c #C8A660",
"c.	c #776237",
"d.	c #2B221E",
"e.	c #212635",
"f.	c #30364A",
"g.	c #32384C",
"h.	c #31374B",
"i.	c #31364B",
"j.	c #30334A",
"k.	c #292F49",
"l.	c #303547",
"m.	c #6D5F4A",
"n.	c #957D4D",
"o.	c #9E844F",
"p.	c #8C7547",
"q.	c #524427",
"r.	c #614C3F",
"s.	c #291F1A",
"t.	c #0E141C",
"u.	c #171E2A",
"v.	c #181F2B",
"w.	c #171F2B",
"x.	c #191E2B",
"y.	c #1A1E2B",
"z.	c #181D2A",
"A.	c #2B242D",
"B.	c #4A3333",
"C.	c #573E39",
"D.	c #5A463F",
"E.	c #5F4C41",
"F.	c #5D4B3F",
"G.	c #483C35",
"H.	c #2A2626",
"I.	c #121012",
"J.	c #0B1119",
"K.	c #141C27",
"L.	c #131C26",
"M.	c #191A26",
"N.	c #1E1726",
"O.	c #171124",
"P.	c #462F2E",
"Q.	c #805743",
"R.	c #9B6E54",
"S.	c #A37C60",
"T.	c #A68065",
"U.	c #9C7860",
"V.	c #6C5247",
"W.	c #191023",
"X.	c #00000C",
"Y.	c #47362C",
"Z.	c #4A392F",
"`.	c #2D2523",
" +	c #161922",
".+	c #181A26",
"++	c #1A1B28",
"@+	c #1E1927",
"#+	c #231627",
"$+	c #190C25",
"%+	c #523633",
"&+	c #95664C",
"*+	c #B48161",
"=+	c #BE906F",
"-+	c #C39775",
";+	c #B98F6F",
">+	c #81624F",
",+	c #2F2025",
"'+	c #392B25",
")+	c #594539",
"!+	c #735A4A",
"~+	c #755C4C",
"{+	c #6C5446",
"]+	c #4E3C32",
"^+	c #1A1517",
"/+	c #1A1220",
"(+	c #211627",
"_+	c #221727",
":+	c #241527",
"<+	c #190D25",
"[+	c #C29574",
"}+	c #B68C6D",
"|+	c #7D5F4A",
"1+	c #3A2B24",
"2+	c #574437",
"3+	c #17100E",
"4+	c #0E0714",
"5+	c #1A0F1F",
"6+	c #201325",
"7+	c #221427",
"8+	c #211427",
"9+	c #0E0624",
"0+	c #4F3331",
"a+	c #94654C",
"b+	c #B48261",
"c+	c #B1896A",
"d+	c #937157",
"e+	c #604837",
"f+	c #392B22",
"g+	c #554135",
"h+	c #221310",
"i+	c #180709",
"j+	c #1F0D16",
"k+	c #281524",
"l+	c #2B1728",
"m+	c #2D1928",
"n+	c #2F1C29",
"o+	c #5C3D36",
"p+	c #97674D",
"q+	c #B28060",
"r+	c #B68A6A",
"s+	c #967359",
"t+	c #554131",
"u+	c #2A1E17",
"v+	c #3E2F26",
"w+	c #6A5344",
"x+	c #6E5647",
"y+	c #584438",
"z+	c #492F29",
"A+	c #43191B",
"B+	c #42151A",
"C+	c #43181E",
"D+	c #461D26",
"E+	c #481F28",
"F+	c #512A2C",
"G+	c #6E473A",
"H+	c #8B5E48",
"I+	c #A37053",
"J+	c #A37355",
"K+	c #8D6950",
"L+	c #735945",
"M+	c #5B4639",
"N+	c #5A4639",
"O+	c #604B3E",
"P+	c #5E483B",
"Q+	c #3F2922",
"R+	c #57332B",
"S+	c #70453A",
"T+	c #73473C",
"U+	c #71443A",
"V+	c #6E3F36",
"W+	c #663430",
"X+	c #673631",
"Y+	c #8E5D46",
"Z+	c #A97455",
"`+	c #AD7757",
" @	c #98694C",
".@	c #684834",
"+@	c #5B4436",
"@@	c #6C5445",
"#@	c #765C4D",
"$@	c #574337",
"%@	c #462D27",
"&@	c #542E29",
"*@	c #845D4A",
"=@	c #A47A60",
"-@	c #A87D63",
";@	c #A4775D",
">@	c #9B6950",
",@	c #83513F",
"'@	c #6E3C34",
")@	c #915F48",
"!@	c #AE7857",
"~@	c #A47052",
"{@	c #916347",
"]@	c #734F3A",
"^@	c #574134",
"/@	c #6A5244",
"(@	c #6B5445",
"_@	c #3D2E25",
":@	c #340E13",
"<@	c #623530",
"[@	c #9B7059",
"}@	c #BD9171",
"|@	c #C19574",
"1@	c #BB8D6D",
"2@	c #B07C5D",
"3@	c #99654B",
"4@	c #814F3E",
"5@	c #8E5B45",
"6@	c #A16E52",
"7@	c #AD7A5B",
"8@	c #B37F5F",
"9@	c #AF7D5D",
"0@	c #865F46",
"a@	c #402D22",
"b@	c #745A4B",
"c@	c #3C2D25",
"d@	c #633630",
"e@	c #9B7159",
"f@	c #BE9271",
"g@	c #C29674",
"h@	c #BC8E6D",
"i@	c #B17E5E",
"j@	c #A87354",
"k@	c #9E6A4F",
"l@	c #895743",
"m@	c #875946",
"n@	c #AB7E61",
"o@	c #BD8F6E",
"p@	c #BA8C6C",
"q@	c #8F6B52",
"r@	c #413024",
"s@	c #5E493C",
"t@	c #775D4E",
"u@	c #685143",
"v@	c #47372D",
"w@	c #372A23",
"x@	c #46362E",
"y@	c #675143",
"z@	c #633530",
"A@	c #BD906F",
"B@	c #B68666",
"C@	c #B58362",
"D@	c #B07F5F",
"E@	c #8B5C48",
"F@	c #794D40",
"G@	c #AA8064",
"H@	c #C29675",
"I@	c #BE9372",
"J@	c #927057",
"K@	c #433226",
"L@	c #2A2120",
"M@	c #303449",
"N@	c #464860",
"O@	c #584B4F",
"P@	c #BF9372",
"Q@	c #BE9170",
"R@	c #BF9170",
"S@	c #B98C6C",
"T@	c #916651",
"U@	c #7A4E41",
"V@	c #A97E63",
"W@	c #C19473",
"X@	c #916F55",
"Y@	c #372D2E",
"Z@	c #4A516E",
"`@	c #5F678B",
" #	c #4A4D65",
".#	c #4A3B38",
"+#	c #6B5446",
"@#	c #9C715A",
"##	c #BE9272",
"$#	c #C09473",
"%#	c #BB9070",
"&#	c #936954",
"*#	c #784B3E",
"=#	c #A3745A",
"-#	c #B98968",
";#	c #B58666",
">#	c #8A654C",
",#	c #3C2C22",
"'#	c #5B483F",
")#	c #555062",
"!#	c #545A7A",
"~#	c #515878",
"{#	c #505169",
"]#	c #57494B",
"^#	c #675042",
"/#	c #350F13",
"(#	c #62342F",
"_#	c #956B55",
":#	c #B68B6C",
"<#	c #BB8F70",
"[#	c #76463A",
"}#	c #9B684E",
"|#	c #B07A5A",
"1#	c #AC7858",
"2#	c #895E45",
"3#	c #513729",
"4#	c #6D5547",
"5#	c #513F37",
"6#	c #36384A",
"7#	c #5B6286",
"8#	c #60688D",
"9#	c #3D3D51",
"0#	c #503E33",
"a#	c #381416",
"b#	c #5C2E2B",
"c#	c #704B3D",
"d#	c #896851",
"e#	c #AE8668",
"f#	c #926953",
"g#	c #734237",
"h#	c #AD7656",
"i#	c #AC7555",
"j#	c #9F6C4F",
"k#	c #895E44",
"l#	c #6A4B39",
"m#	c #372A21",
"n#	c #292B3B",
"o#	c #5D6489",
"p#	c #636B92",
"q#	c #363B52",
"r#	c #4B3A2F",
"s#	c #3A1818",
"t#	c #582828",
"u#	c #431A1C",
"v#	c #513B2C",
"w#	c #9D775B",
"x#	c #BC9070",
"y#	c #9D735B",
"z#	c #875A48",
"A#	c #A27155",
"B#	c #B17D5D",
"C#	c #B07D5D",
"D#	c #A97657",
"E#	c #97674B",
"F#	c #654430",
"G#	c #392A21",
"H#	c #5C473A",
"I#	c #2F231C",
"J#	c #060000",
"K#	c #2C2D3E",
"L#	c #5E6589",
"M#	c #636B91",
"N#	c #373C52",
"O#	c #4C3A30",
"P#	c #572727",
"Q#	c #3D1318",
"R#	c #452E21",
"S#	c #93694E",
"T#	c #B78665",
"U#	c #B5896B",
"V#	c #AF8366",
"W#	c #B6896A",
"X#	c #BC8D6C",
"Y#	c #B98B6B",
"Z#	c #9C7357",
"`#	c #694834",
" $	c #3A2418",
".$	c #1C130D",
"+$	c #382B22",
"@$	c #392B23",
"#$	c #281D16",
"$$	c #221300",
"%$	c #363341",
"&$	c #606689",
"*$	c #4C1F21",
"=$	c #4C2B22",
"-$	c #7D533C",
";$	c #986C50",
">$	c #A27B5E",
",$	c #B1886A",
"'$	c #36281D",
")$	c #000000",
"!$	c #150E09",
"~$	c #160E0A",
"{$	c #1C130E",
"]$	c #231913",
"^$	c #391818",
"/$	c #5A2929",
"($	c #5D2A2A",
"_$	c #572927",
":$	c #523025",
"<$	c #503627",
"[$	c #5A4231",
"}$	c #8D6C53",
"|$	c #B88D6E",
"1$	c #C19573",
"2$	c #37291E",
"3$	c #060304",
"4$	c #271C15",
"5$	c #281C16",
"6$	c #221812",
"7$	c #19110D",
"8$	c #0B0403",
"9$	c #391717",
"0$	c #622D2D",
"a$	c #491E20",
"b$	c #360F14",
"c$	c #3A1617",
"d$	c #6A4B3B",
"e$	c #957258",
"f$	c #B2896A",
"g$	c #C39675",
"h$	c #947258",
"i$	c #38291E",
"j$	c #000001",
"k$	c #211711",
"l$	c #221712",
"m$	c #362820",
"n$	c #49382D",
"o$	c #3A2C23",
"p$	c #612D2D",
"q$	c #5F2C2C",
"r$	c #5B292A",
"s$	c #5B2A29",
"t$	c #4E2824",
"u$	c #543D2F",
"v$	c #947157",
"w$	c #B88E6E",
"x$	c #8E6D54",
"y$	c #150E0A",
"z$	c #201711",
"A$	c #48382D",
"B$	c #654F42",
"C$	c #524138",
"D$	c #612C2C",
"E$	c #602C2C",
"F$	c #461A1D",
"G$	c #24140F",
"H$	c #644C3A",
"I$	c #86664F",
"J$	c #886950",
"K$	c #896950",
"L$	c #86674F",
"M$	c #674E3B",
"N$	c #2B1F17",
"O$	c #44342A",
"P$	c #584538",
"Q$	c #56443C",
"R$	c #4E2222",
"S$	c #2E1312",
"T$	c #2D1A14",
"U$	c #37221A",
"V$	c #38221B",
"W$	c #342119",
"X$	c #2D1F16",
"Y$	c #271D14",
"Z$	c #614B3E",
"`$	c #362C2D",
" %	c #3B2D24",
".%	c #5B2929",
"+%	c #592929",
"@%	c #502323",
"#%	c #4B1F20",
"$%	c #4A1D1F",
"%%	c #4B1D1F",
"&%	c #3C1418",
"*%	c #120302",
"=%	c #403128",
"-%	c #6F5648",
";%	c #4F3D32",
">%	c #442A24",
",%	c #522726",
"'%	c #5E2B2B",
")%	c #4D2725",
"!%	c #422E26",
"~%	c #594338",
"{%	c #3D231F",
"]%	c #4C2121",
"^%	c #421C1C",
"/%	c #463028",
"(%	c #634D3F",
"_%	c #624D3F",
":%	c #2F211A",
"<%	c #441D1D",
"[%	c #5B2A2C",
"}%	c #4D2326",
"|%	c #2B1113",
"1%	c #43332A",
"2%	c #5C2A2B",
"3%	c #4E252A",
"4%	c #381C24",
"5%	c #1D0C12",
"6%	c #423329",
"7%	c #482021",
"8%	c #3C1D24",
"9%	c #2F1923",
"0%	c #180B12",
"a%	c #4C2221",
"b%	c #270F10",
"c%	c #26131C",
"d%	c #2C1822",
"e%	c #190B12",
"f%	c #4A2020",
"g%	c #1A090B",
"h%	c #130E17",
"i%	c #1F141E",
"j%	c #100910",
"k%	c #4B2121",
"l%	c #1C0A0B",
"m%	c #030C15",
"n%	c #0F111B",
"o%	c #06070E",
"p%	c #423229",
"q%	c #010B15",
"r%	c #0D111B",
"s%	c #05070D",
"t%	c #2D1F19",
"u%	c #3B191C",
"v%	c #52262A",
"w%	c #55272B",
"x%	c #54272B",
"y%	c #53262A",
"z%	c #411D20",
"A%	c #17080A",
"B%	c #010810",
"C%	c #19161A",
"D%	c #372A24",
"E%	c #2F221C",
"F%	c #24101A",
"G%	c #341A27",
"H%	c #361B28",
"I%	c #351B28",
"J%	c #351A28",
"K%	c #28131E",
"L%	c #0B0407",
"M%	c #000203",
"N%	c #30251F",
"O%	c #5D483C",
"P%	c #715849",
"Q%	c #362926",
"R%	c #190F1D",
"S%	c #1F1224",
"T%	c #221528",
"U%	c #190E1D",
"V%	c #0C060A",
"W%	c #291D1C",
"X%	c #1F1220",
"Y%	c #231426",
"Z%	c #221425",
"`%	c #1C111D",
" &	c #2B201B",
".&	c #342725",
"+&	c #160B18",
"@&	c #392B27",
"#&	c #2D211B",
"$&	c #6B5345",
"                                                                                                                                ",
"                                                                                                                                ",
"                                                                                                                                ",
"                                                                                                                                ",
"                                                                                                                                ",
"                                                                                                                                ",
"                                                                                                                                ",
"                                                                                                                                ",
"                                                                                                                                ",
"                                                                                                                                ",
"                                                                                                                                ",
"                                                  . + @ @ @ @ @ @ @ #                                                           ",
"                                                  $ % & * * * * = - ; .                                                         ",
"                                              . > , ' ) ! ~ { { ] ^ / ( #                                                       ",
"                                              @ % _ : < [ } | | | | 1 2 3                                                       ",
"                                            4 5 _ 6 7 8 9 0 a b b c d e = 3 f g h                                               ",
"                                          # i j k l m 8 n o b p q b r s t u v w 4                                               ",
"                                        4 x y z A B C D E F a G H I J K L M N O P                                               ",
"                                        Q R S T U V W X Y Z `  ...+.@.#.$.%.&.*.P                                               ",
"                                        =.-.;.>.,.'.'.).!.~.{.{.].^./.(._.:.<.*.P                                               ",
"                                        [.}.|.1.2.3.4.2.2.5.6.6.7.8.9.0.a.b.c.*.P                                               ",
"                                        [.d.e.f.g.h.h.h.h.h.i.j.k.l.m.n.o.p.q.*.P                                               ",
"                                        r.s.t.u.v.w.w.x.y.z.A.B.C.D.E.F.G.H.I.*.P                                               ",
"                                        r.s.J.B K.L.C M.N.O.P.Q.R.S.T.U.V.W.X.Y.P                                               ",
"                                        3 Z.`. +.+++++@+#+$+%+&+*+=+-+;+>+,+'+)+!+                                              ",
"                                        ~+{+]+^+/+(+_+#+:+<+%+&+*+=+[+}+|+1+i 4 .                                               ",
"                                          . 2+3+4+5+6+7+8+9+0+a+b+=+c+d+e+f+3                                                   ",
"                                          4 g+h+i+j+k+l+m+n+o+p+q+r+s+t+u+v+w+                                                  ",
"                                        x+y+z+A+B+C+D+E+F+G+H+I+J+K+L+M+N+O+$                                                   ",
"                                    . 4 P+Q+R+S+T+U+V+W+X+Y+Z+`+ @.@+@@@> #@                                                    ",
"                                    P $@%@&@*@=@-@;@>@,@'@)@`+!@~@{@]@^@/@                                                      ",
"                                    (@_@:@<@[@}@|@1@2@3@4@5@6@7@8@9@0@a@i .   b@{+3 {+b@                                        ",
"                                    (@c@:@d@e@f@g@h@i@j@k@l@m@n@o@p@q@r@s@t@  u@v@w@x@y@                                        ",
"                                    (@v :@z@[@}@|@A@B@C@D@E@F@G@H@I@J@K@s@    [.L@M@N@O@u@+                                     ",
"                                    (@v :@z@[@}@|@P@Q@R@S@T@U@V@W@}@X@K@s@t@  5 Y@Z@`@ #.#+#t@                                  ",
"                                    (@v :@d@@###[+$#$#g@%#&#*#=#-#;#>#,#i     x+'#)#!#~#{#]#^#~+                                ",
"                                    (@v /#(#_#:#I@$#$#|@<#&#[#}#|#1#2#3#P+!+. # 4#5#6#7#8#9#0#4                                 ",
"                                    (@v a#b#c#d#e#$#$#|@<#f#g#3@h#i#j#k#l#N+P x+- m#n#o#p#q#r#4                                 ",
"                                    (@v s#t#u#v#w#Q@$#|@x#y#z#A#B#C#D#E#F#G#i H#I#J#K#L#M#N#O#4                                 ",
"                                    (@v s#P#Q#R#S#T#Q@|@P@U#V#W#X#Y#Z#`# $.$+$@$#$$$%$&$M#N#O#4                                 ",
"                                    (@v s#t#*$=$-$;$>$,$P@|@$#$#|@##d+'$)$!$~${$]$$$%$&$M#N#O#4                                 ",
"                                    (@v ^$/$($_$:$<$[$}$|$1$$#$#|@##d+2$3$4$5$6$7$8$K#L#M#N#O#4                                 ",
"                                    (@v 9$/$0$($a$b$c$d$e$f$W@g@g$P@h$i$j$k$l$m$n$o$n#o#p#q#r#4                                 ",
"                                    (@v 9$/$p$q$($r$s$t$u$v$w$%#%#|$x$'$y$z$6$A$B$C$6#7#8#9#0#4                                 ",
"                                    (@v 9$/$D$E$D$p$E$F$G$H$I$J$K$L$M$N$O$y+)+P$Q$)#!#~#{#]#^#~+                                ",
"                                    (@v 9$/$p$E$E$E$q$R$S$T$U$V$W$X$Y$f+Z$~+#@[.`$Z@`@ #.#+#t@                                  ",
"                                    (@ %9$.%p$E$E$E$E$+%@%#%$%%%&%*%=%=.$     x L@M@N@O@u@+                                     ",
"                                    -%;%>%,%.%E$E$E$E$E$E$E$'%t#)%!%% +       u@v@w@x@y@                                        ",
"                                    # 4#~%{%]%'%D$E$E$E$E$p$/$^%/%(%4         b@{+3 {+b@                                        ",
"                                        _%:%<%'%D$E$E$D$E$[%}%|%1%g                                                             ",
"                                        [.:%<%'%D$E$E$E$2%3%4%5%6%x+                                                            ",
"                                        [.:%<%'%D$E$E$P#7%8%9%0%6%x+                                                            ",
"                                        [.:%<%'%D$E$q$a%b%c%d%e%6%x+                                                            ",
"                                        [.:%<%'%D$E$q$f%g%h%i%j%6%x+                                                            ",
"                                        [.:%<%'%D$D$q$k%l%m%n%o%p%x+                                                            ",
"                                        [.:%<%'%D$D$q$k%l%q%r%s%p%x+                                                            ",
"                                        r.t%u%v%w%x%y%z%A%B%C%D%$@$                                                             ",
"                                        _%E%F%G%H%I%J%K%L%M%N%O%P%h                                                             ",
"                                        {+= Q%R%S%T%7+U%V%m#w g                                                                 ",
"                                        . P%- W%X%Y%Z%`% &)+4 .                                                                 ",
"                                            (@- .&+&+&@&y+4#                                                                    ",
"                                              g ;%#&I#= $                                                                       ",
"                                              h $&[.(%{+.                                                                       ",
"                                                                                                                                "};
