/* XPM */
static char * mining_up1_xpm[] = {
"64 64 599 2",
"  	c #785E4E",
". 	c #775D4D",
"+ 	c #755C4C",
"@ 	c #745B4B",
"# 	c #775D4E",
"$ 	c #735A4A",
"% 	c #634D3F",
"& 	c #574437",
"* 	c #574337",
"= 	c #584438",
"- 	c #644E40",
"; 	c #745A4B",
"> 	c #685244",
", 	c #473930",
"' 	c #26211E",
") 	c #231F1D",
"! 	c #25201E",
"~ 	c #27221F",
"{ 	c #4A3A32",
"] 	c #6A5345",
"^ 	c #765C4C",
"/ 	c #4D3E35",
"( 	c #353736",
"_ 	c #273438",
": 	c #273538",
"< 	c #273539",
"[ 	c #383736",
"} 	c #4E3F35",
"| 	c #755B4C",
"1 	c #695245",
"2 	c #493A34",
"3 	c #2C2E33",
"4 	c #323E47",
"5 	c #394850",
"6 	c #394851",
"7 	c #384850",
"8 	c #313D45",
"9 	c #2D2D32",
"0 	c #4B3B35",
"a 	c #624D3F",
"b 	c #4E3F3A",
"c 	c #3D3A46",
"d 	c #383E52",
"e 	c #3F485B",
"f 	c #424D60",
"g 	c #424D5F",
"h 	c #3E475B",
"i 	c #373D52",
"j 	c #3E3945",
"k 	c #4F3F3A",
"l 	c #745B4C",
"m 	c #695243",
"n 	c #48372D",
"o 	c #29262F",
"p 	c #353B50",
"q 	c #414760",
"r 	c #434962",
"s 	c #434A62",
"t 	c #34394E",
"u 	c #29252D",
"v 	c #4A392F",
"w 	c #6A5344",
"x 	c #735A4B",
"y 	c #624C3F",
"z 	c #4A3930",
"A 	c #2D2523",
"B 	c #181E2A",
"C 	c #292F41",
"D 	c #32394D",
"E 	c #343C50",
"F 	c #353D50",
"G 	c #353D51",
"H 	c #343C4F",
"I 	c #32384C",
"J 	c #282E3F",
"K 	c #171D29",
"L 	c #2F2623",
"M 	c #4B3B31",
"N 	c #634D40",
"O 	c #705849",
"P 	c #4E3C31",
"Q 	c #1E1816",
"R 	c #0F151E",
"S 	c #151D28",
"T 	c #19212D",
"U 	c #1C2631",
"V 	c #1F2B36",
"W 	c #212E38",
"X 	c #1F2B35",
"Y 	c #1C2531",
"Z 	c #19212C",
"` 	c #0E141D",
" .	c #201916",
"..	c #513F33",
"+.	c #715949",
"@.	c #705748",
"#.	c #4B3A2F",
"$.	c #0D0C0F",
"%.	c #0F151F",
"&.	c #161F29",
"*.	c #19242E",
"=.	c #1A262F",
"-.	c #19252E",
";.	c #18232C",
">.	c #161E29",
",.	c #0E141E",
"'.	c #110E0F",
").	c #715849",
"!.	c #4C3A30",
"~.	c #131112",
"{.	c #111821",
"].	c #19232D",
"^.	c #1D2A34",
"/.	c #1E2B34",
"(.	c #1A252F",
"_.	c #18212B",
":.	c #17212B",
"<.	c #18212C",
"[.	c #1B2630",
"}.	c #1D2A33",
"|.	c #101720",
"1.	c #171313",
"2.	c #4F3D32",
"3.	c #141315",
"4.	c #152027",
"5.	c #1F2D36",
"6.	c #1E2A34",
"7.	c #1C2932",
"8.	c #1C2832",
"9.	c #1D2933",
"0.	c #141F26",
"a.	c #181515",
"b.	c #151416",
"c.	c #192029",
"d.	c #202A34",
"e.	c #202D37",
"f.	c #202E37",
"g.	c #212D36",
"h.	c #181F28",
"i.	c #181516",
"j.	c #161113",
"k.	c #1B1723",
"l.	c #22222F",
"m.	c #212A34",
"n.	c #202F37",
"o.	c #22222E",
"p.	c #1A1722",
"q.	c #191314",
"r.	c #4C3B30",
"s.	c #170F11",
"t.	c #1C0F1E",
"u.	c #231A2A",
"v.	c #222531",
"w.	c #232430",
"x.	c #231A29",
"y.	c #180C1C",
"z.	c #150E10",
"A.	c #1C0E1E",
"B.	c #241728",
"C.	c #241C2B",
"D.	c #231E2C",
"E.	c #231F2C",
"F.	c #231627",
"G.	c #423229",
"H.	c #0E0909",
"I.	c #0C0316",
"J.	c #190B20",
"K.	c #1D1024",
"L.	c #1F1226",
"M.	c #201226",
"N.	c #1C0F24",
"O.	c #221523",
"P.	c #44322C",
"Q.	c #5D4737",
"R.	c #664E3D",
"S.	c #685143",
"T.	c #5D483B",
"U.	c #3E2F26",
"V.	c #231A14",
"W.	c #050304",
"X.	c #07030A",
"Y.	c #130816",
"Z.	c #1E1021",
"`.	c #231426",
" +	c #241427",
".+	c #231427",
"++	c #13061E",
"@+	c #24181C",
"#+	c #6E5441",
"$+	c #99755B",
"%+	c #896952",
"&+	c #584435",
"*+	c #5E493C",
"=+	c #765D4D",
"-+	c #695143",
";+	c #68503F",
">+	c #684F3D",
",+	c #69503D",
"'+	c #69503C",
")+	c #684D3C",
"!+	c #654639",
"~+	c #634238",
"{+	c #624138",
"]+	c #634239",
"^+	c #624137",
"/+	c #51322C",
"(+	c #462A23",
"_+	c #83624C",
":+	c #B1886A",
"<+	c #A57E62",
"[+	c #785C46",
"}+	c #654E3D",
"|+	c #5D483C",
"1+	c #574334",
"2+	c #896951",
"3+	c #A78063",
"4+	c #AA8366",
"5+	c #AA8365",
"6+	c #A77E61",
"7+	c #9F7257",
"8+	c #9A6A4F",
"9+	c #9A694E",
"0+	c #9A694F",
"a+	c #9B6A4F",
"b+	c #99694E",
"c+	c #845742",
"d+	c #693E33",
"e+	c #8B634F",
"f+	c #B58A6C",
"g+	c #BA8F6F",
"h+	c #A98265",
"i+	c #85664F",
"j+	c #554133",
"k+	c #5F4A3D",
"l+	c #72594A",
"m+	c #513F34",
"n+	c #4D3A2C",
"o+	c #967359",
"p+	c #BD9271",
"q+	c #C29674",
"r+	c #C19573",
"s+	c #C19574",
"t+	c #BE9170",
"u+	c #B88867",
"v+	c #B48161",
"w+	c #B38160",
"x+	c #B27F5E",
"y+	c #AF7A5A",
"z+	c #AD7757",
"A+	c #B27F5F",
"B+	c #B58261",
"C+	c #B38060",
"D+	c #9C6B52",
"E+	c #78493C",
"F+	c #8E6350",
"G+	c #B68B6C",
"H+	c #C39775",
"I+	c #BC9171",
"J+	c #927056",
"K+	c #49372A",
"L+	c #544135",
"M+	c #C19473",
"N+	c #C09372",
"O+	c #BD8F6E",
"P+	c #B98A69",
"Q+	c #B27E5E",
"R+	c #BA8A6A",
"S+	c #BD906F",
"T+	c #BB8D6D",
"U+	c #A2755C",
"V+	c #7A4D40",
"W+	c #8D6350",
"X+	c #523F34",
"Y+	c #967358",
"Z+	c #BD9171",
"`+	c #C29574",
" @	c #C09473",
".@	c #BC8E6D",
"+@	c #B28060",
"@@	c #B38161",
"#@	c #BC8E6E",
"$@	c #AD8266",
"%@	c #926853",
"&@	c #74473C",
"*@	c #C39675",
"=@	c #BC9170",
"-@	c #4A372A",
";@	c #554136",
">@	c #AE8367",
",@	c #8B604E",
"'@	c #6E4038",
")@	c #693933",
"!@	c #8F6450",
"~@	c #513E33",
"{@	c #4C392B",
"]@	c #BE9272",
"^@	c #BF9272",
"/@	c #BB8D6C",
"(@	c #B2805F",
"_@	c #BB8E6D",
":@	c #A87E63",
"<@	c #794D40",
"[@	c #592026",
"}@	c #64322F",
"|@	c #8F6551",
"1@	c #493629",
"2@	c #534035",
"3@	c #4F3B2D",
"4@	c #947258",
"5@	c #BB9070",
"6@	c #BD9070",
"7@	c #B68565",
"8@	c #B48262",
"9@	c #A97E63",
"0@	c #7A4E41",
"a@	c #5A2227",
"b@	c #916F55",
"c@	c #4B382B",
"d@	c #564337",
"e@	c #5D4739",
"f@	c #7F614B",
"g@	c #9E795E",
"h@	c #B48B6C",
"i@	c #B58362",
"j@	c #BA8B6B",
"k@	c #B48261",
"l@	c #BC8F6E",
"m@	c #AA7F64",
"n@	c #7B4F42",
"o@	c #5B2327",
"p@	c #643230",
"q@	c #916652",
"r@	c #9D785D",
"s@	c #7C604A",
"t@	c #5B4638",
"u@	c #654E41",
"v@	c #6D5546",
"w@	c #5C4738",
"x@	c #6B523E",
"y@	c #9E7A5E",
"z@	c #B88B6B",
"A@	c #B28161",
"B@	c #AF7C5C",
"C@	c #BF9372",
"D@	c #C09373",
"E@	c #B98C6C",
"F@	c #A77C62",
"G@	c #794D41",
"H@	c #5B2428",
"I@	c #8F6550",
"J@	c #B08668",
"K@	c #9D795D",
"L@	c #5D4839",
"M@	c #5C4739",
"N@	c #80624C",
"O@	c #957056",
"P@	c #95684F",
"Q@	c #9C6A50",
"R@	c #AE7E60",
"S@	c #B98969",
"T@	c #BA8A69",
"U@	c #B78665",
"V@	c #B17D5D",
"W@	c #AE7857",
"X@	c #AB785A",
"Y@	c #A3765C",
"Z@	c #906651",
"`@	c #704239",
" #	c #5D272A",
".#	c #622F2E",
"+#	c #7A5243",
"@#	c #8F6B53",
"##	c #654F41",
"$#	c #6C5446",
"%#	c #5A4537",
"&#	c #50382B",
"*#	c #60382F",
"=#	c #7C4C3D",
"-#	c #AC7859",
";#	c #AD795A",
">#	c #AB7657",
",#	c #AB7556",
"'#	c #AA7455",
")#	c #9C694F",
"!#	c #805241",
"~#	c #6C3D36",
"{#	c #63312F",
"]#	c #602B2C",
"^#	c #5F2C2C",
"/#	c #58302A",
"(#	c #4E362A",
"_#	c #4D3C31",
":#	c #210C0C",
"<#	c #481A1E",
"[#	c #693731",
"}#	c #83513F",
"|#	c #905D46",
"1#	c #915E47",
"2#	c #925F48",
"3#	c #845340",
"4#	c #6B3831",
"5#	c #5F2B2B",
"6#	c #612D2C",
"7#	c #491E1F",
"8#	c #220F0D",
"9#	c #503E33",
"0#	c #6C5546",
"a#	c #49382E",
"b#	c #2B1413",
"c#	c #4D2222",
"d#	c #612E2D",
"e#	c #693631",
"f#	c #6B3932",
"g#	c #6C3A33",
"h#	c #6B3A32",
"i#	c #683631",
"j#	c #632F2D",
"k#	c #602C2C",
"l#	c #612C2C",
"m#	c #4B2121",
"n#	c #2B1613",
"o#	c #6E5647",
"p#	c #675143",
"q#	c #352820",
"r#	c #291110",
"s#	c #4E2222",
"t#	c #5F2A2B",
"u#	c #5E292B",
"v#	c #5D292B",
"w#	c #5E2A2B",
"x#	c #5F2B2C",
"y#	c #4C2121",
"z#	c #27110F",
"A#	c #382A22",
"B#	c #554236",
"C#	c #281D17",
"D#	c #0A0706",
"E#	c #281012",
"F#	c #4C2223",
"G#	c #5D2B2B",
"H#	c #5D2A2B",
"I#	c #4A2122",
"J#	c #260F10",
"K#	c #0C0707",
"L#	c #2B1F19",
"M#	c #140C0B",
"N#	c #190B12",
"O#	c #2D151D",
"P#	c #421F25",
"Q#	c #51262A",
"R#	c #5B2A2B",
"S#	c #612D2D",
"T#	c #50262A",
"U#	c #411F25",
"V#	c #2C151C",
"W#	c #180A11",
"X#	c #170E0D",
"Y#	c #1D1211",
"Z#	c #26131C",
"`#	c #321B25",
" $	c #361D27",
".$	c #412028",
"+$	c #53272A",
"@$	c #5D2B2C",
"#$	c #5C2A2A",
"$$	c #5B2A2A",
"%$	c #5C2B2B",
"&$	c #52272A",
"*$	c #402028",
"=$	c #361C27",
"-$	c #321A25",
";$	c #25121B",
">$	c #1F1412",
",$	c #1D1212",
"'$	c #28141D",
")$	c #331C27",
"!$	c #381D27",
"~$	c #452229",
"{$	c #4C242A",
"]$	c #4D252A",
"^$	c #4A2327",
"/$	c #441E20",
"($	c #411C1C",
"_$	c #451F21",
":$	c #4C2429",
"<$	c #442129",
"[$	c #331C26",
"}$	c #27141C",
"|$	c #1F1413",
"1$	c #331B26",
"2$	c #341C27",
"3$	c #351C27",
"4$	c #371D27",
"5$	c #361C26",
"6$	c #341D22",
"7$	c #311E1D",
"8$	c #291A15",
"9$	c #1D0E0C",
"0$	c #210E13",
"a$	c #301820",
"b$	c #2F1924",
"c$	c #25131D",
"d$	c #352623",
"e$	c #503E34",
"f$	c #2A1F19",
"g$	c #060307",
"h$	c #190C14",
"i$	c #26141D",
"j$	c #301A24",
"k$	c #2E1822",
"l$	c #1B0C13",
"m$	c #3C2E25",
"n$	c #664F41",
"o$	c #47372C",
"p$	c #120B09",
"q$	c #1D0D14",
"r$	c #2F1923",
"s$	c #190B11",
"t$	c #3D2E25",
"u$	c #664F42",
"v$	c #1B0C12",
"w$	c #27131C",
"x$	c #26131D",
"y$	c #311B26",
"z$	c #321B27",
"A$	c #2C1722",
"B$	c #180B12",
"C$	c #3C2D25",
"D$	c #372A22",
"E$	c #1A0C13",
"F$	c #2C1823",
"G$	c #311A26",
"H$	c #25131C",
"I$	c #1B1112",
"J$	c #20111D",
"K$	c #2A1726",
"L$	c #2B1827",
"M$	c #251422",
"N$	c #140912",
"O$	c #3A2C24",
"P$	c #665042",
"Q$	c #150A13",
"R$	c #261523",
"S$	c #2B1828",
"T$	c #1F101C",
"U$	c #1D1413",
"V$	c #181011",
"W$	c #1B0F1D",
"X$	c #241526",
"Y$	c #251628",
"Z$	c #221324",
"`$	c #231621",
" %	c #2D211F",
".%	c #6B5345",
"+%	c #6A5244",
"@%	c #2C201F",
"#%	c #221425",
"$%	c #1A0E1C",
"%%	c #1B1212",
"&%	c #170F10",
"*%	c #1A0E1D",
"=%	c #231527",
"-%	c #251528",
";%	c #211324",
">%	c #190D1B",
",%	c #2F2321",
"'%	c #544036",
")%	c #675043",
"!%	c #523F35",
"~%	c #2D2120",
"{%	c #190E1C",
"]%	c #211325",
"^%	c #1A1112",
"/%	c #594539",
"(%	c #392B24",
"_%	c #261A20",
":%	c #1F1222",
"<%	c #201223",
"[%	c #2F2221",
"}%	c #695244",
"|%	c #48372E",
"1%	c #2E2120",
"2%	c #231521",
"3%	c #1F1122",
"4%	c #3A2C25",
"5%	c #5B473A",
"6%	c #40302A",
"7%	c #130B13",
"8%	c #110813",
"9%	c #2B1F1E",
"0%	c #160C14",
"a%	c #42322C",
"b%	c #604B3E",
"c%	c #6F5748",
"d%	c #3D2E26",
"e%	c #675042",
"f%	c #372921",
"g%	c #5A463A",
"h%	c #6F5648",
"                                                                                                                                ",
"                                                                                                                                ",
"                                                                                                                                ",
"                                                                                                                                ",
"                                                                                                                                ",
"                                                                                                                                ",
"                                                                                                                                ",
"                                                                                                                                ",
"                                                                                                                                ",
"                                                                                                                                ",
"                                                                                                                                ",
"                                                                                                                                ",
"                                                                                                                                ",
"                                                                                                                                ",
"                                                        . + @ @ @ @ @ @ + #                                                     ",
"                                                        $ % & * * * * = - ;                                                     ",
"                                                    # + > , ' ) ! ! ) ~ { ] ^ #                                                 ",
"                                                    ; % / ( _ : : : < _ [ } - @                                                 ",
"                                                . | 1 2 3 4 5 6 5 5 6 7 8 9 0 ] + #                                             ",
"                                                @ a b c d e f f f f f g h i j k - l                                             ",
"                                            . l m n o p q r s s s s s s r q t u v w | .                                         ",
"                                            x y z A B C D E F G F F G F H I J K L M N @                                         ",
"                                            O P Q R S T U V W W W W W W X Y Z S `  ...+.                                        ",
"                                            @.#.$.%.&.*.=.-.;.;.;.;.;.;.-.=.*.>.,.'.P ).                                        ",
"                                            @.!.~.{.].^./.(._.:._._.:.<.[./.}.;.|.1.2.).                                        ",
"                                            @.!.3.4.}.5.5.6.7.8.7.7.8.7./.5.5.9.0.a.2.).                                        ",
"                                            @.!.b.c.d.e.f.f.f.f.f.f.f.f.f.f.g.d.h.i.2.).                                        ",
"                                            @.!.j.k.l.m.f.f.f.f.f.f.f.f.n.f.m.o.p.q.2.).                                        ",
"                                            O r.s.t.u.v.m.m.m.m.m.m.m.m.m.m.w.x.y.z.2.+.                                        ",
"                                            O r.s.A.B.C.D.E.E.E.E.E.E.E.E.D.C.F.y.z.2.+.                                        ",
"                                        . ).% G.H.I.J.K.L.M.L.L.L.L.L.L.L.L.N.O.P.Q.R.S.+..                                     ",
"                                        $ T.U.V.W.X.Y.Z.`. +.+.+.+.+.+.+ +`.++@+#+$+%+&+*+@                                     ",
"                                    =+O -+;+>+,+'+'+)+!+~+{+~+~+]+]+~+~+~+^+/+(+_+:+<+[+}+m )..                                 ",
"                                    ; |+1+2+3+4+5+5+6+7+8+9+0+0+0+0+0+0+a+b+c+d+e+f+g+h+i+j+k+@                                 ",
"                                    l+m+n+o+p+q+r+s+t+u+v+w+x+y+z+z+y+A+B+C+D+E+F+G+H+I+J+K+L+x                                 ",
"                                    l+m+n+o+p+q+M+r+N+t+O+O+P+Q+z+z+A+R+S+T+U+V+W+G+H+I+J+K+L+x                                 ",
"                                    l+X+n+Y+Z+`+ @ @ @ @ @ @.@+@z+z+@@#@g+$@%@&@F+G+*@=@J+-@;@x                                 ",
"                                    l+X+n+Y+Z+`+ @ @ @ @ @ @.@+@z+z+v+.@>@,@'@)@!@G+*@=@J+-@;@x                                 ",
"                                    l+~@{@o+]@q+^@.@/@t+ @ @.@(@z+z+v+_@:@<@[@}@|@G+H+Z+J+1@L+$                                 ",
"                                    l+2@3@4@5@s+6@7@8@/@ @ @.@(@z+z+v+_@9@0@a@}@|@G+q+g+b@c@d@x                                 ",
"                                    l N e@f@g@h@S+i@Q+j@ @s+.@+@z+z+k@l@m@n@o@p@q@G+h@r@s@t@u@|                                 ",
"                                    . l v@w@x@y@z@A@B@P+C@D@/@A+z+z+C+E@F@G@H@}@I@J@K@>+L@v@| #                                 ",
"                                        | - M@N@O@P@Q@R@S@T@U@V@W@W@X@Y@Z@`@ #.#+#@#f@t@##+                                     ",
"                                        # | $#%#&#*#=#Q@-#;#-#>#,#'#)#!#~#{#]#^#/#(#t@v@+ #                                     ",
"                                            l+_#:#<#[#}#|#1#1#1#2#1#3#4# #5#6#5#7#8#9#$                                         ",
"                                          . 0#a#b#c#d#e#f#g#h#h#g#h#i#j#k#k#l#5#m#n#r.o#.                                       ",
"                                        | p#L+q#r#s#5#t#u#v#u#u#v#u#w#x#k#k#l#5#y#z#A#B#m +                                     ",
"                                        +.L+C#D#E#F#G#k#k#k#k#k#k#k#k#k#k#k#k#H#I#J#K#L#d@$                                     ",
"                                        )._#M#N#O#P#Q#R#k#l#l#l#S#S#l#l#l#k#R#T#U#V#W#X#~@l+                                    ",
"                                        ).2.Y#Z#`# $.$+$@$@$H##$$$$$#$G#@$%$&$*$=$-$;$>$X+l+                                    ",
"                                        ).2.,$'$)$)$!$~${$]$^$/$($($_$^$]$:$<$!$)$[$}$|$X+l+                                    ",
"                                        ).2.,$'$1$2$3$4$4$5$6$7$8$9$0$a$5$4$ $3$2$1$Z#|$X+l+                                    ",
"                                        ).2.,$'$1$2$2$)$b$c$d$e$2.f$g$h$i$j$)$2$3$1$Z#|$X+l+                                    ",
"                                        ).2.,$'$1$2$2$2$k$l$m$n$S.o$V.p$q$r$2$2$3$1$Z#|$X+l+                                    ",
"                                        ).2.,$'$[$3$2$3$k$s$t$m x u$2.f$v$k$3$2$3$1$w$|$X+l+                                    ",
"                                        ).2.,$x$y$z$z$z$A$B$C$S.  . - D$E$F$z$z$z$G$H$|$X+l+                                    ",
"                                        ).2.I$J$K$L$L$L$M$N$O$p#    P$D$Q$R$S$L$L$K$T$U$X+l+                                    ",
"                                        ).2.V$W$X$Y$X$Z$`$ %#..%    +%a#@%`$#%X$Y$X$$%%%m+l+                                    ",
"                                        ).P &%*%=%-%;%>%,%'%S.x     $ )%!%~%{%]%-%`.$%^%..l+                                    ",
"                                        l+/%(%_%:%<%`$[%v }%.         . S.|%1%2%<%3%_%4%5%x                                     ",
"                                        ^ o#k+6%7%8%1%'%}%@             x S.!%9%8%0%a%b%c%=+                                    ",
"                                            +.= d%D$#.m .                 . e%a#f%U.g%l+                                        ",
"                                            =+o#e%P$] x                     $ w P$p#h%.                                         ",
"                                                                                                                                "};
