/* XPM */
static char * mining_up2_xpm[] = {
"64 64 599 2",
"  	c #785E4E",
". 	c #775D4D",
"+ 	c #755C4C",
"@ 	c #745B4B",
"# 	c #775D4E",
"$ 	c #735A4A",
"% 	c #634D3F",
"& 	c #574437",
"* 	c #574337",
"= 	c #584438",
"- 	c #644E40",
"; 	c #745A4B",
"> 	c #685244",
", 	c #473930",
"' 	c #26211E",
") 	c #231F1D",
"! 	c #25201E",
"~ 	c #27221F",
"{ 	c #4A3A32",
"] 	c #6A5345",
"^ 	c #765C4C",
"/ 	c #4D3E36",
"( 	c #363737",
"_ 	c #283539",
": 	c #283439",
"< 	c #383737",
"[ 	c #4E3F36",
"} 	c #755B4C",
"| 	c #483A31",
"1 	c #2A2D2E",
"2 	c #303E43",
"3 	c #37474D",
"4 	c #37484E",
"5 	c #37484D",
"6 	c #2F3D42",
"7 	c #2B2D2D",
"8 	c #4A3B32",
"9 	c #624D3F",
"0 	c #4D3E35",
"a 	c #373737",
"b 	c #2D3B3F",
"c 	c #35454A",
"d 	c #394B50",
"e 	c #394A50",
"f 	c #2C3A3F",
"g 	c #4E3F35",
"h 	c #745B4C",
"i 	c #695243",
"j 	c #48372D",
"k 	c #262729",
"l 	c #303C44",
"m 	c #394952",
"n 	c #3B4A53",
"o 	c #394851",
"p 	c #2F3B42",
"q 	c #272628",
"r 	c #4A392F",
"s 	c #6A5344",
"t 	c #735A4B",
"u 	c #624C3F",
"v 	c #4A3930",
"w 	c #2C2422",
"x 	c #1F2632",
"y 	c #374051",
"z 	c #424C60",
"A 	c #434D60",
"B 	c #434D61",
"C 	c #424C5F",
"D 	c #363F50",
"E 	c #1E2430",
"F 	c #2E2523",
"G 	c #4B3B31",
"H 	c #634D40",
"I 	c #705849",
"J 	c #4E3C31",
"K 	c #1E1716",
"L 	c #0D141C",
"M 	c #222837",
"N 	c #383E53",
"O 	c #424861",
"P 	c #434962",
"Q 	c #424962",
"R 	c #414860",
"S 	c #373D52",
"T 	c #202735",
"U 	c #0C131B",
"V 	c #201916",
"W 	c #513F33",
"X 	c #715949",
"Y 	c #705748",
"Z 	c #4B3A2F",
"` 	c #0D0C0E",
" .	c #0E151E",
"..	c #1C2330",
"+.	c #292F41",
"@.	c #30374A",
"#.	c #333B4E",
"$.	c #333C4F",
"%.	c #323A4D",
"&.	c #30364A",
"*.	c #282E40",
"=.	c #1B222F",
"-.	c #0E141D",
";.	c #110E0F",
">.	c #715849",
",.	c #4C3A30",
"'.	c #131011",
").	c #0F151F",
"!.	c #161E29",
"~.	c #19212C",
"{.	c #1B2530",
"].	c #1F2A35",
"^.	c #202D37",
"/.	c #1E2A34",
"(.	c #18212C",
"_.	c #151D28",
":.	c #171212",
"<.	c #4F3D32",
"[.	c #0F151E",
"}.	c #161F29",
"|.	c #19252E",
"1.	c #1A2730",
"2.	c #19242E",
"3.	c #18232C",
"4.	c #131112",
"5.	c #111921",
"6.	c #19242D",
"7.	c #1E2B34",
"8.	c #1A262F",
"9.	c #18212B",
"0.	c #1B2630",
"a.	c #1E2B35",
"b.	c #1D2A34",
"c.	c #19232D",
"d.	c #101820",
"e.	c #171313",
"f.	c #141415",
"g.	c #152028",
"h.	c #1D2A33",
"i.	c #1F2D36",
"j.	c #1D2932",
"k.	c #1D2933",
"l.	c #151F26",
"m.	c #181515",
"n.	c #4C3B30",
"o.	c #171516",
"p.	c #192029",
"q.	c #202A34",
"r.	c #212D36",
"s.	c #202E37",
"t.	c #151E27",
"u.	c #151214",
"v.	c #171113",
"w.	c #1B1722",
"x.	c #22222E",
"y.	c #212A34",
"z.	c #222A34",
"A.	c #22212E",
"B.	c #181421",
"C.	c #150F12",
"D.	c #423229",
"E.	c #0E0909",
"F.	c #0C0316",
"G.	c #181324",
"H.	c #1B212E",
"I.	c #1C2833",
"J.	c #1C2733",
"K.	c #19202D",
"L.	c #211A26",
"M.	c #44322C",
"N.	c #5D4737",
"O.	c #664E3D",
"P.	c #685143",
"Q.	c #5D483B",
"R.	c #3E2F26",
"S.	c #231A14",
"T.	c #050304",
"U.	c #070209",
"V.	c #120B17",
"W.	c #1D1825",
"X.	c #221D2C",
"Y.	c #221E2C",
"Z.	c #221D2B",
"`.	c #121022",
" +	c #24191D",
".+	c #6E5441",
"++	c #99755B",
"@+	c #896952",
"#+	c #584435",
"$+	c #5E493C",
"%+	c #765D4D",
"&+	c #695143",
"*+	c #68503F",
"=+	c #684F3D",
"-+	c #69503D",
";+	c #69503C",
">+	c #684D3C",
",+	c #654639",
"'+	c #634238",
")+	c #624138",
"!+	c #634239",
"~+	c #624137",
"{+	c #51322C",
"]+	c #462A23",
"^+	c #83624C",
"/+	c #B1886A",
"(+	c #A57E62",
"_+	c #785C46",
":+	c #654E3D",
"<+	c #5D483C",
"[+	c #574334",
"}+	c #896951",
"|+	c #A78063",
"1+	c #AA8366",
"2+	c #AA8365",
"3+	c #A77E61",
"4+	c #9F7257",
"5+	c #9A6A4F",
"6+	c #9A694E",
"7+	c #9A694F",
"8+	c #9B6A4F",
"9+	c #99694E",
"0+	c #845642",
"a+	c #693E33",
"b+	c #8B634F",
"c+	c #B58A6C",
"d+	c #BA8F6F",
"e+	c #A98265",
"f+	c #85664F",
"g+	c #554133",
"h+	c #5F4A3D",
"i+	c #72594A",
"j+	c #513F34",
"k+	c #4D3A2C",
"l+	c #967359",
"m+	c #BD9271",
"n+	c #C29674",
"o+	c #C19573",
"p+	c #C19574",
"q+	c #BE9170",
"r+	c #B88867",
"s+	c #B48161",
"t+	c #B38160",
"u+	c #B27F5E",
"v+	c #AF7A5A",
"w+	c #AD7757",
"x+	c #B27F5F",
"y+	c #B58261",
"z+	c #B38060",
"A+	c #9C6B52",
"B+	c #78493C",
"C+	c #8E6350",
"D+	c #B68B6C",
"E+	c #C39775",
"F+	c #BC9171",
"G+	c #927056",
"H+	c #49372A",
"I+	c #544135",
"J+	c #C19473",
"K+	c #C09372",
"L+	c #BD8F6E",
"M+	c #B98A69",
"N+	c #B27E5E",
"O+	c #BA8A6A",
"P+	c #BD906F",
"Q+	c #BB8D6D",
"R+	c #A2755C",
"S+	c #7A4D40",
"T+	c #8D6350",
"U+	c #513E33",
"V+	c #4C392B",
"W+	c #BE9271",
"X+	c #C09473",
"Y+	c #BC8E6D",
"Z+	c #B28060",
"`+	c #B38161",
" @	c #BC8E6E",
".@	c #AD8266",
"+@	c #926853",
"@@	c #74473C",
"#@	c #BD9171",
"$@	c #493629",
"%@	c #534034",
"&@	c #4E3B2D",
"*@	c #957258",
"=@	c #BB9070",
"-@	c #AE8367",
";@	c #8B604E",
">@	c #6E4038",
",@	c #693933",
"'@	c #8F6450",
")@	c #916F56",
"!@	c #4B382B",
"~@	c #554236",
"{@	c #5C4638",
"]@	c #82634D",
"^@	c #A17C60",
"/@	c #B58B6C",
"(@	c #BB8D6C",
"_@	c #B2805F",
":@	c #BB8E6D",
"<@	c #A87E63",
"[@	c #794D40",
"}@	c #592026",
"|@	c #64322F",
"1@	c #906551",
"2@	c #B58A6B",
"3@	c #9F7B5F",
"4@	c #7F614B",
"5@	c #5A4537",
"6@	c #6C5445",
"7@	c #5C4738",
"8@	c #6D5340",
"9@	c #BB8F6E",
"0@	c #B78666",
"a@	c #B48262",
"b@	c #A97E63",
"c@	c #7A4E41",
"d@	c #5A2227",
"e@	c #916652",
"f@	c #B3886A",
"g@	c #6B513E",
"h@	c #5D4739",
"i@	c #6C5546",
"j@	c #4E3A2B",
"k@	c #9A765B",
"l@	c #BB8E6E",
"m@	c #B68363",
"n@	c #B17D5D",
"o@	c #BA8B6A",
"p@	c #5B2327",
"q@	c #643230",
"r@	c #926753",
"s@	c #B4896B",
"t@	c #977459",
"u@	c #533E2F",
"v@	c #98745A",
"w@	c #B88B6B",
"x@	c #B17E5E",
"y@	c #BA8B6B",
"z@	c #5B2328",
"A@	c #8F6551",
"B@	c #AF8568",
"C@	c #957358",
"D@	c #4E3C2E",
"E@	c #5F493B",
"F@	c #80624C",
"G@	c #9A7358",
"H@	c #A77658",
"I@	c #BB8C6B",
"J@	c #B48261",
"K@	c #BC8F6E",
"L@	c #AA7F64",
"M@	c #7B4F42",
"N@	c #5C2529",
"O@	c #622F2E",
"P@	c #7A5243",
"Q@	c #8F6B53",
"R@	c #5E483A",
"S@	c #6C5446",
"T@	c #584436",
"U@	c #634634",
"V@	c #906348",
"W@	c #AD7A5B",
"X@	c #B98A6A",
"Y@	c #BF9372",
"Z@	c #B98B6B",
"`@	c #A67C61",
" #	c #5E282A",
".#	c #5F2B2B",
"+#	c #58302A",
"@#	c #4E362A",
"##	c #5B4738",
"$#	c #6D5546",
"%#	c #4D3B30",
"&#	c #3B231A",
"*#	c #744A37",
"=#	c #98674E",
"-#	c #AE7E5F",
";#	c #B98968",
">#	c #B98969",
",#	c #B68565",
"'#	c #B17D5C",
")#	c #AE7858",
"!#	c #AE7857",
"~#	c #AA7759",
"{#	c #A1755A",
"]#	c #8E6450",
"^#	c #6F4139",
"/#	c #602A2B",
"(#	c #5E2B2B",
"_#	c #491E1F",
":#	c #210E0D",
"<#	c #503D32",
"[#	c #2F1814",
"}#	c #552B26",
"|#	c #7A4A3B",
"1#	c #9B684F",
"2#	c #AB7758",
"3#	c #AC7859",
"4#	c #AA7556",
"5#	c #AA7455",
"6#	c #A97455",
"7#	c #9B684E",
"8#	c #7E4F40",
"9#	c #6A3A34",
"0#	c #63302E",
"a#	c #612C2C",
"b#	c #4B2121",
"c#	c #2B1613",
"d#	c #2A1412",
"e#	c #4A1E20",
"f#	c #693731",
"g#	c #82503E",
"h#	c #8E5B45",
"i#	c #8F5C46",
"j#	c #8F5D47",
"k#	c #83513F",
"l#	c #6A3731",
"m#	c #5D272A",
"n#	c #612D2C",
"o#	c #5F2C2B",
"p#	c #4C2121",
"q#	c #2A1612",
"r#	c #49382E",
"s#	c #2D1515",
"t#	c #4B2122",
"u#	c #5F2D2C",
"v#	c #663430",
"w#	c #6A3831",
"x#	c #6A3832",
"y#	c #673530",
"z#	c #622F2D",
"A#	c #602C2C",
"B#	c #5D2A2B",
"C#	c #4A2122",
"D#	c #2B1615",
"E#	c #665042",
"F#	c #533F35",
"G#	c #3B2A27",
"H#	c #2F191E",
"I#	c #421F25",
"J#	c #50252A",
"K#	c #5A282A",
"L#	c #5E292B",
"M#	c #5F2A2B",
"N#	c #5B2A2B",
"O#	c #50262A",
"P#	c #401F24",
"Q#	c #3D2C27",
"R#	c #544036",
"S#	c #675143",
"T#	c #2A1D1A",
"U#	c #28151D",
"V#	c #331C25",
"W#	c #361D27",
"X#	c #412028",
"Y#	c #53272A",
"Z#	c #5D2B2C",
"`#	c #5C2A2A",
" $	c #5B2A2A",
".$	c #5C2B2B",
"+$	c #52272A",
"@$	c #402028",
"#$	c #361C27",
"$$	c #331B25",
"%$	c #27151C",
"&$	c #2B1F1B",
"*$	c #190E0F",
"=$	c #28141D",
"-$	c #331C27",
";$	c #381D27",
">$	c #452229",
",$	c #4C242A",
"'$	c #4D252A",
")$	c #4A2327",
"!$	c #441E20",
"~$	c #411C1B",
"{$	c #411C1C",
"]$	c #451F20",
"^$	c #4C2429",
"/$	c #442129",
"($	c #331B26",
"_$	c #27141C",
":$	c #1B1110",
"<$	c #1D1212",
"[$	c #341C27",
"}$	c #351C27",
"|$	c #371D27",
"1$	c #361C26",
"2$	c #341D22",
"3$	c #311E1D",
"4$	c #2F2019",
"5$	c #331C23",
"6$	c #26131C",
"7$	c #1F1413",
"8$	c #523F34",
"9$	c #2F1924",
"0$	c #25131D",
"a$	c #352523",
"b$	c #503E34",
"c$	c #5C483B",
"d$	c #4E3C32",
"e$	c #332322",
"f$	c #26141D",
"g$	c #301A24",
"h$	c #2E1822",
"i$	c #1B0C13",
"j$	c #3B2D24",
"k$	c #654F41",
"l$	c #765C4D",
"m$	c #382A23",
"n$	c #1D0D14",
"o$	c #2F1923",
"p$	c #331C26",
"q$	c #190B11",
"r$	c #3C2E25",
"s$	c #675042",
"t$	c #392B23",
"u$	c #1B0C12",
"v$	c #27131C",
"w$	c #26131D",
"x$	c #311B26",
"y$	c #321B27",
"z$	c #2C1722",
"A$	c #180B12",
"B$	c #3C2D25",
"C$	c #664F41",
"D$	c #392B22",
"E$	c #1A0C13",
"F$	c #2C1822",
"G$	c #311A26",
"H$	c #25131C",
"I$	c #1B1112",
"J$	c #20111D",
"K$	c #2A1726",
"L$	c #2B1827",
"M$	c #251422",
"N$	c #140912",
"O$	c #3A2C24",
"P$	c #372A22",
"Q$	c #150A13",
"R$	c #261523",
"S$	c #2B1828",
"T$	c #1F101C",
"U$	c #1D1413",
"V$	c #181011",
"W$	c #1B0F1D",
"X$	c #241526",
"Y$	c #251628",
"Z$	c #221324",
"`$	c #231621",
" %	c #2D211F",
".%	c #6B5345",
"+%	c #6A5244",
"@%	c #2C201F",
"#%	c #221425",
"$%	c #1A0E1C",
"%%	c #1B1212",
"&%	c #170F10",
"*%	c #1A0E1D",
"=%	c #231527",
"-%	c #251528",
";%	c #211324",
">%	c #190D1B",
",%	c #2F2321",
"'%	c #675043",
")%	c #523F35",
"!%	c #2D2120",
"~%	c #190E1C",
"{%	c #211325",
"]%	c #231426",
"^%	c #1A1112",
"/%	c #594539",
"(%	c #392B24",
"_%	c #261A20",
":%	c #1F1222",
"<%	c #201223",
"[%	c #2F2221",
"}%	c #695244",
"|%	c #48372E",
"1%	c #2E2120",
"2%	c #231521",
"3%	c #1F1122",
"4%	c #3A2C25",
"5%	c #5B473A",
"6%	c #6E5647",
"7%	c #40302A",
"8%	c #130B13",
"9%	c #110813",
"0%	c #2B1F1E",
"a%	c #160C14",
"b%	c #42322C",
"c%	c #604B3E",
"d%	c #6F5748",
"e%	c #3D2E26",
"f%	c #372921",
"g%	c #5A463A",
"h%	c #6F5648",
"                                                                                                                                ",
"                                                                                                                                ",
"                                                                                                                                ",
"                                                                                                                                ",
"                                                                                                                                ",
"                                                                                                                                ",
"                                                                                                                                ",
"                                                                                                                                ",
"                                                                                                                                ",
"                                                                                                                                ",
"                                                                                                                                ",
"                                                                                                                                ",
"                                                                                                                                ",
"                                                                                                                                ",
"                                                        . + @ @ @ @ @ @ + #                                                     ",
"                                                        $ % & * * * * = - ;                                                     ",
"                                                    # + > , ' ) ! ! ) ~ { ] ^ #                                                 ",
"                                                    ; % / ( _ _ _ _ _ : < [ - @                                                 ",
"                                                . } > | 1 2 3 4 5 5 4 3 6 7 8 ] + #                                             ",
"                                                @ 9 0 a b c d d d d d e c f < g - h                                             ",
"                                            . h i j k l m n n n n n n n n o p q r s } .                                         ",
"                                            t u v w x y z A z z z z z z B C D E F G H @                                         ",
"                                            I J K L M N O P Q Q Q Q Q Q P R S T U V W X                                         ",
"                                            Y Z `  ...+.@.#.$.$.$.$.$.$.%.&.*.=.-.;.J >.                                        ",
"                                            Y ,.'.).!.~.{.].^.^.^.^.^.^./.{.(._. .:.<.>.                                        ",
"                                            Y ,.'.[.}.|.1.2.3.3.3.3.3.3.|.1.|.!.-.:.<.>.                                        ",
"                                            Y ,.4.5.6./.7.8.(.9.(.(.9.(.0.a.b.c.d.e.<.>.                                        ",
"                                            Y ,.f.g.h.i.i.7.j.j.j.j.j.k.7.i.i.h.l.m.<.>.                                        ",
"                                            I n.o.p.q.r.s.s.s.s.s.s.s.s.s.s.r.q.t.u.<.X                                         ",
"                                            I n.v.w.x.y.s.s.s.s.s.s.s.s.s.s.z.A.B.C.<.X                                         ",
"                                        . >.% D.E.F.G.H.I.I.I.I.I.I.I.I.I.J.K.L.M.N.O.P.X .                                     ",
"                                        $ Q.R.S.T.U.V.W.X.Y.X.X.X.X.X.X.Y.Z.`. +.+++@+#+$+@                                     ",
"                                    %+I &+*+=+-+;+;+>+,+'+)+'+'+!+!+'+'+'+~+{+]+^+/+(+_+:+i >..                                 ",
"                                    ; <+[+}+|+1+2+2+3+4+5+6+7+7+6+6+7+7+8+9+0+a+b+c+d+e+f+g+h+@                                 ",
"                                    i+j+k+l+m+n+o+p+q+r+s+t+u+v+w+w+v+x+y+z+A+B+C+D+E+F+G+H+I+t                                 ",
"                                    i+j+k+l+m+n+J+o+K+q+L+L+M+N+w+w+x+O+P+Q+R+S+T+D+E+F+G+H+I+t                                 ",
"                                    i+U+V+l+W+n+X+X+X+X+X+X+Y+Z+w+w+`+ @d+.@+@@@C+D+E+#@G+$@I+$                                 ",
"                                    i+%@&@*@=@p+X+X+X+X+X+X+Y+Z+w+w+s+Y+-@;@>@,@'@D+n+d+)@!@~@t                                 ",
"                                    @ u {@]@^@/@W+ @(@q+X+X+Y+_@w+w+s+:@<@[@}@|@1@2@/@3@4@5@H }                                 ",
"                                    . @ 6@7@8@^@9@0@a@(@X+X+Y+_@w+w+s+:@b@c@d@|@e@f@3@g@h@i@@ .                                 ",
"                                        i+<.j@k@l@m@n@o@X+X+Y+_@w+w+s+:@b@c@p@q@r@s@t@$@j+$                                     ",
"                                        X W u@v@w@a@x@y@X+X+Y+_@w+w+s+:@b@c@z@|@A@B@C@D@I+i+                                    ",
"                                        @ H E@F@G@H@x@I@X+p+Y+Z+w+w+J@K@L@M@N@O@P@Q@F@R@- h                                     ",
"                                        . } S@T@U@V@W@X@Y@Y@(@x+w+w+z+Z@`@[@ #.#+#@###$#+ #                                     ",
"                                            >.%#&#*#=#-#;#>#,#'#)#!#~#{#]#^#/#(#_#:#<#i+                                        ",
"                                            Y ,.[#}#|#1#2#3#2#4#5#6#7#8#9#0#a#.#b#c#<.>.                                        ",
"                                            >.%#d#e#f#g#h#i#i#i#j#i#k#l#m#.#n#o#p#q#<#i+                                        ",
"                                          %+S@r#s#t#u#v#w#x#x#x#x#w#y#z#A#A#A#B#C#D#,.$#%+                                      ",
"                                        h E#F#G#H#I#J#K#L#L#L#L#L#L#M#A#a#A#N#O#P#H#Q#R#S#+                                     ",
"                                        X %@T#U#V#W#X#Y#Z#Z#B#`# $ $`#B#Z#.$+$@$#$$$%$&$~@i+                                    ",
"                                        >.J *$=$-$-$;$>$,$'$)$!$~${$]$)$'$^$/$;$-$($_$:$U+i+                                    ",
"                                        >.<.<$=$($[$}$|$|$1$2$3$4$4$3$5$1$|$W#}$[$($6$7$8$i+                                    ",
"                                        >.<.<$=$($[$[$-$9$0$a$b$Q.c$d$e$f$g$-$[$}$($6$7$8$i+                                    ",
"                                        >.<.<$=$($[$[$[$h$i$j$k$l$^ H m$n$o$[$[$}$($6$7$8$i+                                    ",
"                                        >.<.<$=$p$}$[$}$h$q$r$i     s$t$u$h$}$[$}$($v$7$8$i+                                    ",
"                                        >.<.<$w$x$y$y$y$z$A$B$P.    C$D$E$F$y$y$y$G$H$7$8$i+                                    ",
"                                        >.<.I$J$K$L$L$L$M$N$O$S#    k$P$Q$R$S$L$L$K$T$U$8$i+                                    ",
"                                        >.<.V$W$X$Y$X$Z$`$ %Z .%    +%r#@%`$#%X$Y$X$$%%%j+i+                                    ",
"                                        >.J &%*%=%-%;%>%,%R#P.t     $ '%)%!%~%{%-%]%$%^%W i+                                    ",
"                                        i+/%(%_%:%<%`$[%r }%.         . P.|%1%2%<%3%_%4%5%t                                     ",
"                                        ^ 6%h+7%8%9%1%R#}%@             t P.)%0%9%a%b%c%d%%+                                    ",
"                                            X = e%P$Z i .                 . s$r#f%R.g%i+                                        ",
"                                            %+6%s$E#] t                     $ s E#S#h%.                                         ",
"                                                                                                                                "};
