/* XPM */
static char * mining_right2_xpm[] = {
"64 64 662 2",
"  	c #785E4E",
". 	c #775D4E",
"+ 	c #6E5647",
"@ 	c #634D40",
"# 	c #624C3F",
"$ 	c #624D3F",
"% 	c #654F41",
"& 	c #705849",
"* 	c #735A4A",
"= 	c #584538",
"- 	c #332620",
"; 	c #2B211B",
"> 	c #2D231D",
", 	c #2E241F",
"' 	c #2E251F",
") 	c #2C231E",
"! 	c #3A2E27",
"~ 	c #604B3E",
"{ 	c #755C4C",
"] 	c #5A4639",
"^ 	c #3B2F29",
"/ 	c #0E141A",
"( 	c #101920",
"_ 	c #192329",
": 	c #222E32",
"< 	c #263236",
"[ 	c #253236",
"} 	c #2A3236",
"| 	c #473D37",
"1 	c #5F4A3D",
"2 	c #715949",
"3 	c #775D4D",
"4 	c #72594A",
"5 	c #5B473B",
"6 	c #2F2420",
"7 	c #14161D",
"8 	c #161F28",
"9 	c #1B2730",
"0 	c #26343C",
"a 	c #324249",
"b 	c #37484E",
"c 	c #37474D",
"d 	c #35444A",
"e 	c #272F32",
"f 	c #3A2D25",
"g 	c #755B4C",
"h 	c #6F5748",
"i 	c #574437",
"j 	c #3B2E29",
"k 	c #17191F",
"l 	c #121923",
"m 	c #17202A",
"n 	c #1D2933",
"o 	c #28363E",
"p 	c #35454C",
"q 	c #3A4B51",
"r 	c #3A4B50",
"s 	c #34454A",
"t 	c #14282F",
"u 	c #1B130E",
"v 	c #413228",
"w 	c #4D3C31",
"x 	c #503D32",
"y 	c #765D4D",
"z 	c #715849",
"A 	c #5E493C",
"B 	c #322722",
"C 	c #0C121A",
"D 	c #141C25",
"E 	c #141C27",
"F 	c #161F2A",
"G 	c #1C2831",
"H 	c #27363E",
"I 	c #34454B",
"J 	c #394A50",
"K 	c #3F505C",
"L 	c #4B5562",
"M 	c #5F574D",
"N 	c #6B5832",
"O 	c #6D5931",
"P 	c #5C4B29",
"Q 	c #352917",
"R 	c #4F3D32",
"S 	c #564337",
"T 	c #372B26",
"U 	c #1C1B20",
"V 	c #384A4E",
"W 	c #3C4C54",
"X 	c #4D5C77",
"Y 	c #72748B",
"Z 	c #A99379",
"` 	c #C6A561",
" .	c #C8A65E",
"..	c #A98C50",
"+.	c #6D5547",
"@.	c #423229",
"#.	c #141722",
"$.	c #262C3D",
"%.	c #2B3244",
"&.	c #2B3143",
"*.	c #2C3244",
"=.	c #2E3648",
"-.	c #333E4E",
";.	c #3B4855",
">.	c #3D4B57",
",.	c #404D5C",
"'.	c #4E5B7C",
").	c #7B7A91",
"!.	c #C3A883",
"~.	c #E8C272",
"{.	c #EBC471",
"].	c #C8A660",
"^.	c #6D5A32",
"/.	c #4E3C31",
"(.	c #202433",
"_.	c #3A3F56",
":.	c #414760",
"<.	c #40465F",
"[.	c #424961",
"}.	c #434B62",
"|.	c #444C63",
"1.	c #454C64",
"2.	c #424D6D",
"3.	c #6C6774",
"4.	c #BCA072",
"5.	c #E5BE70",
"6.	c #E8C16F",
"7.	c #C5A35E",
"8.	c #6C5831",
"9.	c #1C202D",
"0.	c #33394E",
"a.	c #3A4057",
"b.	c #393F56",
"c.	c #3A3E55",
"d.	c #3B3E55",
"e.	c #333954",
"f.	c #514D54",
"g.	c #957E58",
"h.	c #B7995B",
"i.	c #BA9B5B",
"j.	c #9D834D",
"k.	c #564627",
"l.	c #0C1019",
"m.	c #1A212E",
"n.	c #1E2533",
"o.	c #1F2533",
"p.	c #232333",
"q.	c #272132",
"r.	c #232132",
"s.	c #292933",
"t.	c #443C34",
"u.	c #534735",
"v.	c #544835",
"w.	c #463C2C",
"x.	c #282016",
"y.	c #423329",
"z.	c #000910",
"A.	c #0A1721",
"B.	c #101B26",
"C.	c #121B25",
"D.	c #141B25",
"E.	c #191825",
"F.	c #1C1725",
"G.	c #1B1324",
"H.	c #170B23",
"I.	c #100822",
"J.	c #010521",
"K.	c #000021",
"L.	c #000024",
"M.	c #00001E",
"N.	c #05030D",
"O.	c #4D3B31",
"P.	c #745B4B",
"Q.	c #675042",
"R.	c #443128",
"S.	c #251317",
"T.	c #281D25",
"U.	c #231E29",
"V.	c #1A1C28",
"W.	c #171C28",
"X.	c #1A1B28",
"Y.	c #201827",
"Z.	c #231527",
"`.	c #241627",
" +	c #36222B",
".+	c #493030",
"++	c #503835",
"@+	c #533D39",
"#+	c #543E3A",
"$+	c #4D3836",
"%+	c #35252B",
"&+	c #211520",
"*+	c #2E221F",
"=+	c #564236",
"-+	c #735A4B",
";+	c #4A352C",
">+	c #4B2925",
",+	c #4F2425",
"'+	c #4F2629",
")+	c #412229",
"!+	c #261A28",
"~+	c #1D1727",
"{+	c #231627",
"]+	c #211327",
"^+	c #261627",
"/+	c #5C3D36",
"(+	c #885D48",
"_+	c #996F56",
":+	c #9F7960",
"<+	c #A17C62",
"[+	c #926F58",
"}+	c #5B4438",
"|+	c #362825",
"1+	c #5A463A",
"2+	c #6D5546",
"3+	c #765C4D",
"4+	c #4C372D",
"5+	c #3D1D1C",
"6+	c #552626",
"7+	c #602B2C",
"8+	c #5E2A2B",
"9+	c #512429",
"0+	c #3B1A27",
"a+	c #2C1627",
"b+	c #241527",
"c+	c #1F1226",
"d+	c #271728",
"e+	c #6D493C",
"f+	c #A37154",
"g+	c #B78666",
"h+	c #BE9271",
"i+	c #C29674",
"j+	c #AF8768",
"k+	c #6C523F",
"l+	c #413128",
"m+	c #765C4C",
"n+	c #614C3F",
"o+	c #453229",
"p+	c #492623",
"q+	c #562727",
"r+	c #5D2B2B",
"s+	c #612D2C",
"t+	c #612D2D",
"u+	c #5E2C2D",
"v+	c #56292C",
"w+	c #422029",
"x+	c #281627",
"y+	c #201226",
"z+	c #6E493C",
"A+	c #A47154",
"B+	c #B88766",
"C+	c #BF9372",
"D+	c #C29675",
"E+	c #6D523F",
"F+	c #644E40",
"G+	c #503930",
"H+	c #401F1E",
"I+	c #532525",
"J+	c #602C2C",
"K+	c #6F4138",
"L+	c #855A49",
"M+	c #8D624F",
"N+	c #885E4C",
"O+	c #6B463D",
"P+	c #43222A",
"Q+	c #3B1927",
"R+	c #351626",
"S+	c #291527",
"T+	c #6C483B",
"U+	c #B98867",
"V+	c #BD9170",
"W+	c #AE8668",
"X+	c #947158",
"Y+	c #69513F",
"Z+	c #594539",
"`+	c #664F41",
" @	c #403027",
".@	c #442320",
"+@	c #572827",
"@@	c #5E2B2B",
"#@	c #5F2B2B",
"$@	c #815646",
"%@	c #AB8064",
"&@	c #B98D6E",
"*@	c #B2876A",
"=@	c #916753",
"-@	c #653833",
";@	c #5E2D2C",
">@	c #562C2D",
",@	c #43262C",
"'@	c #714C3D",
")@	c #B48A6B",
"!@	c #8A6A52",
"~@	c #5C4636",
"{@	c #634D3F",
"]@	c #2E211A",
"^@	c #411C1C",
"/@	c #5F2A2B",
"(@	c #5D282A",
"_@	c #B4896B",
":@	c #C39775",
"<@	c #A77A5E",
"[@	c #8E5C46",
"}@	c #8A5742",
"|@	c #885743",
"1@	c #835744",
"2@	c #92644C",
"3@	c #A87455",
"4@	c #A37557",
"5@	c #8E6B53",
"6@	c #6E5543",
"7@	c #5D483B",
"8@	c #37241E",
"9@	c #451E1E",
"0@	c #5D2A2A",
"a@	c #612C2C",
"b@	c #612E2D",
"c@	c #673530",
"d@	c #8B5F4C",
"e@	c #C19674",
"f@	c #BF9271",
"g@	c #B58666",
"h@	c #AC795A",
"i@	c #AB7758",
"j@	c #A87556",
"k@	c #A27052",
"l@	c #A26F52",
"m@	c #A16F51",
"n@	c #805840",
"o@	c #4C3629",
"p@	c #594639",
"q@	c #4C342C",
"r@	c #4C2624",
"s@	c #6B3932",
"t@	c #875541",
"u@	c #A27257",
"v@	c #B98C6D",
"w@	c #C19574",
"x@	c #C09372",
"y@	c #BD8F6E",
"z@	c #BA8A6A",
"A@	c #AC7F60",
"B@	c #875F46",
"C@	c #714B35",
"D@	c #6D4934",
"E@	c #503423",
"F@	c #1B0F0B",
"G@	c #3C2E25",
"H@	c #6A5345",
"I@	c #3E2F26",
"J@	c #381717",
"K@	c #592828",
"L@	c #5E292B",
"M@	c #744438",
"N@	c #9E6C52",
"O@	c #B58464",
"P@	c #BD9070",
"Q@	c #C09473",
"R@	c #C19473",
"S@	c #AF8668",
"T@	c #7D5F48",
"U@	c #5A4332",
"V@	c #594332",
"W@	c #433124",
"X@	c #120B07",
"Y@	c #000000",
"Z@	c #31251D",
"`@	c #5D493C",
" #	c #6A5344",
".#	c #3A2C24",
"+#	c #5A2929",
"@#	c #5D272A",
"##	c #784B3E",
"$#	c #A87B5F",
"%#	c #BD906F",
"&#	c #BA8F6F",
"*#	c #AB8466",
"=#	c #A57F62",
"-#	c #A07B5F",
";#	c #7A5D48",
">#	c #2A1E15",
",#	c #150E0A",
"'#	c #362921",
")#	c #3C2D25",
"!#	c #5E282A",
"~#	c #73463B",
"{#	c #9A7059",
"]#	c #B08467",
"^#	c #B88B6B",
"/#	c #C29574",
"(#	c #9D765B",
"_#	c #6C4C37",
":#	c #664A37",
"<#	c #624A38",
"[#	c #3B2C20",
"}#	c #48372D",
"|#	c #1C1F2D",
"1#	c #353A51",
"2#	c #4E4855",
"3#	c #634F47",
"4#	c #5F2B2C",
"5#	c #653430",
"6#	c #72453B",
"7#	c #8C5E4A",
"8#	c #A97759",
"9#	c #B88767",
"0#	c #BE9170",
"a#	c #BE9372",
"b#	c #BF9373",
"c#	c #B18364",
"d#	c #A37356",
"e#	c #AA7E60",
"f#	c #9F7A5E",
"g#	c #634B39",
"h#	c #6C5446",
"i#	c #705748",
"j#	c #33374D",
"k#	c #5A6184",
"l#	c #595E7E",
"m#	c #423B44",
"n#	c #5C473B",
"o#	c #7B493A",
"p#	c #A36E51",
"q#	c #B48060",
"r#	c #B68666",
"s#	c #A87E61",
"t#	c #B48B6C",
"u#	c #C19573",
"v#	c #BB8D6C",
"w#	c #B88867",
"x#	c #C0916F",
"y#	c #B2896A",
"z#	c #6F5440",
"A#	c #32261E",
"B#	c #554236",
"C#	c #6F5648",
"D#	c #4A392E",
"E#	c #3A3E56",
"F#	c #646C92",
"G#	c #5D6589",
"H#	c #2F3143",
"I#	c #534034",
"J#	c #7B4A3B",
"K#	c #9F6B4F",
"L#	c #AE7858",
"M#	c #AA7657",
"N#	c #815A42",
"O#	c #654B39",
"P#	c #9C785D",
"Q#	c #BB9070",
"R#	c #BE9171",
"S#	c #BD9171",
"T#	c #AA8365",
"U#	c #69503D",
"V#	c #100A07",
"W#	c #211812",
"X#	c #251B14",
"Y#	c #5C473A",
"Z#	c #47372C",
"`#	c #393D55",
" $	c #636B91",
".$	c #5D6488",
"+$	c #313243",
"@$	c #544135",
"#$	c #6E3C34",
"$$	c #855441",
"%$	c #9D684E",
"&$	c #A57152",
"*$	c #79513A",
"=$	c #3A291D",
"-$	c #6A513E",
";$	c #977459",
">$	c #B68C6D",
",$	c #C39675",
"'$	c #BD9271",
")$	c #A37D61",
"!$	c #7E604A",
"~$	c #4F3B2C",
"{$	c #1E140F",
"]$	c #201610",
"^$	c #221712",
"/$	c #4C3A30",
"($	c #32251E",
"_$	c #383D55",
":$	c #66332F",
"<$	c #865441",
"[$	c #9B684D",
"}$	c #764F39",
"|$	c #291A11",
"1$	c #271D17",
"2$	c #A27C60",
"3$	c #B58B6C",
"4$	c #AC8567",
"5$	c #7F624B",
"6$	c #413125",
"7$	c #2A1F18",
"8$	c #281C16",
"9$	c #291D16",
"0$	c #271B15",
"a$	c #231912",
"b$	c #1B120C",
"c$	c #0D0604",
"d$	c #646B92",
"e$	c #703E35",
"f$	c #7A4A3B",
"g$	c #5B372A",
"h$	c #2A1C16",
"i$	c #503E33",
"j$	c #654E3F",
"k$	c #715643",
"l$	c #765A45",
"m$	c #765A44",
"n$	c #735844",
"o$	c #6A5241",
"p$	c #584438",
"q$	c #19100B",
"r$	c #18100B",
"s$	c #19110C",
"t$	c #1F1510",
"u$	c #231811",
"v$	c #211405",
"w$	c #414257",
"x$	c #656C92",
"y$	c #5C6488",
"z$	c #552827",
"A$	c #472824",
"B$	c #49372D",
"C$	c #695243",
"D$	c #3D2E25",
"E$	c #3C2D24",
"F$	c #46362B",
"G$	c #534035",
"H$	c #3B2D24",
"I$	c #3A2C23",
"J$	c #32251D",
"K$	c #271C14",
"L$	c #241501",
"M$	c #424257",
"N$	c #5D6489",
"O$	c #303242",
"P$	c #4F2323",
"Q$	c #3A1C1B",
"R$	c #523D33",
"S$	c #6A5244",
"T$	c #6C5445",
"U$	c #6B5345",
"V$	c #4B3A2F",
"W$	c #1C140D",
"X$	c #0F0600",
"Y$	c #3C3F56",
"Z$	c #323243",
"`$	c #5E2B2C",
" %	c #56282A",
".%	c #3F1C1F",
"+%	c #271915",
"@%	c #1F1C23",
"#%	c #363B52",
"$%	c #4B5270",
"%%	c #575E81",
"&%	c #545773",
"*%	c #4E4245",
"=%	c #432128",
"-%	c #2C151D",
";%	c #231814",
">%	c #725A4B",
",%	c #524036",
"'%	c #333445",
")%	c #555C7E",
"!%	c #434760",
"~%	c #4D4042",
"{%	c #6A5448",
"]%	c #5C2A2A",
"^%	c #421E21",
"/%	c #361C25",
"(%	c #25131D",
"_%	c #221714",
":%	c #5C4942",
"<%	c #544F5F",
"[%	c #515776",
"}%	c #545A7B",
"|%	c #535570",
"1%	c #53464B",
"2%	c #582828",
"3%	c #200E14",
"4%	c #2D1822",
"5%	c #25131C",
"6%	c #372F33",
"7%	c #4F5574",
"8%	c #60678B",
"9%	c #4A4C67",
"0%	c #483B3B",
"a%	c #695245",
"b%	c #572727",
"c%	c #321414",
"d%	c #0A070E",
"e%	c #1D141E",
"f%	c #1A1019",
"g%	c #201714",
"h%	c #241E22",
"i%	c #4A4D67",
"j%	c #564A51",
"k%	c #592928",
"l%	c #341514",
"m%	c #04070D",
"n%	c #0D111B",
"o%	c #0B0E17",
"p%	c #1D1612",
"q%	c #3F3028",
"r%	c #302622",
"s%	c #443630",
"t%	c #665043",
"u%	c #03060D",
"v%	c #0B111B",
"w%	c #0A0D16",
"x%	c #1D1512",
"y%	c #685143",
"z%	c #695244",
"A%	c #301416",
"B%	c #4E2427",
"C%	c #55272B",
"D%	c #54272B",
"E%	c #4C2226",
"F%	c #2C1114",
"G%	c #020509",
"H%	c #080C15",
"I%	c #271F1F",
"J%	c #44342B",
"K%	c #3D2F26",
"L%	c #1D0C14",
"M%	c #311824",
"N%	c #361B28",
"O%	c #351B28",
"P%	c #301724",
"Q%	c #1A0A12",
"R%	c #000102",
"S%	c #140F0E",
"T%	c #48382E",
"U%	c #3F302A",
"V%	c #21161F",
"W%	c #1D1122",
"X%	c #221427",
"Y%	c #231528",
"Z%	c #1E1223",
"`%	c #0F0712",
" &	c #251B15",
".&	c #352822",
"+&	c #1D111C",
"@&	c #221424",
"#&	c #231426",
"$&	c #211322",
"%&	c #1E1417",
"&&	c #44342A",
"*&	c #41312B",
"=&	c #1B101A",
"-&	c #160B19",
";&	c #281C1F",
">&	c #4C3A31",
",&	c #5C483B",
"'&	c #372922",
")&	c #281D18",
"!&	c #42332A",
"~&	c #614C3E",
"                                                                                                                                ",
"                                                                                                                                ",
"                                                                                                                                ",
"                                                                                                                                ",
"                                                                                                                                ",
"                                                                                                                                ",
"                                                                                                                                ",
"                                                                                                                                ",
"                                                                                                                                ",
"                                                                                                                                ",
"                                                                                                                                ",
"                                                                                                                                ",
"                                                                                                                                ",
"                                                                                                                                ",
"                                                                                                                                ",
"                                                                                                                                ",
"                                                                                                                                ",
"                                                      . + @ # $ $ $ $ # % &                                                     ",
"                                                      * = - ; > , ' ' ) ! ~ {                                                   ",
"                                                    + ] ^ / ( _ : < [ < } | 1 2                                                 ",
"                                                3 4 5 6 7 8 9 0 a b c b d e f @ 4 * g .                                         ",
"                                                h i j k l m n o p q q r s t u v w x # g                                         ",
"                                            y z A B C D E F G H I J q K L M N O P Q R 4                                         ",
"                                            & S T U l E E F G H I V W X Y Z `  ...P w 4                                         ",
"                                            +.@.#.$.%.&.&.*.=.-.;.>.,.'.).!.~.{.].^./.4                                         ",
"                                            +.@.(._.:.<.<.<.:.[.}.|.1.2.3.4.5.6.7.8./.4                                         ",
"                                            +.@.9.0.a.b.b.b.b.b.b.c.d.e.f.g.h.i.j.k./.4                                         ",
"                                            +.@.l.m.n.n.n.n.o.o.o.p.q.r.s.t.u.v.w.x./.4                                         ",
"                                            + y.z.A.B.C.C.D.E.F.F.G.H.I.J.K.K.L.M.N.O.4                                         ",
"                                        . P.Q.R.S.T.U.V.W.X.Y.Z.`. +.+++@+#+$+%+&+*+=+-+                                        ",
"                                        g ~ ;+>+,+'+)+!+~+Y.{+]+^+/+(+_+:+<+[+}+|+1+2+3+                                        ",
"                                      * Q.4+5+6+7+8+9+0+a+b+Z.c+d+e+f+g+h+i+j+k+l+2+                                            ",
"                                    m+n+o+p+q+r+s+t+u+v+w+x+Z.y+d+z+A+B+C+D+j+E+y.+                                             ",
"                                  4 F+G+H+I+7+J+K+L+M+N+O+P+Q+R+S+T+f+U+V+W+X+Y+Z+2                                             ",
"                                  `+ @.@+@@@#@#@$@%@&@*@=@-@;@>@,@'@f+g+)@!@~@`+* 3                                             ",
"                                  {@]@^@r+t+/@(@L+_@:@h+<@[@}@|@1@2@3@4@5@6@7@z                                                 ",
"                              3 -+A 8@9@0@a@b@c@d@_@e@f@g@h@i@j@k@l@m@n@o@p@h m+                                                ",
"                              & ] q@r@q+#@#@s@t@u@v@w@x@y@z@z@A@B@C@D@E@F@G@= h                                                 ",
"                              H@I@J@K@J+J+L@M@N@O@P@Q@Q@Q@Q@R@S@T@U@V@W@X@Y@Z@`@z y       3 z +.+.2 3                           ",
"                               #.#J@+#t+J+@###$#%#x@Q@Q@Q@Q@w@&#*#=#-#;#>#Y@,#'#S &       4 Z+@.@.Z+*                           ",
"                               #)#J@K@a@J+!#~#{#]#^#%#Q@w@w@Q@Q@Q@/#h+(#_#:#<#[#@.+       & }#|#1#2#3#& 3                       ",
"                               #)#J@K@a@J+4#5#6#7#8#9#0#C+a#b#Q@Q@w@C+c#d#e#f#g#l+h#  3   i#}#j#k#l#m#n#g                       ",
"                               #)#J@K@a@J+J+/@(@o#p#q#r#s#-#t#w@u#Q@x@v#w#x#y#z#A#B#A ~ C#i#D#E#F#G#H#I#P.                      ",
"                               #)#J@K@a@J+J+4#4#J#K#L#M#N#O#P#Q#b#Q@Q@C+R#S#T#U#V#W#X#Z@Y# #Z#`# $.$+$@$P.                      ",
"                               #)#J@K@a@J+J+J+J+#$$$%$&$*$=$-$;$>$D+/#,$'$)$!$~${${$]$^$l+/$($_$ $.$+$@$P.                      ",
"                               #)#J@K@a@J+J+J+J+J+:$<$[$}$|$1$-$2$t#)@3$4$5$6$7$8$8$9$0$a$b$c$E#d$.$+$@$P.                      ",
"                               #)#J@K@a@J+J+J+J+#@4#e$f$g$h$i$j$k$l$m$l$n$o$p$'#q$q$r$s$t$u$v$w$x$y$+$@$P.                      ",
"                               #)#J@K@a@J+J+J+J+J+J+0@z$A$B$C$2+i$G@D$E$F$`+C#G$H$H$)#I$J$K$L$M$x$N$O$G$P.                      ",
"                               #)#J@K@a@J+J+J+J+J+4#P$Q$R$H@g { +  # #S$T$-+m+C# # #U$Q.V$W$X$Y$d$y$Z$@$P.                      ",
"                               #)#J@K@a@J+J+J+a@`$ %.%+%Z+y                           m+B#@%#%$%%%&%*%{@m+                      ",
"                               #)#J@K@a@J+J+J+#@ %=%-%;%Z+m+                          >%,%'%)%.$!%~%{%g                         ",
"                               #)#J@K@a@J+J+]%P$^%/%(%_%Z+m+                      . +.:%<%[%}%|%1%@ g                           ",
"                               #)#J@K@a@J+a@2%J@3%4%5%_%Z+m+                      3 ~ 6%7%8%9%0%a%3+                            ",
"                               #)#J@K@a@J+a@b%c%d%e%f%g%Z+m+                      3 7@h%#%i%j%% P.                              ",
"                               #)#J@k%t+J+s+b%l%m%n%o%p%Z+m+                      3 @ q%r%s%t%3                                 ",
"                               #)#J@k%t+J+s+b%l%u%v%w%x%Z+m+                        2 y%% z%*                                   ",
"                               #.#A%B%C%D%C%E%F%G%H%I%J%@ y                                                                     ",
"                              H@K%L%M%N%O%N%P%Q%R%S%T%z%P.                                                                      ",
"                              & ] U%V%W%X%Y%Z%`% &}#@ m+                                                                        ",
"                              3 -+1 .&+&@&#&$&%&&&z%m+                                                                          ",
"                                  i#7@*&=&-&;&>&F+P.                                                                            ",
"                                    P.,&'&)&!&Q.y                                                                               ",
"                                      h F+~&Q.*                                                                                 ",
"                                                                                                                                "};
