/* XPM */
static char * mining_right0_xpm[] = {
"64 64 584 2",
"  	c #785E4E",
". 	c #735A4A",
"+ 	c #675042",
"@ 	c #624C3F",
"# 	c #624D3F",
"$ 	c #6B5345",
"% 	c #765C4D",
"& 	c #765D4D",
"* 	c #685145",
"= 	c #453835",
"- 	c #30292C",
"; 	c #332B2D",
"> 	c #322A2D",
", 	c #342B2E",
"' 	c #52413A",
") 	c #6F5749",
"! 	c #745B4B",
"~ 	c #644E40",
"{ 	c #55494E",
"] 	c #50536E",
"^ 	c #505676",
"/ 	c #4F5676",
"( 	c #525066",
"_ 	c #594946",
": 	c #6A5244",
"< 	c #765C4C",
"[ 	c #6A5347",
"} 	c #4A3D3E",
"| 	c #454861",
"1 	c #60688D",
"2 	c #697199",
"3 	c #687098",
"4 	c #677097",
"5 	c #555C7D",
"6 	c #373340",
"7 	c #574337",
"8 	c #745B4C",
"9 	c #634D40",
"0 	c #504447",
"a 	c #545772",
"b 	c #555C7E",
"c 	c #4E5574",
"d 	c #4E5370",
"e 	c #515571",
"f 	c #4F5370",
"g 	c #4B516F",
"h 	c #4A516F",
"i 	c #4A506E",
"j 	c #3B4059",
"k 	c #1B1D29",
"l 	c #523F34",
"m 	c #6A5348",
"n 	c #504448",
"o 	c #43465F",
"p 	c #5A6285",
"q 	c #565E80",
"r 	c #2F3347",
"s 	c #1D1514",
"t 	c #2C2222",
"u 	c #221B1E",
"v 	c #19161B",
"w 	c #2D2424",
"x 	c #372C29",
"y 	c #342825",
"z 	c #3A2C24",
"A 	c #5C473B",
"B 	c #755B4C",
"C 	c #4A3E40",
"D 	c #545773",
"E 	c #34384F",
"F 	c #151722",
"G 	c #170900",
"H 	c #27190C",
"I 	c #1B0F01",
"J 	c #251B15",
"K 	c #544135",
"L 	c #665042",
"M 	c #664F42",
"N 	c #6F5748",
"O 	c #775D4D",
"P 	c #584438",
"Q 	c #282631",
"R 	c #5A5F80",
"S 	c #4C4757",
"T 	c #423329",
"U 	c #413228",
"V 	c #392A22",
"W 	c #281D16",
"X 	c #1E140F",
"Y 	c #2C2119",
"Z 	c #554136",
"` 	c #5A4639",
" .	c #261E1F",
"..	c #25293A",
"+.	c #433E4A",
"@.	c #614E48",
"#.	c #6E5647",
"$.	c #6C5546",
"%.	c #564337",
"&.	c #1F1510",
"*.	c #291D16",
"=.	c #2F231C",
"-.	c #4B3A2F",
";.	c #6D5547",
">.	c #4C3A30",
",.	c #5F4A3D",
"'.	c #271D17",
").	c #201610",
"!.	c #19100C",
"~.	c #3A2C23",
"{.	c #755C4C",
"].	c #72594A",
"^.	c #735A4B",
"/.	c #5B463A",
"(.	c #261C15",
"_.	c #1E150F",
":.	c #271B15",
"<.	c #170F0B",
"[.	c #392B23",
"}.	c #705849",
"|.	c #5B473A",
"1.	c #3F3027",
"2.	c #18110C",
"3.	c #130B06",
"4.	c #19100A",
"5.	c #0E0704",
"6.	c #4A392E",
"7.	c #675143",
"8.	c #604B3E",
"9.	c #362A23",
"0.	c #0A0A0D",
"a.	c #06070B",
"b.	c #070B0E",
"c.	c #080C0F",
"d.	c #020406",
"e.	c #070403",
"f.	c #120C08",
"g.	c #201712",
"h.	c #503D32",
"i.	c #3D2F29",
"j.	c #1E1C20",
"k.	c #0F161F",
"l.	c #101720",
"m.	c #151F27",
"n.	c #142028",
"o.	c #000C15",
"p.	c #000000",
"q.	c #2D221B",
"r.	c #4C3B30",
"s.	c #695244",
"t.	c #715849",
"u.	c #614B3E",
"v.	c #3B2E27",
"w.	c #0B1119",
"x.	c #131A25",
"y.	c #151D28",
"z.	c #151E28",
"A.	c #14222C",
"B.	c #2D2E31",
"C.	c #524136",
"D.	c #624B39",
"E.	c #634B39",
"F.	c #604937",
"G.	c #483628",
"H.	c #2B1F18",
"I.	c #534034",
"J.	c #6C5445",
"K.	c #5A463A",
"L.	c #382C26",
"M.	c #1F1D21",
"N.	c #121A24",
"O.	c #141C27",
"P.	c #151D29",
"Q.	c #151D27",
"R.	c #000F1D",
"S.	c #45362D",
"T.	c #8D6C54",
"U.	c #AA8265",
"V.	c #AB8366",
"W.	c #AC8466",
"X.	c #A78063",
"Y.	c #7F614A",
"Z.	c #31241A",
"`.	c #2A1F18",
" +	c #4A392F",
".+	c #3E3029",
"++	c #0B1016",
"@+	c #101821",
"#+	c #131C26",
"$+	c #131B26",
"%+	c #000010",
"&+	c #463225",
"*+	c #997256",
"=+	c #BC8D6D",
"-+	c #C09372",
";+	c #C39775",
">+	c #BE9372",
",+	c #916F56",
"'+	c #2D1F19",
")+	c #32261E",
"!+	c #5E493C",
"~+	c #352922",
"{+	c #1E1D23",
"]+	c #171E2A",
"^+	c #19202C",
"/+	c #19212D",
"(+	c #171F2B",
"_+	c #171D27",
":+	c #13161B",
"<+	c #503829",
"[+	c #93684C",
"}+	c #B48362",
"|+	c #BD906F",
"1+	c #C09473",
"2+	c #BA8F6F",
"3+	c #917055",
"4+	c #473723",
"5+	c #100E00",
"6+	c #34271F",
"7+	c #1E191D",
"8+	c #272C3C",
"9+	c #343A4E",
"0+	c #353B50",
"a+	c #242C3F",
"b+	c #2B262A",
"c+	c #644D3C",
"d+	c #8D6B52",
"e+	c #A87C5E",
"f+	c #B88968",
"g+	c #BE9170",
"h+	c #B1886A",
"i+	c #99765A",
"j+	c #9D7E52",
"k+	c #9F834C",
"l+	c #6F5C31",
"m+	c #3B2D22",
"n+	c #594539",
"o+	c #241F23",
"p+	c #31364A",
"q+	c #414760",
"r+	c #424861",
"s+	c #2A334A",
"t+	c #382D2B",
"u+	c #8B6A51",
"v+	c #B78D6D",
"w+	c #BE9271",
"x+	c #BF9372",
"y+	c #9F7A5F",
"z+	c #654E38",
"A+	c #9D824B",
"B+	c #C5A45F",
"C+	c #907744",
"D+	c #3F3123",
"E+	c #221B1D",
"F+	c #252939",
"G+	c #31374B",
"H+	c #32384C",
"I+	c #0E2137",
"J+	c #322622",
"K+	c #906E54",
"L+	c #BE9272",
"M+	c #C29675",
"N+	c #C19574",
"O+	c #9D785D",
"P+	c #503D2B",
"Q+	c #6D5B34",
"R+	c #927A4A",
"S+	c #6A5834",
"T+	c #3A2D22",
"U+	c #1E1714",
"V+	c #10161F",
"W+	c #171F2A",
"X+	c #141D29",
"Y+	c #191E28",
"Z+	c #352B29",
"`+	c #604938",
" @	c #9B775C",
".@	c #BD9271",
"+@	c #9F7A5E",
"@@	c #4C392B",
"#@	c #030E16",
"$@	c #292627",
"%@	c #1C191A",
"&@	c #352820",
"*@	c #1D1614",
"=@	c #0D131C",
"-@	c #02131F",
";@	c #1B181A",
">@	c #6C5340",
",@	c #B58C6C",
"'@	c #4B382B",
")@	c #0D0622",
"!@	c #070416",
"~@	c #342720",
"{@	c #44352C",
"]@	c #282222",
"^@	c #121822",
"/@	c #181A26",
"(@	c #030D1E",
"_@	c #1F1715",
":@	c #80624B",
"<@	c #B88D6E",
"[@	c #C29674",
"}@	c #BB9070",
"|@	c #AB8466",
"1@	c #957258",
"2@	c #765A45",
"3@	c #533E33",
"4@	c #281A21",
"5@	c #00000E",
"6@	c #48382F",
"7@	c #1A1419",
"8@	c #1C1321",
"9@	c #0E071D",
"0@	c #201615",
"a@	c #C19473",
"b@	c #AE8567",
"c@	c #7B5E48",
"d@	c #7E604A",
"e@	c #A17B60",
"f@	c #84654E",
"g@	c #32241D",
"h@	c #000001",
"i@	c #392A21",
"j@	c #664F41",
"k@	c #775D4E",
"l@	c #49382F",
"m@	c #2F2123",
"n@	c #000011",
"o@	c #110A0B",
"p@	c #7E6049",
"q@	c #BC8E6D",
"r@	c #A3795C",
"s@	c #5C4231",
"t@	c #594333",
"u@	c #8A6951",
"v@	c #715641",
"w@	c #302016",
"x@	c #563827",
"y@	c #6D4C37",
"z@	c #654B3B",
"A@	c #685143",
"B@	c #3F3028",
"C@	c #110A09",
"D@	c #392A1F",
"E@	c #86664E",
"F@	c #BD8F6F",
"G@	c #B68464",
"H@	c #9B6C4F",
"I@	c #593C2B",
"J@	c #2D2118",
"K@	c #4D392B",
"L@	c #453427",
"M@	c #4D3627",
"N@	c #875D43",
"O@	c #96664A",
"P@	c #634331",
"Q@	c #4E3B2C",
"R@	c #85654E",
"S@	c #A78164",
"T@	c #B68564",
"U@	c #B27D5D",
"V@	c #99694C",
"W@	c #503C2D",
"X@	c #84654D",
"Y@	c #906E55",
"Z@	c #946F55",
"`@	c #A57558",
" #	c #9E6D4F",
".#	c #62412E",
"+#	c #403128",
"@#	c #6D5546",
"##	c #423229",
"$#	c #6A503D",
"%#	c #BF9271",
"&#	c #B78766",
"*#	c #AD7959",
"=#	c #A77253",
"-#	c #926549",
";#	c #694B37",
">#	c #81624C",
",#	c #B2896A",
"'#	c #BB8F6E",
")#	c #B58363",
"!#	c #61402D",
"~#	c #6D533F",
"{#	c #B08869",
"]#	c #B88666",
"^#	c #A77355",
"/#	c #855A41",
"(#	c #795640",
"_#	c #947056",
":#	c #AC8467",
"<#	c #B78565",
"[#	c #9E6D50",
"}#	c #6A4F3B",
"|#	c #AB8163",
"1#	c #BE906F",
"2#	c #BA8C6C",
"3#	c #AC7D5E",
"4#	c #926449",
"5#	c #613E2D",
"6#	c #6B4E3C",
"7#	c #644532",
"8#	c #A17355",
"9#	c #B48060",
"0#	c #AD7B5C",
"a#	c #8B6248",
"b#	c #5D3D2C",
"c#	c #4F2722",
"d#	c #795242",
"e#	c #AF8467",
"f#	c #543627",
"g#	c #8A5B43",
"h#	c #9A664C",
"i#	c #936149",
"j#	c #704736",
"k#	c #441F1D",
"l#	c #501F23",
"m#	c #7D5041",
"n#	c #AA7D60",
"o#	c #BA8B6B",
"p#	c #BA8B6A",
"q#	c #3C1F19",
"r#	c #64372F",
"s#	c #703E35",
"t#	c #6E3C34",
"u#	c #64332E",
"v#	c #5B2929",
"w#	c #5C2829",
"x#	c #79493B",
"y#	c #A26F53",
"z#	c #B17D5C",
"A#	c #B17D5D",
"B#	c #B07C5C",
"C#	c #B07A5A",
"D#	c #9E6C4F",
"E#	c #61412E",
"F#	c #321314",
"G#	c #552426",
"H#	c #5E292B",
"I#	c #5F2B2C",
"J#	c #602C2C",
"K#	c #5F2A2B",
"L#	c #784739",
"M#	c #A06B4F",
"N#	c #B58464",
"O#	c #B78666",
"P#	c #B37F5E",
"Q#	c #9F6D50",
"R#	c #331414",
"S#	c #572727",
"T#	c #612C2C",
"U#	c #754438",
"V#	c #9A674D",
"W#	c #B07E5F",
"X#	c #BB8D6C",
"Y#	c #B07F60",
"Z#	c #98694C",
"`#	c #61422F",
" $	c #6A3831",
".$	c #7F4E3E",
"+$	c #9A6950",
"@$	c #B18061",
"#$	c #B88766",
"$$	c #B18161",
"%$	c #93694E",
"&$	c #714E3A",
"*$	c #63493A",
"=$	c #632F2D",
"-$	c #7E4D3D",
";$	c #9C694E",
">$	c #A57153",
",$	c #9B694E",
"'$	c #6D4834",
")$	c #3F2D24",
"!$	c #654F41",
"~$	c #5F2B2B",
"{$	c #79473A",
"]$	c #7E4C3C",
"^$	c #764738",
"/$	c #4F2D23",
"($	c #35271F",
"_$	c #3D1919",
":$	c #362820",
"<$	c #602B2C",
"[$	c #5B2A2A",
"}$	c #3D1A1A",
"|$	c #612D2D",
"1$	c #362720",
"2$	c #5C2A2A",
"3$	c #34261F",
"4$	c #532727",
"5$	c #452823",
"6$	c #5E2B2B",
"7$	c #4D2222",
"8$	c #3C211D",
"9$	c #564136",
"0$	c #6C5446",
"a$	c #715949",
"b$	c #49322A",
"c$	c #4D2725",
"d$	c #562727",
"e$	c #5D2B2C",
"f$	c #54272A",
"g$	c #3C1A1D",
"h$	c #2B1D18",
"i$	c #604A3D",
"j$	c #3C2821",
"k$	c #431D1D",
"l$	c #412027",
"m$	c #29141B",
"n$	c #291D18",
"o$	c #3C1919",
"p$	c #401E22",
"q$	c #351B25",
"r$	c #23121B",
"s$	c #271C17",
"t$	c #552626",
"u$	c #331515",
"v$	c #210F16",
"w$	c #2D1822",
"x$	c #23121A",
"y$	c #542626",
"z$	c #2D1111",
"A$	c #0A0810",
"B$	c #1F141E",
"C$	c #180F18",
"D$	c #261C17",
"E$	c #2E1212",
"F$	c #02070F",
"G$	c #0E111C",
"H$	c #0A0C15",
"I$	c #241B16",
"J$	c #01070F",
"K$	c #0C111B",
"L$	c #090C15",
"M$	c #351619",
"N$	c #502528",
"O$	c #55272B",
"P$	c #54272B",
"Q$	c #4A2125",
"R$	c #270F11",
"S$	c #00050A",
"T$	c #0B0E16",
"U$	c #2A211F",
"V$	c #47372D",
"W$	c #372922",
"X$	c #200E17",
"Y$	c #331A25",
"Z$	c #361B28",
"`$	c #351B28",
" %	c #2E1622",
".%	c #17080F",
"+%	c #000102",
"@%	c #1B1512",
"#%	c #4D3C32",
"$%	c #3C2D29",
"%%	c #1E131E",
"&%	c #1D1123",
"*%	c #221427",
"=%	c #231528",
"-%	c #1D1122",
";%	c #0C060F",
">%	c #291E18",
",%	c #5B473B",
"'%	c #30241F",
")%	c #1D111D",
"!%	c #231425",
"~%	c #231426",
"{%	c #201321",
"]%	c #211718",
"^%	c #49382E",
"/%	c #6B5445",
"(%	c #3D2E29",
"_%	c #170C18",
":%	c #160B19",
"<%	c #2D2021",
"[%	c #4F3D33",
"}%	c #33261F",
"|%	c #291E19",
"1%	c #47362C",
"2%	c #6A5344",
"3%	c #614C3F",
"                                                                                                                                ",
"                                                . + @ # # # # @ # $ %                                                           ",
"                                              & * = - ; ; ; ; > , ' )                                                           ",
"                                            ! ~ { ] ^ / / / / ^ / ( _ : &                                                       ",
"                                          < [ } | 1 2 3 3 3 3 3 4 5 6 7 8                                                       ",
"                                        < 9 0 a b c d e f g h g i j k l !                                                       ",
"                                      ! m n o p q r s t u v w x x y z A B                                                       ",
"                                    & 9 C D p g E F G H I J K L + M + N O                                                       ",
"                                    < P Q g R S T U V W X Y Z $ B                                                               ",
"                                    < `  ...+.@.#.$.%.W &.*.=.-.;.                                                              ",
"                                    O + l >.P N     ,.'.).*.!.~.$                                                               ",
"                                      {.. ].^.&   ! /.(._.:.<.[.L B 8 %                                                         ",
"                                                }.|.1.2.3.4.5.'.6.K %.7.O                                                       ",
"                                            O . 8.9.0.a.b.c.d.e.f.f.g.h.;.<                                                     ",
"                                            ].` i.j.k.l.m.n.o.p.p.p.p.q.r.s.                                                    ",
"                                        O t.u.v.w.x.y.z.A.B.C.D.E.E.F.G.H.I.J.B                                                 ",
"                                        ^.K.L.M.N.O.P.Q.R.S.T.U.V.W.X.Y.Z.`. +$                                                 ",
"                                    O N ,..+++@+#+#+Q.$+%+&+*+=+-+;+>+,+'+p.)+M                                                 ",
"                                    % !+~+{+]+^+/+/+(+_+:+<+[+}+|+1+2+3+4+5+6+L                                                 ",
"                                    < P 7+8+9+0+0+9+a+b+c+d+e+f+g+h+i+j+k+l+m+L                                                 ",
"                                    < n+o+p+q+r+r+q+s+t+u+v+w+-+x+y+z+A+B+C+D+L                                                 ",
"                                    < n+E+F+G+H+H+G+I+J+K+L+M+N+1+O+P+Q+R+S+T+L                                                 ",
"                                    < n+U+V+W+(+X+Y+Z+`+ @.@N+N+1++@@@#@$@%@&@L                                                 ",
"                                    < n+*@=@#+O.-@;@>@y+,@x+1+N+1++@'@%+)@!@~@L                                                 ",
"                                    & 9 {@]@^@/@(@_@:@<@[@1+1+}@|@1@2@3@4@5@6++                                                 ",
"                                      ! s.6@7@8@9@0@:@<@[@1+a@b@c@d@e@f@g@h@i@j@k@                                              ",
"                                        < 9 l@m@n@o@p@v+M+x+q@r@s@t@u@v@w@x@y@z@L !                                             ",
"                                          < A@B@C@D@E@<@N+F@G@H@I@J@K@L@M@N@O@P@6.#.                                            ",
"                                            #.T Q@R@S@}@q@T@U@V@x@W@X@Y@Z@`@ #.#+#@#                                            ",
"                                            ;.##$#W.1+%#&#*#=#-#;#>#,#>+'#)# #!###;.                                            ",
"                                            ;.##~#{#;+x+]#^#/#(#_#:#.@M+%#<#[#!###;.                                            ",
"                                            ;.##}#|#1#2#3#4#5#6#V.N+1+N+w+T@ #!###;.                                            ",
"                                            ;.##7#8#9#0#a#b#c#d#e#N+1+1+g+T@ #!###;.                                            ",
"                                            ;.##f#g#h#i#j#k#l#m#n#o#p#p#f+9# #!###;.                                            ",
"                                            ;.##q#r#s#t#u#v#w#x#y#z#A#A#B#C#D#E###;.                                            ",
"                                            ;.##F#G#H#H#I#J#K#L#M#A#N#O#G@P#Q#E#+#@#                                            ",
"                                            ;.##R#S#T#J#J#J#K#U#V#W#2#g+X#Y#Z#`#6.#.                                            ",
"                                            ;.##R#S#T#J#J#J#I# $.$+$@$#$$$%$&$*$L !                                             ",
"                                            ;.##R#S#T#J#J#J#J#J#=$-$;$>$,$'$)$!$k@                                              ",
"                                            ;.##R#S#T#J#J#J#J#I#~$ ${$]$^$/$($+                                                 ",
"                                            ;.##R#S#T#J#J#J#J#J#J#J#I#J#v#_$:$L                                                 ",
"                                            ;.##R#S#T#J#J#J#J#J#J#J#<$J#v#_$:$L                                                 ",
"                                            ;.##R#S#T#J#J#J#J#J#J#J#J#T#[$}$:$L                                                 ",
"                                            ;.##R#S#T#J#J#J#J#J#J#J#J#T#[$}$:$L                                                 ",
"                                            ;.##R#S#T#J#J#J#J#J#J#J#J#T#[$}$:$L                                                 ",
"                                            ;.##R#S#T#J#J#J#J#J#J#J#J#|$[$}$1$L                                                 ",
"                                            ;.##R#S#T#J#J#J#J#J#J#J#J#|$2$}$3$M                                                 ",
"                                            ;.U R#S#|$J#J#J#J#J#J#J#J#2$4$5$-.$                                                 ",
"                                            ;.T R#S#T#J#J#J#J#J#J#J#6$7$8$9$0$B                                                 ",
"                                            a$n+b$c$d$6$J#J#J#J#J#e$f$g$h$!+k@                                                  ",
"                                            O . i$j$k$2$T#J#J#J#6$f$l$m$n$!+O                                                   ",
"                                                + &@o$v#|$J#J#v#7$p$q$r$s$!+O                                                   ",
"                                                L :$}$[$T#J#T#t$u$v$w$x$s$!+O                                                   ",
"                                                L :$}$[$T#J#T#y$z$A$B$C$D$!+O                                                   ",
"                                                L :$}$[$|$J#T#t$E$F$G$H$I$!+O                                                   ",
"                                                L :$}$[$|$J#T#t$E$J$K$L$I$!+O                                                   ",
"                                                L 3$M$N$O$P$P$Q$R$S$T$U$V$+ O                                                   ",
"                                                + W$X$Y$Z$`$Z$ %.%+%@%#%$ B                                                     ",
"                                                #.7 $%%%&%*%=%-%;%>%-.j@O                                                       ",
"                                                O ].,%'%)%!%~%{%]%^%/%%                                                         ",
"                                                    #.` (%_%:%<%[%L {.                                                          ",
"                                                      . P }%|%1%2%O                                                             ",
"                                                      k@#.9 3%A@!                                                               ",
"                                                                                                                                "};
