/* XPM */
static char * mining_up1_xpm[] = {
"64 64 513 2",
"  	c #785E4E",
". 	c #745B4B",
"+ 	c #6B5345",
"@ 	c #6C5445",
"# 	c #755C4C",
"$ 	c #6B5446",
"% 	c #4E3D34",
"& 	c #513F36",
"* 	c #6E5648",
"= 	c #695244",
"- 	c #5B4B4B",
"; 	c #4C4A5F",
"> 	c #4D4A5D",
", 	c #5D4C49",
"' 	c #6E5647",
") 	c #4E3C31",
"! 	c #444355",
"~ 	c #5E6487",
"{ 	c #5B6184",
"] 	c #423E4D",
"^ 	c #534034",
"/ 	c #715849",
"( 	c #6C5446",
"_ 	c #423229",
": 	c #3A3F58",
"< 	c #636B91",
"[ 	c #60688D",
"} 	c #34384F",
"| 	c #48382D",
"1 	c #6F5748",
"2 	c #6C5546",
"3 	c #43342A",
"4 	c #626A90",
"5 	c #5F678C",
"6 	c #36394E",
"7 	c #4A392E",
"8 	c #6D5547",
"9 	c #44342A",
"0 	c #3B4059",
"a 	c #636B92",
"b 	c #363A4F",
"c 	c #775D4E",
"d 	c #765C4C",
"e 	c #685143",
"f 	c #403128",
"g 	c #373C54",
"h 	c #5E668A",
"i 	c #5B6286",
"j 	c #34364B",
"k 	c #745B4C",
"l 	c #634D40",
"m 	c #4B3A2F",
"n 	c #2B2019",
"o 	c #25283A",
"p 	c #424863",
"q 	c #404560",
"r 	c #242534",
"s 	c #4A392F",
"t 	c #705849",
"u 	c #755B4C",
"v 	c #695345",
"w 	c #4A3B33",
"x 	c #22201F",
"y 	c #12191A",
"z 	c #151B21",
"A 	c #1B222B",
"B 	c #1B212A",
"C 	c #191D20",
"D 	c #473931",
"E 	c #4A3C33",
"F 	c #373838",
"G 	c #2B393E",
"H 	c #2C3A3F",
"I 	c #2B393D",
"J 	c #29383B",
"K 	c #2A383B",
"L 	c #2C393D",
"M 	c #383939",
"N 	c #4B3C33",
"O 	c #4B3D34",
"P 	c #282C2E",
"Q 	c #2F3D42",
"R 	c #38484E",
"S 	c #39494F",
"T 	c #38494F",
"U 	c #493A31",
"V 	c #2F3E43",
"W 	c #36464C",
"X 	c #394A50",
"Y 	c #3A4B51",
"Z 	c #394B51",
"` 	c #735A4B",
" .	c #685244",
"..	c #4C3B31",
"+.	c #232526",
"@.	c #765C4D",
"#.	c #644E40",
"$.	c #46362D",
"%.	c #2C2828",
"&.	c #202C32",
"*.	c #2F3E44",
"=.	c #5A4639",
"-.	c #261E1D",
";.	c #202733",
">.	c #2F3948",
",.	c #35444E",
"'.	c #272021",
").	c #2D3245",
"!.	c #3E455B",
"~.	c #3D4A58",
"{.	c #394A51",
"].	c #272020",
"^.	c #2A2E40",
"/.	c #3A4157",
"(.	c #3E485A",
"_.	c #3E4B5A",
":.	c #3F4C5A",
"<.	c #3F4B59",
"[.	c #251C1A",
"}.	c #161B26",
"|.	c #272E3E",
"1.	c #394055",
"2.	c #434B62",
"3.	c #444C64",
"4.	c #444C63",
"5.	c #241C17",
"6.	c #0D161C",
"7.	c #1D2732",
"8.	c #2F3648",
"9.	c #393F55",
"0.	c #3B4259",
"a.	c #3B4359",
"b.	c #3C4359",
"c.	c #241D19",
"d.	c #141D24",
"e.	c #1E2933",
"f.	c #202936",
"g.	c #222A38",
"h.	c #252F3C",
"i.	c #27323F",
"j.	c #27333F",
"k.	c #765D4D",
"l.	c #5B473A",
"m.	c #241A14",
"n.	c #000E1E",
"o.	c #141F2D",
"p.	c #18232F",
"q.	c #19242E",
"r.	c #19252E",
"s.	c #1A262F",
"t.	c #1E2530",
"u.	c #1F232F",
"v.	c #0A131F",
"w.	c #72594A",
"x.	c #5E493B",
"y.	c #413026",
"z.	c #3C2927",
"A.	c #3B2A2E",
"B.	c #2F2C33",
"C.	c #202B34",
"D.	c #19252F",
"E.	c #17212B",
"F.	c #17202B",
"G.	c #1E2A34",
"H.	c #202531",
"I.	c #241C29",
"J.	c #2F2123",
"K.	c #403026",
"L.	c #775D4D",
"M.	c #6D5546",
"N.	c #735945",
"O.	c #896951",
"P.	c #8A644D",
"Q.	c #7C5543",
"R.	c #57423C",
"S.	c #1F2D36",
"T.	c #012532",
"U.	c #09232F",
"V.	c #08222F",
"W.	c #08232F",
"X.	c #0D2632",
"Y.	c #112935",
"Z.	c #041D2B",
"`.	c #292023",
" +	c #684F3E",
".+	c #85664F",
"++	c #745A46",
"@+	c #614B3E",
"#+	c #443329",
"$+	c #84654E",
"%+	c #B28869",
"&+	c #B68666",
"*+	c #A47458",
"=+	c #7C5A49",
"-+	c #4B3F3D",
";+	c #41393A",
">+	c #443B3B",
",+	c #453C3B",
"'+	c #433A3A",
")+	c #31282B",
"!+	c #3E2B24",
"~+	c #8A6951",
"{+	c #AD8567",
"]+	c #86664F",
"^+	c #5F4A3D",
"/+	c #382A20",
"(+	c #B98E6E",
"_+	c #C09270",
":+	c #B68767",
"<+	c #9F7359",
"[+	c #8A624C",
"}+	c #875F4A",
"|+	c #88604B",
"1+	c #88614C",
"2+	c #89604B",
"3+	c #865E4A",
"4+	c #70493B",
"5+	c #5F3B30",
"6+	c #956F57",
"7+	c #B3896B",
"8+	c #86674F",
"9+	c #614B3D",
"0+	c #5E4737",
"a+	c #906E55",
"b+	c #B98F6F",
"c+	c #C29574",
"d+	c #BE9170",
"e+	c #B58566",
"f+	c #AE7B5C",
"g+	c #AD7A5B",
"h+	c #AD795A",
"i+	c #AB7758",
"j+	c #AA7556",
"k+	c #AB795A",
"l+	c #91604A",
"m+	c #73453A",
"n+	c #996F58",
"o+	c #B48A6B",
"p+	c #927056",
"q+	c #574437",
"r+	c #725744",
"s+	c #987459",
"t+	c #AF8668",
"u+	c #BD9271",
"v+	c #C19574",
"w+	c #C09372",
"x+	c #BD8F6E",
"y+	c #BB8B6B",
"z+	c #BB8B6A",
"A+	c #B88867",
"B+	c #B27E5E",
"C+	c #AE7857",
"D+	c #BC8D6B",
"E+	c #B98A69",
"F+	c #9C6E56",
"G+	c #774A3E",
"H+	c #986D57",
"I+	c #B88D6E",
"J+	c #B08869",
"K+	c #3E2F25",
"L+	c #7C5E48",
"M+	c #B38A6B",
"N+	c #C09473",
"O+	c #BC8F6E",
"P+	c #B38060",
"Q+	c #AD7757",
"R+	c #B38161",
"S+	c #BC8E6E",
"T+	c #BC9070",
"U+	c #B28769",
"V+	c #946A54",
"W+	c #75483D",
"X+	c #976D56",
"Y+	c #BB8F6F",
"Z+	c #C29674",
"`+	c #3B2D23",
" @	c #7D5F49",
".@	c #B58C6C",
"+@	c #B48161",
"@@	c #AF8468",
"#@	c #906652",
"$@	c #74483D",
"%@	c #6E4038",
"&@	c #986E57",
"*@	c #BB8F70",
"=@	c #C49775",
"-@	c #3C2D24",
";@	c #B58B6C",
">@	c #B48261",
",@	c #BB8E6D",
"'@	c #A67C61",
")@	c #75493E",
"!@	c #5A2126",
"~@	c #693A34",
"{@	c #3D2E24",
"]@	c #7C5F49",
"^@	c #B48B6C",
"/@	c #BF9372",
"(@	c #B98969",
"_@	c #B48363",
":@	c #BA8B6B",
"<@	c #C09574",
"[@	c #A67B61",
"}@	c #74473D",
"|@	c #591E25",
"1@	c #693934",
"2@	c #C39675",
"3@	c #6A5345",
"4@	c #544134",
"5@	c #745845",
"6@	c #9D785D",
"7@	c #B2896B",
"8@	c #B78665",
"9@	c #B07C5C",
"0@	c #B88868",
"a@	c #75493D",
"b@	c #5A2026",
"c@	c #634C3E",
"d@	c #654C3B",
"e@	c #947158",
"f@	c #B88D6D",
"g@	c #B88766",
"h@	c #9A7059",
"i@	c #957258",
"j@	c #3A2B21",
"k@	c #85664E",
"l@	c #B88C6D",
"m@	c #B98867",
"n@	c #B17D5D",
"o@	c #B88968",
"p@	c #BD8F6F",
"q@	c #B48262",
"r@	c #A77C62",
"s@	c #592026",
"t@	c #9C715A",
"u@	c #B4896B",
"v@	c #604B3E",
"w@	c #423227",
"x@	c #B4896A",
"y@	c #B58565",
"z@	c #AE7B5B",
"A@	c #B78767",
"B@	c #BF9271",
"C@	c #BC8E6D",
"D@	c #B98C6C",
"E@	c #A47A60",
"F@	c #693933",
"G@	c #996E57",
"H@	c #B08668",
"I@	c #5B4639",
"J@	c #765A46",
"K@	c #916E55",
"L@	c #946A51",
"M@	c #98674E",
"N@	c #AA7A5D",
"O@	c #BA8A69",
"P@	c #B78666",
"Q@	c #B27E5D",
"R@	c #AE7858",
"S@	c #AB785A",
"T@	c #A2765B",
"U@	c #8D6350",
"V@	c #6D3E37",
"W@	c #5D2629",
"X@	c #643430",
"Y@	c #7F5847",
"Z@	c #8E6B54",
"`@	c #765B47",
" #	c #5F4A3C",
".#	c #4D382B",
"+#	c #59342B",
"@#	c #734438",
"##	c #95644C",
"$#	c #AA7658",
"%#	c #AD7859",
"&#	c #AA7455",
"*#	c #A97455",
"=#	c #9B684E",
"-#	c #7E4F40",
";#	c #62302E",
">#	c #602B2C",
",#	c #5F2C2C",
"'#	c #542F29",
")#	c #4C372B",
"!#	c #604A3C",
"~#	c #3D1319",
"{#	c #61302D",
"]#	c #7D4B3C",
"^#	c #8C5A44",
"/#	c #8E5C45",
"(#	c #8E5B45",
"_#	c #8E5C46",
":#	c #8F5C46",
"<#	c #82503F",
"[#	c #693630",
"}#	c #5D2729",
"|#	c #5F2B2B",
"1#	c #612D2D",
"2#	c #5D2A2A",
"3#	c #41191B",
"4#	c #2D1D17",
"5#	c #441D1D",
"6#	c #5E2C2B",
"7#	c #66332F",
"8#	c #683631",
"9#	c #693631",
"0#	c #622E2D",
"a#	c #602C2C",
"b#	c #612C2C",
"c#	c #451E1E",
"d#	c #451E1D",
"e#	c #5E292B",
"f#	c #5E2A2B",
"g#	c #451D1D",
"h#	c #544136",
"i#	c #2E1C19",
"j#	c #461F1F",
"k#	c #5D2B2B",
"l#	c #6A5344",
"m#	c #534035",
"n#	c #3C2C27",
"o#	c #331C21",
"p#	c #4B2326",
"q#	c #5E2B2B",
"r#	c #604A3D",
"s#	c #30231D",
"t#	c #1F0F17",
"u#	c #351C25",
"v#	c #4B2429",
"w#	c #59292B",
"x#	c #5E2B2C",
"y#	c #2B1F1A",
"z#	c #211018",
"A#	c #331B25",
"B#	c #3E2028",
"C#	c #492329",
"D#	c #57282B",
"E#	c #2D211B",
"F#	c #311A25",
"G#	c #341C27",
"H#	c #3A1E27",
"I#	c #4C2429",
"J#	c #57292B",
"K#	c #351C27",
"L#	c #3D1F28",
"M#	c #432128",
"N#	c #442128",
"O#	c #331B26",
"P#	c #2E1822",
"Q#	c #2B1620",
"R#	c #2F1923",
"S#	c #231219",
"T#	c #180C10",
"U#	c #321F22",
"V#	c #3F2F28",
"W#	c #47362C",
"X#	c #301A24",
"Y#	c #221119",
"Z#	c #352621",
"`#	c #5D483C",
" $	c #301923",
".$	c #1C0D14",
"+$	c #372921",
"@$	c #665042",
"#$	c #1D0D14",
"$$	c #362921",
"%$	c #654F41",
"&$	c #321A25",
"*$	c #201018",
"=$	c #301A25",
"-$	c #331C27",
";$	c #2C211B",
">$	c #1C0E18",
",$	c #2A1725",
"'$	c #2D1927",
")$	c #2D1928",
"!$	c #291624",
"~$	c #180B15",
"{$	c #34271F",
"]$	c #2C201B",
"^$	c #170B18",
"/$	c #231425",
"($	c #261628",
"_$	c #251527",
":$	c #241526",
"<$	c #231523",
"[$	c #23171B",
"}$	c #413229",
"|$	c #5E493C",
"1$	c #291E19",
"2$	c #160B18",
"3$	c #221425",
"4$	c #251628",
"5$	c #231426",
"6$	c #1C0F1F",
"7$	c #261B1F",
"8$	c #4A3930",
"9$	c #624C3F",
"0$	c #3E2F27",
"a$	c #25191E",
"b$	c #221523",
"c$	c #211324",
"d$	c #221423",
"e$	c #624D3F",
"f$	c #48372F",
"g$	c #1F1419",
"h$	c #130915",
"i$	c #22171B",
"j$	c #4B3930",
"k$	c #3F3027",
"l$	c #31251D",
"m$	c #675042",
"n$	c #654E41",
"                                                                                                                                ",
"                                                              . + @ #                                                           ",
"                                                              $ % & *                                                           ",
"                                                          . = - ; > , + #                                                       ",
"                                                          ' ) ! ~ { ] ^ /                                                       ",
"                                                          ( _ : < [ } | 1                                                       ",
"                                                          2 3 : 4 5 6 7 1                                                       ",
"                                                          8 9 0 a [ b 7 1                                                       ",
"                                                      c d e f g h i j 7 1                                                       ",
"                                                      k l m n o p q r s t                                                       ",
"                                                  c u v w x y z A B C D = u c                                                   ",
"                                                  # l E F G H I J K L M N l #                                                   ",
"                                                . v O P Q R S T T S R Q P O v .                                                 ",
"                                              d l U F V W X Y Z Z Y X W V F U l d                                               ",
"                                          c `  ...+.G R X X X X X X X X R G +... .` c                                           ",
"                                          @.#.$.%.&.*.T Y X X X X X X Y T *.&.%.$.#.@.                                          ",
"                                          # =.-.;.>.,.T X X X X X X X X T ,.>.;.-.=.#                                           ",
"                                          # =.'.).!.~.{.X X X X X X X X {.~.!.).'.=.#                                           ",
"                                          # =.].^./.(._.:.<.<.<.<.<.<.:._.(./.^.].=.#                                           ",
"                                          # =.[.}.|.1.2.3.4.4.4.4.4.4.3.2.1.|.}.[.=.#                                           ",
"                                          # =.5.6.7.8.9.0.a.b.b.b.b.a.0.9.8.7.6.5.=.#                                           ",
"                                          # =.c.d.e.f.g.h.i.j.j.j.j.i.h.g.f.e.d.c.=.#                                           ",
"                                          k.l.m.n.o.p.q.r.s.s.s.s.s.s.r.r.t.u.v.m.l.k.                                          ",
"                                        c w.x.y.z.A.B.C.D.E.F.F.F.F.E.s.G.H.I.J.K.x.w.c                                         ",
"                                      L.M.x.N.O.P.Q.R.S.T.U.V.W.W.V.U.X.Y.Z.`. +.+++x.M.L.                                      ",
"                                      L.@+#+$+%+&+*+=+-+;+>+>+>+>+>+>+,+'+)+!+~+{+]+#+@+L.                                      ",
"                                      c ^+/+$+(+_+:+<+[+}+|+|+1+1+|+|+2+3+4+5+6+7+8+/+^+c                                       ",
"                                    @.t 9+0+a+b+c+d+e+f+g+h+i+j+j+i+h+f+k+l+m+n+o+p+0+9+t @.                                    ",
"                                    @ q+r+s+t+u+v+w+x+y+z+A+B+C+C+B+A+D+E+F+G+H+I+J+s+r+q+@                                     ",
"                                    #.K+L+M+v+N+N+N+N+N+N+O+P+Q+Q+R+S+T+U+V+W+X+Y+Z+M+L+K+#.                                    ",
"                                  c l `+ @.@Z+N+N+N+N+N+v+x+R+Q+Q++@S+@@#@$@%@&@*@=@.@ @`+l c                                   ",
"                                  c l -@ @;@Z+N+d+O+d+N+N+O+R+Q+Q+>@,@'@)@!@~@&@*@=@;@ @-@l c                                   ",
"                                  c l {@]@^@Z+/@(@_@:@w+<@O+R+Q+Q+>@,@[@}@|@1@&@Y+2@^@]@{@l c                                   ",
"                                    3@4@5@6@7@T+8@9@0@/@v+O+R+Q+Q+>@,@'@a@b@~@n+I+M+6@5@4@3@                                    ",
"                                    # ' c@d@e@f@g@9@0@/@v+O+R+Q+Q+>@,@'@a@b@~@h@o+i@d@c@' #                                     ",
"                                      L.^+j@k@l@m@n@o@N+v+p@R+Q+Q+q@O+r@)@s@~@t@u@8+j@^+L.                                      ",
"                                      L.v@w@$+x@y@z@A@B@N+C@P+Q+Q+R+D@E@$@!@F@G@H@]+w@v@L.                                      ",
"                                      L.+ I@J@K@L@M@N@0@O@P@Q@R@C+S@T@U@V@W@X@Y@Z@`@I@+ L.                                      ",
"                                        k./  #.#+#@###$#%#i+j+&#*#=#-#~@;#>#,#'#)#!#/ k.                                        ",
"                                          k.l.m.~#{#]#^#/#(#_#:#_#<#[#}#|#1#2#3#m.l.k.                                          ",
"                                          # =.4#5#6#7#8#9#8#8#9#8#7#0#a#a#b#2#c#4#=.#                                           ",
"                                          k.l.4#d#2#>#e#e#e#e#e#e#f#>#a#a#b#2#g#4#l.k.                                          ",
"                                        @.1 h#i#j#k#b#a#a#a#a#a#a#a#a#a#a#b#k#j#i#h#1 @.                                        ",
"                                      L.l#m#n#o#p#q#b#a#a#a#a#a#a#a#a#a#a#b#q#p#o#n#m#l#L.                                      ",
"                                      k.r#s#t#u#v#w#x#a#a#a#a#a#a#a#a#a#a#x#w#v#u#t#s#r#k.                                      ",
"                                      k.^+y#z#A#B#C#D#a#b#a#a#a#a#a#a#b#a#D#C#B#A#z#y#^+k.                                      ",
"                                      k.^+E#z#F#G#H#I#J#w#w#w#w#w#w#w#w#J#I#H#G#F#z#E#^+k.                                      ",
"                                      k.^+E#z#F#G#K#L#M#N#N#N#N#N#N#N#N#M#L#K#G#F#z#E#^+k.                                      ",
"                                      k.^+E#z#F#K#G#G#G#G#O#P#Q#Q#P#O#G#G#G#G#K#F#z#E#^+k.                                      ",
"                                      k.^+E#z#F#K#G#G#G#G#R#S#T#T#S#R#G#G#G#G#K#F#z#E#^+k.                                      ",
"                                      k.^+E#z#F#K#G#G#O#P#U#V#W#W#V#U#P#O#G#G#K#F#z#E#^+k.                                      ",
"                                      k.^+E#z#F#K#G#G#X#Y#Z#`#' ' `#Z#Y#X#G#G#K#F#z#E#^+k.                                      ",
"                                      k.^+E#z#F#K#G#K# $.$+$@$    @$+$.$ $K#G#K#F#z#E#^+k.                                      ",
"                                      k.^+E#z#F#K#G#K# $#$$$%$    %$$$#$ $K#G#K#F#z#E#^+k.                                      ",
"                                      k.^+E#z#&$K#G#K# $#$+$%$    %$+$#$ $K#G#K#&$z#E#^+k.                                      ",
"                                      k.^+E#*$=$G#-$-$R#.$$$%$    %$$$.$R#-$-$G#=$*$E#^+k.                                      ",
"                                      k.^+;$>$,$'$'$)$!$~${$%$    %${$~$!$)$'$'$,$>$;$^+k.                                      ",
"                                      k.^+]$^$/$($_$:$<$[$}$e     e }$[$<$:$_$($/$^$]$^+k.                                      ",
"                                      k.|$1$2$3$4$5$6$7$8$9$/     / 9$8$7$6$5$4$3$2$1$|$k.                                      ",
"                                      L.l 0$a$b$c$d$7$f l d         d l f 7$d$c$b$a$0$l L.                                      ",
"                                        t e$f$g$h$i$j$l w.            w.l j$i$h$g$f$e$t                                         ",
"                                          u v@k$l$}$9$d                 d 9$}$l$k$v@u                                           ",
"                                            t m$n$e /                     / e n$m$t                                             ",
"                                                                                                                                "};
