/* XPM */
static char * mining_left4_xpm[] = {
"64 64 650 2",
"  	c #785E4E",
". 	c #765C4C",
"+ 	c #745B4B",
"@ 	c #755B4C",
"# 	c #775D4D",
"$ 	c #665042",
"% 	c #554236",
"& 	c #534035",
"* 	c #544135",
"= 	c #534034",
"- 	c #5D483B",
"; 	c #715949",
"> 	c #6D5647",
", 	c #4F3F36",
"' 	c #252322",
") 	c #1C1E1F",
"! 	c #1F2020",
"~ 	c #1D1D1D",
"{ 	c #1A1717",
"] 	c #131112",
"^ 	c #382C25",
"/ 	c #624D40",
"( 	c #735A4B",
"_ 	c #695244",
": 	c #4D3D33",
"< 	c #383837",
"[ 	c #2D3B40",
"} 	c #253238",
"| 	c #1A252C",
"1 	c #131C24",
"2 	c #201E21",
"3 	c #3F312A",
"4 	c #765D4D",
"5 	c #6F5748",
"6 	c #6A5345",
"7 	c #20181A",
"8 	c #25343A",
"9 	c #37484E",
"0 	c #394A50",
"a 	c #38494F",
"b 	c #303F46",
"c 	c #212F38",
"d 	c #19242E",
"e 	c #131A25",
"f 	c #0C1118",
"g 	c #644E40",
"h 	c #72594A",
"i 	c #564337",
"j 	c #3C2E25",
"k 	c #3D2E24",
"l 	c #31241A",
"m 	c #1B1A16",
"n 	c #2C383D",
"o 	c #3A4B51",
"p 	c #394B51",
"q 	c #304047",
"r 	c #223038",
"s 	c #151D27",
"t 	c #121924",
"u 	c #211E22",
"v 	c #3C2E27",
"w 	c #5F4A3D",
"x 	c #705849",
"y 	c #46362C",
"z 	c #4B3D1F",
"A 	c #816A3B",
"B 	c #927842",
"C 	c #8D7548",
"D 	c #736B65",
"E 	c #525D71",
"F 	c #40505E",
"G 	c #394A4F",
"H 	c #2F3F46",
"I 	c #212F37",
"J 	c #18232C",
"K 	c #141C26",
"L 	c #131B26",
"M 	c #0F1720",
"N 	c #121317",
"O 	c #44352D",
"P 	c #634D40",
"Q 	c #47372C",
"R 	c #746035",
"S 	c #C4A35D",
"T 	c #DCB768",
"U 	c #D4B16D",
"V 	c #A89588",
"W 	c #6A7090",
"X 	c #48576E",
"Y 	c #394A51",
"Z 	c #394950",
"` 	c #314048",
" .	c #24313B",
"..	c #1D2732",
"+.	c #19212D",
"@.	c #19202D",
"#.	c #19202C",
"$.	c #181F2A",
"%.	c #201D21",
"&.	c #3C2E26",
"*.	c #654F41",
"=.	c #7F693A",
"-.	c #D5B166",
";.	c #F0C772",
">.	c #E6C074",
",.	c #B29B84",
"'.	c #656987",
").	c #47546F",
"!.	c #404C5D",
"~.	c #3D4759",
"{.	c #384054",
"].	c #353C51",
"^.	c #343A4F",
"/.	c #353B50",
"(.	c #33394E",
"_.	c #232838",
":.	c #291F1D",
"<.	c #614C3E",
"[.	c #776237",
"}.	c #C8A660",
"|.	c #E1BB6C",
"1.	c #D7B36B",
"2.	c #A28B6B",
"3.	c #515368",
"4.	c #404864",
"5.	c #434962",
"6.	c #424962",
"7.	c #424861",
"8.	c #424761",
"9.	c #414761",
"0.	c #40465F",
"a.	c #2D3245",
"b.	c #2C2321",
"c.	c #624C3F",
"d.	c #524427",
"e.	c #8C7547",
"f.	c #9E844F",
"g.	c #957D4D",
"h.	c #6D5F4A",
"i.	c #303547",
"j.	c #292F49",
"k.	c #30334A",
"l.	c #31364B",
"m.	c #31374B",
"n.	c #32384C",
"o.	c #30364A",
"p.	c #212635",
"q.	c #2B221E",
"r.	c #121012",
"s.	c #2A2626",
"t.	c #483C35",
"u.	c #5D4B3F",
"v.	c #5F4C41",
"w.	c #5A463F",
"x.	c #573E39",
"y.	c #4A3333",
"z.	c #2B242D",
"A.	c #181D2A",
"B.	c #1A1E2B",
"C.	c #191E2B",
"D.	c #171F2B",
"E.	c #181F2B",
"F.	c #171E2A",
"G.	c #0E141C",
"H.	c #291F1A",
"I.	c #614C3F",
"J.	c #47362C",
"K.	c #00000C",
"L.	c #191023",
"M.	c #6C5247",
"N.	c #9C7860",
"O.	c #A68065",
"P.	c #A37C60",
"Q.	c #9B6E54",
"R.	c #805743",
"S.	c #462F2E",
"T.	c #171124",
"U.	c #1E1726",
"V.	c #191A26",
"W.	c #131C26",
"X.	c #141C27",
"Y.	c #0B1119",
"Z.	c #735A4A",
"`.	c #594539",
" +	c #392B25",
".+	c #2F2025",
"++	c #81624F",
"@+	c #B98F6F",
"#+	c #C39775",
"$+	c #BE906F",
"%+	c #B48161",
"&+	c #95664C",
"*+	c #523633",
"=+	c #190C25",
"-+	c #231627",
";+	c #1E1927",
">+	c #1A1B28",
",+	c #181A26",
"'+	c #161922",
")+	c #2D2523",
"!+	c #4A392F",
"~+	c #3A2B24",
"{+	c #7D5F4A",
"]+	c #B68C6D",
"^+	c #C29574",
"/+	c #190D25",
"(+	c #241527",
"_+	c #221727",
":+	c #211627",
"<+	c #1A1220",
"[+	c #1A1517",
"}+	c #4E3C32",
"|+	c #6C5446",
"1+	c #755C4C",
"2+	c #392B22",
"3+	c #604837",
"4+	c #937157",
"5+	c #B1896A",
"6+	c #B48261",
"7+	c #94654C",
"8+	c #4F3331",
"9+	c #0E0624",
"0+	c #211427",
"a+	c #221427",
"b+	c #201325",
"c+	c #1A0F1F",
"d+	c #0E0714",
"e+	c #17100E",
"f+	c #574437",
"g+	c #6A5344",
"h+	c #3E2F26",
"i+	c #2A1E17",
"j+	c #554131",
"k+	c #967359",
"l+	c #B68A6A",
"m+	c #B28060",
"n+	c #97674D",
"o+	c #5C3D36",
"p+	c #2F1C29",
"q+	c #2D1928",
"r+	c #2B1728",
"s+	c #281524",
"t+	c #1F0D16",
"u+	c #180709",
"v+	c #221310",
"w+	c #554135",
"x+	c #604B3E",
"y+	c #5A4639",
"z+	c #5B4639",
"A+	c #735945",
"B+	c #8D6950",
"C+	c #A37355",
"D+	c #A37053",
"E+	c #8B5E48",
"F+	c #6E473A",
"G+	c #512A2C",
"H+	c #481F28",
"I+	c #461D26",
"J+	c #43181E",
"K+	c #42151A",
"L+	c #43191B",
"M+	c #492F29",
"N+	c #584438",
"O+	c #6E5647",
"P+	c #765C4D",
"Q+	c #6C5445",
"R+	c #5B4436",
"S+	c #684834",
"T+	c #98694C",
"U+	c #AD7757",
"V+	c #A97455",
"W+	c #8E5D46",
"X+	c #673631",
"Y+	c #663430",
"Z+	c #6E3F36",
"`+	c #71443A",
" @	c #73473C",
".@	c #70453A",
"+@	c #57332B",
"@@	c #3F2922",
"#@	c #5E483B",
"$@	c #6A5244",
"%@	c #574134",
"&@	c #734F3A",
"*@	c #916347",
"=@	c #A47052",
"-@	c #AE7857",
";@	c #915F48",
">@	c #6E3C34",
",@	c #83513F",
"'@	c #9B6950",
")@	c #A4775D",
"!@	c #A87D63",
"~@	c #A47A60",
"{@	c #845D4A",
"]@	c #542E29",
"^@	c #462D27",
"/@	c #574337",
"(@	c #745A4B",
"_@	c #402D22",
":@	c #865F46",
"<@	c #AF7D5D",
"[@	c #B37F5F",
"}@	c #AD7A5B",
"|@	c #A16E52",
"1@	c #8E5B45",
"2@	c #814F3E",
"3@	c #99654B",
"4@	c #B07C5D",
"5@	c #BB8D6D",
"6@	c #C19574",
"7@	c #BD9171",
"8@	c #9B7059",
"9@	c #623530",
"0@	c #340E13",
"a@	c #3D2E25",
"b@	c #6B5445",
"c@	c #675143",
"d@	c #46362E",
"e@	c #372A23",
"f@	c #47372D",
"g@	c #685143",
"h@	c #775D4E",
"i@	c #5E493C",
"j@	c #413024",
"k@	c #8F6B52",
"l@	c #BA8C6C",
"m@	c #BD8F6E",
"n@	c #AB7E61",
"o@	c #875946",
"p@	c #895743",
"q@	c #9E6A4F",
"r@	c #A87354",
"s@	c #B17E5E",
"t@	c #BC8E6D",
"u@	c #C29674",
"v@	c #BE9271",
"w@	c #9B7159",
"x@	c #633630",
"y@	c #3C2D25",
"z@	c #584B4F",
"A@	c #464860",
"B@	c #303449",
"C@	c #2A2120",
"D@	c #433226",
"E@	c #927057",
"F@	c #BE9372",
"G@	c #C29675",
"H@	c #AA8064",
"I@	c #794D40",
"J@	c #8B5C48",
"K@	c #B07F5F",
"L@	c #B58362",
"M@	c #B68666",
"N@	c #BD906F",
"O@	c #633530",
"P@	c #6B5446",
"Q@	c #4A3B38",
"R@	c #4A4D65",
"S@	c #5F678B",
"T@	c #4A516E",
"U@	c #372D2E",
"V@	c #916F55",
"W@	c #C19473",
"X@	c #A97E63",
"Y@	c #7A4E41",
"Z@	c #916651",
"`@	c #B98C6C",
" #	c #BF9170",
".#	c #BE9170",
"+#	c #BF9372",
"@#	c #675042",
"##	c #57494B",
"$#	c #505169",
"%#	c #515878",
"&#	c #545A7A",
"*#	c #555062",
"=#	c #5B483F",
"-#	c #3C2C22",
";#	c #8A654C",
">#	c #B58666",
",#	c #B98968",
"'#	c #A3745A",
")#	c #784B3E",
"!#	c #936954",
"~#	c #BB9070",
"{#	c #C09473",
"]#	c #BE9272",
"^#	c #9C715A",
"/#	c #503E33",
"(#	c #3D3D51",
"_#	c #60688D",
":#	c #5B6286",
"<#	c #36384A",
"[#	c #513F37",
"}#	c #6D5547",
"|#	c #513729",
"1#	c #895E45",
"2#	c #AC7858",
"3#	c #B07A5A",
"4#	c #9B684E",
"5#	c #76463A",
"6#	c #BB8F70",
"7#	c #B68B6C",
"8#	c #956B55",
"9#	c #62342F",
"0#	c #350F13",
"a#	c #4B3A2F",
"b#	c #363B52",
"c#	c #636B92",
"d#	c #5D6489",
"e#	c #292B3B",
"f#	c #372A21",
"g#	c #6A4B39",
"h#	c #895E44",
"i#	c #9F6C4F",
"j#	c #AC7555",
"k#	c #AD7656",
"l#	c #734237",
"m#	c #926953",
"n#	c #AE8668",
"o#	c #896851",
"p#	c #704B3D",
"q#	c #5C2E2B",
"r#	c #381416",
"s#	c #4C3A30",
"t#	c #373C52",
"u#	c #636B91",
"v#	c #5E6589",
"w#	c #2C2D3E",
"x#	c #060000",
"y#	c #2F231C",
"z#	c #5C473A",
"A#	c #392A21",
"B#	c #654430",
"C#	c #97674B",
"D#	c #A97657",
"E#	c #B07D5D",
"F#	c #B17D5D",
"G#	c #A27155",
"H#	c #875A48",
"I#	c #9D735B",
"J#	c #BC9070",
"K#	c #9D775B",
"L#	c #513B2C",
"M#	c #431A1C",
"N#	c #582828",
"O#	c #3A1818",
"P#	c #606689",
"Q#	c #363341",
"R#	c #221300",
"S#	c #281D16",
"T#	c #392B23",
"U#	c #382B22",
"V#	c #1C130D",
"W#	c #3A2418",
"X#	c #694834",
"Y#	c #9C7357",
"Z#	c #B98B6B",
"`#	c #BC8D6C",
" $	c #B6896A",
".$	c #AF8366",
"+$	c #B5896B",
"@$	c #B78665",
"#$	c #93694E",
"$$	c #452E21",
"%$	c #3D1318",
"&$	c #572727",
"*$	c #231913",
"=$	c #1C130E",
"-$	c #160E0A",
";$	c #150E09",
">$	c #000000",
",$	c #36281D",
"'$	c #B1886A",
")$	c #A27B5E",
"!$	c #986C50",
"~$	c #7D533C",
"{$	c #4C2B22",
"]$	c #4C1F21",
"^$	c #0B0403",
"/$	c #19110D",
"($	c #221812",
"_$	c #281C16",
":$	c #271C15",
"<$	c #060304",
"[$	c #37291E",
"}$	c #C19573",
"|$	c #B88D6E",
"1$	c #8D6C53",
"2$	c #5A4231",
"3$	c #503627",
"4$	c #523025",
"5$	c #572927",
"6$	c #5D2A2A",
"7$	c #5A2929",
"8$	c #391818",
"9$	c #3A2C23",
"0$	c #49382D",
"a$	c #362820",
"b$	c #221712",
"c$	c #211711",
"d$	c #000001",
"e$	c #38291E",
"f$	c #947258",
"g$	c #C39675",
"h$	c #B2896A",
"i$	c #957258",
"j$	c #6A4B3B",
"k$	c #3A1617",
"l$	c #360F14",
"m$	c #491E20",
"n$	c #622D2D",
"o$	c #391717",
"p$	c #524138",
"q$	c #654F42",
"r$	c #48382D",
"s$	c #201711",
"t$	c #150E0A",
"u$	c #8E6D54",
"v$	c #B88E6E",
"w$	c #947157",
"x$	c #543D2F",
"y$	c #4E2824",
"z$	c #5B2A29",
"A$	c #5B292A",
"B$	c #5F2C2C",
"C$	c #612D2D",
"D$	c #56443C",
"E$	c #584538",
"F$	c #44342A",
"G$	c #2B1F17",
"H$	c #674E3B",
"I$	c #86674F",
"J$	c #896950",
"K$	c #886950",
"L$	c #86664F",
"M$	c #644C3A",
"N$	c #24140F",
"O$	c #461A1D",
"P$	c #602C2C",
"Q$	c #612C2C",
"R$	c #362C2D",
"S$	c #614B3E",
"T$	c #271D14",
"U$	c #2D1F16",
"V$	c #342119",
"W$	c #38221B",
"X$	c #37221A",
"Y$	c #2D1A14",
"Z$	c #2E1312",
"`$	c #4E2222",
" %	c #403128",
".%	c #120302",
"+%	c #3C1418",
"@%	c #4B1D1F",
"#%	c #4A1D1F",
"$%	c #4B1F20",
"%%	c #502323",
"&%	c #592929",
"*%	c #5B2929",
"=%	c #3B2D24",
"-%	c #422E26",
";%	c #4D2725",
">%	c #5E2B2B",
",%	c #522726",
"'%	c #442A24",
")%	c #4F3D32",
"!%	c #6F5648",
"~%	c #634D3F",
"{%	c #463028",
"]%	c #421C1C",
"^%	c #4C2121",
"/%	c #3D231F",
"(%	c #594338",
"_%	c #43332A",
":%	c #2B1113",
"<%	c #4D2326",
"[%	c #5B2A2C",
"}%	c #441D1D",
"|%	c #2F211A",
"1%	c #624D3F",
"2%	c #423329",
"3%	c #1D0C12",
"4%	c #381C24",
"5%	c #4E252A",
"6%	c #5C2A2B",
"7%	c #180B12",
"8%	c #2F1923",
"9%	c #3C1D24",
"0%	c #482021",
"a%	c #190B12",
"b%	c #2C1822",
"c%	c #26131C",
"d%	c #270F10",
"e%	c #4C2221",
"f%	c #100910",
"g%	c #1F141E",
"h%	c #130E17",
"i%	c #1A090B",
"j%	c #4A2020",
"k%	c #423229",
"l%	c #06070E",
"m%	c #0F111B",
"n%	c #030C15",
"o%	c #1C0A0B",
"p%	c #4B2121",
"q%	c #05070D",
"r%	c #0D111B",
"s%	c #010B15",
"t%	c #372A24",
"u%	c #19161A",
"v%	c #010810",
"w%	c #17080A",
"x%	c #411D20",
"y%	c #53262A",
"z%	c #54272B",
"A%	c #55272B",
"B%	c #52262A",
"C%	c #3B191C",
"D%	c #2D1F19",
"E%	c #715849",
"F%	c #5D483C",
"G%	c #30251F",
"H%	c #000203",
"I%	c #0B0407",
"J%	c #28131E",
"K%	c #351A28",
"L%	c #351B28",
"M%	c #361B28",
"N%	c #341A27",
"O%	c #24101A",
"P%	c #2F221C",
"Q%	c #0C060A",
"R%	c #190E1D",
"S%	c #221528",
"T%	c #1F1224",
"U%	c #190F1D",
"V%	c #362926",
"W%	c #2B201B",
"X%	c #1C111D",
"Y%	c #221425",
"Z%	c #231426",
"`%	c #1F1220",
" &	c #291D1C",
".&	c #392B27",
"+&	c #160B18",
"@&	c #342725",
"#&	c #2D211B",
"$&	c #6B5345",
"                                                                                                                                ",
"                                                                                                                                ",
"                                                                                                                                ",
"                                                                                                                                ",
"                                                                                                                                ",
"                                                                                                                                ",
"                                                                                                                                ",
"                                                                                                                                ",
"                                                                                                                                ",
"                                                                                                                                ",
"                                                                                                                                ",
"                                                          . + + + + + + + @ #                                                   ",
"                                                        # $ % & * * * * = - ;                                                   ",
"                                                      . > , ' ) ! ! ~ { ] ^ / ( #                                               ",
"                                                      _ : < [ [ [ [ } | 1 2 3 - +                                               ",
"                                              4 5 6 _ & 7 8 9 0 0 a b c d e f 3 g h                                             ",
"                                              h i j k l m n 0 o p 0 q r d s t u v w .                                           ",
"                                              x y z A B C D E F G a H I J K L M N O P h                                         ",
"                                              x Q R S T U V W X Y Z `  ...+.@.#.$.%.&.*.                                        ",
"                                              x Q =.-.;.>.,.'.).!.!.~.{.].^.^./.(._.:.<.                                        ",
"                                              x Q [.}.|.1.2.3.4.5.5.6.7.7.8.9.7.0.a.b.c.                                        ",
"                                              x Q d.e.f.g.h.i.j.k.l.m.m.m.m.m.n.o.p.q.c.                                        ",
"                                              x Q r.s.t.u.v.w.x.y.z.A.B.C.D.D.E.F.G.H.I.                                        ",
"                                              x J.K.L.M.N.O.P.Q.R.S.T.U.V.K W.X.L Y.H.I.                                        ",
"                                              Z.`. +.+++@+#+$+%+&+*+=+-+;+>+>+,+'+)+!+_                                         ",
"                                              # h w ~+{+]+^+$+%+&+*+/+(+-+_+:+<+[+}+|+1+                                        ",
"                                                  _ 2+3+4+5+$+6+7+8+9+0+a+b+c+d+e+f+#                                           ",
"                                                  g+h+i+j+k+l+m+n+o+p+q+r+s+t+u+v+w+h                                           ",
"                                                  ; x+y+z+A+B+C+D+E+F+G+H+I+J+K+L+M+N+O+                                        ",
"                                                    P+( Q+R+S+T+U+V+W+X+Y+Z+`+ @.@+@@@#@h #                                     ",
"                                                      $@%@&@*@=@-@U+;@>@,@'@)@!@~@{@]@^@/@x                                     ",
"                                        (@|+_ |+(@  # w _@:@<@[@}@|@1@2@3@4@5@6@7@8@9@0@a@b@                                    ",
"                                        c@d@e@f@g@  h@i@j@k@l@m@n@o@p@q@r@s@t@u@v@w@x@0@y@b@                                    ",
"                                    @ g@z@A@B@C@c.    i@D@E@F@G@H@I@J@K@L@M@N@6@7@8@O@0@j b@                                    ",
"                                  h@P@Q@R@S@T@U@g   h@i@D@V@7@W@X@Y@Z@`@ #.#+#6@7@8@O@0@j b@                                    ",
"                                1+@###$#%#&#*#=#O+    w -#;#>#,#'#)#!#~#u@{#{#^+]#^#x@0@j b@                                    ",
"                                h /#(#_#:#<#[#}#. # Z.#@|#1#2#3#4#5#!#6#6@{#{#F@7#8#9#0#j b@                                    ",
"                                h a#b#c#d#e#f#% O+x y+g#h#i#j#k#3@l#m#6#6@{#{#n#o#p#q#r#j b@                                    ",
"                                h s#t#u#v#w#x#y#z#w A#B#C#D#E#F#G#H#I#J#6@{#.#K#L#M#N#O#j b@                                    ",
"                                h s#t#u#P#Q#R#S#T#U#V#W#X#Y#Z#`# $.$+$+#6@.#@$#$$$%$&$O#j b@                                    ",
"                                h s#t#u#P#Q#R#*$=$-$;$>$,$4+]#6@{#{#6@+#'$)$!$~${$]$N#O#j b@                                    ",
"                                h s#t#u#v#w#^$/$($_$:$<$[$4+]#6@{#{#}$|$1$2$3$4$5$6$7$8$j b@                                    ",
"                                h a#b#c#d#e#9$0$a$b$c$d$e$f$+#g$u@W@h$i$j$k$l$m$6$n$7$o$j b@                                    ",
"                                h /#(#_#:#<#p$q$r$($s$t$,$u$|$~#~#v$w$x$y$z$A$6$B$C$7$o$j b@                                    ",
"                                1+@###$#%#&#*#D$E$`.N+F$G$H$I$J$K$L$M$N$O$P$C$Q$P$Q$7$o$j b@                                    ",
"                                  h@P@Q@R@S@T@R$c.P+1+S$2+T$U$V$W$X$Y$Z$`$B$P$P$P$C$7$o$j b@                                    ",
"                                    @ g@z@A@B@C@P     ; <. %.%+%@%#%$%%%&%P$P$P$P$C$*%o$=%b@                                    ",
"                                        c@d@e@f@g@      @ - -%;%N#>%P$P$P$P$P$P$P$*%,%'%)%!%                                    ",
"                                        (@|+_ |+(@        h ~%{%]%7$C$P$P$P$P$Q$>%^%/%(%}#.                                     ",
"                                                            5 _%:%<%[%P$Q$P$P$Q$>%}%|%1%                                        ",
"                                                            O+2%3%4%5%6%P$P$P$Q$>%}%|%c.                                        ",
"                                                            O+2%7%8%9%0%&$P$P$Q$>%}%|%c.                                        ",
"                                                            O+2%a%b%c%d%e%B$P$Q$>%}%|%c.                                        ",
"                                                            O+2%f%g%h%i%j%B$P$Q$>%}%|%c.                                        ",
"                                                            O+k%l%m%n%o%p%B$Q$Q$>%}%|%c.                                        ",
"                                                            O+k%q%r%s%o%p%B$Q$Q$>%}%|%c.                                        ",
"                                                            ; /@t%u%v%w%x%y%z%A%B%C%D%I.                                        ",
"                                                            4 E%F%G%H%I%J%K%L%M%N%O%P%1%                                        ",
"                                                                5 i f#Q%R%a+S%T%U%V%& |+                                        ",
"                                                                # h `.W%X%Y%Z%`% &% E%#                                         ",
"                                                                    }#N+.&+&+&@&% b@                                            ",
"                                                                      ; & y##&)%5                                               ",
"                                                                      # |+~%c.$&4                                               ",
"                                                                                                                                "};
