/* XPM */
static char * mining_down0_xpm[] = {
"64 64 625 2",
"  	c #785E4E",
". 	c #745B4B",
"+ 	c #6B5345",
"@ 	c #6D5547",
"# 	c #765D4D",
"$ 	c #775D4D",
"% 	c #695243",
"& 	c #49382E",
"* 	c #534035",
"= 	c #705849",
"- 	c #765C4C",
"; 	c #695244",
"> 	c #5F4A3D",
", 	c #5E493C",
"' 	c #4F3D32",
") 	c #281E17",
"! 	c #352820",
"~ 	c #594539",
"{ 	c #6C5546",
"] 	c #6E5647",
"^ 	c #4F3E34",
"/ 	c #2B241F",
"( 	c #26201D",
"_ 	c #221E1B",
": 	c #131414",
"< 	c #2D2521",
"[ 	c #564338",
"} 	c #715849",
"| 	c #685143",
"1 	c #514036",
"2 	c #393836",
"3 	c #283539",
"4 	c #28353A",
"5 	c #29363A",
"6 	c #293439",
"7 	c #3D3836",
"8 	c #554237",
"9 	c #6B5445",
"0 	c #504036",
"a 	c #2B2B2C",
"b 	c #2E3C41",
"c 	c #37484E",
"d 	c #38494F",
"e 	c #38484E",
"f 	c #37474D",
"g 	c #2C383D",
"h 	c #2F2C2B",
"i 	c #574439",
"j 	c #6F5748",
"k 	c #765C4D",
"l 	c #675042",
"m 	c #4C3C31",
"n 	c #383836",
"o 	c #2F3D42",
"p 	c #35464B",
"q 	c #394A50",
"r 	c #3A4B51",
"s 	c #394B51",
"t 	c #34444A",
"u 	c #2F3C40",
"v 	c #3B3734",
"w 	c #503E33",
"x 	c #6A5345",
"y 	c #53423C",
"z 	c #2F2E37",
"A 	c #2F3B44",
"B 	c #37474E",
"C 	c #2D3841",
"D 	c #343037",
"E 	c #58463E",
"F 	c #6D5546",
"G 	c #755B4C",
"H 	c #483830",
"I 	c #3A3743",
"J 	c #3C4157",
"K 	c #3C4856",
"L 	c #394A51",
"M 	c #3A4A51",
"N 	c #3C4757",
"O 	c #3C4056",
"P 	c #3B353E",
"Q 	c #4D3C32",
"R 	c #6C5446",
"S 	c #775D4E",
"T 	c #614C3F",
"U 	c #2E2522",
"V 	c #2F3347",
"W 	c #444A63",
"X 	c #414C5D",
"Y 	c #39494F",
"Z 	c #384A4E",
"` 	c #37494F",
" .	c #32474F",
"..	c #2F464F",
"+.	c #33474F",
"@.	c #38494E",
"#.	c #394951",
"$.	c #424D5F",
"%.	c #424861",
"&.	c #2A2D3F",
"*.	c #382B24",
"=.	c #675143",
"-.	c #624C3F",
";.	c #2F2522",
">.	c #2E3145",
",.	c #3D4C56",
"'.	c #3A4B53",
").	c #3E4C51",
"!.	c #485151",
"~.	c #4D5452",
"{.	c #465051",
"].	c #3D4C51",
"^.	c #3D4D57",
"/.	c #434D61",
"(.	c #40465E",
"_.	c #282C3D",
":.	c #392B24",
"<.	c #2F2420",
"[.	c #202533",
"}.	c #373E54",
"|.	c #4D5671",
"1.	c #56617D",
"2.	c #49566E",
"3.	c #64615F",
"4.	c #988560",
"5.	c #AD9462",
"6.	c #AA9261",
"7.	c #8E7D5F",
"8.	c #5A5B60",
"9.	c #4B5872",
"0.	c #4A536C",
"a.	c #343A4E",
"b.	c #1C202E",
"c.	c #2E231D",
"d.	c #090D14",
"e.	c #282D3F",
"f.	c #515979",
"g.	c #626B90",
"h.	c #4F597B",
"i.	c #766A64",
"j.	c #BB9D66",
"k.	c #DBB66A",
"l.	c #DEB96D",
"m.	c #BB9E69",
"n.	c #6D6567",
"o.	c #515C80",
"p.	c #626A90",
"q.	c #4B5270",
"r.	c #222636",
"s.	c #070A11",
"t.	c #392B23",
"u.	c #2E231C",
"v.	c #0F0811",
"w.	c #211E2F",
"x.	c #383D57",
"y.	c #404967",
"z.	c #2F3A56",
"A.	c #504844",
"B.	c #897247",
"C.	c #BA9A58",
"D.	c #DDB86A",
"E.	c #C2A263",
"F.	c #64584D",
"G.	c #27385A",
"H.	c #414967",
"I.	c #343851",
"J.	c #1E1928",
"K.	c #0C060E",
"L.	c #0B0313",
"M.	c #241722",
"N.	c #453430",
"O.	c #574337",
"P.	c #5A4537",
"Q.	c #4F3C2E",
"R.	c #37291C",
"S.	c #7D6739",
"T.	c #C09F5C",
"U.	c #B69659",
"V.	c #745C3E",
"W.	c #544035",
"X.	c #564236",
"Y.	c #402F2E",
"Z.	c #1F1220",
"`.	c #090310",
" +	c #2E221C",
".+	c #000000",
"++	c #32231F",
"@+	c #7C5E48",
"#+	c #A17B5E",
"$+	c #A78062",
"%+	c #947157",
"&+	c #584232",
"*+	c #46381D",
"=+	c #7B653A",
"-+	c #957750",
";+	c #A27D5E",
">+	c #9E795C",
",+	c #725642",
"'+	c #231717",
")+	c #33261E",
"!+	c #453326",
"~+	c #725742",
"{+	c #A27C60",
"]+	c #BD9171",
"^+	c #BF9170",
"/+	c #A97F61",
"(+	c #674B38",
"_+	c #271B16",
":+	c #7B5B46",
"<+	c #B08466",
"[+	c #C09271",
"}+	c #BB8F6F",
"|+	c #9A765B",
"1+	c #6A513D",
"2+	c #3D2D21",
"3+	c #3A2C23",
"4+	c #3C2C23",
"5+	c #775B46",
"6+	c #AA8365",
"7+	c #BB9070",
"8+	c #BE9170",
"9+	c #B98867",
"0+	c #A17255",
"a+	c #664733",
"b+	c #160F0C",
"c+	c #2B1E18",
"d+	c #74513D",
"e+	c #A87859",
"f+	c #BA8A69",
"g+	c #BE9271",
"h+	c #B98F6F",
"i+	c #A47E61",
"j+	c #6C523E",
"k+	c #3C2E25",
"l+	c #634D3F",
"m+	c #392A21",
"n+	c #84644D",
"o+	c #BA8F6F",
"p+	c #C39675",
"q+	c #BF9271",
"r+	c #BA8A6A",
"s+	c #AC7E5F",
"t+	c #916D53",
"u+	c #6E5441",
"v+	c #4B382B",
"w+	c #765540",
"x+	c #AB7C5E",
"y+	c #BB8C6C",
"z+	c #BF9372",
"A+	c #B48B6C",
"B+	c #765A45",
"C+	c #604B3D",
"D+	c #4D3B2E",
"E+	c #896951",
"F+	c #B98E6F",
"G+	c #C29574",
"H+	c #C09473",
"I+	c #BF9272",
"J+	c #BD9170",
"K+	c #B98D6D",
"L+	c #9D785C",
"M+	c #624938",
"N+	c #7B5D47",
"O+	c #B3896A",
"P+	c #C19473",
"Q+	c #B48A6B",
"R+	c #7E6049",
"S+	c #4C3A2D",
"T+	c #664F41",
"U+	c #5D483B",
"V+	c #6A5140",
"W+	c #8C6B53",
"X+	c #A88164",
"Y+	c #BC9171",
"Z+	c #C19574",
"`+	c #C09573",
" @	c #BB8B6B",
".@	c #9E7357",
"+@	c #5C4332",
"@@	c #795C47",
"#@	c #C29674",
"$@	c #C19573",
"%@	c #866750",
"&@	c #644D3D",
"*@	c #614B3E",
"=@	c #735A4B",
"-@	c #735A4A",
";@	c #5B4536",
">@	c #84654D",
",@	c #B2896A",
"'@	c #BF9373",
")@	c #BD8F6F",
"!@	c #B48161",
"~@	c #98684C",
"{@	c #684733",
"]@	c #83624B",
"^@	c #B58B6C",
"/@	c #AC8567",
"(@	c #7A5D47",
"_@	c #5A4536",
":@	c #6A5344",
"<@	c #5A4639",
"[@	c #674F3E",
"}@	c #916F57",
"|@	c #AC8466",
"1@	c #B38060",
"2@	c #A47052",
"3@	c #96674B",
"4@	c #A3775A",
"5@	c #8A6A53",
"6@	c #614A3B",
"7@	c #745A4B",
"8@	c #43332A",
"9@	c #694F3C",
"0@	c #AB8466",
"a@	c #BB8D6D",
"b@	c #B4886A",
"c@	c #AF8264",
"d@	c #AD7B5C",
"e@	c #AD7757",
"f@	c #B28060",
"g@	c #BA8B6B",
"h@	c #BC8E6E",
"i@	c #A37D61",
"j@	c #5B4534",
"k@	c #4C3B30",
"l@	c #423229",
"m@	c #69503C",
"n@	c #AC8467",
"o@	c #B98969",
"p@	c #AC7B5C",
"q@	c #93654F",
"r@	c #8B5D4A",
"s@	c #A16E52",
"t@	c #AE7857",
"u@	c #AF7A5A",
"v@	c #B17E5E",
"w@	c #B38160",
"x@	c #BA8B6A",
"y@	c #5A4433",
"z@	c #4C3A2F",
"A@	c #423329",
"B@	c #AD7E61",
"C@	c #97644C",
"D@	c #885541",
"E@	c #8B5944",
"F@	c #A26D51",
"G@	c #AC7656",
"H@	c #B88868",
"I@	c #C09372",
"J@	c #C09574",
"K@	c #4C3A30",
"L@	c #B98D6E",
"M@	c #986D56",
"N@	c #7D4C3E",
"O@	c #925F48",
"P@	c #A67153",
"Q@	c #AB7556",
"R@	c #AD7656",
"S@	c #B78767",
"T@	c #413228",
"U@	c #69503D",
"V@	c #AD8567",
"W@	c #C49775",
"X@	c #B3886A",
"Y@	c #9C725A",
"Z@	c #7D5244",
"`@	c #703F36",
" #	c #966249",
".#	c #AE7858",
"+#	c #B98968",
"@#	c #A47E62",
"##	c #4B3A2F",
"$#	c #4A392E",
"%#	c #684F3D",
"&#	c #A47F62",
"*#	c #9B725A",
"=#	c #73463C",
"-#	c #602C2D",
";#	c #6F3E35",
">#	c #98664D",
",#	c #AE7959",
"'#	c #AE7958",
")#	c #B07C5D",
"!#	c #B48667",
"~#	c #B88D6E",
"{#	c #B78D6E",
"]#	c #9D795E",
"^#	c #5D4635",
"/#	c #523F34",
"(#	c #72594A",
"_#	c #685040",
":#	c #785C47",
"<#	c #80624B",
"[#	c #7E604A",
"}#	c #724E3E",
"|#	c #61302D",
"1#	c #5B2227",
"2#	c #714339",
"3#	c #A07359",
"4#	c #B68666",
"5#	c #B27E5D",
"6#	c #B27E5E",
"7#	c #B98A6A",
"8#	c #B48060",
"9#	c #A87556",
"0#	c #92694F",
"a#	c #755A46",
"b#	c #664E3F",
"c#	c #6A5244",
"d#	c #755C4C",
"e#	c #4E3C30",
"f#	c #31251C",
"g#	c #271913",
"h#	c #44201E",
"i#	c #5C2A2A",
"j#	c #5E282A",
"k#	c #704239",
"l#	c #9B7159",
"m#	c #B18366",
"n#	c #B07D5D",
"o#	c #AD7857",
"p#	c #BB8C6B",
"q#	c #BD906F",
"r#	c #BA8C6C",
"s#	c #B07F60",
"t#	c #99684D",
"u#	c #664431",
"v#	c #2A1D15",
"w#	c #534034",
"x#	c #6F5647",
"y#	c #261C16",
"z#	c #3E1819",
"A#	c #602B2C",
"B#	c #663531",
"C#	c #794D40",
"D#	c #8E614C",
"E#	c #A47154",
"F#	c #B07B5B",
"G#	c #B2805F",
"H#	c #B48261",
"I#	c #AF7D5E",
"J#	c #99684F",
"K#	c #774939",
"L#	c #47271F",
"M#	c #2F231C",
"N#	c #584438",
"O#	c #32241D",
"P#	c #401B1B",
"Q#	c #612D2D",
"R#	c #602C2C",
"S#	c #5E292B",
"T#	c #6F3D34",
"U#	c #8E5C46",
"V#	c #9C684E",
"W#	c #9C684D",
"X#	c #9D694E",
"Y#	c #98644B",
"Z#	c #7F4E3E",
"`#	c #5C2C2A",
" $	c #361316",
".$	c #3A2B23",
"+$	c #5F2B2B",
"@$	c #64302E",
"#$	c #6E3C34",
"$$	c #734237",
"%$	c #724036",
"&$	c #6A3731",
"*$	c #592929",
"=$	c #381617",
"-$	c #30231C",
";$	c #3F1B1B",
">$	c #5E2A2B",
",$	c #592828",
"'$	c #381717",
")$	c #5F493D",
"!$	c #36241D",
"~$	c #431D1D",
"{$	c #612C2C",
"]$	c #5A2929",
"^$	c #3D1919",
"/$	c #3C2B23",
"($	c #654E41",
"_$	c #4E362E",
":$	c #4A2623",
"<$	c #532525",
"[$	c #5E2B2B",
"}$	c #5D2A2A",
"|$	c #512424",
"1$	c #4A2824",
"2$	c #503930",
"3$	c #604B3E",
"4$	c #3E2F26",
"5$	c #3A1A19",
"6$	c #582828",
"7$	c #5F2C2C",
"8$	c #542626",
"9$	c #351917",
"0$	c #46362C",
"a$	c #382921",
"b$	c #391717",
"c$	c #562727",
"d$	c #321414",
"e$	c #552626",
"f$	c #311313",
"g$	c #411D1C",
"h$	c #2E1312",
"i$	c #301413",
"j$	c #451F1E",
"k$	c #5B2929",
"l$	c #4D2825",
"m$	c #49322A",
"n$	c #48372D",
"o$	c #4A3129",
"p$	c #4E2625",
"q$	c #572727",
"r$	c #411C1C",
"s$	c #3D2922",
"t$	c #705748",
"u$	c #5C463A",
"v$	c #38231D",
"w$	c #461E1E",
"x$	c #391818",
"y$	c #372A21",
"z$	c #30221B",
"A$	c #411B1B",
"B$	c #612D2C",
"C$	c #572728",
"D$	c #381718",
"E$	c #382A22",
"F$	c #59292A",
"G$	c #391817",
"H$	c #5A2928",
"I$	c #622D2D",
"J$	c #56282B",
"K$	c #462126",
"L$	c #2B1216",
"M$	c #372921",
"N$	c #2F221B",
"O$	c #301519",
"P$	c #492328",
"Q$	c #58292B",
"R$	c #622D2C",
"S$	c #562726",
"T$	c #321413",
"U$	c #341517",
"V$	c #522528",
"W$	c #5A292C",
"X$	c #48222A",
"Y$	c #321A24",
"Z$	c #1B0D15",
"`$	c #362921",
" %	c #2D211B",
".%	c #1F0F18",
"+%	c #361B26",
"@%	c #4B242A",
"#%	c #57282B",
"$%	c #4E2326",
"%%	c #2D1213",
"&%	c #220E15",
"*%	c #381B25",
"=%	c #3E1E29",
"-%	c #3B1D28",
";%	c #331A28",
">%	c #261524",
",%	c #150A15",
"'%	c #2C201B",
")%	c #180C18",
"!%	c #291625",
"~%	c #351B28",
"{%	c #3C1D29",
"]%	c #3D1E29",
"^%	c #351923",
"/%	c #1D0B11",
"(%	c #372A22",
"_%	c #120914",
":%	c #201324",
"<%	c #241528",
"[%	c #231527",
"}%	c #231520",
"|%	c #352724",
"1%	c #4B392F",
"2%	c #312423",
"3%	c #201320",
"4%	c #211324",
"5%	c #1F1222",
"6%	c #0F0711",
"7%	c #3B2D24",
"8%	c #120814",
"9%	c #201223",
"0%	c #241527",
"a%	c #221425",
"b%	c #190D1B",
"c%	c #2E211F",
"d%	c #6F5648",
"e%	c #524035",
"f%	c #261B1B",
"g%	c #1B0F1E",
"h%	c #221426",
"i%	c #1E1121",
"j%	c #150C13",
"k%	c #44342A",
"l%	c #3F302A",
"m%	c #22161F",
"n%	c #1A0E1D",
"o%	c #1D111D",
"p%	c #3A2B27",
"q%	c #544135",
"r%	c #503D33",
"s%	c #342725",
"t%	c #1A0E1C",
"u%	c #271B20",
"v%	c #44342C",
"w%	c #5D483C",
"x%	c #362922",
"y%	c #170F0F",
"z%	c #2D221D",
"A%	c #513F34",
"B%	c #271C18",
"C%	c #191110",
"D%	c #3E2F27",
"E%	c #644E41",
"F%	c #574437",
"G%	c #5C473B",
"H%	c #5A463A",
"                                                                                                                                ",
"                                                                                                                                ",
"                                                                                                                                ",
"                                                                                                                                ",
"                                                                                                                                ",
"                                                                                                                                ",
"                                                                                                                                ",
"                                                                                                                                ",
"                                                                . + @ #                                                         ",
"                                                          $ $ $ % & * =                                                         ",
"                                                        - ; > , ' ) ! ~ { $                                                     ",
"                                                      $ ] ^ / ( _ : : < [ } $                                                   ",
"                                                    $ | 1 2 3 4 4 4 5 6 7 8 9                                                   ",
"                                                  - @ 0 a b c d e e d f g h i j k                                               ",
"                                                $ l m n o p q r s s r q t u v w 9                                               ",
"                                              . x y z A d q q q q q q q q B C D E F G                                           ",
"                                              | H I J K L q q q q q q q q M N O P Q R                                           ",
"                                            S T U V W X Y Z `  .....+.d @.#.$.%.&.*.=.                                          ",
"                                            S -.;.>.%.$.,.'.).!.~.~.{.].'.^./.(._.:.|                                           ",
"                                            S -.<.[.}.|.1.2.3.4.5.6.7.8.9.1.0.a.b.:.|                                           ",
"                                            S -.c.d.e.f.g.h.i.j.k.l.m.n.o.p.q.r.s.t.|                                           ",
"                                            S -.u.v.w.x.y.z.A.B.C.D.E.F.G.H.I.J.K.t.|                                           ",
"                                            S -.u.L.M.N.O.P.Q.R.S.T.U.V.W.X.Y.Z.`.t.|                                           ",
"                                            S -. +.+++@+#+$+%+&+*+=+-+;+$+>+,+'+.+t.|                                           ",
"                                            S -.)+!+~+{+]+^+/+(+.+_+:+<+[+}+|+1+2+3+|                                           ",
"                                            S -.4+5+6+7+8+9+0+a+b+c+d+e+f+g+h+i+j+k+|                                           ",
"                                              l+m+n+o+p+q+r+s+t+u+v+w+x+y+z+p+A+B+t.%                                           ",
"                                            . C+D+E+F+G+H+I+J+K+L+M+N+O+P+H+G+Q+R+S+T+-                                         ",
"                                          } U+V+W+X+Y+Z+H+`+q+ @.@+@@@A+#@H+$@o+i+%@&@*@=@                                      ",
"                                      $ -@l ;@>@,@'@H+H+H+H+)@!@~@{@]@^@G+H+H+H+z+/@(@_@:@. $                                   ",
"                                      } <@[@}@|@]+Z+H+H+H+Z+)@1@2@3@4@}+Z+H+H+H+Z+7+X+5@6@> 7@                                  ",
"                                      F 8@9@0@Z+H+H+H+8+a@b@c@d@e@e@f@g@h@h@8+H+H+H+H+i@j@k@}                                   ",
"                                      F l@m@n@G+H+H+I+o@p@q@r@s@e@t@u@v@v@w@x@z+H+$@$@i+y@z@}                                   ",
"                                      F A@9@|@Z+H+Z+g+B@C@D@E@F@e@e@e@e@G@u@H@I@J@P+H+i@j@K@}                                   ",
"                                      F A@9@|@Z+H+H+L@M@N@O@P@Q@e@e@e@e@R@u@S@q+H+P+H+i@j@K@}                                   ",
"                                      F T@U@V@W@P+X@Y@Z@`@ #R@t@e@e@e@R@G@.#f@+#8+#@#@@#y@##}                                   ",
"                                      ] $#%#&#h+^@*#=#-#;#>#,#'#e@e@.#u@u@u@,#)#!#~#{#]#^#/#(#                                  ",
"                                      . l _#:#<#[#}#|#1#2#3#4#5#e@e@6#S@7#H@8#9#0#<#[#a#b#c#d#                                  ",
"                                        S 9 e#f#g#h#i#j#k#l#m#n#e@o#w@p#q#r#s#t#u#v#)+w#x#                                      ",
"                                          G :@w#y#z#i#A#B#C#D#E#e@t@F#G#H#I#J#K#L#M#N#{ -                                       ",
"                                              -.O#P#i#Q#R#S#T#U#V#V#W#W#X#Y#Z#`# $.$|                                           ",
"                                              -.O#P#i#Q#R#+$@$#$$$$$$$$$$$%$&$*$=$.$|                                           ",
"                                              l+-$;$i#Q#R#R#A#>$S#S#S#S#S#S#A#,$'$t.%                                           ",
"                                            . )$!$~$i#{$R#R#R#R#R#R#R#R#R#R#{$]$^$/$($-                                         ",
"                                          = U+_$:$<$[$R#R#R#R#R#R#R#R#R#R#R#R#}$|$1$2$3$(#                                      ",
"                                          % 4$5$6$R#R#R#R#R#R#R#R#R#R#R#R#R#R#R#7$8$9$0$@                                       ",
"                                          =.a$b$]$Q#R#R#R#R#R#R#{${$R#R#R#R#R#R#Q#c$d$T@F                                       ",
"                                          | .$b$,${$R#R#R#R#[$6$8$8$,$+$R#R#R#R#{$e$f$A@F                                       ",
"                                          | .$b$,${$R#R#R#R#6$g$h$i$j$k${$R#R#R#{$e$f$A@F                                       ",
"                                          | .$b$,${$R#R#[$c$l$m$& n$o$p$q$+$R#R#{$e$f$A@F                                       ",
"                                          | .$b$,${$R#{$]$r$s$*@} t$u$v$w$}${$R#{$e$f$A@F                                       ",
"                                          | .$b$,${$R#Q#]$x$y$|     T z$A$}$Q#R#{$e$f$A@F                                       ",
"                                          | .$b$,$B$R#7$C$D$E$l     *@z$;$F$7$R#{$e$f$A@F                                       ",
"                                          | .$G$H$I$7$J$K$L$M$l     *@N$O$P$Q$R#R$S$T$A@F                                       ",
"                                          | .$U$V$W$J$X$Y$Z$`$l     3$ %.%+%@%#%W$$%%%A@F                                       ",
"                                          | t.&%*%=%-%;%>%,%`$l     3$'%)%!%~%{%]%^%/%A@F                                       ",
"                                          =.(%_%:%<%[%:%}%|%w {     | 1%2%3%4%[%<%5%6%l@F                                       ",
"                                          | 7%8%9%0%a%b%c%~ d%-     G { e%f%g%h%[%i%j%k%@                                       ",
"                                          j ~ l%m%n%o%p%q%R           S % r%s%t%n%u%v%w%(#                                      ",
"                                          $ -@> x%y%z%N#} $             # ] A%B%C%D%E%. $                                       ",
"                                              j , F%G%R                   $ ; H%N#*@(#                                          ",
"                                              $ k - - $                     $ - - k S                                           ",
"                                                                                                                                ",
"                                                                                                                                "};
