/* XPM */
static char * mining_down3_xpm[] = {
"64 64 390 2",
"  	c #785E4E",
". 	c #775D4E",
"+ 	c #6E5647",
"@ 	c #634D40",
"# 	c #624C3F",
"$ 	c #624D3F",
"% 	c #735A4A",
"& 	c #594539",
"* 	c #342923",
"= 	c #2C231E",
"- 	c #2E251F",
"; 	c #5A463A",
"> 	c #413A36",
", 	c #263135",
"' 	c #263236",
") 	c #253236",
"! 	c #775D4D",
"~ 	c #72594A",
"{ 	c #5C483C",
"] 	c #332D2A",
"^ 	c #2C383B",
"/ 	c #36464C",
"( 	c #37484E",
"_ 	c #37474D",
": 	c #6F5748",
"< 	c #574437",
"[ 	c #403834",
"} 	c #2E393D",
"| 	c #334348",
"1 	c #394A50",
"2 	c #3A4B51",
"3 	c #765D4D",
"4 	c #715849",
"5 	c #5F4A40",
"6 	c #393134",
"7 	c #2A353D",
"8 	c #36464D",
"9 	c #705849",
"0 	c #564337",
"a 	c #3F363B",
"b 	c #3B3E52",
"c 	c #3B4556",
"d 	c #3A4951",
"e 	c #6D5547",
"f 	c #423229",
"g 	c #252839",
"h 	c #40465E",
"i 	c #424D60",
"j 	c #3A4A51",
"k 	c #384A4E",
"l 	c #384A50",
"m 	c #344850",
"n 	c #324750",
"o 	c #242838",
"p 	c #3F455D",
"q 	c #434D61",
"r 	c #3C4B55",
"s 	c #3B4B51",
"t 	c #414E51",
"u 	c #444F51",
"v 	c #1B1E2B",
"w 	c #34394E",
"x 	c #475069",
"y 	c #535E78",
"z 	c #48566E",
"A 	c #56595D",
"B 	c #88795D",
"C 	c #A08B5F",
"D 	c #080B12",
"E 	c #1F2533",
"F 	c #4A516E",
"G 	c #636B90",
"H 	c #545F83",
"I 	c #6E676A",
"J 	c #BB9E6A",
"K 	c #DEB96D",
"L 	c #08040A",
"M 	c #1B1825",
"N 	c #3A3D55",
"O 	c #4E5473",
"P 	c #455072",
"Q 	c #736A6B",
"R 	c #C7A76E",
"S 	c #ECC471",
"T 	c #0E0511",
"U 	c #1F1323",
"V 	c #211D2C",
"W 	c #242939",
"X 	c #293551",
"Y 	c #696062",
"Z 	c #B79A67",
"` 	c #D9B569",
" .	c #423329",
"..	c #01000E",
"+.	c #1E1122",
"@.	c #1E1625",
"#.	c #151B26",
"$.	c #162438",
"%.	c #434145",
"&.	c #796749",
"*.	c #90794A",
"=.	c #685142",
"-.	c #644D3C",
";.	c #554033",
">.	c #342427",
",.	c #161223",
"'.	c #231F29",
").	c #453331",
"!.	c #594037",
"~.	c #5C4238",
"{.	c #5C4237",
"].	c #735A4B",
"^.	c #5A4639",
"/.	c #604A39",
"(.	c #957358",
"_.	c #937057",
":.	c #503B30",
"<.	c #000016",
"[.	c #34232A",
"}.	c #755040",
"|.	c #97684D",
"1.	c #9A6A4F",
"2.	c #98694F",
"3.	c #664F41",
"4.	c #6C5240",
"5.	c #886850",
"6.	c #B08769",
"7.	c #A68063",
"8.	c #5A4335",
"9.	c #00000A",
"0.	c #382324",
"a.	c #855A44",
"b.	c #AD7858",
"c.	c #B58160",
"d.	c #B68463",
"e.	c #765C4D",
"f.	c #5E493C",
"g.	c #503C2F",
"h.	c #8F6D55",
"i.	c #B58B6C",
"j.	c #BE9272",
"k.	c #A88165",
"l.	c #684C40",
"m.	c #21111C",
"n.	c #35211C",
"o.	c #7F563E",
"p.	c #A97657",
"q.	c #B68666",
"r.	c #BA8E6D",
"s.	c #765C4C",
"t.	c #584438",
"u.	c #473528",
"v.	c #977459",
"w.	c #C09473",
"x.	c #C29574",
"y.	c #B48A6C",
"z.	c #97725B",
"A.	c #6C5142",
"B.	c #3D2724",
"C.	c #5E3D2E",
"D.	c #815A42",
"E.	c #8B684F",
"F.	c #8F6E55",
"G.	c #8A674E",
"H.	c #7F5841",
"I.	c #5D3C2D",
"J.	c #3C2724",
"K.	c #483629",
"L.	c #967359",
"M.	c #BE9372",
"N.	c #C19574",
"O.	c #BF9373",
"P.	c #BA8F6F",
"Q.	c #9B765D",
"R.	c #61463C",
"S.	c #3F2824",
"T.	c #3D261C",
"U.	c #483123",
"V.	c #4F3728",
"W.	c #4D3526",
"X.	c #4C3224",
"Y.	c #493029",
"Z.	c #62473C",
"`.	c #9A765D",
" +	c #493629",
".+	c #98745A",
"++	c #C19573",
"@+	c #755343",
"#+	c #58322A",
"$+	c #734A37",
"%+	c #865A41",
"&+	c #865B41",
"*+	c #875D43",
"=+	c #8F6850",
"-+	c #9E785E",
";+	c #B38A6C",
">+	c #433226",
",+	c #896850",
"'+	c #B18869",
")+	c #BC9171",
"!+	c #BA8E6F",
"~+	c #946B55",
"{+	c #734439",
"]+	c #956249",
"^+	c #AB7556",
"/+	c #AC7656",
"(+	c #AC7757",
"_+	c #B48464",
":+	c #BD9170",
"<+	c #2D2119",
"[+	c #513C2D",
"}+	c #80624B",
"|+	c #AE8567",
"1+	c #BC9070",
"2+	c #966C56",
"3+	c #75453A",
"4+	c #97644B",
"5+	c #AE7757",
"6+	c #AE7858",
"7+	c #AF7959",
"8+	c #B78666",
"9+	c #C09372",
"0+	c #44342A",
"a+	c #261C16",
"b+	c #574131",
"c+	c #A47E62",
"d+	c #754539",
"e+	c #97634A",
"f+	c #AD7757",
"g+	c #BF9372",
"h+	c #C09574",
"i+	c #745B4B",
"j+	c #695244",
"k+	c #46362C",
"l+	c #584333",
"m+	c #A47E61",
"n+	c #BB8F6F",
"o+	c #956B55",
"p+	c #744439",
"q+	c #96634A",
"r+	c #AC7758",
"s+	c #B58565",
"t+	c #BE9271",
"u+	c #4F3D32",
"v+	c #5A4434",
"w+	c #A57F62",
"x+	c #C19473",
"y+	c #BE9170",
"z+	c #B48666",
"A+	c #8A614B",
"B+	c #673E32",
"C+	c #936248",
"D+	c #A16E50",
"E+	c #916348",
"F+	c #A07356",
"G+	c #B68767",
"H+	c #BE906F",
"I+	c #4E3C31",
"J+	c #564131",
"K+	c #9F7A5E",
"L+	c #BB8C6B",
"M+	c #AD7B5C",
"N+	c #7C553E",
"O+	c #533627",
"P+	c #8E6146",
"Q+	c #5E3F2C",
"R+	c #805941",
"S+	c #AD7C5C",
"T+	c #3E2E22",
"U+	c #735843",
"V+	c #9C785C",
"W+	c #B98E6E",
"X+	c #C19271",
"Y+	c #B48566",
"Z+	c #805E46",
"`+	c #4F3525",
" @	c #8D6045",
".@	c #4C3324",
"+@	c #7F5D46",
"@@	c #150D0A",
"#@	c #231713",
"$@	c #6C523F",
"%@	c #B68C6D",
"&@	c #AD8567",
"*@	c #7C5F49",
"=@	c #4B3324",
"-@	c #A57053",
";@	c #12090C",
">@	c #180514",
",@	c #47322B",
"'@	c #785C46",
")@	c #513D2E",
"!@	c #372118",
"~@	c #694032",
"{@	c #82503F",
"]@	c #1B0F10",
"^@	c #2A1620",
"/@	c #2E1922",
"(@	c #211117",
"_@	c #1A0E11",
":@	c #1B0E11",
"<@	c #160B0F",
"[@	c #281115",
"}@	c #4A2224",
"|@	c #592A2C",
"1@	c #1B0F11",
"2@	c #2C1720",
"3@	c #321A25",
"4@	c #2C1521",
"5@	c #29131F",
"6@	c #291320",
"7@	c #2A1520",
"8@	c #301822",
"9@	c #3A1C25",
"0@	c #401F27",
"a@	c #221111",
"b@	c #3B1C21",
"c@	c #472329",
"d@	c #402029",
"e@	c #361D27",
"f@	c #2F1923",
"g@	c #2A161F",
"h@	c #28151E",
"i@	c #2A1413",
"j@	c #4D2224",
"k@	c #5C2A2C",
"l@	c #5B2A2B",
"m@	c #4F252A",
"n@	c #381D26",
"o@	c #23121B",
"p@	c #150A0E",
"q@	c #190E0F",
"r@	c #1E1312",
"s@	c #2D1513",
"t@	c #522424",
"u@	c #612D2C",
"v@	c #602C2C",
"w@	c #52272A",
"x@	c #391D26",
"y@	c #1F1018",
"z@	c #1F1511",
"A@	c #544135",
"B@	c #512424",
"C@	c #612C2C",
"D@	c #201018",
"E@	c #2D211B",
"F@	c #5F4A3D",
"G@	c #2F221C",
"H@	c #291312",
"I@	c #4B2123",
"J@	c #59292B",
"K@	c #58292B",
"L@	c #4C242A",
"M@	c #351B26",
"N@	c #1E0F18",
"O@	c #1E1011",
"P@	c #331821",
"Q@	c #3D1E29",
"R@	c #3D1D29",
"S@	c #361B28",
"T@	c #2A1726",
"U@	c #190D18",
"V@	c #4D3C31",
"W@	c #11090E",
"X@	c #1D1020",
"Y@	c #241527",
"Z@	c #211325",
"`@	c #1F1221",
" #	c #312423",
".#	c #4B3A2F",
"+#	c #1A1213",
"@#	c #1C101F",
"##	c #231527",
"$#	c #231426",
"%#	c #1B0F1E",
"&#	c #251A1B",
"*#	c #523F34",
"=#	c #6D5546",
"-#	c #755C4C",
";#	c #755B4C",
">#	c #49382F",
",#	c #2C1F22",
"'#	c #1A0E1C",
")#	c #332524",
"!#	c #685143",
"~#	c #45342C",
"{#	c #1D1412",
"]#	c #231A16",
"^#	c #4E3C32",
"/#	c #675143",
"                                                                                                                                ",
"                                                                                                                                ",
"                                                                                                                                ",
"                                                                                                                                ",
"                                                                                                                                ",
"                                                                                                                                ",
"                                                                                                                                ",
"                                                                                                                                ",
"                                                                                                                                ",
"                                                                                                                                ",
"                                                                                                                                ",
"                                                                                                                                ",
"                                                                                                                                ",
"                                                                                                                                ",
"                                                                                                                                ",
"                                                                                                                                ",
"                                                                                                                                ",
"                                                      . + @ # $ $ # @ + .                                                       ",
"                                                      % & * = - - = * & %                                                       ",
"                                                    + ; > , ' ) ) ' , > ; +                                                     ",
"                                                ! ~ { ] ^ / ( _ _ ( / ^ ] { ~ !                                                 ",
"                                                : < [ } | 1 2 2 2 2 1 | } [ < :                                                 ",
"                                            3 4 5 6 7 8 1 1 1 1 1 1 1 1 8 7 6 5 4 3                                             ",
"                                            9 0 a b c d 1 1 1 1 1 1 1 1 d c b a 0 9                                             ",
"                                            e f g h i j k l m n n m l k j i h g f e                                             ",
"                                            e f o p q r 2 s t u u t s 2 r q p o f e                                             ",
"                                            e f v w x y z A B C C B A z y x w v f e                                             ",
"                                            e f D E F G H I J K K J I H G F E D f e                                             ",
"                                            e f L M N O P Q R S S R Q P O N M L f e                                             ",
"                                            e f T U V W X Y Z ` ` Z Y X W V U T f e                                             ",
"                                            +  ...+.@.#.$.%.&.*.*.&.%.$.#.@.+... .+                                             ",
"                                        ! 4 =.-.;.>.,.'.).!.~.{.{.~.!.).'.,.>.;.-.=.4 !                                         ",
"                                        ].^./.(._.:.<.[.}.|.1.2.2.1.|.}.[.<.:._.(./.^.].                                        ",
"                                    ! : 3.4.5.6.7.8.9.0.a.b.c.d.d.c.b.a.0.9.8.7.6.5.4.3.: !                                     ",
"                                    e.f.g.h.i.j.k.l.m.n.o.p.q.r.r.q.p.o.n.m.l.k.j.i.h.g.f.e.                                    ",
"                                    s.t.u.v.w.x.y.z.A.B.C.D.E.F.F.G.H.I.J.A.z.y.x.w.v.u.t.s.                                    ",
"                                    s.& K.L.M.N.O.P.Q.R.S.T.U.V.V.W.X.Y.Z.`.P.O.N.M.L.K.& s.                                    ",
"                                    s.&  +.+O.x.++w.y.Q.@+#+$+%+&+%+*+=+-+;+w.++x.O..+ +& s.                                    ",
"                                    s.& >+,+'+)+w.w.++!+~+{+]+^+/+^+(+_+:+w.w.w.)+'+,+>+& s.                                    ",
"                                    s.& <+[+}+|+w.w.x.1+2+3+4+5+6+5+7+8+9+N.w.w.|+}+[+<+& s.                                    ",
"                                    3 @ 0+a+b+c+w.w.N.1+2+d+e+f+f+f+7+8+g+h+w.w.c+b+a+0+@ 3                                     ",
"                                      i+j+k+l+m+w.w.N.n+o+p+q+f+f+/+r+s+t+w.w.w.m+l+k+j+i+                                      ",
"                                        ].u+v+w+x.x+y+z+A+B+C+f+f+D+E+F+G+H+x+x.w+v+u+].                                        ",
"                                        ~ I+J+K+)+g+L+M+N+O+P+f+f+E+Q+R+S+L+g+)+K+J+I+~                                         ",
"                                        ~ I+T+U+V+W+X+Y+Z+`+P+6+6+ @.@+@Y+X+W+V+U+T+I+~                                         ",
"                                        ~ I+@@#@$@w+%@&@*@=@%+-@-@%+=@*@&@%@w+$@#@@@I+~                                         ",
"                                        ~ I+;@>@,@$@'@U+)@!@~@{@{@~@!@)@U+'@$@,@>@;@I+~                                         ",
"                                        ~ I+]@^@/@(@_@:@<@[@}@|@|@}@[@<@:@_@(@/@^@]@I+~                                         ",
"                                        ~ I+1@2@3@4@5@6@7@8@9@0@0@9@8@7@6@5@4@3@2@1@I+~                                         ",
"                                        ~ I+a@b@c@c@d@e@f@g@h@h@h@h@g@f@e@d@c@c@b@a@I+~                                         ",
"                                        ~ I+i@j@k@l@m@n@o@p@q@r@r@q@p@o@n@m@l@k@j@i@I+~                                         ",
"                                        ~ I+s@t@u@v@w@x@y@z@0+A@A@0+z@y@x@w@v@u@t@s@I+~                                         ",
"                                        ~ I+s@B@C@v@w@x@D@E@F@i+i+F@E@D@x@w@v@C@B@s@I+~                                         ",
"                                        ~ I+s@t@u@v@w@x@D@G@@     @ G@D@x@w@v@u@t@s@I+~                                         ",
"                                        ~ I+H@I@J@K@L@M@N@E@#     # E@N@M@L@K@J@I@H@I+~                                         ",
"                                        ~ I+O@P@Q@R@S@T@U@E@#     # E@U@T@S@R@Q@P@O@I+~                                         ",
"                                        ~ V@W@X@Y@Y@Z@`@ #.#j+    j+.# #`@Z@Y@Y@X@W@V@~                                         ",
"                                        ~ u++#@###$#%#&#*#=#-#    -#=#*#&#%#$###@#+#u+~                                         ",
"                                        ;#$ >#,#'#'#)#u+!#.         . !#u+)#'#'#,#>#$ ;#                                        ",
"                                          s.j+~#{#]#^#+ 3             3 + ^#]#{#~#j+s.                                          ",
"                                            i+@ t.^./#3                 3 /#^.t.@ i+                                            ",
"                                              3 s.s.!                     ! s.s.3                                               ",
"                                                                                                                                ",
"                                                                                                                                "};
