/* XPM */
static char * mining_down4_xpm[] = {
"64 64 467 2",
"  	c #785E4E",
". 	c #765C4D",
"+ 	c #745B4B",
"@ 	c #775D4D",
"# 	c #675143",
"$ 	c #564337",
"% 	c #534034",
"& 	c #544135",
"* 	c #765C4C",
"= 	c #6D5647",
"- 	c #514137",
"; 	c #272423",
"> 	c #1C1E1F",
", 	c #1F2020",
"' 	c #695244",
") 	c #4D3C32",
"! 	c #393837",
"~ 	c #2C3A3F",
"{ 	c #2D3C41",
"] 	c #2D3B40",
"^ 	c #755C4C",
"/ 	c #6C5445",
"( 	c #544338",
"_ 	c #2D2E2E",
": 	c #38494E",
"< 	c #394A50",
"[ 	c #6B5345",
"} 	c #4B3A31",
"| 	c #353434",
"1 	c #324044",
"2 	c #36464C",
"3 	c #755B4C",
"4 	c #56443E",
"5 	c #37333E",
"6 	c #303B46",
"7 	c #38484F",
"8 	c #394B51",
"9 	c #6F5748",
"0 	c #4C3B30",
"a 	c #332F3A",
"b 	c #3E4258",
"c 	c #3F495B",
"d 	c #3A4A52",
"e 	c #6D5546",
"f 	c #403128",
"g 	c #252939",
"h 	c #41465F",
"i 	c #434D60",
"j 	c #394951",
"k 	c #37494F",
"l 	c #31474F",
"m 	c #2C454F",
"n 	c #6D5547",
"o 	c #423229",
"p 	c #232636",
"q 	c #3D435A",
"r 	c #444D62",
"s 	c #414F5D",
"t 	c #3D4D58",
"u 	c #424E53",
"v 	c #555953",
"w 	c #605F54",
"x 	c #151924",
"y 	c #2D3345",
"z 	c #49526D",
"A 	c #5B6585",
"B 	c #4E5B78",
"C 	c #605E62",
"D 	c #9E8962",
"E 	c #BB9F64",
"F 	c #05060B",
"G 	c #1C1F2C",
"H 	c #464D69",
"I 	c #60688D",
"J 	c #525C81",
"K 	c #72696B",
"L 	c #C2A36C",
"M 	c #E7C070",
"N 	c #0C050D",
"O 	c #1D1624",
"P 	c #313247",
"Q 	c #404660",
"R 	c #3C4767",
"S 	c #726869",
"T 	c #C5A66E",
"U 	c #EAC371",
"V 	c #100712",
"W 	c #201223",
"X 	c #1E1725",
"Y 	c #1A1F2C",
"Z 	c #202E47",
"` 	c #5F585A",
" .	c #A78E60",
"..	c #C7A661",
"+.	c #100711",
"@.	c #1F1222",
"#.	c #1E1726",
"$.	c #181D28",
"%.	c #202533",
"&.	c #3C373B",
"*.	c #60513E",
"=.	c #705E3E",
"-.	c #6E5647",
";.	c #423329",
">.	c #000003",
",.	c #0F0718",
"'.	c #0C0D20",
").	c #221C27",
"!.	c #573D35",
"~.	c #714E3E",
"{.	c #6F4B3D",
"].	c #211B27",
"^.	c #00031E",
"/.	c #000014",
"(.	c #000000",
"_.	c #4E3B2F",
":.	c #2F2118",
"<.	c #211211",
"[.	c #23131B",
"}.	c #472F2E",
"|.	c #825845",
"1.	c #A27053",
"2.	c #A77456",
"3.	c #815845",
"4.	c #49312F",
"5.	c #342424",
"6.	c #37281F",
"7.	c #36271D",
"8.	c #664F41",
"9.	c #604A3B",
"0.	c #82634D",
"a.	c #805F4A",
"b.	c #5C3A2F",
"c.	c #623B30",
"d.	c #835843",
"e.	c #9D6B4F",
"f.	c #AF7959",
"g.	c #B68463",
"h.	c #B98968",
"i.	c #9C6A4F",
"j.	c #885E48",
"k.	c #8A664E",
"l.	c #906E55",
"m.	c #916F55",
"n.	c #81634C",
"o.	c #5B4638",
"p.	c #705642",
"q.	c #A78063",
"r.	c #A87E63",
"s.	c #794E41",
"t.	c #835441",
"u.	c #A77457",
"v.	c #AE7959",
"w.	c #AF7B5B",
"x.	c #B78767",
"y.	c #BD8F6F",
"z.	c #AC7757",
"A.	c #AE7C5D",
"B.	c #B68868",
"C.	c #BC9170",
"D.	c #BD9271",
"E.	c #A68063",
"F.	c #705541",
"G.	c #765D4D",
"H.	c #594437",
"I.	c #A47E62",
"J.	c #B98E6E",
"K.	c #AC8165",
"L.	c #7D5143",
"M.	c #8D604C",
"N.	c #B38465",
"O.	c #B58261",
"P.	c #B17E5E",
"Q.	c #B48262",
"R.	c #B38060",
"S.	c #BB8B6A",
"T.	c #BF9271",
"U.	c #C19574",
"V.	c #C29574",
"W.	c #B88E6E",
"X.	c #A47E61",
"Y.	c #594539",
"Z.	c #473528",
"`.	c #967359",
" +	c #BE9272",
".+	c #AA8064",
"++	c #7C5042",
"@+	c #906651",
"#+	c #B88C6D",
"$+	c #BA8A6A",
"%+	c #B2805F",
"&+	c #B27E5E",
"*+	c #B27F5F",
"=+	c #B98969",
"-+	c #BF9372",
";+	c #C09473",
">+	c #584538",
",+	c #4A372A",
"'+	c #977459",
")+	c #906551",
"!+	c #B98D6E",
"~+	c #BC8E6D",
"{+	c #BE9170",
"]+	c #72594A",
"^+	c #675042",
"/+	c #6A5140",
"(+	c #80614B",
"_+	c #7C5043",
":+	c #BA8F6F",
"<+	c #C29674",
"[+	c #BC8E6E",
"}+	c #BB8D6C",
"|+	c #C19573",
"1+	c #49382C",
"2+	c #B08769",
"3+	c #BC9171",
"4+	c #C19473",
"5+	c #8E6350",
"6+	c #B78B6D",
"7+	c #BE9271",
"8+	c #B68665",
"9+	c #B38161",
"0+	c #BB8D6D",
"a+	c #614C3E",
"b+	c #3B2C22",
"c+	c #886850",
"d+	c #BD9171",
"e+	c #C39675",
"f+	c #794D40",
"g+	c #784C40",
"h+	c #9A7059",
"i+	c #B28769",
"j+	c #BF9373",
"k+	c #C09573",
"l+	c #B48363",
"m+	c #B07D5D",
"n+	c #BA8C6B",
"o+	c #654F41",
"p+	c #46352A",
"q+	c #84654D",
"r+	c #B38A6B",
"s+	c #AE8366",
"t+	c #835847",
"u+	c #683833",
"v+	c #73463B",
"w+	c #9E735B",
"x+	c #BC8F6F",
"y+	c #BE9171",
"z+	c #B58464",
"A+	c #705849",
"B+	c #644D40",
"C+	c #6D5341",
"D+	c #86674F",
"E+	c #AA8265",
"F+	c #B88D6E",
"G+	c #A77C62",
"H+	c #895E4C",
"I+	c #6F4037",
"J+	c #93644E",
"K+	c #B28162",
"L+	c #B68564",
"M+	c #B68464",
"N+	c #B78565",
"O+	c #B88767",
"P+	c #BA8B6B",
"Q+	c #584438",
"R+	c #4D3B2D",
"S+	c #98745A",
"T+	c #BE9372",
"U+	c #9E755C",
"V+	c #6F4539",
"W+	c #8B5A44",
"X+	c #AB7656",
"Y+	c #AE7958",
"Z+	c #AD7858",
"`+	c #AE7858",
" @	c #AD7757",
".@	c #A67253",
"+@	c #A37255",
"@@	c #B38566",
"#@	c #463428",
"$@	c #9A755B",
"%@	c #5D3E30",
"&@	c #83573F",
"*@	c #AA7455",
"=@	c #AE7757",
"-@	c #AA7555",
";@	c #8E6045",
">@	c #76523C",
",@	c #A17A5E",
"'@	c #473629",
")@	c #BF9371",
"!@	c #BA8C6C",
"~@	c #916C53",
"{@	c #4E3728",
"]@	c #7F563E",
"^@	c #AA7556",
"/@	c #AF7858",
"(@	c #AE7857",
"_@	c #5A4639",
":@	c #49372A",
"<@	c #957358",
"[@	c #BD8F6E",
"}@	c #B28161",
"|@	c #8A6047",
"1@	c #4D3324",
"2@	c #7E563E",
"3@	c #A87455",
"4@	c #AC7656",
"5@	c #A87454",
"6@	c #7E553D",
"7@	c #4B3223",
"8@	c #896047",
"9@	c #5C4739",
"0@	c #7F614B",
"a@	c #A07B5F",
"b@	c #B78D6D",
"c@	c #C09270",
"d@	c #93684F",
"e@	c #5C392D",
"f@	c #734837",
"g@	c #915F48",
"h@	c #95624A",
"i@	c #946149",
"j@	c #6B4533",
"k@	c #493223",
"l@	c #8E674D",
"m@	c #B78766",
"n@	c #6F5747",
"o@	c #554235",
"p@	c #674E3B",
"q@	c #A27C60",
"r@	c #BB906F",
"s@	c #B78C6C",
"t@	c #9A7159",
"u@	c #693D35",
"v@	c #602E2C",
"w@	c #6A3932",
"x@	c #6B3932",
"y@	c #6C3A33",
"z@	c #693831",
"A@	c #4A2320",
"B@	c #453025",
"C@	c #916E55",
"D@	c #735A4B",
"E@	c #4F3D32",
"F@	c #392A1F",
"G@	c #735742",
"H@	c #896951",
"I@	c #755544",
"J@	c #573130",
"K@	c #552429",
"L@	c #5D292B",
"M@	c #5E292B",
"N@	c #5C282A",
"O@	c #471C22",
"P@	c #3E2725",
"Q@	c #4E3C31",
"R@	c #19100C",
"S@	c #261914",
"T@	c #2E201A",
"U@	c #311E20",
"V@	c #391E26",
"W@	c #4D242A",
"X@	c #5B2A2B",
"Y@	c #5F2C2C",
"Z@	c #602C2C",
"`@	c #4C2429",
" #	c #361D25",
".#	c #2F1E1F",
"+#	c #140B0C",
"@#	c #180615",
"##	c #1E081A",
"$#	c #1F091B",
"%#	c #271220",
"&#	c #331B26",
"*#	c #3E1F28",
"=#	c #4A2429",
"-#	c #59292B",
";#	c #612C2C",
">#	c #4B2429",
",#	c #3F2028",
"'#	c #341B26",
")#	c #281320",
"!#	c #1F0A1B",
"~#	c #1F1011",
"{#	c #371A21",
"]#	c #422128",
"^#	c #412028",
"/#	c #3C1F28",
"(#	c #361C27",
"_#	c #331C27",
":#	c #3A1E27",
"<#	c #4B2326",
"[#	c #542626",
"}#	c #291312",
"|#	c #4A2123",
"1#	c #58292B",
"2#	c #391E27",
"3#	c #331B25",
"4#	c #31171B",
"5#	c #2F1413",
"6#	c #2D1513",
"7#	c #512424",
"8#	c #52262A",
"9#	c #391D27",
"0#	c #2D1823",
"a#	c #2F1C21",
"b#	c #3F2E28",
"c#	c #48372D",
"d#	c #53272A",
"e#	c #3B1E26",
"f#	c #25121B",
"g#	c #2E211D",
"h#	c #5C473B",
"i#	c #5A2A2B",
"j#	c #4D2428",
"k#	c #33161A",
"l#	c #30221B",
"m#	c #634D40",
"n#	c #58282A",
"o#	c #3D1A1B",
"p#	c #31231C",
"q#	c #624D3F",
"r#	c #522424",
"s#	c #612D2C",
"t#	c #4B2328",
"u#	c #31161A",
"v#	c #2F221C",
"w#	c #4B2123",
"x#	c #4C242A",
"y#	c #361C26",
"z#	c #1F0F18",
"A#	c #2D211B",
"B#	c #624C3F",
"C#	c #1E1011",
"D#	c #331821",
"E#	c #3D1E29",
"F#	c #3D1D29",
"G#	c #361B28",
"H#	c #291726",
"I#	c #180C18",
"J#	c #4D3C31",
"K#	c #11090E",
"L#	c #1D1020",
"M#	c #241527",
"N#	c #211325",
"O#	c #1F1221",
"P#	c #312423",
"Q#	c #4B3A2F",
"R#	c #1A1213",
"S#	c #1C101F",
"T#	c #231527",
"U#	c #231426",
"V#	c #1B0F1E",
"W#	c #251A1B",
"X#	c #523F34",
"Y#	c #49382F",
"Z#	c #2C1F22",
"`#	c #1A0E1C",
" $	c #332524",
".$	c #685143",
"+$	c #775D4E",
"@$	c #45342C",
"#$	c #1D1412",
"$$	c #231A16",
"%$	c #4E3C32",
"                                                                                                                                ",
"                                                                                                                                ",
"                                                                                                                                ",
"                                                                                                                                ",
"                                                                                                                                ",
"                                                                                                                                ",
"                                                                                                                                ",
"                                                                                                                                ",
"                                                                                                                                ",
"                                                                                                                                ",
"                                                                                                                                ",
"                                                        . + + + + + + .                                                         ",
"                                                      @ # $ % & & % $ # @                                                       ",
"                                                    * = - ; > , , > ; - = *                                                     ",
"                                                    ' ) ! ~ { ] ] { ~ ! ) '                                                     ",
"                                                ^ / ( _ ] : < < < < : ] _ ( / ^                                                 ",
"                                                [ } | 1 2 < < < < < < 2 1 | } [                                                 ",
"                                            3 ' 4 5 6 7 8 < < < < < < 8 7 6 5 4 ' 3                                             ",
"                                            9 0 a b c d < < < < < < < < d c b a 0 9                                             ",
"                                            e f g h i j : k l m m l k : j i h g f e                                             ",
"                                            n o p q r s t u v w w v u t s r q p o n                                             ",
"                                            n o x y z A B C D E E D C B A z y x o n                                             ",
"                                            n o F G H I J K L M M L K J I H G F o n                                             ",
"                                            n o N O P Q R S T U U T S R Q P O N o n                                             ",
"                                            n o V W X Y Z `  ..... .` Z Y X W V o n                                             ",
"                                            n o +.@.#.$.%.&.*.=.=.*.&.%.$.#.@.+.o n                                             ",
"                                            -.;.>.,.'.).!.~.~.{.{.~.~.!.].^./.(.;.-.                                            ",
"                                          @ / _.:.<.[.}.|.1.2.2.2.2.1.3.4.5.6.7._./ @                                           ",
"                                        . 8.9.0.a.b.c.d.e.f.g.h.h.g.f.i.j.k.l.m.n.9.8..                                         ",
"                                      ^ -.o.p.q.r.s.t.u.v.w.x.y.y.x.w.z.A.B.C.D.E.F.o.-.^                                       ",
"                                    G.8.H.0.I.J.K.L.M.N.O.v.P.Q.Q.P.v.R.S.T.U.V.W.X.0.H.8.G.                                    ",
"                                    . Y.Z.`. +U..+++@+#+$+%+&+*+*+&+%+=+-+;+;+;+U. +`.Z.Y..                                     ",
"                                    ^ >+,+'+-+V..+++)+!+T.~+~+~+~+~+~+{+;+;+;+;+U.-+'+,+>+^                                     ",
"                                  ]+^+/+(+q.-+U..+_+@+:+<+;+;+;+;+;+;+;+-+[+}+{+|+-+q.(+/+^+]+                                  ",
"                                  8.1+n.2+3+;+4+.+++5+6+;+;+;+;+;+;+;+;+7+8+9+0+;+;+3+2+n.1+8.                                  ",
"                                  a+b+c+d+e+;+;+.+f+g+h+i+j+U.k+k+k+k+U.7+l+m+n+;+;+e+d+c+b+a+                                  ",
"                                  o+p+q+r+ +;+;+s+t+u+v+w+x+T.y+y+y+y+T.y.z+R.}+;+;+ +r+q+p+o+                                  ",
"                                  A+B+C+D+E+-+|+F+G+H+I+J+K+L+z+z+z+z+M+N+O+P+{+|+-+E+D+C+B+A+                                  ",
"                                    3 Q+R+S+T+U.;+D.U+V+W+X+Y+Z+Z+`+ @.@+@@@-+;+U.T+S+R+Q+3                                     ",
"                                    G.Y.#@`. +U.U.-+$@%@&@*@=@ @ @=@-@;@>@,@-+U.U. +`.#@Y.G.                                    ",
"                                    * >+'@'+-+U.)@!@~@{@]@^@/@(@(@/@^@]@{@~@!@)@U.-+'+'@>+*                                     ",
"                                    * _@:@<@d+4+[@}@|@1@2@3@ @4@4@ @5@6@7@8@}@[@4+d+<@:@_@*                                     ",
"                                    @ # 9@0@a@b@c@x.d@e@f@g@h@i@i@h@g@j@k@l@m@c@b@a@0@9@# @                                     ",
"                                      G.n@o@p@q@r@s@t@u@v@w@x@x@x@y@z@A@B@C@s@r@q@p@o@n@G.                                      ",
"                                        D@E@F@G@H@c+I@J@K@L@M@M@M@M@N@O@P@C+c+H@G@F@E@D@                                        ",
"                                        ]+Q@R@S@T@T@U@V@W@X@Y@Z@Z@Y@X@`@ #.#T@T@S@R@Q@]+                                        ",
"                                        ]+Q@+#@###$#%#&#*#=#-#;#;#-#>#,#'#)#!###@#+#Q@]+                                        ",
"                                        ]+Q@~#{#]#^#/#(#_#:#<#[#[#<#:#_#(#/#^#]#{#~#Q@]+                                        ",
"                                        ]+Q@}#|#-#1#`@2#_#3#4#5#5#4#3#_#2#`@1#-#|#}#Q@]+                                        ",
"                                        ]+Q@6#7#;#Z@8#9#0#a#b#c#c#b#a#0#9#8#Z@;#7#6#Q@]+                                        ",
"                                        ]+Q@6#7#;#Z@d#e#f#g#h#A+A+h#g#f#e#d#Z@;#7#6#Q@]+                                        ",
"                                        ]+Q@6#7#Z@Z@i#j#k#l#m#    m#l#k#j#i#Z@Z@7#6#Q@]+                                        ",
"                                        ]+Q@6#7#Z@Z@Y@n#o#p#q#    q#p#o#n#Y@Z@Z@7#6#Q@]+                                        ",
"                                        ]+Q@6#r#s#;#-#t#u#v#q#    q#v#u#t#-#;#s#r#6#Q@]+                                        ",
"                                        ]+Q@}#w#-#1#x#y#z#A#B#    B#A#z#y#x#1#-#w#}#Q@]+                                        ",
"                                        ]+Q@C#D#E#F#G#H#I#A#B#    B#A#I#H#G#F#E#D#C#Q@]+                                        ",
"                                        ]+J#K#L#M#M#N#O#P#Q#'     ' Q#P#O#N#M#M#L#K#J#]+                                        ",
"                                        ]+E@R#S#T#U#V#W#X#e ^     ^ e X#W#V#U#T#S#R#E@]+                                        ",
"                                        3 q#Y#Z#`#`# $E@.$+$        +$.$E@ $`#`#Z#Y#q#3                                         ",
"                                          * ' @$#$$$%$-.G.            G.-.%$$$#$@$' *                                           ",
"                                            + m#Q+_@# G.                G.# _@Q+m#+                                             ",
"                                              G.* * @                     @ * * G.                                              ",
"                                                                                                                                ",
"                                                                                                                                "};
