/* XPM */
static char * mining_down1_xpm[] = {
"64 64 623 2",
"  	c #785E4E",
". 	c #775D4D",
"+ 	c #745B4B",
"@ 	c #72594A",
"# 	c #5D483B",
"$ 	c #655048",
"% 	c #494149",
"& 	c #735A4A",
"* 	c #5B473A",
"= 	c #4A434C",
"- 	c #585C7B",
"; 	c #705849",
"> 	c #4A392E",
", 	c #353A50",
"' 	c #61688E",
") 	c #715949",
"! 	c #4B3A2F",
"~ 	c #373B50",
"{ 	c #61698F",
"] 	c #4A392F",
"^ 	c #6D5546",
"/ 	c #48372D",
"( 	c #34384D",
"_ 	c #5D6589",
": 	c #685143",
"< 	c #503E33",
"[ 	c #31251D",
"} 	c #232535",
"| 	c #424863",
"1 	c #424763",
"2 	c #242635",
"3 	c #765C4C",
"4 	c #6D5547",
"5 	c #514037",
"6 	c #262423",
"7 	c #11191B",
"8 	c #141C20",
"9 	c #1B212A",
"0 	c #181E21",
"a 	c #473931",
"b 	c #695345",
"c 	c #755B4C",
"d 	c #675042",
"e 	c #4C3C32",
"f 	c #383837",
"g 	c #2D3A3F",
"h 	c #2E3C41",
"i 	c #2D3C40",
"j 	c #2C3A3E",
"k 	c #2C3B3E",
"l 	c #2E3B40",
"m 	c #38393A",
"n 	c #483A31",
"o 	c #634D40",
"p 	c #745B4C",
"q 	c #6A5345",
"r 	c #514137",
"s 	c #2C2D2E",
"t 	c #2D3B40",
"u 	c #37474D",
"v 	c #35444A",
"w 	c #334348",
"x 	c #37484E",
"y 	c #334248",
"z 	c #2A373C",
"A 	c #262C2D",
"B 	c #4B3D35",
"C 	c #675143",
"D 	c #735A4B",
"E 	c #48382F",
"F 	c #343535",
"G 	c #323F44",
"H 	c #36464C",
"I 	c #283539",
"J 	c #232F33",
"K 	c #324147",
"L 	c #324247",
"M 	c #243034",
"N 	c #2F3C41",
"O 	c #343739",
"P 	c #43362E",
"Q 	c #634D3F",
"R 	c #765C4D",
"S 	c #675043",
"T 	c #52423E",
"U 	c #34333F",
"V 	c #313C47",
"W 	c #394950",
"X 	c #3B4C52",
"Y 	c #35454B",
"Z 	c #202B2F",
"` 	c #151B1D",
" .	c #2C3438",
"..	c #212C30",
"+.	c #33404A",
"@.	c #30323F",
"#.	c #4D3F3D",
"$.	c #644E41",
"%.	c #46362D",
"&.	c #34313F",
"*.	c #3E445A",
"=.	c #3E495A",
"-.	c #394850",
";.	c #38494F",
">.	c #344349",
",.	c #1F2B2F",
"'.	c #131110",
").	c #27211E",
"!.	c #1F2B2E",
"~.	c #34434A",
"{.	c #3E4959",
"].	c #3F455C",
"^.	c #353545",
"/.	c #3F312B",
"(.	c #654F41",
"_.	c #775D4E",
":.	c #372A23",
"<.	c #2A2E40",
"[.	c #424861",
"}.	c #3A4459",
"|.	c #22343E",
"1.	c #193037",
"2.	c #182D34",
"3.	c #0C1B20",
"4.	c #110B08",
"5.	c #251811",
"6.	c #21150E",
"7.	c #000000",
"8.	c #00121A",
"9.	c #1A2E37",
"0.	c #374255",
"a.	c #434962",
"b.	c #303448",
"c.	c #2D2421",
"d.	c #614C3E",
"e.	c #392C24",
"f.	c #262B3C",
"g.	c #3E435A",
"h.	c #444151",
"i.	c #433632",
"j.	c #433428",
"k.	c #3E3026",
"l.	c #271D16",
"m.	c #120B07",
"n.	c #251913",
"o.	c #34251C",
"p.	c #3E2D22",
"q.	c #423124",
"r.	c #42352D",
"s.	c #44404C",
"t.	c #40445B",
"u.	c #2C3043",
"v.	c #302522",
"w.	c #624C3F",
"x.	c #392B23",
"y.	c #031224",
"z.	c #2C2E3D",
"A.	c #6B554D",
"B.	c #927057",
"C.	c #9B765B",
"D.	c #8E6D54",
"E.	c #5F4836",
"F.	c #170F0A",
"G.	c #1F1511",
"H.	c #5C4635",
"I.	c #8B6A52",
"J.	c #9A765B",
"K.	c #957258",
"L.	c #745C50",
"M.	c #373441",
"N.	c #041629",
"O.	c #2E241E",
"P.	c #3A2C23",
"Q.	c #2E2219",
"R.	c #594434",
"S.	c #B88D6E",
"T.	c #BF9271",
"U.	c #AF8566",
"V.	c #765843",
"W.	c #1A110B",
"X.	c #1B120E",
"Y.	c #6F533F",
"Z.	c #AA8163",
"`.	c #BE9170",
" +	c #BB8F6F",
".+	c #9A775C",
"++	c #624B3A",
"@+	c #34261D",
"#+	c #3C2D24",
"$+	c #644C39",
"%+	c #9B775B",
"&+	c #B48A6B",
"*+	c #BE9271",
"=+	c #BC8C6B",
"-+	c #A97A5B",
";+	c #71503A",
">+	c #19100A",
",+	c #1C1410",
"'+	c #6B4B38",
")+	c #A47658",
"!+	c #BA8A69",
"~+	c #B68C6D",
"{+	c #A17B5F",
"]+	c #6F5540",
"^+	c #3A2B22",
"/+	c #765A45",
"(+	c #B38A6B",
"_+	c #C29675",
":+	c #BF9372",
"<+	c #BB8B6A",
"[+	c #A8795B",
"}+	c #6F4E39",
"|+	c #110B07",
"1+	c #1A130F",
"2+	c #6A4B38",
"3+	c #A37557",
"4+	c #B98968",
"5+	c #B98E6E",
"6+	c #83644D",
"7+	c #3B2C22",
"8+	c #624D3F",
"9+	c #423228",
"0+	c #795C47",
"a+	c #C29674",
"b+	c #C09473",
"c+	c #C09372",
"d+	c #B18668",
"e+	c #795B45",
"f+	c #241710",
"g+	c #1E1410",
"h+	c #705340",
"i+	c #AC8264",
"j+	c #B98E6F",
"k+	c #86664F",
"l+	c #443327",
"m+	c #614B3E",
"n+	c #765D4D",
"o+	c #674F40",
"p+	c #7B5D49",
"q+	c #9A765C",
"r+	c #B88E6E",
"s+	c #C19574",
"t+	c #977055",
"u+	c #6B4934",
"v+	c #422B1E",
"w+	c #6F5441",
"x+	c #AE8668",
"y+	c #C29574",
"z+	c #BB9070",
"A+	c #A07B5F",
"B+	c #7F614B",
"C+	c #695140",
"D+	c #654E41",
"E+	c #6E5647",
"F+	c #684F3D",
"G+	c #A57F62",
"H+	c #BC906F",
"I+	c #AD7E5F",
"J+	c #906247",
"K+	c #573928",
"L+	c #6C523E",
"M+	c #AD8567",
"N+	c #BF9373",
"O+	c #BD9171",
"P+	c #AC8467",
"Q+	c #745945",
"R+	c #45352B",
"S+	c #6A5244",
"T+	c #423229",
"U+	c #664D3B",
"V+	c #BA8F6E",
"W+	c #9A7256",
"X+	c #6E4B35",
"Y+	c #3A2417",
"Z+	c #69503D",
"`+	c #AD8668",
" @	c #C39675",
".@	c #B48B6B",
"+@	c #755944",
"@@	c #372A21",
"#@	c #574335",
"$@	c #7A5D47",
"%@	c #AF8668",
"&@	c #BC9070",
"*@	c #AD8467",
"=@	c #816049",
"-@	c #4E3424",
";@	c #432B1D",
">@	c #775842",
",@	c #AD8465",
"'@	c #B58B6C",
")@	c #84654E",
"!@	c #584334",
"~@	c #664F41",
"{@	c #745A4B",
"]@	c #5F4A3D",
"^@	c #614A3B",
"/@	c #8B6B53",
"(@	c #A88164",
"_@	c #BA8F6F",
":@	c #BC9171",
"<@	c #A67C61",
"[@	c #8E644F",
"}@	c #8B5F48",
"|@	c #8D6046",
"1@	c #8E6146",
"2@	c #9A6C4F",
"3@	c #AD7D5D",
"4@	c #B98969",
"5@	c #C19473",
"6@	c #BC9170",
"7@	c #AC8466",
"8@	c #917056",
"9@	c #67503E",
"0@	c #5A4639",
"a@	c #715849",
"b@	c #4C3B30",
"c@	c #5B4534",
"d@	c #A37D61",
"e@	c #BB8F70",
"f@	c #956B56",
"g@	c #744539",
"h@	c #946149",
"i@	c #AC7656",
"j@	c #AD7757",
"k@	c #AD7858",
"l@	c #B48363",
"m@	c #C09574",
"n@	c #AB8466",
"o@	c #694F3C",
"p@	c #43332A",
"q@	c #4C3A2F",
"r@	c #5A4433",
"s@	c #A47E61",
"t@	c #C19573",
"u@	c #946A55",
"v@	c #744439",
"w@	c #956249",
"x@	c #AE7858",
"y@	c #B48262",
"z@	c #BD9070",
"A@	c #69503C",
"B@	c #B78B6D",
"C@	c #A77C61",
"D@	c #936650",
"E@	c #8A5945",
"F@	c #9E6A4E",
"G@	c #AC7757",
"H@	c #B27F5F",
"I@	c #B88968",
"J@	c #BD906F",
"K@	c #413228",
"L@	c #4F3D32",
"M@	c #5B4535",
"N@	c #BD9271",
"O@	c #A0775E",
"P@	c #815545",
"Q@	c #8F5E48",
"R@	c #A47052",
"S@	c #AB7556",
"T@	c #B07C5C",
"U@	c #B78767",
"V@	c #A98265",
"W@	c #46362C",
"X@	c #644E40",
"Y@	c #634C3D",
"Z@	c #82634D",
"`@	c #9F7A5F",
" #	c #B78D6D",
".#	c #B38A6C",
"+#	c #9A755C",
"@#	c #7C5647",
"##	c #6C3C34",
"$#	c #8F5C45",
"%#	c #AB7555",
"&#	c #AD7656",
"*#	c #B17E5E",
"=#	c #876750",
"-#	c #674F3F",
";#	c #604B3E",
">#	c #6B5345",
",#	c #4D3A2F",
"'#	c #735843",
")#	c #A57E63",
"!#	c #6A4B40",
"~#	c #4F272B",
"{#	c #683832",
"]#	c #926049",
"^#	c #AC7858",
"/#	c #AF7959",
"(#	c #AF7A5A",
"_#	c #AE7959",
":#	c #BA8A6A",
"<#	c #B3896A",
"[#	c #7E614A",
"}#	c #4C3A2D",
"|#	c #684F3C",
"1#	c #A67D62",
"2#	c #6A433B",
"3#	c #4E1723",
"4#	c #6A3A34",
"5#	c #996C55",
"6#	c #B58565",
"7#	c #B3805F",
"8#	c #B07D5D",
"9#	c #B78666",
"0#	c #B98A6A",
"a#	c #B38161",
"b#	c #B07C5B",
"c#	c #BB8A69",
"d#	c #6F5748",
"e#	c #69513F",
"f#	c #9E795D",
"g#	c #9A725A",
"h#	c #70433A",
"i#	c #5A2227",
"j#	c #946A54",
"k#	c #AF8365",
"l#	c #B07F5F",
"m#	c #B27E5E",
"n#	c #BB8E6D",
"o#	c #B18062",
"p#	c #A67356",
"q#	c #AA7D5F",
"r#	c #A47D61",
"s#	c #745944",
"t#	c #6B5445",
"u#	c #755C4C",
"v#	c #6C5446",
"w#	c #685141",
"x#	c #6B513F",
"y#	c #694839",
"z#	c #62342F",
"A#	c #5F292B",
"B#	c #64322F",
"C#	c #75493E",
"D#	c #8A5E4B",
"E#	c #A16E53",
"F#	c #AE7857",
"G#	c #B48261",
"H#	c #B17F5F",
"I#	c #9D6C52",
"J#	c #815240",
"K#	c #734E3D",
"L#	c #6C523F",
"M#	c #685140",
"N#	c #381516",
"O#	c #592828",
"P#	c #612D2D",
"Q#	c #602C2C",
"R#	c #5E292B",
"S#	c #6A3831",
"T#	c #895743",
"U#	c #9B674D",
"V#	c #9C694E",
"W#	c #9C684D",
"X#	c #99664C",
"Y#	c #855341",
"Z#	c #62312D",
"`#	c #3C1518",
" $	c #30221C",
".$	c #381616",
"+$	c #5F2B2B",
"@$	c #622F2D",
"#$	c #6C3B33",
"$$	c #734237",
"%$	c #724136",
"&$	c #6B3932",
"*$	c #5D2B2A",
"=$	c #3E181A",
"-$	c #695243",
";$	c #381717",
">$	c #612C2C",
",$	c #5F2A2B",
"'$	c #602B2C",
")$	c #5C2A2A",
"!$	c #3F1B1B",
"~$	c #30231C",
"{$	c #3C2B23",
"]$	c #3D1919",
"^$	c #5A2929",
"/$	c #431D1D",
"($	c #36241D",
"_$	c #5F493D",
":$	c #503930",
"<$	c #4A2824",
"[$	c #512424",
"}$	c #5D2A2A",
"|$	c #5E2B2B",
"1$	c #532525",
"2$	c #4A2623",
"3$	c #4E362E",
"4$	c #351917",
"5$	c #542626",
"6$	c #5F2C2C",
"7$	c #582828",
"8$	c #3A1A19",
"9$	c #3E2F26",
"0$	c #321414",
"a$	c #562727",
"b$	c #391717",
"c$	c #382921",
"d$	c #423329",
"e$	c #311313",
"f$	c #552626",
"g$	c #3A2B23",
"h$	c #4E2222",
"i$	c #4D2222",
"j$	c #5D2B2B",
"k$	c #43201F",
"l$	c #2C1714",
"m$	c #291613",
"n$	c #3E1E1C",
"o$	c #562827",
"p$	c #542525",
"q$	c #4E362D",
"r$	c #534035",
"s$	c #544135",
"t$	c #4F392F",
"u$	c #492824",
"v$	c #441D1D",
"w$	c #35231D",
"x$	c #5E493C",
"y$	c #3B2A22",
"z$	c #3E1A1A",
"A$	c #411B1B",
"B$	c #30221B",
"C$	c #614C3F",
"D$	c #3A1818",
"E$	c #321313",
"F$	c #5E2B2C",
"G$	c #572829",
"H$	c #3C1A1B",
"I$	c #382922",
"J$	c #361617",
"K$	c #542628",
"L$	c #612D2C",
"M$	c #56282B",
"N$	c #452127",
"O$	c #2C1419",
"P$	c #2E221B",
"Q$	c #372921",
"R$	c #271116",
"S$	c #411F25",
"T$	c #53272B",
"U$	c #622D2D",
"V$	c #2A1013",
"W$	c #4A2225",
"X$	c #55272B",
"Y$	c #53262B",
"Z$	c #47222A",
"`$	c #321A26",
" %	c #1D0E18",
".%	c #2B201A",
"+%	c #665042",
"@%	c #362921",
"#%	c #190C15",
"$%	c #2F1924",
"%%	c #442129",
"&%	c #52262A",
"*%	c #4E2327",
"=%	c #311416",
"-%	c #190911",
";%	c #2F1723",
">%	c #361B28",
",%	c #351B28",
"'%	c #301928",
")%	c #261525",
"!%	c #170C18",
"~%	c #30241E",
"{%	c #392C23",
"]%	c #140A15",
"^%	c #241424",
"/%	c #2E1928",
"(%	c #341A28",
"_%	c #311825",
":%	c #1D0C15",
"<%	c #0E0611",
"[%	c #1D1122",
"}%	c #231528",
"|%	c #221427",
"1%	c #1F1223",
"2%	c #1E121E",
"3%	c #3A2B27",
"4%	c #6F5648",
"5%	c #584438",
"6%	c #3E2F29",
"7%	c #23161F",
"8%	c #1E1122",
"9%	c #1F1224",
"0%	c #110814",
"a%	c #1F1417",
"b%	c #201322",
"c%	c #231426",
"d%	c #231525",
"e%	c #1E121D",
"f%	c #2E221E",
"g%	c #352822",
"h%	c #1D111C",
"i%	c #221424",
"j%	c #221423",
"k%	c #1C1218",
"l%	c #3F3027",
"m%	c #695244",
"n%	c #4D3B32",
"o%	c #2B1E20",
"p%	c #160B19",
"q%	c #160B18",
"r%	c #3C2D28",
"s%	c #5C483B",
"t%	c #41322B",
"u%	c #1D121B",
"v%	c #160C19",
"w%	c #25191D",
"x%	c #48372F",
"y%	c #291E19",
"z%	c #32261F",
"A%	c #574337",
"B%	c #5D483C",
"C%	c #382A22",
"D%	c #271D18",
"E%	c #3E2F27",
"F%	c #664F42",
"                                                                                                                                ",
"                                                                                                                                ",
"                                                                                                                                ",
"                                                                                                                                ",
"                                                            . + + .                                                             ",
"                                                            @ # # @                                                             ",
"                                                        . @ $ % % $ @ .                                                         ",
"                                                        & * = - - = * &                                                         ",
"                                                        ; > , ' ' , > ;                                                         ",
"                                                        ; > , ' ' , > ;                                                         ",
"                                                        ) ! ~ { { ~ ] ;                                                         ",
"                                                      . ^ / ( _ _ ( ] ;                                                         ",
"                                                    . : < [ } | 1 2 ! )                                                         ",
"                                                  3 4 5 6 7 8 9 9 0 a b c                                                       ",
"                                                . d e f g h i j k l m n o 3                                                     ",
"                                              p q r s t u v w u x y z A B C D                                                   ",
"                                            . C E F G u H I J K L J M N O P Q R                                                 ",
"                                          D S T U V W X Y Z `  . .` ..Y +.@.#.$.@                                               ",
"                                          q %.&.*.=.-.;.>.,.'.).).'.!.~.{.].^./.(._.                                            ",
"                                          d :.<.[.}.|.1.2.3.4.5.6.7.8.9.0.a.b.c.d._.                                            ",
"                                          : e.f.g.h.i.j.k.l.m.n.o.p.q.r.s.t.u.v.w._.                                            ",
"                                          : x.y.z.A.B.C.D.E.F.G.H.I.J.K.L.M.N.O.w._.                                            ",
"                                          : P.Q.R.B.S.T.U.V.W.X.Y.Z.`. +.+++@+[ w._.                                            ",
"                                          : #+$+%+&+*+=+-+;+>+,+'+)+!+*+~+{+]+^+w._.                                            ",
"                                          : P./+(+_+:+<+[+}+|+1+2+3+4+*+_+5+6+7+8+                                              ",
"                                          d 9+0+&+a+b+c+d+e+f+g+h+i+T.c+a+j+k+l+m+n+                                            ",
"                                      + d o+p+q+r+s+b+s+5+t+u+v+w+x+y+b+s+z+A+B+C+D+@                                           ",
"                                      E+> F+G+z+:+b+b+s+H+I+J+K+L+M+s+b+b+N+O+P+Q+R+S+                                          ",
"                                      E+T+U+M+_+b+b+b+a+V+W+X+Y+Z+`+y+b+b+b+ @.@+@@@:                                           ",
"                                  . + S+#@$@%@s+b+b+:+&@*@=@-@;@>@,@c+b+b+b+s+'@)@!@~@& .                                       ",
"                                  {@]@^@/@(@_@b+b+s+:@<@[@}@|@1@2@3@4@*+b+b+5@6@7@8@9@0@a@                                      ",
"                                  a@b@c@d@b+b+b+b+y+e@f@g@h@i@j@i@k@l@`.m@b+b+b+s+n@o@p@^                                       ",
"                                  a@q@r@s@t@t@b+b+s+_@u@v@w@j@x@j@j@y@z@b+b+b+b+y+P+A@T+^                                       ",
"                                  a@! r@s@s+s+s+b+B@C@D@E@F@G@j@j@j@H@I@J@b+b+b+a+M+Z+K@^                                       ",
"                                  ) L@M@{+N@b+b+z+O@P@Q@R@S@j@j@j@j@x@T@U@`.b+b+:+V@Z+W@4                                       ",
"                                  + X@Y@Z@`@ #.#+#@###$#%#x@j@j@j@&#i@j@*#U@J@_@s@=#-#;#@                                       ",
"                                    n+>#,#'#P+)#!#~#{#]#^#/#j@j@x@(#(#(#_#T@:#<#[#}#~@3                                         ",
"                                      E+T+|#n@1#2#3#4#5#6#7#j@j@8#9#0#I@a#b#c#<#/+@@:                                           ",
"                                      d#< e#f#g#h#i#4#j#k#l#j@j@m#:#J@n#o#p#q#r#s#q@t#                                          ",
"                                      u#v#w#x#y#z#A#B#C#D#E#j@F#(#H@G#H#I#J#K#L#M#q +                                           ",
"                                          : x.N#O#P#Q#R#S#T#U#V#W#W#V#X#Y#Z#`# $w.                                              ",
"                                          : x..$O#P#Q#+$@$#$$$$$$$$$$$%$&$*$=$ $w.                                              ",
"                                          -$x.;$O#>$Q#Q#Q#,$R#R#R#R#R#R#'$)$!$~$Q                                               ",
"                                        3 D+{$]$^$>$Q#Q#Q#Q#Q#Q#Q#Q#Q#Q#>$)$/$($_$+                                             ",
"                                      @ ;#:$<$[$}$Q#Q#Q#Q#Q#Q#Q#Q#Q#Q#Q#Q#|$1$2$3$# ;                                           ",
"                                      4 W@4$5$6$Q#Q#Q#Q#Q#Q#Q#Q#Q#Q#Q#Q#Q#Q#Q#7$8$9$-$                                          ",
"                                      ^ K@0$a$P#Q#Q#Q#Q#Q#Q#Q#Q#Q#Q#Q#Q#Q#Q#P#^$b$c$C                                           ",
"                                      ^ d$e$f$>$Q#Q#Q#Q#Q#Q#Q#Q#Q#Q#Q#Q#Q#Q#>$O#b$g$:                                           ",
"                                      ^ d$e$f$>$Q#Q#Q#Q#Q#Q#Q#Q#Q#Q#Q#Q#Q#Q#>$O#b$g$:                                           ",
"                                      ^ d$e$f$>$Q#Q#Q#>$|$f$h$i$1$j$>$Q#Q#Q#>$O#b$g$:                                           ",
"                                      ^ d$e$f$>$Q#Q#Q#Q#O#k$l$m$n$o$6$Q#Q#Q#>$O#b$g$:                                           ",
"                                      ^ d$e$f$>$Q#Q#|$p$2$q$r$s$t$u$[$}$Q#Q#>$O#b$g$:                                           ",
"                                      ^ d$e$f$>$Q#>$}$v$w$x${@c X@y$z$^$>$Q#>$O#b$g$:                                           ",
"                                      ^ d$e$f$>$Q#P#}$A$B$C$    : @@D$^$P#Q#>$O#b$g$:                                           ",
"                                      ^ d$E$f$>$Q#F$G$H$B$m+    d I$J$K$F$Q#P#O#b$g$:                                           ",
"                                      ^ d$E$f$L$6$M$N$O$P$m+    d Q$R$S$T$F$U$O#b$g$:                                           ",
"                                      ^ d$V$W$X$Y$Z$`$ %.%;#    +%@%#%$%%%&%X$*%=%x.:                                           ",
"                                      ^ d$-%;%>%,%'%)%!%~%d.    d {%]%^%/%(%>%_%:%x.:                                           ",
"                                      ^ K@<%[%}%|%1%2%3%s$t#    4%5%6%7%8%|%}%9%0%Q$C                                           ",
"                                      E+/ a%b%c%d%e%f%5%a@.     . & x$g%h%i%c%j%k%l%m%                                          ",
"                                      D X@n%o%p%q%r%5%^             d#s%t%u%v%w%x%;#)                                           ",
"                                        . : R+y%z%A%@                 + B%C%D%E%o 3                                             ",
"                                          D : C$o 4 .                   d#X@d.F%)                                               ",
"                                                                                                                                "};
