/* XPM */
static char * mining_left3_xpm[] = {
"64 64 615 2",
"  	c #785E4E",
". 	c #745B4B",
"+ 	c #705849",
"@ 	c #705748",
"# 	c #715849",
"$ 	c #755B4C",
"% 	c #765C4D",
"& 	c #634D3F",
"* 	c #4B3A2F",
"= 	c #47372C",
"- 	c #48372D",
"; 	c #47362C",
"> 	c #4F3D32",
", 	c #685143",
"' 	c #685244",
") 	c #4C3E36",
"! 	c #232628",
"~ 	c #192225",
"{ 	c #1B2326",
"] 	c #181F22",
"^ 	c #11171B",
"/ 	c #080E14",
"( 	c #231D1B",
"_ 	c #524035",
": 	c #6C5445",
"< 	c #755C4C",
"[ 	c #775D4D",
"} 	c #654F41",
"| 	c #44362D",
"1 	c #343738",
"2 	c #303F45",
"3 	c #324146",
"4 	c #314146",
"5 	c #314046",
"6 	c #2B393F",
"7 	c #1F2B33",
"8 	c #162129",
"9 	c #171B23",
"0 	c #2C2322",
"a 	c #4B392F",
"b 	c #6B5345",
"c 	c #745B4C",
"d 	c #695244",
"e 	c #614B3E",
"f 	c #4C3A2F",
"g 	c #1A1214",
"h 	c #203137",
"i 	c #36484D",
"j 	c #3A4B50",
"k 	c #3A4B51",
"l 	c #394A50",
"m 	c #324249",
"n 	c #24333B",
"o 	c #1B2730",
"p 	c #151E28",
"q 	c #0E141E",
"r 	c #292120",
"s 	c #534136",
"t 	c #6A5244",
"u 	c #6F5748",
"v 	c #4C3B30",
"w 	c #35291D",
"x 	c #413321",
"y 	c #40321C",
"z 	c #362E1F",
"A 	c #393F41",
"B 	c #3C4B54",
"C 	c #3B4B53",
"D 	c #24323B",
"E 	c #1B2630",
"F 	c #161E29",
"G 	c #141B26",
"H 	c #181B23",
"I 	c #271F1E",
"J 	c #4B3A30",
"K 	c #6D5546",
"L 	c #775D4E",
"M 	c #403128",
"N 	c #5C4B28",
"O 	c #957B46",
"P 	c #A78A4D",
"Q 	c #A18753",
"R 	c #84786F",
"S 	c #5B647B",
"T 	c #445466",
"U 	c #384A4F",
"V 	c #314248",
"W 	c #233239",
"X 	c #19252E",
"Y 	c #141D27",
"Z 	c #131B26",
"` 	c #111923",
" .	c #0C131B",
"..	c #2D2521",
"+.	c #513F34",
"@.	c #6D5547",
"#.	c #423229",
"$.	c #80693B",
"%.	c #CDAA62",
"&.	c #E4BE6C",
"*.	c #DBB770",
"=.	c #B09B8A",
"-.	c #6F7493",
";.	c #4A5974",
">.	c #3B4B54",
",.	c #3A4A52",
"'.	c #35434C",
").	c #293641",
"!.	c #222C39",
"~.	c #1F2634",
"{.	c #1E2533",
"].	c #1E2432",
"^.	c #1A1F29",
"/.	c #231C1C",
"(.	c #523F34",
"_.	c #735A4A",
":.	c #866F3E",
"<.	c #D7B367",
"[.	c #EFC772",
"}.	c #E5BF73",
"|.	c #B39B7E",
"1.	c #666882",
"2.	c #465270",
"3.	c #434D60",
"4.	c #424C60",
"5.	c #40495E",
"6.	c #3C445A",
"7.	c #3A4157",
"8.	c #3A4056",
"9.	c #393F56",
"0.	c #3A3F56",
"a.	c #303548",
"b.	c #181925",
"c.	c #4D3B31",
"d.	c #72594A",
"e.	c #786338",
"f.	c #C2A15E",
"g.	c #D8B368",
"h.	c #CEAC67",
"i.	c #9D8665",
"j.	c #505062",
"k.	c #3C4460",
"l.	c #42465F",
"m.	c #41475F",
"n.	c #40465F",
"o.	c #363B50",
"p.	c #1F1F29",
"q.	c #4E3C31",
"r.	c #4A3D24",
"s.	c #7A663F",
"t.	c #887247",
"u.	c #826D46",
"v.	c #625543",
"w.	c #333441",
"x.	c #2B2C42",
"y.	c #302E42",
"z.	c #2C3043",
"A.	c #2B3143",
"B.	c #232938",
"C.	c #17161C",
"D.	c #413128",
"E.	c #060812",
"F.	c #101323",
"G.	c #0C1427",
"H.	c #021025",
"I.	c #051125",
"J.	c #0F1325",
"K.	c #191125",
"L.	c #1C1326",
"M.	c #1B1827",
"N.	c #1A1A27",
"O.	c #191B27",
"P.	c #171B27",
"Q.	c #151C27",
"R.	c #151D28",
"S.	c #101720",
"T.	c #0B0B0F",
"U.	c #4D3C31",
"V.	c #44342A",
"W.	c #110913",
"X.	c #190F22",
"Y.	c #231728",
"Z.	c #291C2A",
"`.	c #2C1F2A",
" +	c #2D1F2A",
".+	c #2D1D29",
"++	c #2B1A28",
"@+	c #241727",
"#+	c #211627",
"$+	c #1C1927",
"%+	c #161C27",
"&+	c #151D27",
"*+	c #141C27",
"=+	c #101620",
"-+	c #171314",
";+	c #5D483B",
">+	c #42322B",
",+	c #2D1F23",
"'+	c #584139",
")+	c #7D5E4D",
"!+	c #846452",
"~+	c #81614F",
"{+	c #7B5746",
"]+	c #6A473B",
"^+	c #432B2E",
"/+	c #221327",
"(+	c #241527",
"_+	c #211827",
":+	c #1B1927",
"<+	c #121426",
"[+	c #030E23",
"}+	c #00081C",
"|+	c #281F21",
"1+	c #4A3930",
"2+	c #634D40",
"3+	c #614C3E",
"4+	c #3A2C24",
"5+	c #795C47",
"6+	c #AF8769",
"7+	c #B98F70",
"8+	c #B58A6B",
"9+	c #AD7D5E",
"0+	c #94654C",
"a+	c #593B35",
"b+	c #1E1026",
"c+	c #231427",
"d+	c #231527",
"e+	c #271928",
"f+	c #37262E",
"g+	c #3E2D2E",
"h+	c #392A25",
"i+	c #675042",
"j+	c #735A4B",
"k+	c #3B2D23",
"l+	c #80624B",
"m+	c #BA8F6F",
"n+	c #C59876",
"o+	c #BF9271",
"p+	c #B68463",
"q+	c #9C6B50",
"r+	c #5E3E36",
"s+	c #180C25",
"t+	c #190D25",
"u+	c #0C0223",
"v+	c #36262E",
"w+	c #745849",
"x+	c #916E58",
"y+	c #927057",
"z+	c #82634D",
"A+	c #624C3D",
"B+	c #665042",
"C+	c #7A5D47",
"D+	c #AC8567",
"E+	c #BC9171",
"F+	c #BD906F",
"G+	c #B58362",
"H+	c #9A6A4F",
"I+	c #5D3E36",
"J+	c #311F2A",
"K+	c #482F30",
"L+	c #482E2F",
"M+	c #60443B",
"N+	c #9B765D",
"O+	c #BB9070",
"P+	c #BE9272",
"Q+	c #A57E62",
"R+	c #6C4F3B",
"S+	c #574133",
"T+	c #685040",
"U+	c #7B5E48",
"V+	c #A37E61",
"W+	c #BC8F6F",
"X+	c #9A694F",
"Y+	c #5C3D36",
"Z+	c #875C47",
"`+	c #90624A",
" @	c #96684F",
".@	c #AF8365",
"+@	c #C19473",
"@@	c #C29674",
"#@	c #B48869",
"$@	c #986C50",
"%@	c #75503B",
"&@	c #564033",
"*@	c #664F41",
"=@	c #765D4D",
"-@	c #6A5345",
";@	c #534033",
">@	c #85664F",
",@	c #A87F62",
"'@	c #AE7C5D",
")@	c #9E6C50",
"!@	c #775040",
"~@	c #7F5643",
"{@	c #A47153",
"]@	c #AF7A5A",
"^@	c #B28060",
"/@	c #BA8C6B",
"(@	c #C09473",
"_@	c #BD8F6E",
":@	c #B38262",
"<@	c #8B6248",
"[@	c #443023",
"}@	c #594539",
"|@	c #765C4C",
"1@	c #5A463A",
"2@	c #3D2F27",
"3@	c #392C24",
"4@	c #534034",
"5@	c #634C3D",
"6@	c #71523F",
"7@	c #986A4E",
"8@	c #A87455",
"9@	c #A06D51",
"0@	c #A16E51",
"a@	c #AC7757",
"b@	c #B58363",
"c@	c #BC8D6D",
"d@	c #C09372",
"e@	c #BB8E6D",
"f@	c #936E54",
"g@	c #463326",
"h@	c #584538",
"i@	c #614C42",
"j@	c #514B59",
"k@	c #3D435C",
"l@	c #242738",
"m@	c #403127",
"n@	c #6C5546",
"o@	c #624D3F",
"p@	c #473123",
"q@	c #936A4F",
"r@	c #B27F5F",
"s@	c #B07B5B",
"t@	c #B48161",
"u@	c #BA8B6B",
"v@	c #BF9372",
"w@	c #B88E6E",
"x@	c #A47E62",
"y@	c #3D2E23",
"z@	c #5D483C",
"A@	c #423B44",
"B@	c #565B7B",
"C@	c #5C6488",
"D@	c #3B3F57",
"E@	c #46362C",
"F@	c #392B23",
"G@	c #17100C",
"H@	c #4B3729",
"I@	c #9D775B",
"J@	c #B98A6A",
"K@	c #B27E5E",
"L@	c #B38060",
"M@	c #BB8D6D",
"N@	c #A98265",
"O@	c #6E533F",
"P@	c #34261B",
"Q@	c #261C15",
"R@	c #5E4A40",
"S@	c #524C5A",
"T@	c #4E5472",
"U@	c #535A7B",
"V@	c #545874",
"W@	c #554B53",
"X@	c #5F4A3D",
"Y@	c #221913",
"Z@	c #000000",
"`@	c #4D3A2B",
" #	c #A17C60",
".#	c #B3805F",
"+#	c #B38161",
"@#	c #BE9170",
"##	c #C19574",
"$#	c #543F2F",
"%#	c #1E1610",
"&#	c #5A4639",
"*#	c #644E40",
"=#	c #3B3030",
"-#	c #4F5574",
";#	c #656D94",
">#	c #4B5270",
",#	c #393238",
"'#	c #5E4A3E",
")#	c #231A14",
"!#	c #493628",
"~#	c #97745A",
"{#	c #B58869",
"]#	c #B58463",
"^#	c #A57F62",
"/#	c #584232",
"(#	c #281814",
"_#	c #574236",
":#	c #624C3F",
"<#	c #30292C",
"[#	c #505776",
"}#	c #687199",
"|#	c #4A516F",
"1#	c #211917",
"2#	c #43342A",
"3#	c #503E33",
"4#	c #3C2D25",
"5#	c #150E0A",
"6#	c #2E2118",
"7#	c #654D3A",
"8#	c #8D6B51",
"9#	c #AD8163",
"0#	c #C19573",
"a#	c #C29574",
"b#	c #A68063",
"c#	c #250209",
"d#	c #472220",
"e#	c #4C302A",
"f#	c #554136",
"g#	c #6C5446",
"h#	c #332B2D",
"i#	c #4F5676",
"j#	c #687098",
"k#	c #4C5270",
"l#	c #18151A",
"m#	c #120704",
"n#	c #19100C",
"o#	c #150D09",
"p#	c #110A07",
"q#	c #090504",
"r#	c #251A12",
"s#	c #493729",
"t#	c #7D5F49",
"u#	c #AF8668",
"v#	c #B58B6C",
"w#	c #977359",
"x#	c #583E30",
"y#	c #42181B",
"z#	c #582828",
"A#	c #421C1C",
"B#	c #34251E",
"C#	c #515471",
"D#	c #292021",
"E#	c #231608",
"F#	c #251A14",
"G#	c #1C130F",
"H#	c #493629",
"I#	c #886850",
"J#	c #AA8365",
"K#	c #8C6B52",
"L#	c #654838",
"M#	c #57302A",
"N#	c #582728",
"O#	c #5C2A2A",
"P#	c #2F211B",
"Q#	c #160E0C",
"R#	c #554031",
"S#	c #BD8E6E",
"T#	c #BF9170",
"U#	c #B2896A",
"V#	c #977459",
"W#	c #5A4433",
"X#	c #2F0F11",
"Y#	c #562627",
"Z#	c #622D2D",
"`#	c #5E2B2B",
" $	c #4C2121",
".$	c #402520",
"+$	c #584236",
"@$	c #4E3A2C",
"#$	c #9E795E",
"$$	c #B98B6B",
"%$	c #B78868",
"&$	c #B68B6C",
"*$	c #8E6D54",
"=$	c #553F2F",
"-$	c #2A1D14",
";$	c #331314",
">$	c #572727",
",$	c #612D2D",
"'$	c #5F2C2C",
")$	c #532727",
"!$	c #412621",
"~$	c #3B2D24",
"{$	c #0E0906",
"]$	c #3A2A1F",
"^$	c #7C5E48",
"/$	c #967359",
"($	c #98745A",
"_$	c #926C52",
":$	c #8A6147",
"<$	c #90694F",
"[$	c #906D54",
"}$	c #6C4E3D",
"|$	c #3C1919",
"1$	c #391316",
"2$	c #4A2020",
"3$	c #5B2929",
"4$	c #602C2C",
"5$	c #5A2929",
"6$	c #391717",
"7$	c #3A2C23",
"8$	c #5C473B",
"9$	c #2F231C",
"0$	c #19110D",
"a$	c #271C15",
"b$	c #3E2E23",
"c$	c #463427",
"d$	c #433225",
"e$	c #402D21",
"f$	c #40291D",
"g$	c #422C20",
"h$	c #483025",
"i$	c #532D28",
"j$	c #5B2A29",
"k$	c #5B292A",
"l$	c #5D2A2A",
"m$	c #612C2C",
"n$	c #592828",
"o$	c #381717",
"p$	c #6A5344",
"q$	c #6E5647",
"r$	c #584438",
"s$	c #2A1F19",
"t$	c #1C0005",
"u$	c #3C1518",
"v$	c #41171B",
"w$	c #44181C",
"x$	c #552526",
"y$	c #45352B",
"z$	c #371616",
"A$	c #5F2B2B",
"B$	c #3F3027",
"C$	c #3B2C24",
"D$	c #442923",
"E$	c #522726",
"F$	c #5A4438",
"G$	c #3D241F",
"H$	c #5D2B2B",
"I$	c #3C2E25",
"J$	c #30221C",
"K$	c #38181A",
"L$	c #522629",
"M$	c #5C2B2C",
"N$	c #4E2625",
"O$	c #493029",
"P$	c #564337",
"Q$	c #2E221B",
"R$	c #261219",
"S$	c #3F1F27",
"T$	c #53272A",
"U$	c #471F1F",
"V$	c #38231E",
"W$	c #5D473B",
"X$	c #201019",
"Y$	c #341B25",
"Z$	c #3F1D22",
"`$	c #4C2122",
" %	c #411C1C",
".%	c #30231C",
"+%	c #211018",
"@%	c #2E1923",
"#%	c #221018",
"$%	c #2F1213",
"%%	c #522525",
"&%	c #31231C",
"*%	c #2D221B",
"=%	c #160E16",
"-%	c #1F151F",
";%	c #0C0A12",
">%	c #270E0F",
",%	c #512424",
"'%	c #2C211B",
")%	c #090B13",
"!%	c #0F121C",
"~%	c #010811",
"{%	c #280F0F",
"]%	c #522424",
"^%	c #612D2C",
"/%	c #080B13",
"(%	c #0D111C",
"_%	c #000810",
":%	c #2E2421",
"<%	c #0E0F17",
"[%	c #00060C",
"}%	c #220C0E",
"|%	c #472023",
"1%	c #54272B",
"2%	c #55272B",
"3%	c #512529",
"4%	c #39181B",
"5%	c #211915",
"6%	c #000102",
"7%	c #13070D",
"8%	c #2C1521",
"9%	c #351B28",
"0%	c #361B28",
"a%	c #331926",
"b%	c #230F19",
"c%	c #31251E",
"d%	c #0A040C",
"e%	c #1C1020",
"f%	c #221528",
"g%	c #221527",
"h%	c #1E1223",
"i%	c #1B111E",
"j%	c #392B27",
"k%	c #544136",
"l%	c #231918",
"m%	c #1E1220",
"n%	c #231426",
"o%	c #221425",
"p%	c #1D111E",
"q%	c #2C201D",
"r%	c #574438",
"s%	c #523F35",
"t%	c #312423",
"u%	c #160B18",
"v%	c #3A2B27",
"w%	c #2B201A",
"x%	c #30241D",
"                                                                                                                                ",
"                                                                                                                                ",
"                                                                                                                                ",
"                                                                                                                                ",
"                                                                                                                                ",
"                                                                                                                                ",
"                                                                                                                                ",
"                                                                                                                                ",
"                                                                                                                                ",
"                                                                                                                                ",
"                                                                                                                                ",
"                                                                                                                                ",
"                                                                                                                                ",
"                                                        . + @ + + + + @ # $                                                     ",
"                                                      % & * = - - - - ; > ,                                                     ",
"                                                    . ' ) ! ~ { { ] ^ / ( _ : <                                                 ",
"                                                  [ } | 1 2 3 4 5 6 7 8 9 0 a b                                                 ",
"                                            c d & e f g h i j k l m n o p q r s t <                                             ",
"                                            u v w x y z A B C l l m D E F G H I J K L                                           ",
"                                            K M N O P Q R S T l U V W X Y Z `  ...+., <                                         ",
"                                            @.#.$.%.&.*.=.-.;.>.,.'.).!.~.{.{.].^./.(._.                                        ",
"                                            @.#.:.<.[.}.|.1.2.3.4.5.6.7.8.9.0.8.a.b.c.d.                                        ",
"                                            @.#.e.f.g.h.i.j.k.l.m.m.n.n.n.n.n.n.o.p.q.d.                                        ",
"                                            @.#.r.s.t.u.v.w.x.y.z.A.A.A.A.A.A.A.B.C.q.d.                                        ",
"                                            @.D.E.F.G.H.I.J.K.L.M.N.O.P.Q.Y Y R.S.T.U.d.                                        ",
"                                            @.V.W.X.Y.Z.`. +.+++@+#+#+$+%+&+Q.*+=+-+> d.                                        ",
"                                            d.;+>+,+'+)+!+~+{+]+^+/+(+_+:+<+[+}+|+1+2+$                                         ",
"                                            [ . 3+4+5+6+7+8+9+0+a+b+c+d+e+f+g+h+* i+j+[                                         ",
"                                                i+k+l+m+n+o+p+q+r+s+t+u+v+w+x+y+z+A+B+%                                         ",
"                                                d - C+D+E+F+G+H+I+J+K+L+M+N+O+P+Q+R+S+K <                                       ",
"                                                j+i+T+U+V+W+p+X+Y+a+Z+`+ @.@+@@@#@$@%@&@*@=@                                    ",
"                                        [ + -@t u . } ;@>@,@'@)@!@~@{@]@^@/@(@(@_@:@<@[@}@|@                                    ",
"                                        j+1@2@3@4@+ c d 5@6@7@8@9@0@a@b@c@o+(@(@d@e@f@g@h@|@                                    ",
"                                      @ i@j@k@l@m@n@d.o@V.p@q@r@s@s@t@u@v@(@(@(@w@x@U+y@}@|@                                    ",
"                                    c z@A@B@C@D@E@n@2+F@G@H@I@J@K@L@M@v@(@(@(@(@N@O@P@Q@}@|@                                    ",
"                                  u R@S@T@U@V@W@& d.X@Y@Z@`@ #_@.#+#@###(@(@(@(@x@$#Z@%#&#=@                                    ",
"                                  *#=#-#;#>#,#'#+ + }@)#Z@!#~#{#^@]#@#(@(@(@(@(@^#/#Z@(#_## [                                   ",
"                                  :#<#[#}#|#1#2#3#q.4#5#Z@6#7#8#9#c@v@(@(@(@0#a#b#/#c#d#e#f#g#                                  ",
"                                  o@h#i#j#k#l#m#n#n#o#p#q#r#s#t#u#+@(@(@(@+@P+v#w#x#y#z#A#B#2+                                  ",
"                                  o@h#i#j#C#D#E#F#F#F#F#G#H#I#J#O+0#(@(@(@##v#K#L#M#N#O#A#P#:#                                  ",
"                                  o@h#i#j#C#D#E#F#F#F#F#Q#R# ###a#o+S#T#P+U#V#W#X#Y#Z#`# $.$+$b c                               ",
"                                  o@h#i#j#k#l#m#n#n#o#p#Z@@$#$P+v@$$^@%$&$*$=$-$;$>$,$'$O#)$!$* K                               ",
"                                  :#<#[#}#|#1#2#3#q.~${$Z@]$^$/$($_$:$<$[$}$|$1$2$3$4$4$,$5$6$7$t                               ",
"                                  *#=#-#;#>#,#'#+ # 8$9$0$a$b$c$d$e$f$g$h$i$j$k$l$'$4$4$m$n$o$4#p$                              ",
"                                  u R@S@T@U@V@W@:#j+q$;+r$}@}@q.s$t$u$v$w$x$4$,$m$4$4$4$m$n$o$4#p$                              ",
"                                    c z@A@B@C@D@y$q$  |@|@|@=@, 4+z$z#A$`#'$4$4$4$4$4$4$m$n$o$4#p$                              ",
"                                      @ i@j@k@l@B$K           b C$6$5$Z#m$4$4$4$4$4$4$4$m$n$o$4#p$                              ",
"                                        j+1@2@3@4@@           q$> D$E$3$'$4$4$4$4$4$4$4$,$5$o$C$p$                              ",
"                                        [ + -@t q$|@          < @.F$G$2$H$m$4$4$4$4$4$4$m$n$o$I$p$                              ",
"                                                                  2+J$K$L$M$4$4$4$4$4$A$>$N$O$P$u                               ",
"                                                                  o@Q$R$S$T$`#4$4$4$m$H$U$V$W$d.[                               ",
"                                                                  o@Q$X$Y$Z$`$5$4$4$m$l$ %.%2+                                  ",
"                                                                  o@Q$+%@%#%$%%%4$4$m$l$A#&%o@                                  ",
"                                                                  o@*%=%-%;%>%,%4$4$m$l$A#&%o@                                  ",
"                                                                  :#'%)%!%~%{%]%4$4$^%l$A#&%o@                                  ",
"                                                                  :#'%/%(%_%{%]%4$4$^%l$A#&%o@                                  ",
"                                                                  d * :%<%[%}%|%1%1%2%3%4%P#:#                                  ",
"                                                                  < K +.5%6%7%8%9%9%0%a%b%c%2+                                  ",
"                                                                    L , q.*%d%e%f%g%h%i%j%k%g#                                  ",
"                                                                      =@q$q.l%m%n%o%p%q%r%# [                                   ",
"                                                                        =@, s%t%u%u%v%r%n@                                      ",
"                                                                          L K * w%x%k%#                                         ",
"                                                                            < d :#& g#[                                         ",
"                                                                                                                                "};
