/* XPM */
static char * mining_left2_xpm[] = {
"64 64 662 2",
"  	c #785E4E",
". 	c #705849",
"+ 	c #654F41",
"@ 	c #624C3F",
"# 	c #624D3F",
"$ 	c #634D40",
"% 	c #6E5647",
"& 	c #775D4E",
"* 	c #755C4C",
"= 	c #604B3E",
"- 	c #3A2E27",
"; 	c #2C231E",
"> 	c #2E251F",
", 	c #2E241F",
"' 	c #2D231D",
") 	c #2B211B",
"! 	c #332620",
"~ 	c #584538",
"{ 	c #735A4A",
"] 	c #715949",
"^ 	c #5F4A3D",
"/ 	c #473D37",
"( 	c #2A3236",
"_ 	c #263236",
": 	c #253236",
"< 	c #222E32",
"[ 	c #192329",
"} 	c #101920",
"| 	c #0E141A",
"1 	c #3B2F29",
"2 	c #5A4639",
"3 	c #755B4C",
"4 	c #72594A",
"5 	c #3A2D25",
"6 	c #272F32",
"7 	c #35444A",
"8 	c #37484E",
"9 	c #37474D",
"0 	c #324249",
"a 	c #26343C",
"b 	c #1B2730",
"c 	c #161F28",
"d 	c #14161D",
"e 	c #2F2420",
"f 	c #5B473B",
"g 	c #775D4D",
"h 	c #503D32",
"i 	c #4D3C31",
"j 	c #413228",
"k 	c #1B130E",
"l 	c #14282F",
"m 	c #34454A",
"n 	c #3A4B50",
"o 	c #3A4B51",
"p 	c #35454C",
"q 	c #28363E",
"r 	c #1D2933",
"s 	c #17202A",
"t 	c #121923",
"u 	c #17191F",
"v 	c #3B2E29",
"w 	c #574437",
"x 	c #6F5748",
"y 	c #4F3D32",
"z 	c #352917",
"A 	c #5C4B29",
"B 	c #6D5931",
"C 	c #6B5832",
"D 	c #5F574D",
"E 	c #4B5562",
"F 	c #3F505C",
"G 	c #394A50",
"H 	c #34454B",
"I 	c #27363E",
"J 	c #1C2831",
"K 	c #161F2A",
"L 	c #141C27",
"M 	c #141C25",
"N 	c #0C121A",
"O 	c #322722",
"P 	c #5E493C",
"Q 	c #715849",
"R 	c #765D4D",
"S 	c #A98C50",
"T 	c #C8A65E",
"U 	c #C6A561",
"V 	c #A99379",
"W 	c #72748B",
"X 	c #4D5C77",
"Y 	c #3C4C54",
"Z 	c #384A4E",
"` 	c #1C1B20",
" .	c #372B26",
"..	c #564337",
"+.	c #4E3C31",
"@.	c #6D5A32",
"#.	c #C8A660",
"$.	c #EBC471",
"%.	c #E8C272",
"&.	c #C3A883",
"*.	c #7B7A91",
"=.	c #4E5B7C",
"-.	c #404D5C",
";.	c #3D4B57",
">.	c #3B4855",
",.	c #333E4E",
"'.	c #2E3648",
").	c #2C3244",
"!.	c #2B3143",
"~.	c #2B3244",
"{.	c #262C3D",
"].	c #141722",
"^.	c #423229",
"/.	c #6D5547",
"(.	c #6C5831",
"_.	c #C5A35E",
":.	c #E8C16F",
"<.	c #E5BE70",
"[.	c #BCA072",
"}.	c #6C6774",
"|.	c #424D6D",
"1.	c #454C64",
"2.	c #444C63",
"3.	c #434B62",
"4.	c #424961",
"5.	c #414760",
"6.	c #40465F",
"7.	c #3A3F56",
"8.	c #202433",
"9.	c #564627",
"0.	c #9D834D",
"a.	c #BA9B5B",
"b.	c #B7995B",
"c.	c #957E58",
"d.	c #514D54",
"e.	c #333954",
"f.	c #3B3E55",
"g.	c #3A3E55",
"h.	c #393F56",
"i.	c #3A4057",
"j.	c #33394E",
"k.	c #1C202D",
"l.	c #282016",
"m.	c #463C2C",
"n.	c #544835",
"o.	c #534735",
"p.	c #443C34",
"q.	c #292933",
"r.	c #232132",
"s.	c #272132",
"t.	c #232333",
"u.	c #1F2533",
"v.	c #1E2533",
"w.	c #1A212E",
"x.	c #0C1019",
"y.	c #4D3B31",
"z.	c #05030D",
"A.	c #00001E",
"B.	c #000024",
"C.	c #000021",
"D.	c #010521",
"E.	c #100822",
"F.	c #170B23",
"G.	c #1B1324",
"H.	c #1C1725",
"I.	c #191825",
"J.	c #141B25",
"K.	c #121B25",
"L.	c #101B26",
"M.	c #0A1721",
"N.	c #000910",
"O.	c #423329",
"P.	c #735A4B",
"Q.	c #564236",
"R.	c #2E221F",
"S.	c #211520",
"T.	c #35252B",
"U.	c #4D3836",
"V.	c #543E3A",
"W.	c #533D39",
"X.	c #503835",
"Y.	c #493030",
"Z.	c #36222B",
"`.	c #241627",
" +	c #231527",
".+	c #201827",
"++	c #1A1B28",
"@+	c #171C28",
"#+	c #1A1C28",
"$+	c #231E29",
"%+	c #281D25",
"&+	c #251317",
"*+	c #443128",
"=+	c #675042",
"-+	c #745B4B",
";+	c #765C4D",
">+	c #6D5546",
",+	c #5A463A",
"'+	c #362825",
")+	c #5B4438",
"!+	c #926F58",
"~+	c #A17C62",
"{+	c #9F7960",
"]+	c #996F56",
"^+	c #885D48",
"/+	c #5C3D36",
"(+	c #261627",
"_+	c #211327",
":+	c #231627",
"<+	c #1D1727",
"[+	c #261A28",
"}+	c #412229",
"|+	c #4F2629",
"1+	c #4F2425",
"2+	c #4B2925",
"3+	c #4A352C",
"4+	c #413128",
"5+	c #6C523F",
"6+	c #AF8768",
"7+	c #C29674",
"8+	c #BE9271",
"9+	c #B78666",
"0+	c #A37154",
"a+	c #6D493C",
"b+	c #271728",
"c+	c #1F1226",
"d+	c #241527",
"e+	c #2C1627",
"f+	c #3B1A27",
"g+	c #512429",
"h+	c #5E2A2B",
"i+	c #602B2C",
"j+	c #552626",
"k+	c #3D1D1C",
"l+	c #4C372D",
"m+	c #6D523F",
"n+	c #C29675",
"o+	c #BF9372",
"p+	c #B88766",
"q+	c #A47154",
"r+	c #6E493C",
"s+	c #201226",
"t+	c #281627",
"u+	c #422029",
"v+	c #56292C",
"w+	c #5E2C2D",
"x+	c #612D2D",
"y+	c #612D2C",
"z+	c #5D2B2B",
"A+	c #562727",
"B+	c #492623",
"C+	c #453229",
"D+	c #614C3F",
"E+	c #765C4C",
"F+	c #594539",
"G+	c #69513F",
"H+	c #947158",
"I+	c #AE8668",
"J+	c #BD9170",
"K+	c #B98867",
"L+	c #6C483B",
"M+	c #291527",
"N+	c #351626",
"O+	c #3B1927",
"P+	c #43222A",
"Q+	c #6B463D",
"R+	c #885E4C",
"S+	c #8D624F",
"T+	c #855A49",
"U+	c #6F4138",
"V+	c #602C2C",
"W+	c #532525",
"X+	c #401F1E",
"Y+	c #503930",
"Z+	c #644E40",
"`+	c #664F41",
" @	c #5C4636",
".@	c #8A6A52",
"+@	c #B48A6B",
"@@	c #714C3D",
"#@	c #43262C",
"$@	c #562C2D",
"%@	c #5E2D2C",
"&@	c #653833",
"*@	c #916753",
"=@	c #B2876A",
"-@	c #B98D6E",
";@	c #AB8064",
">@	c #815646",
",@	c #5F2B2B",
"'@	c #5E2B2B",
")@	c #572827",
"!@	c #442320",
"~@	c #403027",
"{@	c #5D483B",
"]@	c #6E5543",
"^@	c #8E6B53",
"/@	c #A37557",
"(@	c #A87455",
"_@	c #92644C",
":@	c #835744",
"<@	c #885743",
"[@	c #8A5742",
"}@	c #8E5C46",
"|@	c #A77A5E",
"1@	c #C39775",
"2@	c #B4896B",
"3@	c #5D282A",
"4@	c #5F2A2B",
"5@	c #411C1C",
"6@	c #2E211A",
"7@	c #634D3F",
"8@	c #594639",
"9@	c #4C3629",
"0@	c #805840",
"a@	c #A16F51",
"b@	c #A26F52",
"c@	c #A27052",
"d@	c #A87556",
"e@	c #AB7758",
"f@	c #AC795A",
"g@	c #B58666",
"h@	c #BF9271",
"i@	c #C19674",
"j@	c #8B5F4C",
"k@	c #673530",
"l@	c #612E2D",
"m@	c #612C2C",
"n@	c #5D2A2A",
"o@	c #451E1E",
"p@	c #37241E",
"q@	c #3C2E25",
"r@	c #1B0F0B",
"s@	c #503423",
"t@	c #6D4934",
"u@	c #714B35",
"v@	c #875F46",
"w@	c #AC7F60",
"x@	c #BA8A6A",
"y@	c #BD8F6E",
"z@	c #C09372",
"A@	c #C19574",
"B@	c #B98C6D",
"C@	c #A27257",
"D@	c #875541",
"E@	c #6B3932",
"F@	c #4C2624",
"G@	c #4C342C",
"H@	c #5D493C",
"I@	c #31251D",
"J@	c #000000",
"K@	c #120B07",
"L@	c #433124",
"M@	c #594332",
"N@	c #5A4332",
"O@	c #7D5F48",
"P@	c #AF8668",
"Q@	c #C19473",
"R@	c #C09473",
"S@	c #BD9070",
"T@	c #B58464",
"U@	c #9E6C52",
"V@	c #744438",
"W@	c #5E292B",
"X@	c #592828",
"Y@	c #381717",
"Z@	c #3E2F26",
"`@	c #6A5345",
" #	c #362921",
".#	c #150E0A",
"+#	c #2A1E15",
"@#	c #7A5D48",
"##	c #A07B5F",
"$#	c #A57F62",
"%#	c #AB8466",
"&#	c #BA8F6F",
"*#	c #BD906F",
"=#	c #A87B5F",
"-#	c #784B3E",
";#	c #5D272A",
">#	c #5A2929",
",#	c #3A2C24",
"'#	c #6A5344",
")#	c #634F47",
"!#	c #4E4855",
"~#	c #353A51",
"{#	c #1C1F2D",
"]#	c #48372D",
"^#	c #3B2C20",
"/#	c #624A38",
"(#	c #664A37",
"_#	c #6C4C37",
":#	c #9D765B",
"<#	c #C29574",
"[#	c #B88B6B",
"}#	c #B08467",
"|#	c #9A7059",
"1#	c #73463B",
"2#	c #5E282A",
"3#	c #3C2D25",
"4#	c #5C473B",
"5#	c #423B44",
"6#	c #595E7E",
"7#	c #5A6184",
"8#	c #33374D",
"9#	c #705748",
"0#	c #6C5446",
"a#	c #634B39",
"b#	c #9F7A5E",
"c#	c #AA7E60",
"d#	c #A37356",
"e#	c #B18364",
"f#	c #BF9373",
"g#	c #BE9372",
"h#	c #BE9170",
"i#	c #B88767",
"j#	c #A97759",
"k#	c #8C5E4A",
"l#	c #72453B",
"m#	c #653430",
"n#	c #5F2B2C",
"o#	c #534034",
"p#	c #2F3143",
"q#	c #5D6589",
"r#	c #646C92",
"s#	c #3A3E56",
"t#	c #4A392E",
"u#	c #6F5648",
"v#	c #554236",
"w#	c #32261E",
"x#	c #6F5440",
"y#	c #B2896A",
"z#	c #C0916F",
"A#	c #B88867",
"B#	c #BB8D6C",
"C#	c #C19573",
"D#	c #B48B6C",
"E#	c #A87E61",
"F#	c #B68666",
"G#	c #B48060",
"H#	c #A36E51",
"I#	c #7B493A",
"J#	c #544135",
"K#	c #313243",
"L#	c #5D6488",
"M#	c #636B91",
"N#	c #393D55",
"O#	c #47372C",
"P#	c #5C473A",
"Q#	c #251B14",
"R#	c #211812",
"S#	c #100A07",
"T#	c #69503D",
"U#	c #AA8365",
"V#	c #BD9171",
"W#	c #BE9171",
"X#	c #BB9070",
"Y#	c #9C785D",
"Z#	c #654B39",
"`#	c #815A42",
" $	c #AA7657",
".$	c #AE7858",
"+$	c #9F6B4F",
"@$	c #7B4A3B",
"#$	c #383D55",
"$$	c #32251E",
"%$	c #4C3A30",
"&$	c #221712",
"*$	c #201610",
"=$	c #1E140F",
"-$	c #4F3B2C",
";$	c #7E604A",
">$	c #A37D61",
",$	c #BD9271",
"'$	c #C39675",
")$	c #B68C6D",
"!$	c #977459",
"~$	c #6A513E",
"{$	c #3A291D",
"]$	c #79513A",
"^$	c #A57152",
"/$	c #9D684E",
"($	c #855441",
"_$	c #6E3C34",
":$	c #646B92",
"<$	c #0D0604",
"[$	c #1B120C",
"}$	c #231912",
"|$	c #271B15",
"1$	c #291D16",
"2$	c #281C16",
"3$	c #2A1F18",
"4$	c #413125",
"5$	c #7F624B",
"6$	c #AC8567",
"7$	c #B58B6C",
"8$	c #A27C60",
"9$	c #271D17",
"0$	c #291A11",
"a$	c #764F39",
"b$	c #9B684D",
"c$	c #865441",
"d$	c #66332F",
"e$	c #5C6488",
"f$	c #656C92",
"g$	c #414257",
"h$	c #211405",
"i$	c #231811",
"j$	c #1F1510",
"k$	c #19110C",
"l$	c #18100B",
"m$	c #19100B",
"n$	c #584438",
"o$	c #6A5241",
"p$	c #735844",
"q$	c #765A45",
"r$	c #765A44",
"s$	c #715643",
"t$	c #654E3F",
"u$	c #503E33",
"v$	c #2A1C16",
"w$	c #5B372A",
"x$	c #7A4A3B",
"y$	c #703E35",
"z$	c #534035",
"A$	c #303242",
"B$	c #5D6489",
"C$	c #424257",
"D$	c #241501",
"E$	c #271C14",
"F$	c #32251D",
"G$	c #3A2C23",
"H$	c #3B2D24",
"I$	c #46362B",
"J$	c #3C2D24",
"K$	c #3D2E25",
"L$	c #695243",
"M$	c #49372D",
"N$	c #472824",
"O$	c #552827",
"P$	c #323243",
"Q$	c #3C3F56",
"R$	c #0F0600",
"S$	c #1C140D",
"T$	c #4B3A2F",
"U$	c #6B5345",
"V$	c #6C5445",
"W$	c #6A5244",
"X$	c #523D33",
"Y$	c #3A1C1B",
"Z$	c #4F2323",
"`$	c #4E4245",
" %	c #545773",
".%	c #575E81",
"+%	c #4B5270",
"@%	c #363B52",
"#%	c #1F1C23",
"$%	c #271915",
"%%	c #3F1C1F",
"&%	c #56282A",
"*%	c #5E2B2C",
"=%	c #6A5448",
"-%	c #4D4042",
";%	c #434760",
">%	c #555C7E",
",%	c #333445",
"'%	c #524036",
")%	c #725A4B",
"!%	c #231814",
"~%	c #2C151D",
"{%	c #432128",
"]%	c #53464B",
"^%	c #535570",
"/%	c #545A7B",
"(%	c #515776",
"_%	c #544F5F",
":%	c #5C4942",
"<%	c #221714",
"[%	c #25131D",
"}%	c #361C25",
"|%	c #421E21",
"1%	c #5C2A2A",
"2%	c #695245",
"3%	c #483B3B",
"4%	c #4A4C67",
"5%	c #60678B",
"6%	c #4F5574",
"7%	c #372F33",
"8%	c #25131C",
"9%	c #2D1822",
"0%	c #200E14",
"a%	c #582828",
"b%	c #564A51",
"c%	c #4A4D67",
"d%	c #241E22",
"e%	c #201714",
"f%	c #1A1019",
"g%	c #1D141E",
"h%	c #0A070E",
"i%	c #321414",
"j%	c #572727",
"k%	c #665043",
"l%	c #443630",
"m%	c #302622",
"n%	c #3F3028",
"o%	c #1D1612",
"p%	c #0B0E17",
"q%	c #0D111B",
"r%	c #04070D",
"s%	c #341514",
"t%	c #592928",
"u%	c #695244",
"v%	c #685143",
"w%	c #1D1512",
"x%	c #0A0D16",
"y%	c #0B111B",
"z%	c #03060D",
"A%	c #44342B",
"B%	c #271F1F",
"C%	c #080C15",
"D%	c #020509",
"E%	c #2C1114",
"F%	c #4C2226",
"G%	c #55272B",
"H%	c #54272B",
"I%	c #4E2427",
"J%	c #301416",
"K%	c #48382E",
"L%	c #140F0E",
"M%	c #000102",
"N%	c #1A0A12",
"O%	c #301724",
"P%	c #361B28",
"Q%	c #351B28",
"R%	c #311824",
"S%	c #1D0C14",
"T%	c #3D2F26",
"U%	c #251B15",
"V%	c #0F0712",
"W%	c #1E1223",
"X%	c #231528",
"Y%	c #221427",
"Z%	c #1D1122",
"`%	c #21161F",
" &	c #3F302A",
".&	c #44342A",
"+&	c #1E1417",
"@&	c #211322",
"#&	c #231426",
"$&	c #221424",
"%&	c #1D111C",
"&&	c #352822",
"*&	c #4C3A31",
"=&	c #281C1F",
"-&	c #160B19",
";&	c #1B101A",
">&	c #41312B",
",&	c #42332A",
"'&	c #281D18",
")&	c #372922",
"!&	c #5C483B",
"~&	c #614C3E",
"                                                                                                                                ",
"                                                                                                                                ",
"                                                                                                                                ",
"                                                                                                                                ",
"                                                                                                                                ",
"                                                                                                                                ",
"                                                                                                                                ",
"                                                                                                                                ",
"                                                                                                                                ",
"                                                                                                                                ",
"                                                                                                                                ",
"                                                                                                                                ",
"                                                                                                                                ",
"                                                                                                                                ",
"                                                                                                                                ",
"                                                                                                                                ",
"                                                                                                                                ",
"                                                    . + @ # # # # @ $ % &                                                       ",
"                                                  * = - ; > > , ' ) ! ~ {                                                       ",
"                                                ] ^ / ( _ : _ < [ } | 1 2 %                                                     ",
"                                        & 3 { 4 $ 5 6 7 8 9 8 0 a b c d e f 4 g                                                 ",
"                                        3 @ h i j k l m n o o p q r s t u v w x                                                 ",
"                                        4 y z A B C D E F o G H I J K L M N O P Q R                                             ",
"                                        4 i A S T U V W X Y Z H I J K L L t `  ....                                             ",
"                                        4 +.@.#.$.%.&.*.=.-.;.>.,.'.).!.!.~.{.].^./.                                            ",
"                                        4 +.(._.:.<.[.}.|.1.2.3.4.5.6.6.6.5.7.8.^./.                                            ",
"                                        4 +.9.0.a.b.c.d.e.f.g.h.h.h.h.h.h.i.j.k.^./.                                            ",
"                                        4 +.l.m.n.o.p.q.r.s.t.u.u.u.v.v.v.v.w.x.^./.                                            ",
"                                        4 y.z.A.B.C.C.D.E.F.G.H.H.I.J.K.K.L.M.N.O.%                                             ",
"                                        P.Q.R.S.T.U.V.W.X.Y.Z.`. +.+++@+#+$+%+&+*+=+-+&                                         ",
"                                        ;+>+,+'+)+!+~+{+]+^+/+(+_+:+.+<+[+}+|+1+2+3+= 3                                         ",
"                                            >+4+5+6+7+8+9+0+a+b+c+ +d+e+f+g+h+i+j+k+l+=+{                                       ",
"                                            % O.m+6+n+o+p+q+r+b+s+ +t+u+v+w+x+y+z+A+B+C+D+E+                                    ",
"                                            ] F+G+H+I+J+K+0+L+M+N+O+P+Q+R+S+T+U+V+i+W+X+Y+Z+4                                   ",
"                                            g { `+ @.@+@9+0+@@#@$@%@&@*@=@-@;@>@,@,@'@)@!@~@`+                                  ",
"                                                Q {@]@^@/@(@_@:@<@[@}@|@8+1@2@T+3@4@x+z+5@6@7@                                  ",
"                                                E+x 8@9@0@a@b@c@d@e@f@g@h@i@2@j@k@l@m@n@o@p@P P.g                               ",
"                                                x ~ q@r@s@t@u@v@w@x@x@y@z@A@B@C@D@E@,@,@A+F@G@2 .                               ",
"                          g ] /./.Q g       R Q H@I@J@K@L@M@N@O@P@Q@R@R@R@R@S@T@U@V@W@V+V+X@Y@Z@`@                              ",
"                          { F+^.^.F+4       . .. #.#J@+#@###$#%#&#A@R@R@R@R@z@*#=#-#;#V+x+>#Y@,#'#                              ",
"                      g . )#!#~#{#]#.       % ^.^#/#(#_#:#8+<#R@R@R@A@A@R@*#[#}#|#1#2#V+m@X@Y@3#'#                              ",
"                      3 4#5#6#7#8#]#9#  g   0#4+a#b#c#d#e#o+A@R@R@f#g#o+h#i#j#k#l#m#n#V+m@X@Y@3#'#                              ",
"                      -+o#p#q#r#s#t#9#u#= P v#w#x#y#z#A#B#z@R@C#A@D###E#F#G#H#I#3@4@V+V+m@X@Y@3#'#                              ",
"                      -+J#K#L#M#N#O#'#P#I@Q#R#S#T#U#V#W#o+R@R@f#X#Y#Z#`# $.$+$@$n#n#V+V+m@X@Y@3#'#                              ",
"                      -+J#K#L#M##$$$%$4+&$*$=$=$-$;$>$,$'$<#n+)$!$~${$]$^$/$($_$V+V+V+V+m@X@Y@3#'#                              ",
"                      -+J#K#L#:$s#<$[$}$|$1$2$2$3$4$5$6$7$+@D#8$~$9$0$a$b$c$d$V+V+V+V+V+m@X@Y@3#'#                              ",
"                      -+J#K#e$f$g$h$i$j$k$l$m$m$ #n$o$p$q$r$q$s$t$u$v$w$x$y$n#,@V+V+V+V+m@X@Y@3#'#                              ",
"                      -+z$A$B$f$C$D$E$F$G$3#H$H$z$u#`+I$J$K$q@u$>+L$M$N$O$n@V+V+V+V+V+V+m@X@Y@3#'#                              ",
"                      -+J#P$e$:$Q$R$S$T$=+U$'#'#u#E+P.V$W$'#'#% * 3 `@X$Y$Z$n#V+V+V+V+V+m@X@Y@3#'#                              ",
"                      E+7@`$ %.%+%@%#%v#E+                          R F+$%%%&%*%m@V+V+V+m@X@Y@3#'#                              ",
"                        3 =%-%;%L#>%,%'%)%                          E+F+!%~%{%&%,@V+V+V+m@X@Y@3#'#                              ",
"                          3 $ ]%^%/%(%_%:%/.&                       E+F+<%[%}%|%Z$1%V+V+m@X@Y@3#'#                              ",
"                            ;+2%3%4%5%6%7%= g                       E+F+<%8%9%0%Y@a%m@V+m@X@Y@3#'#                              ",
"                              -++ b%c%@%d%{@g                       E+F+e%f%g%h%i%j%m@V+m@X@Y@3#'#                              ",
"                                g k%l%m%n%$ g                       E+F+o%p%q%r%s%j%y+V+x+t%Y@3#'#                              ",
"                                  { u%+ v%]                         E+F+w%x%y%z%s%j%y+V+x+t%Y@3#'#                              ",
"                                                                    R $ A%B%C%D%E%F%G%H%G%I%J%,#'#                              ",
"                                                                      -+u%K%L%M%N%O%P%Q%P%R%S%T%`@                              ",
"                                                                        E+$ ]#U%V%W%X%Y%Z%`% &2 .                               ",
"                                                                          E+u%.&+&@&#&$&%&&&^ P.g                               ",
"                                                                            -+Z+*&=&-&;&>&{@9#                                  ",
"                                                                              R =+,&'&)&!&-+                                    ",
"                                                                                { =+~&Z+x                                       ",
"                                                                                                                                "};
