/* XPM */
static char * mining_right1_xpm[] = {
"64 64 580 2",
"  	c #785E4E",
". 	c #775D4D",
"+ 	c #765C4C",
"@ 	c #765D4D",
"# 	c #675143",
"$ 	c #5A4639",
"% 	c #584438",
"& 	c #634D40",
"* 	c #735A4B",
"= 	c #6E5649",
"- 	c #534441",
"; 	c #2F2B36",
"> 	c #211C22",
", 	c #47372C",
"' 	c #6E5647",
") 	c #775D4E",
"! 	c #685143",
"~ 	c #52423E",
"{ 	c #53536C",
"] 	c #4F5675",
"^ 	c #303449",
"/ 	c #3F3027",
"( 	c #6D5546",
"_ 	c #755C4C",
": 	c #6D5547",
"< 	c #574746",
"[ 	c #414256",
"} 	c #565D7F",
"| 	c #5D6487",
"1 	c #474559",
"2 	c #4F3D32",
"3 	c #6F5748",
"4 	c #6A5244",
"5 	c #4D3D37",
"6 	c #505068",
"7 	c #5B6286",
"8 	c #4F5676",
"9 	c #49475B",
"0 	c #5D4C4A",
"a 	c #6C5446",
"b 	c #745B4C",
"c 	c #6B5345",
"d 	c #5A4A4B",
"e 	c #46475C",
"f 	c #515878",
"g 	c #5A6184",
"h 	c #3E435D",
"i 	c #362A25",
"j 	c #675042",
"k 	c #4B3A31",
"l 	c #4A4A60",
"m 	c #60678A",
"n 	c #545B7C",
"o 	c #353950",
"p 	c #1A1D2A",
"q 	c #34271F",
"r 	c #654F41",
"s 	c #3A2D26",
"t 	c #454B67",
"u 	c #687098",
"v 	c #585D7E",
"w 	c #26222B",
"x 	c #140400",
"y 	c #30241C",
"z 	c #513F33",
"A 	c #5E493C",
"B 	c #5D483C",
"C 	c #604B3E",
"D 	c #6A5344",
"E 	c #3C2E27",
"F 	c #454A67",
"G 	c #676F97",
"H 	c #5A5E7F",
"I 	c #322B33",
"J 	c #261704",
"K 	c #291D17",
"L 	c #271D16",
"M 	c #271D17",
"N 	c #261C16",
"O 	c #211812",
"P 	c #30241D",
"Q 	c #72594A",
"R 	c #755B4C",
"S 	c #745B4B",
"T 	c #585E7E",
"U 	c #2A2730",
"V 	c #190B00",
"W 	c #1E140F",
"X 	c #1F1510",
"Y 	c #1A110C",
"Z 	c #080402",
"` 	c #000000",
" .	c #070403",
"..	c #3C2D25",
"+.	c #523F34",
"@.	c #554136",
"#.	c #534035",
"$.	c #544135",
"%.	c #634D3F",
"&.	c #555C7E",
"*.	c #21222E",
"=.	c #221913",
"-.	c #2C211A",
";.	c #2B1F18",
">.	c #221813",
",.	c #0F0C0C",
"'.	c #000205",
").	c #020101",
"!.	c #0E0906",
"~.	c #150E0A",
"{.	c #160F0B",
"].	c #141110",
"^.	c #1E1D1D",
"/.	c #483A32",
"(.	c #695244",
"_.	c #715849",
":.	c #705849",
"<.	c #705748",
"[.	c #715949",
"}.	c #545C7D",
"|.	c #2A2731",
"1.	c #4E3C31",
"2.	c #594539",
"3.	c #3B2D24",
"4.	c #171213",
"5.	c #11151C",
"6.	c #000B15",
"7.	c #04161B",
"8.	c #253338",
"9.	c #34393B",
"0.	c #43332F",
"a.	c #49382E",
"b.	c #48372D",
"c.	c #47362C",
"d.	c #3B2D26",
"e.	c #555C7D",
"f.	c #2C2932",
"g.	c #5F4A3D",
"h.	c #3B2E27",
"i.	c #050D16",
"j.	c #151920",
"k.	c #42342D",
"l.	c #5E4837",
"m.	c #634B39",
"n.	c #624A38",
"o.	c #634A38",
"p.	c #59483C",
"q.	c #414343",
"r.	c #524E41",
"s.	c #725F39",
"t.	c #7B6537",
"u.	c #735E34",
"v.	c #4E3F21",
"w.	c #382B21",
"x.	c #665042",
"y.	c #3D2F27",
"z.	c #454B66",
"A.	c #666F96",
"B.	c #22222E",
"C.	c #2F231C",
"D.	c #362A24",
"E.	c #242023",
"F.	c #000F1C",
"G.	c #1C181A",
"H.	c #715643",
"I.	c #A27D61",
"J.	c #AC8466",
"K.	c #AB8366",
"L.	c #AB8466",
"M.	c #96745B",
"N.	c #5C4A3D",
"O.	c #806C42",
"P.	c #C0A05D",
"Q.	c #D1AE64",
"R.	c #C4A35E",
"S.	c #88703F",
"T.	c #3D2F22",
"U.	c #564338",
"V.	c #4F4A5B",
"W.	c #575C7D",
"X.	c #444A66",
"Y.	c #151824",
"Z.	c #090F16",
"`.	c #101822",
" +	c #000F1D",
".+	c #1D1613",
"++	c #7C5B44",
"@+	c #B28666",
"#+	c #C09271",
"$+	c #C19573",
"%+	c #C29675",
"&+	c #AA8365",
"*+	c #654C39",
"=+	c #907742",
"-+	c #DCB76A",
";+	c #EFC774",
">+	c #E0BA6C",
",+	c #9C8149",
"'+	c #413324",
")+	c #604D47",
"!+	c #3E3842",
"~+	c #1F212F",
"{+	c #0A0B13",
"]+	c #0F151E",
"^+	c #181E2A",
"/+	c #19202D",
"(+	c #051624",
"_+	c #1C1514",
":+	c #75513A",
"<+	c #AA795A",
"[+	c #BB8B6A",
"}+	c #C09372",
"|+	c #C29574",
"1+	c #A98265",
"2+	c #644C39",
"3+	c #8C7440",
"4+	c #D5B167",
"5+	c #E8C170",
"6+	c #D9B569",
"7+	c #977D47",
"8+	c #403224",
"9+	c #6F5648",
"0+	c #584538",
"a+	c #181519",
"b+	c #272C3D",
"c+	c #343A4F",
"d+	c #353B50",
"e+	c #252E42",
"f+	c #231E24",
"g+	c #78563F",
"h+	c #AE8061",
"i+	c #BD8E6D",
"j+	c #C09473",
"k+	c #C19574",
"l+	c #AA8265",
"m+	c #685630",
"n+	c #A28750",
"o+	c #B29458",
"p+	c #A78B53",
"q+	c #735F37",
"r+	c #3B2E22",
"s+	c #564337",
"t+	c #231F23",
"u+	c #31364A",
"v+	c #414760",
"w+	c #424861",
"x+	c #323A51",
"y+	c #28252C",
"z+	c #7E6048",
"A+	c #B68B6C",
"B+	c #332A1F",
"C+	c #574837",
"D+	c #564839",
"E+	c #453C2F",
"F+	c #2B251D",
"G+	c #352820",
"H+	c #221C1D",
"I+	c #252939",
"J+	c #31374B",
"K+	c #32384C",
"L+	c #222B3E",
"M+	c #241F23",
"N+	c #80614A",
"O+	c #B78D6E",
"P+	c #C29674",
"Q+	c #5A4436",
"R+	c #886854",
"S+	c #71564A",
"T+	c #261C29",
"U+	c #000011",
"V+	c #32251F",
"W+	c #664F42",
"X+	c #1E1714",
"Y+	c #10161F",
"Z+	c #171F2A",
"`+	c #181F2B",
" @	c #001221",
".@	c #1E1816",
"+@	c #B78D6D",
"@@	c #644B39",
"#@	c #765A44",
"$@	c #AE8668",
"%@	c #937059",
"&@	c #3F2D2E",
"*@	c #231A1B",
"=@	c #1D1614",
"-@	c #0D131C",
";@	c #131C26",
">@	c #141C27",
",@	c #000E1D",
"'@	c #1E1715",
")@	c #785B46",
"!@	c #B18869",
"~@	c #937158",
"{@	c #413028",
"]@	c #44352C",
"^@	c #282222",
"/@	c #121822",
"(@	c #181A26",
"_@	c #000A1D",
":@	c #171112",
"<@	c #7E604A",
"[@	c #AA8366",
"}@	c #624B39",
"|@	c #977459",
"1@	c #84654E",
"2@	c #544134",
"3@	c #48382F",
"4@	c #1A1419",
"5@	c #1C1321",
"6@	c #160D1F",
"7@	c #2B1F1A",
"8@	c #81634C",
"9@	c #A98264",
"0@	c #34251A",
"a@	c #533F2F",
"b@	c #634C3C",
"c@	c #48372F",
"d@	c #2E2023",
"e@	c #48352E",
"f@	c #775A46",
"g@	c #9F7A5E",
"h@	c #BB9070",
"i@	c #BB9170",
"j@	c #A88164",
"k@	c #916D53",
"l@	c #7B5740",
"m@	c #593928",
"n@	c #20110B",
"o@	c #554236",
"p@	c #3E2F27",
"q@	c #674E3C",
"r@	c #A78064",
"s@	c #BC9171",
"t@	c #BF9372",
"u@	c #C19473",
"v@	c #B48A6B",
"w@	c #674935",
"x@	c #95674C",
"y@	c #8D6247",
"z@	c #553C2C",
"A@	c #423329",
"B@	c #6D533F",
"C@	c #B08869",
"D@	c #C39675",
"E@	c #AA7D5F",
"F@	c #6B4D39",
"G@	c #5D4331",
"H@	c #A2775A",
"I@	c #AE8163",
"J@	c #957157",
"K@	c #755A46",
"L@	c #6C5546",
"M@	c #423229",
"N@	c #6C523F",
"O@	c #AF8768",
"P@	c #BF9271",
"Q@	c #B88767",
"R@	c #A37254",
"S@	c #684531",
"T@	c #BA8F6F",
"U@	c #967359",
"V@	c #614939",
"W@	c #614B3D",
"X@	c #6D523F",
"Y@	c #AF8769",
"Z@	c #B88766",
"`@	c #A37152",
" #	c #674430",
".#	c #B2896A",
"+#	c #9B775C",
"@#	c #735844",
"##	c #564336",
"$#	c #6A4F3B",
"%#	c #AB8163",
"&#	c #BE906F",
"*#	c #BA8C6C",
"=#	c #AC7D5E",
"-#	c #926449",
";#	c #613D2D",
">#	c #684A39",
",#	c #A77E61",
"'#	c #BE9170",
")#	c #7E614A",
"!#	c #3D2E25",
"~#	c #644532",
"{#	c #A17355",
"]#	c #B48060",
"^#	c #AD7B5C",
"/#	c #8B6248",
"(#	c #5E3D2C",
"_#	c #512924",
":#	c #734739",
"<#	c #A27155",
"[#	c #B88D6E",
"}#	c #7F614A",
"|#	c #3C2D24",
"1#	c #413128",
"2#	c #543627",
"3#	c #8A5B44",
"4#	c #9A664C",
"5#	c #936149",
"6#	c #704736",
"7#	c #441F1D",
"8#	c #502024",
"9#	c #784739",
"0#	c #A06C50",
"a#	c #B37F5F",
"b#	c #B88868",
"c#	c #BC8C6C",
"d#	c #B18465",
"e#	c #795943",
"f#	c #382A21",
"g#	c #45352B",
"h#	c #3E221C",
"i#	c #63372E",
"j#	c #6F3E34",
"k#	c #6D3C34",
"l#	c #64332E",
"m#	c #5B2A29",
"n#	c #5C282A",
"o#	c #774639",
"p#	c #9D694E",
"q#	c #AD7858",
"r#	c #AF7B5B",
"s#	c #B27D5D",
"t#	c #A97758",
"u#	c #78543E",
"v#	c #463428",
"w#	c #735A4A",
"x#	c #4F382F",
"y#	c #472422",
"z#	c #4F2123",
"A#	c #602B2C",
"B#	c #612C2C",
"C#	c #6D3B33",
"D#	c #875542",
"E#	c #9B674D",
"F#	c #AA7556",
"G#	c #B28263",
"H#	c #9E765A",
"I#	c #83644D",
"J#	c #695140",
"K#	c #392821",
"L#	c #401B1B",
"M#	c #5C2A2A",
"N#	c #602C2C",
"O#	c #612D2D",
"P#	c #673430",
"Q#	c #82503F",
"R#	c #A16E51",
"S#	c #B38262",
"T#	c #BB8E6D",
"U#	c #BC8F6F",
"V#	c #A98163",
"W#	c #6B513D",
"X#	c #3C1919",
"Y#	c #5B2929",
"Z#	c #5F2B2B",
"`#	c #5F2A2B",
" $	c #845341",
".$	c #A06F54",
"+$	c #B48363",
"@$	c #B98766",
"#$	c #A77A5C",
"$$	c #674936",
"%$	c #403128",
"&$	c #362820",
"*$	c #3D1A1A",
"=$	c #5B2A2A",
"-$	c #5F2B2C",
";$	c #66342F",
">$	c #865442",
",$	c #9F6C50",
"'$	c #A57053",
")$	c #94644A",
"!$	c #5B3C2B",
"~$	c #6E3C34",
"{$	c #7A493B",
"]$	c #7E4C3C",
"^$	c #714335",
"/$	c #44271E",
"($	c #562627",
"_$	c #331414",
":$	c #562727",
"<$	c #572727",
"[$	c #331515",
"}$	c #35271F",
"|$	c #5F2C2B",
"1$	c #5A2929",
"2$	c #502726",
"3$	c #432A24",
"4$	c #534034",
"5$	c #372821",
"6$	c #471F1F",
"7$	c #402822",
"8$	c #5D473B",
"9$	c #544035",
"0$	c #492F28",
"a$	c #4F2625",
"b$	c #592828",
"c$	c #5F2C2C",
"d$	c #5C2A2C",
"e$	c #512528",
"f$	c #341618",
"g$	c #594438",
"h$	c #36201C",
"i$	c #4A2121",
"j$	c #5E2B2B",
"k$	c #5D2B2B",
"l$	c #51262A",
"m$	c #3C1E26",
"n$	c #231016",
"o$	c #2C1E18",
"p$	c #451E1E",
"q$	c #582828",
"r$	c #3E1D23",
"s$	c #321A24",
"t$	c #1E0E16",
"u$	c #2D1D18",
"v$	c #461E1E",
"w$	c #4F2323",
"x$	c #2B1011",
"y$	c #24121A",
"z$	c #2D1823",
"A$	c #1E0F16",
"B$	c #4E2222",
"C$	c #210B0C",
"D$	c #0F0C14",
"E$	c #1F151F",
"F$	c #140C14",
"G$	c #4E2322",
"H$	c #230C0D",
"I$	c #010A13",
"J$	c #0F121C",
"K$	c #080A11",
"L$	c #000A12",
"M$	c #0D111C",
"N$	c #070A11",
"O$	c #5D493C",
"P$	c #2A1C17",
"Q$	c #3C1A1D",
"R$	c #52262A",
"S$	c #55272B",
"T$	c #54272B",
"U$	c #54272A",
"V$	c #441E21",
"W$	c #1D0A0C",
"X$	c #00070E",
"Y$	c #131318",
"Z$	c #312622",
"`$	c #25111B",
" %	c #341A27",
".%	c #361B28",
"+%	c #351B28",
"@%	c #2A141F",
"#%	c #10050A",
"$%	c #000103",
"%%	c #271D19",
"&%	c #513F34",
"*%	c #352826",
"=%	c #180E1E",
"-%	c #1F1224",
";%	c #221527",
">%	c #1A0F1E",
",%	c #070309",
"'%	c #32251E",
")%	c #281D1C",
"!%	c #1F121F",
"~%	c #231426",
"{%	c #231425",
"]%	c #1E121E",
"^%	c #271C19",
"/%	c #6A5345",
"(%	c #352725",
"_%	c #160B18",
":%	c #503D32",
"<%	c #2D221B",
"[%	c #765C4D",
"}%	c #624C3F",
"                                                                                                                                ",
"                                                                                                                                ",
"                                          . + + @                                                                               ",
"                                        @ # $ % & *                                                                             ",
"                                      @ = - ; > , '                                                                             ",
"                                    ) ! ~ { ] ^ / (                                                                             ",
"                                  _ : < [ } | 1 2 3                                                                             ",
"                                  4 5 6 7 8 9 0 a _                                                                             ",
"                              b c d e f g h i j                                                                                 ",
"                              ( k l m n o p q r ) . . . )                                                                       ",
"                              4 s t u v w x y z A A B C :                                                                       ",
"                              D E F G H I J K L M N O P $ Q R S S +                                                             ",
"                              D E t G T U V W X Y Z `  ...+.@.#.$.%.R                                                           ",
"                              D E t G &.*.=.-.;.>.,.'.).!.~.{.].^./.(._.:.<.[.+                                                 ",
"                              D E t G }.|.1.2.3.4.5.6.` ` ` ` 7.8.9.0.a.b.c.$.(                                                 ",
"                              D d.t G e.f.$.g.h.i.j.k.l.m.n.o.p.q.r.s.t.u.v.w.x.                                                ",
"                              D y.z.A.e.B.C.D.E.F.G.H.I.J.K.L.M.N.O.P.Q.R.S.T.x.                                                ",
"                              3 U.V.W.X.Y.` Z.`. +.+++@+#+$+%+&+*+=+-+;+>+,+'+x.                                                ",
"                              . Q )+!+~+{+]+^+/+(+_+:+<+[+}+|+1+2+3+4+5+6+7+8+x.                                                ",
"                                  9+0+..a+b+c+d+e+f+g+h+i+j+k+l+m.m+n+o+p+q+r+x.                                                ",
"                                    Q s+t+u+v+w+x+y+z+A+$+j+k+&+m.B+C+D+E+F+G+x.                                                ",
"                                    @ $ H+I+J+K+L+M+N+O+P+j+k+&+m.Q+R+S+T+U+V+W+                                                ",
"                                    + 2.X+Y+Z+`+ @.@N++@|+j+k+l+@@#@$@%@&@*@c.D                                                 ",
"                                    + 2.=@-@;@>@,@'@N++@|+j+k+l+@@)@!@~@{@2 (.S                                                 ",
"                                    @ & ]@^@/@(@_@:@<@+@|+j+|+[@}@m.|@1@2@j )                                                   ",
"                                      S (.3@4@5@6@7@8@O+|+j+j+9@@@0@a@b@( R                                                     ",
"                                        + & c@d@e@f@g@h@P+i@j@k@l@m@n@o@+                                                       ",
"                                          + ! p@q@r@s@t@u@v@<@w@x@y@z@s+[.)                                                     ",
"                                            ' A@B@C@D@}+i+E@F@G@H@I@J@K@$ L@                                                    ",
"                                            : M@N@O@P+P@Q@R@S@o.9@j+T@U@V@W@_.@                                                 ",
"                                            : M@X@Y@%+t@Z@`@ #m.[@%+j+.#+#@###:                                                 ",
"                                            : M@$#%#&#*#=#-#;#>#,#'#}+P++@)#!#x.                                                ",
"                                            : M@~#{#]#^#/#(#_#:#<#Q@'#%+[#}#|#x.                                                ",
"                                            ( 1#2#3#4#5#6#7#8#9#0#a#b#c#d#e#f#j                                                 ",
"                                            ' g#h#i#j#k#l#m#n#o#p#q#r#s#t#u#v#r .                                               ",
"                                            w#C x#y#z#n#A#B#A#C#D#E#F#a#G#H#I#J#& *                                             ",
"                                              + & K#L#M#B#N#N#O#P#Q#R#S#T#U#V#W#, '                                             ",
"                                                j G+X#Y#O#N#N#Z#`#C# $.$+$@$#$$$%$(                                             ",
"                                                x.&$*$=$B#N#N#N#N#-$;$>$,$'$)$!$M@:                                             ",
"                                                x.&$*$=$B#N#N#N#N#Z#N#~${$]$^$/$M@:                                             ",
"                                                x.&$*$=$B#N#N#N#N#N#N#N#-$N#($_$M@:                                             ",
"                                                x.&$*$=$B#N#N#N#N#N#N#N#-$N#:$_$M@:                                             ",
"                                                x.&$*$=$B#N#N#N#N#N#N#N#N#B#<$_$M@:                                             ",
"                                                x.&$*$=$B#N#N#N#N#N#N#N#N#B#<$_$M@:                                             ",
"                                                x.&$*$=$B#N#N#N#N#N#N#N#N#B#<$_$M@:                                             ",
"                                                x.&$*$=$B#N#N#N#N#N#N#N#N#B#<$_$M@:                                             ",
"                                                x.&$*$=$B#N#N#N#N#N#N#N#N#O#<$[$1#:                                             ",
"                                                x.}$*$M#O#N#N#N#N#N#N#N#|$1$2$3$4$<.                                            ",
"                                                x.5$*$Y#B#N#N#N#N#N#N#B#M#6$7$8$9++                                             ",
"                                                : 9$0$a$b$c$N#N#N#N#N#d$e$f$G+j                                                 ",
"                                                @ :.g$h$i$j$B#N#N#N#k$l$m$n$G+x.                                                ",
"                                                    g.o$p$j$B#N#N#q$i$r$s$t$G+x.                                                ",
"                                                  . A u$v$j$B#N#N#w$x$y$z$A$G+x.                                                ",
"                                                  . A u$v$j$B#N#N#B$C$D$E$F$G+x.                                                ",
"                                                  . A u$v$j$B#B#N#G$H$I$J$K$q x.                                                ",
"                                                  . A u$v$j$B#B#N#G$H$L$M$N$q x.                                                ",
"                                                  . O$P$Q$R$S$T$U$V$W$X$Y$Z$2 a                                                 ",
"                                                  . g.7@`$ %.%+%+%@%#%$%%%s+' +                                                 ",
"                                                  ) D &%*%=%-%;%;%>%,%'%z c                                                     ",
"                                                    . <.#.)%!%~%{%]%^%4$<..                                                     ",
"                                                      . /%@.(%_%_%(%@./%.                                                       ",
"                                                          3 :%<%<%:%3                                                           ",
"                                                          [%c }%}%c [%                                                          ",
"                                                                                                                                "};
