/* XPM */
static char * mining_right3_xpm[] = {
"64 64 615 2",
"  	c #785E4E",
". 	c #755B4C",
"+ 	c #715849",
"@ 	c #705748",
"# 	c #705849",
"$ 	c #745B4B",
"% 	c #685143",
"& 	c #4F3D32",
"* 	c #47362C",
"= 	c #48372D",
"- 	c #47372C",
"; 	c #4B3A2F",
"> 	c #634D3F",
", 	c #765C4D",
"' 	c #755C4C",
") 	c #6C5445",
"! 	c #524035",
"~ 	c #231D1B",
"{ 	c #080E14",
"] 	c #11171B",
"^ 	c #181F22",
"/ 	c #1B2326",
"( 	c #192225",
"_ 	c #232628",
": 	c #4C3E36",
"< 	c #685244",
"[ 	c #6B5345",
"} 	c #4B392F",
"| 	c #2C2322",
"1 	c #171B23",
"2 	c #162129",
"3 	c #1F2B33",
"4 	c #2B393F",
"5 	c #314046",
"6 	c #314146",
"7 	c #324146",
"8 	c #303F45",
"9 	c #343738",
"0 	c #44362D",
"a 	c #654F41",
"b 	c #775D4D",
"c 	c #6A5244",
"d 	c #534136",
"e 	c #292120",
"f 	c #0E141E",
"g 	c #151E28",
"h 	c #1B2730",
"i 	c #24333B",
"j 	c #324249",
"k 	c #394A50",
"l 	c #3A4B51",
"m 	c #3A4B50",
"n 	c #36484D",
"o 	c #203137",
"p 	c #1A1214",
"q 	c #4C3A2F",
"r 	c #614B3E",
"s 	c #695244",
"t 	c #745B4C",
"u 	c #775D4E",
"v 	c #6D5546",
"w 	c #4B3A30",
"x 	c #271F1E",
"y 	c #181B23",
"z 	c #141B26",
"A 	c #161E29",
"B 	c #1B2630",
"C 	c #24323B",
"D 	c #3B4B53",
"E 	c #3C4B54",
"F 	c #393F41",
"G 	c #362E1F",
"H 	c #40321C",
"I 	c #413321",
"J 	c #35291D",
"K 	c #4C3B30",
"L 	c #6F5748",
"M 	c #513F34",
"N 	c #2D2521",
"O 	c #0C131B",
"P 	c #111923",
"Q 	c #131B26",
"R 	c #141D27",
"S 	c #19252E",
"T 	c #233239",
"U 	c #314248",
"V 	c #384A4F",
"W 	c #445466",
"X 	c #5B647B",
"Y 	c #84786F",
"Z 	c #A18753",
"` 	c #A78A4D",
" .	c #957B46",
"..	c #5C4B28",
"+.	c #403128",
"@.	c #735A4A",
"#.	c #523F34",
"$.	c #231C1C",
"%.	c #1A1F29",
"&.	c #1E2432",
"*.	c #1E2533",
"=.	c #1F2634",
"-.	c #222C39",
";.	c #293641",
">.	c #35434C",
",.	c #3A4A52",
"'.	c #3B4B54",
").	c #4A5974",
"!.	c #6F7493",
"~.	c #B09B8A",
"{.	c #DBB770",
"].	c #E4BE6C",
"^.	c #CDAA62",
"/.	c #80693B",
"(.	c #423229",
"_.	c #6D5547",
":.	c #72594A",
"<.	c #4D3B31",
"[.	c #181925",
"}.	c #303548",
"|.	c #3A4056",
"1.	c #3A3F56",
"2.	c #393F56",
"3.	c #3A4157",
"4.	c #3C445A",
"5.	c #40495E",
"6.	c #424C60",
"7.	c #434D60",
"8.	c #465270",
"9.	c #666882",
"0.	c #B39B7E",
"a.	c #E5BF73",
"b.	c #EFC772",
"c.	c #D7B367",
"d.	c #866F3E",
"e.	c #4E3C31",
"f.	c #1F1F29",
"g.	c #363B50",
"h.	c #40465F",
"i.	c #41475F",
"j.	c #42465F",
"k.	c #3C4460",
"l.	c #505062",
"m.	c #9D8665",
"n.	c #CEAC67",
"o.	c #D8B368",
"p.	c #C2A15E",
"q.	c #786338",
"r.	c #17161C",
"s.	c #232938",
"t.	c #2B3143",
"u.	c #2C3043",
"v.	c #302E42",
"w.	c #2B2C42",
"x.	c #333441",
"y.	c #625543",
"z.	c #826D46",
"A.	c #887247",
"B.	c #7A663F",
"C.	c #4A3D24",
"D.	c #4D3C31",
"E.	c #0B0B0F",
"F.	c #101720",
"G.	c #151D28",
"H.	c #151C27",
"I.	c #171B27",
"J.	c #191B27",
"K.	c #1A1A27",
"L.	c #1B1827",
"M.	c #1C1326",
"N.	c #191125",
"O.	c #0F1325",
"P.	c #051125",
"Q.	c #021025",
"R.	c #0C1427",
"S.	c #101323",
"T.	c #060812",
"U.	c #413128",
"V.	c #171314",
"W.	c #101620",
"X.	c #141C27",
"Y.	c #151D27",
"Z.	c #161C27",
"`.	c #1C1927",
" +	c #211627",
".+	c #241727",
"++	c #2B1A28",
"@+	c #2D1D29",
"#+	c #2D1F2A",
"$+	c #2C1F2A",
"%+	c #291C2A",
"&+	c #231728",
"*+	c #190F22",
"=+	c #110913",
"-+	c #44342A",
";+	c #634D40",
">+	c #4A3930",
",+	c #281F21",
"'+	c #00081C",
")+	c #030E23",
"!+	c #121426",
"~+	c #1B1927",
"{+	c #211827",
"]+	c #241527",
"^+	c #221327",
"/+	c #432B2E",
"(+	c #6A473B",
"_+	c #7B5746",
":+	c #81614F",
"<+	c #846452",
"[+	c #7D5E4D",
"}+	c #584139",
"|+	c #2D1F23",
"1+	c #42322B",
"2+	c #5D483B",
"3+	c #735A4B",
"4+	c #675042",
"5+	c #392A25",
"6+	c #3E2D2E",
"7+	c #37262E",
"8+	c #271928",
"9+	c #231527",
"0+	c #231427",
"a+	c #1E1026",
"b+	c #593B35",
"c+	c #94654C",
"d+	c #AD7D5E",
"e+	c #B58A6B",
"f+	c #B98F70",
"g+	c #AF8769",
"h+	c #795C47",
"i+	c #3A2C24",
"j+	c #614C3E",
"k+	c #665042",
"l+	c #624C3D",
"m+	c #82634D",
"n+	c #927057",
"o+	c #916E58",
"p+	c #745849",
"q+	c #36262E",
"r+	c #0C0223",
"s+	c #190D25",
"t+	c #180C25",
"u+	c #5E3E36",
"v+	c #9C6B50",
"w+	c #B68463",
"x+	c #BF9271",
"y+	c #C59876",
"z+	c #BA8F6F",
"A+	c #80624B",
"B+	c #3B2D23",
"C+	c #574133",
"D+	c #6C4F3B",
"E+	c #A57E62",
"F+	c #BE9272",
"G+	c #BB9070",
"H+	c #9B765D",
"I+	c #60443B",
"J+	c #482E2F",
"K+	c #482F30",
"L+	c #311F2A",
"M+	c #5D3E36",
"N+	c #9A6A4F",
"O+	c #B58362",
"P+	c #BD906F",
"Q+	c #BC9171",
"R+	c #AC8567",
"S+	c #7A5D47",
"T+	c #765D4D",
"U+	c #664F41",
"V+	c #564033",
"W+	c #75503B",
"X+	c #986C50",
"Y+	c #B48869",
"Z+	c #C29674",
"`+	c #C19473",
" @	c #AF8365",
".@	c #96684F",
"+@	c #90624A",
"@@	c #875C47",
"#@	c #5C3D36",
"$@	c #9A694F",
"%@	c #BC8F6F",
"&@	c #A37E61",
"*@	c #7B5E48",
"=@	c #685040",
"-@	c #765C4C",
";@	c #594539",
">@	c #443023",
",@	c #8B6248",
"'@	c #B38262",
")@	c #BD8F6E",
"!@	c #C09473",
"~@	c #BA8C6B",
"{@	c #B28060",
"]@	c #AF7A5A",
"^@	c #A47153",
"/@	c #7F5643",
"(@	c #775040",
"_@	c #9E6C50",
":@	c #AE7C5D",
"<@	c #A87F62",
"[@	c #85664F",
"}@	c #534033",
"|@	c #6A5345",
"1@	c #584538",
"2@	c #463326",
"3@	c #936E54",
"4@	c #BB8E6D",
"5@	c #C09372",
"6@	c #BC8D6D",
"7@	c #B58363",
"8@	c #AC7757",
"9@	c #A16E51",
"0@	c #A06D51",
"a@	c #A87455",
"b@	c #986A4E",
"c@	c #71523F",
"d@	c #634C3D",
"e@	c #534034",
"f@	c #392C24",
"g@	c #3D2F27",
"h@	c #5A463A",
"i@	c #3D2E23",
"j@	c #A47E62",
"k@	c #B88E6E",
"l@	c #BF9372",
"m@	c #BA8B6B",
"n@	c #B48161",
"o@	c #B07B5B",
"p@	c #B27F5F",
"q@	c #936A4F",
"r@	c #473123",
"s@	c #624D3F",
"t@	c #6C5546",
"u@	c #403127",
"v@	c #242738",
"w@	c #3D435C",
"x@	c #514B59",
"y@	c #614C42",
"z@	c #261C15",
"A@	c #34261B",
"B@	c #6E533F",
"C@	c #A98265",
"D@	c #BB8D6D",
"E@	c #B38060",
"F@	c #B27E5E",
"G@	c #B98A6A",
"H@	c #9D775B",
"I@	c #4B3729",
"J@	c #17100C",
"K@	c #392B23",
"L@	c #46362C",
"M@	c #3B3F57",
"N@	c #5C6488",
"O@	c #565B7B",
"P@	c #423B44",
"Q@	c #5D483C",
"R@	c #5A4639",
"S@	c #1E1610",
"T@	c #000000",
"U@	c #543F2F",
"V@	c #C19574",
"W@	c #BE9170",
"X@	c #B38161",
"Y@	c #B3805F",
"Z@	c #A17C60",
"`@	c #4D3A2B",
" #	c #221913",
".#	c #5F4A3D",
"+#	c #554B53",
"@#	c #545874",
"##	c #535A7B",
"$#	c #4E5472",
"%#	c #524C5A",
"&#	c #5E4A40",
"*#	c #574236",
"=#	c #281814",
"-#	c #584232",
";#	c #A57F62",
">#	c #B58463",
",#	c #B58869",
"'#	c #97745A",
")#	c #493628",
"!#	c #231A14",
"~#	c #5E4A3E",
"{#	c #393238",
"]#	c #4B5270",
"^#	c #656D94",
"/#	c #4F5574",
"(#	c #3B3030",
"_#	c #644E40",
":#	c #6C5446",
"<#	c #554136",
"[#	c #4C302A",
"}#	c #472220",
"|#	c #250209",
"1#	c #A68063",
"2#	c #C29574",
"3#	c #C19573",
"4#	c #AD8163",
"5#	c #8D6B51",
"6#	c #654D3A",
"7#	c #2E2118",
"8#	c #150E0A",
"9#	c #3C2D25",
"0#	c #503E33",
"a#	c #43342A",
"b#	c #211917",
"c#	c #4A516F",
"d#	c #687199",
"e#	c #505776",
"f#	c #30292C",
"g#	c #624C3F",
"h#	c #34251E",
"i#	c #421C1C",
"j#	c #582828",
"k#	c #42181B",
"l#	c #583E30",
"m#	c #977359",
"n#	c #B58B6C",
"o#	c #AF8668",
"p#	c #7D5F49",
"q#	c #493729",
"r#	c #251A12",
"s#	c #090504",
"t#	c #110A07",
"u#	c #150D09",
"v#	c #19100C",
"w#	c #120704",
"x#	c #18151A",
"y#	c #4C5270",
"z#	c #687098",
"A#	c #4F5676",
"B#	c #332B2D",
"C#	c #2F211B",
"D#	c #5C2A2A",
"E#	c #582728",
"F#	c #57302A",
"G#	c #654838",
"H#	c #8C6B52",
"I#	c #AA8365",
"J#	c #886850",
"K#	c #493629",
"L#	c #1C130F",
"M#	c #251A14",
"N#	c #231608",
"O#	c #292021",
"P#	c #515471",
"Q#	c #584236",
"R#	c #402520",
"S#	c #4C2121",
"T#	c #5E2B2B",
"U#	c #622D2D",
"V#	c #562627",
"W#	c #2F0F11",
"X#	c #5A4433",
"Y#	c #977459",
"Z#	c #B2896A",
"`#	c #BF9170",
" $	c #BD8E6E",
".$	c #554031",
"+$	c #160E0C",
"@$	c #412621",
"#$	c #532727",
"$$	c #5F2C2C",
"%$	c #612D2D",
"&$	c #572727",
"*$	c #331314",
"=$	c #2A1D14",
"-$	c #553F2F",
";$	c #8E6D54",
">$	c #B68B6C",
",$	c #B78868",
"'$	c #B98B6B",
")$	c #9E795E",
"!$	c #4E3A2C",
"~$	c #3A2C23",
"{$	c #391717",
"]$	c #5A2929",
"^$	c #602C2C",
"/$	c #5B2929",
"($	c #4A2020",
"_$	c #391316",
":$	c #3C1919",
"<$	c #6C4E3D",
"[$	c #906D54",
"}$	c #90694F",
"|$	c #8A6147",
"1$	c #926C52",
"2$	c #98745A",
"3$	c #967359",
"4$	c #7C5E48",
"5$	c #3A2A1F",
"6$	c #0E0906",
"7$	c #3B2D24",
"8$	c #6A5344",
"9$	c #381717",
"0$	c #592828",
"a$	c #612C2C",
"b$	c #5D2A2A",
"c$	c #5B292A",
"d$	c #5B2A29",
"e$	c #532D28",
"f$	c #483025",
"g$	c #422C20",
"h$	c #40291D",
"i$	c #402D21",
"j$	c #433225",
"k$	c #463427",
"l$	c #3E2E23",
"m$	c #271C15",
"n$	c #19110D",
"o$	c #2F231C",
"p$	c #5C473B",
"q$	c #552526",
"r$	c #44181C",
"s$	c #41171B",
"t$	c #3C1518",
"u$	c #1C0005",
"v$	c #2A1F19",
"w$	c #584438",
"x$	c #6E5647",
"y$	c #5F2B2B",
"z$	c #371616",
"A$	c #45352B",
"B$	c #3B2C24",
"C$	c #3F3027",
"D$	c #522726",
"E$	c #442923",
"F$	c #3C2E25",
"G$	c #5D2B2B",
"H$	c #3D241F",
"I$	c #5A4438",
"J$	c #564337",
"K$	c #493029",
"L$	c #4E2625",
"M$	c #5C2B2C",
"N$	c #522629",
"O$	c #38181A",
"P$	c #30221C",
"Q$	c #5D473B",
"R$	c #38231E",
"S$	c #471F1F",
"T$	c #53272A",
"U$	c #3F1F27",
"V$	c #261219",
"W$	c #2E221B",
"X$	c #30231C",
"Y$	c #411C1C",
"Z$	c #4C2122",
"`$	c #3F1D22",
" %	c #341B25",
".%	c #201019",
"+%	c #31231C",
"@%	c #522525",
"#%	c #2F1213",
"$%	c #221018",
"%%	c #2E1923",
"&%	c #211018",
"*%	c #512424",
"=%	c #270E0F",
"-%	c #0C0A12",
";%	c #1F151F",
">%	c #160E16",
",%	c #2D221B",
"'%	c #612D2C",
")%	c #522424",
"!%	c #280F0F",
"~%	c #010811",
"{%	c #0F121C",
"]%	c #090B13",
"^%	c #2C211B",
"/%	c #000810",
"(%	c #0D111C",
"_%	c #080B13",
":%	c #39181B",
"<%	c #512529",
"[%	c #55272B",
"}%	c #54272B",
"|%	c #472023",
"1%	c #220C0E",
"2%	c #00060C",
"3%	c #0E0F17",
"4%	c #2E2421",
"5%	c #31251E",
"6%	c #230F19",
"7%	c #331926",
"8%	c #361B28",
"9%	c #351B28",
"0%	c #2C1521",
"a%	c #13070D",
"b%	c #000102",
"c%	c #211915",
"d%	c #544136",
"e%	c #392B27",
"f%	c #1B111E",
"g%	c #1E1223",
"h%	c #221527",
"i%	c #221528",
"j%	c #1C1020",
"k%	c #0A040C",
"l%	c #574438",
"m%	c #2C201D",
"n%	c #1D111E",
"o%	c #221425",
"p%	c #231426",
"q%	c #1E1220",
"r%	c #231918",
"s%	c #3A2B27",
"t%	c #160B18",
"u%	c #312423",
"v%	c #523F35",
"w%	c #30241D",
"x%	c #2B201A",
"                                                                                                                                ",
"                                                                                                                                ",
"                                                                                                                                ",
"                                                                                                                                ",
"                                                                                                                                ",
"                                                                                                                                ",
"                                                                                                                                ",
"                                                                                                                                ",
"                                                                                                                                ",
"                                                                                                                                ",
"                                                                                                                                ",
"                                                                                                                                ",
"                                                                                                                                ",
"                                                    . + @ # # # # @ # $                                                         ",
"                                                    % & * = = = = - ; > ,                                                       ",
"                                                ' ) ! ~ { ] ^ / / ( _ : < $                                                     ",
"                                                [ } | 1 2 3 4 5 6 7 8 9 0 a b                                                   ",
"                                            ' c d e f g h i j k l m n o p q r > s t                                             ",
"                                          u v w x y z A B C j k k D E F G H I J K L                                             ",
"                                        ' % M N O P Q R S T U V k W X Y Z `  ...+.v                                             ",
"                                        @.#.$.%.&.*.*.=.-.;.>.,.'.).!.~.{.].^./.(._.                                            ",
"                                        :.<.[.}.|.1.2.|.3.4.5.6.7.8.9.0.a.b.c.d.(._.                                            ",
"                                        :.e.f.g.h.h.h.h.h.h.i.i.j.k.l.m.n.o.p.q.(._.                                            ",
"                                        :.e.r.s.t.t.t.t.t.t.t.u.v.w.x.y.z.A.B.C.(._.                                            ",
"                                        :.D.E.F.G.R R H.I.J.K.L.M.N.O.P.Q.R.S.T.U._.                                            ",
"                                        :.& V.W.X.H.Y.Z.`. + +.+++@+#+$+%+&+*+=+-+_.                                            ",
"                                        . ;+>+,+'+)+!+~+{+]+^+/+(+_+:+<+[+}+|+1+2+:.                                            ",
"                                        b 3+4+; 5+6+7+8+9+0+a+b+c+d+e+f+g+h+i+j+$ b                                             ",
"                                        , k+l+m+n+o+p+q+r+s+t+u+v+w+x+y+z+A+B+4+                                                ",
"                                      ' v C+D+E+F+G+H+I+J+K+L+M+N+O+P+Q+R+S+= s                                                 ",
"                                    T+U+V+W+X+Y+Z+`+ @.@+@@@b+#@$@w+%@&@*@=@4+3+                                                ",
"                                    -@;@>@,@'@)@!@!@~@{@]@^@/@(@_@:@<@[@}@a $ L c |@# b                                         ",
"                                    -@1@2@3@4@5@!@!@x+6@7@8@9@0@a@b@c@d@s t # e@f@g@h@3+                                        ",
"                                    -@;@i@*@j@k@!@!@!@l@m@n@o@o@p@q@r@-+s@:.t@u@v@w@x@y@@                                       ",
"                                    -@;@z@A@B@C@!@!@!@!@l@D@E@F@G@H@I@J@K@;+t@L@M@N@O@P@Q@t                                     ",
"                                    T+R@S@T@U@j@!@!@!@!@V@W@X@Y@)@Z@`@T@ #.#:.> +#@###$#%#&#L                                   ",
"                                  b + *#=#T@-#;#!@!@!@!@!@W@>#{@,#'#)#T@!#;@# # ~#{#]#^#/#(#_#                                  ",
"                                  :#<#[#}#|#-#1#2#3#!@!@!@l@6@4#5#6#7#T@8#9#e.0#a#b#c#d#e#f#g#                                  ",
"                                  ;+h#i#j#k#l#m#n#F+`+!@!@!@`+o#p#q#r#s#t#u#v#v#w#x#y#z#A#B#s@                                  ",
"                                  g#C#i#D#E#F#G#H#n#V@!@!@!@3#G+I#J#K#L#M#M#M#M#N#O#P#z#A#B#s@                                  ",
"                              t [ Q#R#S#T#U#V#W#X#Y#Z#F+`# $x+2#V@Z@.$+$M#M#M#M#N#O#P#z#A#B#s@                                  ",
"                              v ; @$#$D#$$%$&$*$=$-$;$>$,${@'$l@F+)$!$T@t#u#v#v#w#x#y#z#A#B#s@                                  ",
"                              c ~${$]$%$^$^$/$($_$:$<$[$}$|$1$2$3$4$5$T@6$7$e.0#a#b#c#d#e#f#g#                                  ",
"                              8$9#9$0$a$^$^$$$b$c$d$e$f$g$h$i$j$k$l$m$n$o$p$+ # ~#{#]#^#/#(#_#                                  ",
"                              8$9#9$0$a$^$^$^$a$%$^$q$r$s$t$u$v$e.;@;@w$2+x$3+g#+#@###$#%#&#L                                   ",
"                              8$9#9$0$a$^$^$^$^$^$^$$$T#y$j#z$i+% T+-@-@-@  x$A$M@N@O@P@Q@t                                     ",
"                              8$9#9$0$a$^$^$^$^$^$^$^$a$U#]${$B$[           v C$v@w@x@y@@                                       ",
"                              8$B$9$]$%$^$^$^$^$^$^$^$$$/$D$E$& x$          @ e@f@g@h@3+                                        ",
"                              8$F$9$0$a$^$^$^$^$^$^$a$G$($H$I$_.'           -@x$c |@# b                                         ",
"                              L J$K$L$&$y$^$^$^$^$^$M$N$O$P$;+                                                                  ",
"                              b :.Q$R$S$G$a$^$^$^$T#T$U$V$W$s@                                                                  ",
"                                  ;+X$Y$b$a$^$^$]$Z$`$ %.%W$s@                                                                  ",
"                                  s@+%i#b$a$^$^$@%#%$%%%&%W$s@                                                                  ",
"                                  s@+%i#b$a$^$^$*%=%-%;%>%,%s@                                                                  ",
"                                  s@+%i#b$'%^$^$)%!%~%{%]%^%g#                                                                  ",
"                                  s@+%i#b$'%^$^$)%!%/%(%_%^%g#                                                                  ",
"                                  g#C#:%<%[%}%}%|%1%2%3%4%; s                                                                   ",
"                                  ;+5%6%7%8%9%9%0%a%b%c%M v '                                                                   ",
"                                  :#d%e%f%g%h%i%j%k%,%e.% u                                                                     ",
"                                  b + l%m%n%o%p%q%r%e.x$T+                                                                      ",
"                                      t@l%s%t%t%u%v%% T+                                                                        ",
"                                        + d%w%x%; v u                                                                           ",
"                                        b :#> g#s '                                                                             ",
"                                                                                                                                "};
