/* XPM */
static char * mining_up0_xpm[] = {
"64 64 643 2",
"  	c #785E4E",
". 	c #745B4B",
"+ 	c #6C5445",
"@ 	c #6C5546",
"# 	c #755B4C",
"$ 	c #6B5445",
"% 	c #4F3E34",
"& 	c #524036",
"* 	c #6E5647",
"= 	c #6A5345",
"- 	c #5C4C4B",
"; 	c #4A4759",
"> 	c #4C4858",
", 	c #5E4D49",
"' 	c #6C5446",
") 	c #6D5546",
"! 	c #4F3D32",
"~ 	c #474457",
"{ 	c #5C6283",
"] 	c #5A5F80",
"^ 	c #454150",
"/ 	c #534035",
"( 	c #6F5748",
"_ 	c #6A5344",
": 	c #3F3027",
"< 	c #3D425C",
"[ 	c #646C92",
"} 	c #61698E",
"| 	c #373B53",
"1 	c #45352B",
"2 	c #775D4E",
"3 	c #685143",
"4 	c #3E2F26",
"5 	c #3C415A",
"6 	c #62698F",
"7 	c #5F668B",
"8 	c #363A51",
"9 	c #46352B",
"0 	c #745B4C",
"a 	c #695244",
"b 	c #554236",
"c 	c #31251D",
"d 	c #2F3348",
"e 	c #4F5575",
"f 	c #4C5271",
"g 	c #2B2E40",
"h 	c #46362C",
"i 	c #775D4D",
"j 	c #4E3D32",
"k 	c #2B221C",
"l 	c #151210",
"m 	c #171B26",
"n 	c #272C3D",
"o 	c #262A3B",
"p 	c #181A23",
"q 	c #45362C",
"r 	c #695243",
"s 	c #56443A",
"t 	c #3A3634",
"u 	c #222E32",
"v 	c #212D31",
"w 	c #202C2E",
"x 	c #232E31",
"y 	c #3C3835",
"z 	c #57453A",
"A 	c #755C4C",
"B 	c #312E2D",
"C 	c #313C40",
"D 	c #35454A",
"E 	c #35454B",
"F 	c #322F2D",
"G 	c #503E33",
"H 	c #6D5647",
"I 	c #554338",
"J 	c #3A3734",
"K 	c #29363B",
"L 	c #344449",
"M 	c #394B51",
"N 	c #3A4B51",
"O 	c #394A50",
"P 	c #334349",
"Q 	c #29363A",
"R 	c #3C3734",
"S 	c #564439",
"T 	c #765C4C",
"U 	c #6D5547",
"V 	c #4F3E35",
"W 	c #312E2F",
"X 	c #303C40",
"Y 	c #36464C",
"Z 	c #38494F",
"` 	c #303B3F",
" .	c #312D2E",
"..	c #513F36",
"+.	c #675042",
"@.	c #55443D",
"#.	c #403943",
"$.	c #323949",
"%.	c #37444E",
"&.	c #394A4F",
"*.	c #36444E",
"=.	c #313849",
"-.	c #413A42",
";.	c #56443D",
">.	c #705849",
",.	c #513F34",
"'.	c #2F292F",
").	c #373A4F",
"!.	c #3F475D",
"~.	c #3D4A58",
"{.	c #3A4A52",
"].	c #3F465D",
"^.	c #35394D",
"/.	c #30292D",
"(.	c #544135",
"_.	c #72594A",
":.	c #705748",
"<.	c #4B3A2F",
"[.	c #161720",
"}.	c #2A2F41",
"|.	c #383F53",
"1.	c #3E485B",
"2.	c #414C5E",
"3.	c #414C5D",
"4.	c #3E475A",
"5.	c #373E53",
"6.	c #292D3F",
"7.	c #19181F",
"8.	c #4D3C31",
"9.	c #715849",
"0.	c #4C3A30",
"a.	c #141113",
"b.	c #141A25",
"c.	c #272D3E",
"d.	c #3A4056",
"e.	c #434A62",
"f.	c #444B63",
"g.	c #394055",
"h.	c #252C3C",
"i.	c #131923",
"j.	c #181314",
"k.	c #120F10",
"l.	c #0C131B",
"m.	c #1C2230",
"n.	c #2C3245",
"o.	c #343B50",
"p.	c #363E53",
"q.	c #373F53",
"r.	c #373F54",
"s.	c #363E52",
"t.	c #343A4F",
"u.	c #2B3144",
"v.	c #1B212E",
"w.	c #0B121A",
"x.	c #161211",
"y.	c #131112",
"z.	c #101720",
"A.	c #17202B",
"B.	c #1B232F",
"C.	c #1E2733",
"D.	c #212C38",
"E.	c #232F3A",
"F.	c #232F3B",
"G.	c #1A232F",
"H.	c #17202A",
"I.	c #0F171F",
"J.	c #171312",
"K.	c #141314",
"L.	c #141F26",
"M.	c #1B2730",
"N.	c #1A262F",
"O.	c #19252E",
"P.	c #19242D",
"Q.	c #141E25",
"R.	c #181515",
"S.	c #151416",
"T.	c #182129",
"U.	c #1F2B34",
"V.	c #202D36",
"W.	c #1E2B34",
"X.	c #1A252F",
"Y.	c #17212B",
"Z.	c #172028",
"`.	c #181616",
" +	c #131013",
".+	c #111623",
"++	c #19212F",
"@+	c #1E2A35",
"#+	c #1F2D36",
"$+	c #1D2A33",
"%+	c #1C2831",
"&+	c #1D2A34",
"*+	c #222B35",
"=+	c #222430",
"-+	c #1A1923",
";+	c #191314",
">+	c #241714",
",+	c #3E2827",
"'+	c #463132",
")+	c #342E34",
"!+	c #202B35",
"~+	c #1F2A34",
"{+	c #1F2B35",
"]+	c #1F2A35",
"^+	c #202530",
"/+	c #201927",
"(+	c #180D1A",
"_+	c #181011",
":+	c #3F2A1E",
"<+	c #734D3A",
"[+	c #7E5643",
"}+	c #573D38",
"|+	c #1E1F2D",
"1+	c #131B2C",
"2+	c #191D2D",
"3+	c #191D2C",
"4+	c #161726",
"5+	c #110C19",
"6+	c #09040D",
"7+	c #160F0D",
"8+	c #4E3526",
"9+	c #8F644A",
"0+	c #A07055",
"a+	c #7C5644",
"b+	c #533834",
"c+	c #4F3432",
"d+	c #523633",
"e+	c #513632",
"f+	c #462C2A",
"g+	c #301918",
"h+	c #1A0607",
"i+	c #170E0A",
"j+	c #4C3B30",
"k+	c #523B2C",
"l+	c #987156",
"m+	c #B28364",
"n+	c #A07257",
"o+	c #90624A",
"p+	c #8E6049",
"q+	c #8F614A",
"r+	c #8F624A",
"s+	c #7D523F",
"t+	c #5C332B",
"u+	c #381316",
"v+	c #1C0E0B",
"w+	c #735A4A",
"x+	c #6A5244",
"y+	c #5D4839",
"z+	c #735843",
"A+	c #A47E62",
"B+	c #BB8E6E",
"C+	c #B68565",
"D+	c #B07C5D",
"E+	c #AF7C5C",
"F+	c #AE7B5B",
"G+	c #AD7858",
"H+	c #AB7656",
"I+	c #AF7B5B",
"J+	c #B07D5D",
"K+	c #AF7B5C",
"L+	c #99684F",
"M+	c #724238",
"N+	c #5B342D",
"O+	c #5A4132",
"P+	c #614B3B",
"Q+	c #735A4B",
"R+	c #5F4A3D",
"S+	c #5B4537",
"T+	c #85664F",
"U+	c #A57F62",
"V+	c #B78D6D",
"W+	c #BF9272",
"X+	c #BD8F6E",
"Y+	c #BB8C6C",
"Z+	c #BB8C6B",
"`+	c #B88867",
" @	c #B27E5D",
".@	c #AE7857",
"+@	c #B27E5E",
"@@	c #BC8D6C",
"#@	c #BA8C6B",
"$@	c #A2755B",
"%@	c #784B3E",
"&@	c #7E5545",
"*@	c #977259",
"=@	c #84664F",
"-@	c #594436",
";@	c #614B3E",
">@	c #614A3B",
",@	c #745843",
"'@	c #A27D60",
")@	c #BD9271",
"!@	c #C19574",
"~@	c #C09473",
"{@	c #BB8D6D",
"]@	c #B27F5F",
"^@	c #AD7757",
"/@	c #B38160",
"(@	c #BC8E6D",
"_@	c #BC9070",
":@	c #B3876A",
"<@	c #996E57",
"[@	c #764A3E",
"}@	c #8F6450",
"|@	c #B2886A",
"1@	c #A17C60",
"2@	c #715643",
"3@	c #624B3C",
"4@	c #6B5344",
"5@	c #594536",
"6@	c #85654F",
"7@	c #A67F63",
"8@	c #C09573",
"9@	c #B28060",
"0@	c #B48161",
"a@	c #BC8E6E",
"b@	c #B18669",
"c@	c #936954",
"d@	c #774B3F",
"e@	c #6B3D36",
"f@	c #906551",
"g@	c #B68B6C",
"h@	c #B78D6E",
"i@	c #A57E62",
"j@	c #82634D",
"k@	c #584336",
"l@	c #614C3E",
"m@	c #523F34",
"n@	c #4D3A2C",
"o@	c #957258",
"p@	c #BC9171",
"q@	c #BF9372",
"r@	c #BD906F",
"s@	c #BF9271",
"t@	c #B2805F",
"u@	c #BB8E6D",
"v@	c #A97E63",
"w@	c #7B4F42",
"x@	c #5B2428",
"y@	c #643230",
"z@	c #8F6551",
"A@	c #C39675",
"B@	c #BB9070",
"C@	c #927056",
"D@	c #4A372A",
"E@	c #554136",
"F@	c #513F33",
"G@	c #4D392B",
"H@	c #967359",
"I@	c #C29674",
"J@	c #BE9170",
"K@	c #B78767",
"L@	c #B58464",
"M@	c #BC8D6D",
"N@	c #A87E63",
"O@	c #794D40",
"P@	c #5A2126",
"Q@	c #64322F",
"R@	c #C39775",
"S@	c #493629",
"T@	c #967358",
"U@	c #BD9171",
"V@	c #B48262",
"W@	c #B17E5E",
"X@	c #BA8B6B",
"Y@	c #7A4E41",
"Z@	c #5B2327",
"`@	c #BC9170",
" #	c #B48261",
".#	c #BA8B6A",
"+#	c #BE9272",
"@#	c #BE9070",
"##	c #B58262",
"$#	c #A97F64",
"%#	c #7A4F41",
"&#	c #B78C6D",
"*#	c #C49776",
"=#	c #4E3A2C",
"-#	c #BC8F6E",
";#	c #B38161",
">#	c #B17D5D",
",#	c #5B2328",
"'#	c #8E6450",
")#	c #B58A6C",
"!#	c #916F56",
"~#	c #4A382A",
"{#	c #84654E",
"]#	c #9E795E",
"^#	c #A27C60",
"/#	c #A0785D",
"(#	c #9C6E53",
"_#	c #A16F54",
":#	c #B18162",
"<#	c #BB8D6C",
"[#	c #B88767",
"}#	c #B17E5D",
"|#	c #AD7A5B",
"1#	c #A97C60",
"2#	c #966C56",
"3#	c #72453B",
"4#	c #5D2629",
"5#	c #62302E",
"6#	c #7E5645",
"7#	c #9A745A",
"8#	c #A27D61",
"9#	c #9E795D",
"0#	c #82634C",
"a#	c #594437",
"b#	c #624D3F",
"c#	c #5B4535",
"d#	c #594333",
"e#	c #5E4333",
"f#	c #6A4135",
"g#	c #825140",
"h#	c #A06E53",
"i#	c #AC7657",
"j#	c #AC7656",
"k#	c #9F6C51",
"l#	c #865846",
"m#	c #653431",
"n#	c #602B2C",
"o#	c #602D2C",
"p#	c #5D362F",
"q#	c #5A4032",
"r#	c #594433",
"s#	c #634C3D",
"t#	c #2A1F19",
"u#	c #1F0409",
"v#	c #491C1F",
"w#	c #6B3A32",
"x#	c #885642",
"y#	c #97634A",
"z#	c #98644B",
"A#	c #97644B",
"B#	c #98654B",
"C#	c #8A5843",
"D#	c #6D3B33",
"E#	c #5E282A",
"F#	c #5F2B2B",
"G#	c #612D2C",
"H#	c #4A1F20",
"I#	c #1E0609",
"J#	c #2C211A",
"K#	c #48372D",
"L#	c #745A4B",
"M#	c #281110",
"N#	c #4C2121",
"O#	c #62302D",
"P#	c #6D3A33",
"Q#	c #714036",
"R#	c #724036",
"S#	c #64302E",
"T#	c #5F2B2C",
"U#	c #602C2C",
"V#	c #612C2C",
"W#	c #4B2121",
"X#	c #281211",
"Y#	c #4D3B30",
"Z#	c #2C1613",
"`#	c #4D2222",
" $	c #5E292B",
".$	c #5F2A2B",
"+$	c #2B1613",
"@$	c #503D32",
"#$	c #2B1513",
"$$	c #5F2C2C",
"%$	c #2A1612",
"&$	c #4A392F",
"*$	c #2D1514",
"=$	c #4D2223",
"-$	c #4C2122",
";$	c #2D1715",
">$	c #574338",
",$	c #3D2D27",
"'$	c #351A1D",
")$	c #512526",
"!$	c #4F2426",
"~$	c #341A1D",
"{$	c #3E2E29",
"]$	c #584438",
"^$	c #2E221D",
"/$	c #28181E",
"($	c #3B1E25",
"_$	c #51262A",
":$	c #5E2B2C",
"<$	c #5D2B2C",
"[$	c #502629",
"}$	c #391E25",
"|$	c #30231E",
"1$	c #574337",
"2$	c #4E3C31",
"3$	c #190E0F",
"4$	c #27141D",
"5$	c #391D27",
"6$	c #472229",
"7$	c #52272A",
"8$	c #5C2A2B",
"9$	c #612D2D",
"0$	c #5B2A2B",
"a$	c #462229",
"b$	c #381D27",
"c$	c #26131C",
"d$	c #1B1110",
"e$	c #513E33",
"f$	c #1D1212",
"g$	c #341C26",
"h$	c #371D28",
"i$	c #422128",
"j$	c #54272A",
"k$	c #5D2B2B",
"l$	c #5D2A2A",
"m$	c #5C2A2A",
"n$	c #5D2A2B",
"o$	c #53272A",
"p$	c #412028",
"q$	c #1F1413",
"r$	c #28141D",
"s$	c #331B26",
"t$	c #331C27",
"u$	c #391E27",
"v$	c #4D252A",
"w$	c #4E252A",
"x$	c #4B2327",
"y$	c #461F21",
"z$	c #431D1D",
"A$	c #4C2327",
"B$	c #452229",
"C$	c #341C27",
"D$	c #351C27",
"E$	c #371D27",
"F$	c #371C26",
"G$	c #341C23",
"H$	c #301D1C",
"I$	c #2D1D18",
"J$	c #2D1D17",
"K$	c #2F1D1D",
"L$	c #2F1924",
"M$	c #26141D",
"N$	c #342523",
"O$	c #4E3C32",
"P$	c #5A4639",
"Q$	c #4D3B31",
"R$	c #322322",
"S$	c #27141E",
"T$	c #301A25",
"U$	c #2E1822",
"V$	c #1C0D14",
"W$	c #3B2D25",
"X$	c #654F41",
"Y$	c #634D40",
"Z$	c #382A23",
"`$	c #1D0D15",
" %	c #2F1923",
".%	c #2D1822",
"+%	c #190B11",
"@%	c #3C2E25",
"#%	c #392B23",
"$%	c #1A0C12",
"%%	c #1A0B12",
"&%	c #3C2D25",
"*%	c #664F42",
"=%	c #1B0C13",
"-%	c #331C26",
";%	c #2F1822",
">%	c #27131C",
",%	c #26131D",
"'%	c #311B26",
")%	c #321B27",
"!%	c #2C1722",
"~%	c #180B12",
"{%	c #664F41",
"]%	c #392B22",
"^%	c #1A0C13",
"/%	c #2C1822",
"(%	c #311A26",
"_%	c #25131C",
":%	c #1B1112",
"<%	c #20111D",
"[%	c #2A1726",
"}%	c #2B1827",
"|%	c #251422",
"1%	c #140912",
"2%	c #3A2C24",
"3%	c #675143",
"4%	c #372A22",
"5%	c #150A13",
"6%	c #261523",
"7%	c #2B1828",
"8%	c #1F101C",
"9%	c #1D1413",
"0%	c #1B0F1D",
"a%	c #241526",
"b%	c #251628",
"c%	c #221324",
"d%	c #231621",
"e%	c #2D211F",
"f%	c #6B5345",
"g%	c #49382E",
"h%	c #2C201F",
"i%	c #221425",
"j%	c #1A0E1C",
"k%	c #1B1212",
"l%	c #170F10",
"m%	c #1A0E1D",
"n%	c #231527",
"o%	c #251528",
"p%	c #211324",
"q%	c #190D1B",
"r%	c #2F2321",
"s%	c #544036",
"t%	c #675043",
"u%	c #523F35",
"v%	c #2D2120",
"w%	c #190E1C",
"x%	c #211325",
"y%	c #231426",
"z%	c #1A1112",
"A%	c #594539",
"B%	c #392B24",
"C%	c #261A20",
"D%	c #1F1222",
"E%	c #201223",
"F%	c #2F2221",
"G%	c #48372E",
"H%	c #2E2120",
"I%	c #231521",
"J%	c #1F1122",
"K%	c #3A2C25",
"L%	c #5B473A",
"M%	c #40302A",
"N%	c #130B13",
"O%	c #110813",
"P%	c #2B1F1E",
"Q%	c #160C14",
"R%	c #42322C",
"S%	c #604B3E",
"T%	c #765D4D",
"U%	c #715949",
"V%	c #3D2E26",
"W%	c #372921",
"X%	c #5A463A",
"Y%	c #665042",
"Z%	c #6F5648",
"                                                                                                                                ",
"                                                                . + @ #                                                         ",
"                                                                $ % & *                                                         ",
"                                                            . = - ; > , ' #                                                     ",
"                                                            ) ! ~ { ] ^ / (                                                     ",
"                                                            _ : < [ } | 1 )                                                     ",
"                                                          2 3 4 5 6 7 8 9 )                                                     ",
"                                                        0 a b c d e f g h *                                                     ",
"                                                      i ' j k l m n o p q $                                                     ",
"                                                    # r s t u u v w w x y z a A                                                 ",
"                                                  i @ j B C D E D D E D C F G H i                                               ",
"                                                # 3 I J K L M N N N N O P Q R S a T                                             ",
"                                              i U V W X Y Z O O O O O O Z Y `  ...* i                                           ",
"                                            . +.@.#.$.%.O O &.&.&.&.&.&.O O *.=.-.;.3 #                                         ",
"                                            >.,.'.).!.~.{.{.{.{.{.{.{.{.{.{.~.].^./.(._.                                        ",
"                                            :.<.[.}.|.1.2.2.2.2.2.2.2.2.2.3.4.5.6.7.8.9.                                        ",
"                                            :.0.a.b.c.d.e.f.f.f.f.f.f.f.f.e.g.h.i.j.! 9.                                        ",
"                                            :.0.k.l.m.n.o.p.q.r.q.q.r.q.s.t.u.v.w.x.! 9.                                        ",
"                                            :.0.y.z.A.B.C.D.E.F.E.E.F.E.D.C.G.H.I.J.! 9.                                        ",
"                                            :.0.K.L.M.M.N.O.P.P.P.P.P.P.O.N.M.M.Q.R.! 9.                                        ",
"                                            :.0.S.T.U.V.W.X.Y.A.Y.Y.A.Y.X.W.V.U.Z.`.! 9.                                        ",
"                                            :.0. +.+++@+#+$+%+%+%+%+%+%+&+#+*+=+-+;+! 9.                                        ",
"                                            :.0.>+,+'+)+!+@+~+~+~+~+~+~+{+]+^+/+(+_+! 9.                                        ",
"                                            :.0.:+<+[+}+|+1+2+2+2+2+2+2+2+3+4+5+6+7+! 9.                                        ",
"                                            :.0.8+9+0+a+b+c+d+d+d+d+d+d+d+e+f+g+h+i+! 9.                                        ",
"                                            >.j+k+l+m+n+o+p+q+r+r+r+r+q+o+p+s+t+u+v+! _.                                        ",
"                                        i w+x+y+z+A+B+C+D+E+F+G+H+H+G+I+J+K+L+M+N+O+P+_ Q+i                                     ",
"                                        . R+S+T+U+V+W+X+Y+Z+`+ @.@.@+@`+@@#@$@%@&@*@=@-@;@0                                     ",
"                                    i _._ >@,@'@)@!@~@~@~@~@{@]@^@^@/@(@_@:@<@[@}@|@1@2@3@4@_.i                                 ",
"                                    . R+5@6@7@V+~@!@~@~@8@~@(@9@^@^@0@a@b@c@d@e@f@g@h@i@j@k@l@0                                 ",
"                                    _.m@n@o@p@!@q@r@X+s@~@~@(@t@^@^@0@u@v@w@x@y@z@g@A@B@C@D@E@Q+                                ",
"                                    _.F@G@H@)@I@J@K@L@M@~@~@(@t@^@^@0@u@N@O@P@Q@z@g@R@p@C@S@(.w+                                ",
"                                    _.m@n@T@U@I@r@V@W@X@~@~@(@t@^@^@0@u@v@Y@Z@Q@z@g@A@`@C@D@E@Q+                                ",
"                                    _.m@n@T@U@I@r@ #W@.#~@~@(@t@^@^@0@u@v@Y@Z@Q@z@g@A@`@C@D@E@Q+                                ",
"                                    _.F@G@H@+#R@@###+@X@~@!@(@9@^@^@ #a@$#%#Z@y@f@&#*#U@C@S@(.w+                                ",
"                                    _.m@=#o@`@!@-#;#>#.#~@~@{@]@^@^@0@{@N@Y@,#Q@'#)#I@B@!#~#b Q+                                ",
"                                    . ;@S+{#]#^#/#(#_#:#Z+<#[#}#.@.@|#1#2#3#4#5#6#7#8#9#0#a#b##                                 ",
"                                    i w+$ 3@c#d#e#f#g#h#E+J+I+G+i#j#k#l#3#m#n#o#p#q#r#c#s#+ Q+i                                 ",
"                                        . ;@h t#u#v#w#x#y#z#A#A#B#A#C#D#E#F#G#F#H#I#J#K#b##                                     ",
"                                        i L#+.1 M#N#O#P#Q#R#Q#R#R#Q#D#S#T#U#V#F#W#X#K#3 . i                                     ",
"                                            >.Y#Z#`#F#T# $ $ $ $ $ $.$n#U#U#V#F#W#+$@$_.                                        ",
"                                            :.0.Z#`#F#U#U#U#U#U#U#U#U#U#U#U#V#F#W#+$! 9.                                        ",
"                                            >.Y##$`#$$V#U#U#U#U#U#U#U#U#U#U#V#F#W#%$@$_.                                        ",
"                                          2 U &$*$=$$$V#U#U#U#U#U#U#U#U#U#U#V#F#-$;$Y#*                                         ",
"                                        # a >$,$'$)$U#V#U#U#U#U#U#U#U#U#U#U#V#$$!$~${$]$_ A                                     ",
"                                        _.E@^$/$($_$:$U#U#U#U#U#U#U#U#U#U#U#U#<$[$}$/$|$1$w+                                    ",
"                                        9.2$3$4$5$6$7$8$U#V#V#V#9$V#V#V#V#U#0$_$a$b$c$d$e$_.                                    ",
"                                        9.! f$4$g$h$i$j$<$:$k$l$m$m$n$k$:$<$o$p$h$g$c$q$m@_.                                    ",
"                                        9.! f$r$s$t$u$a$v$w$x$y$z$z$y$A$w$v$B$b$t$s$c$q$m@_.                                    ",
"                                        9.! f$r$s$C$D$E$b$F$G$H$I$J$K$G$F$b$E$D$C$s$c$q$m@_.                                    ",
"                                        9.! f$r$s$C$C$t$L$M$N$O$P$P$Q$R$S$T$t$C$D$s$c$q$m@_.                                    ",
"                                        9.! f$r$s$C$C$C$U$V$W$X$A # Y$Z$`$ %C$C$C$s$c$q$m@_.                                    ",
"                                        9.! f$r$s$C$C$C$.%+%@%a     +.#%$%U$C$C$C$s$c$q$m@_.                                    ",
"                                        9.! f$r$s$C$C$C$U$%%&%3     *%#%=%U$C$C$D$s$c$q$m@_.                                    ",
"                                        9.! f$r$-%D$C$D$U$%%&%3     *%#%=%;%D$C$D$s$>%q$m@_.                                    ",
"                                        9.! f$,%'%)%)%)%!%~%&%3     {%]%^%/%)%)%)%(%_%q$m@_.                                    ",
"                                        9.! :%<%[%}%}%}%|%1%2%3%    X$4%5%6%7%}%}%[%8%9%m@_.                                    ",
"                                        9.! _+0%a%b%a%c%d%e%<.f%    x+g%h%d%i%a%b%a%j%k%,._.                                    ",
"                                        9.2$l%m%n%o%p%q%r%s%3 Q+    w+t%u%v%w%x%o%y%j%z%F@_.                                    ",
"                                        _.A%B%C%D%E%d%F%&$a i         i 3 G%H%I%E%J%C%K%L%Q+                                    ",
"                                        T * R+M%N%O%H%s%a .             Q+3 u%P%O%Q%R%S%( T%                                    ",
"                                            U%]$V%4%<.r i                 i +.g%W%4 X%_.                                        ",
"                                            T%* +.Y%= Q+                    w+_ Y%3%Z%i                                         ",
"                                                                                                                                "};
