/* XPM */
static char * mining_left1_xpm[] = {
"64 64 580 2",
"  	c #785E4E",
". 	c #765D4D",
"+ 	c #765C4C",
"@ 	c #775D4D",
"# 	c #735A4B",
"$ 	c #634D40",
"% 	c #584438",
"& 	c #5A4639",
"* 	c #675143",
"= 	c #6E5647",
"- 	c #47372C",
"; 	c #211C22",
"> 	c #2F2B36",
", 	c #534441",
"' 	c #6E5649",
") 	c #6D5546",
"! 	c #3F3027",
"~ 	c #303449",
"{ 	c #4F5675",
"] 	c #53536C",
"^ 	c #52423E",
"/ 	c #685143",
"( 	c #775D4E",
"_ 	c #6F5748",
": 	c #4F3D32",
"< 	c #474559",
"[ 	c #5D6487",
"} 	c #565D7F",
"| 	c #414256",
"1 	c #574746",
"2 	c #6D5547",
"3 	c #755C4C",
"4 	c #6C5446",
"5 	c #5D4C4A",
"6 	c #49475B",
"7 	c #4F5676",
"8 	c #5B6286",
"9 	c #505068",
"0 	c #4D3D37",
"a 	c #6A5244",
"b 	c #675042",
"c 	c #362A25",
"d 	c #3E435D",
"e 	c #5A6184",
"f 	c #515878",
"g 	c #46475C",
"h 	c #5A4A4B",
"i 	c #6B5345",
"j 	c #745B4C",
"k 	c #654F41",
"l 	c #34271F",
"m 	c #1A1D2A",
"n 	c #353950",
"o 	c #545B7C",
"p 	c #60678A",
"q 	c #4A4A60",
"r 	c #4B3A31",
"s 	c #604B3E",
"t 	c #5D483C",
"u 	c #5E493C",
"v 	c #513F33",
"w 	c #30241C",
"x 	c #140400",
"y 	c #26222B",
"z 	c #585D7E",
"A 	c #687098",
"B 	c #454B67",
"C 	c #3A2D26",
"D 	c #745B4B",
"E 	c #755B4C",
"F 	c #72594A",
"G 	c #30241D",
"H 	c #211812",
"I 	c #261C16",
"J 	c #271D17",
"K 	c #271D16",
"L 	c #291D17",
"M 	c #261704",
"N 	c #322B33",
"O 	c #5A5E7F",
"P 	c #676F97",
"Q 	c #454A67",
"R 	c #3C2E27",
"S 	c #6A5344",
"T 	c #634D3F",
"U 	c #544135",
"V 	c #534035",
"W 	c #554136",
"X 	c #523F34",
"Y 	c #3C2D25",
"Z 	c #070403",
"` 	c #000000",
" .	c #080402",
"..	c #1A110C",
"+.	c #1F1510",
"@.	c #1E140F",
"#.	c #190B00",
"$.	c #2A2730",
"%.	c #585E7E",
"&.	c #715949",
"*.	c #705748",
"=.	c #705849",
"-.	c #715849",
";.	c #695244",
">.	c #483A32",
",.	c #1E1D1D",
"'.	c #141110",
").	c #160F0B",
"!.	c #150E0A",
"~.	c #0E0906",
"{.	c #020101",
"].	c #000205",
"^.	c #0F0C0C",
"/.	c #221813",
"(.	c #2B1F18",
"_.	c #2C211A",
":.	c #221913",
"<.	c #21222E",
"[.	c #555C7E",
"}.	c #47362C",
"|.	c #48372D",
"1.	c #49382E",
"2.	c #43332F",
"3.	c #34393B",
"4.	c #253338",
"5.	c #04161B",
"6.	c #000B15",
"7.	c #11151C",
"8.	c #171213",
"9.	c #3B2D24",
"0.	c #594539",
"a.	c #4E3C31",
"b.	c #2A2731",
"c.	c #545C7D",
"d.	c #665042",
"e.	c #382B21",
"f.	c #4E3F21",
"g.	c #735E34",
"h.	c #7B6537",
"i.	c #725F39",
"j.	c #524E41",
"k.	c #414343",
"l.	c #59483C",
"m.	c #634A38",
"n.	c #624A38",
"o.	c #634B39",
"p.	c #5E4837",
"q.	c #42342D",
"r.	c #151920",
"s.	c #050D16",
"t.	c #3B2E27",
"u.	c #5F4A3D",
"v.	c #2C2932",
"w.	c #555C7D",
"x.	c #3B2D26",
"y.	c #3D2F22",
"z.	c #88703F",
"A.	c #C4A35E",
"B.	c #D1AE64",
"C.	c #C0A05D",
"D.	c #806C42",
"E.	c #5C4A3D",
"F.	c #96745B",
"G.	c #AB8466",
"H.	c #AB8366",
"I.	c #AC8466",
"J.	c #A27D61",
"K.	c #715643",
"L.	c #1C181A",
"M.	c #000F1C",
"N.	c #242023",
"O.	c #362A24",
"P.	c #2F231C",
"Q.	c #22222E",
"R.	c #666F96",
"S.	c #454B66",
"T.	c #3D2F27",
"U.	c #413324",
"V.	c #9C8149",
"W.	c #E0BA6C",
"X.	c #EFC774",
"Y.	c #DCB76A",
"Z.	c #907742",
"`.	c #654C39",
" +	c #AA8365",
".+	c #C29675",
"++	c #C19573",
"@+	c #C09271",
"#+	c #B28666",
"$+	c #7C5B44",
"%+	c #1D1613",
"&+	c #000F1D",
"*+	c #101822",
"=+	c #090F16",
"-+	c #151824",
";+	c #444A66",
">+	c #575C7D",
",+	c #4F4A5B",
"'+	c #564338",
")+	c #403224",
"!+	c #977D47",
"~+	c #D9B569",
"{+	c #E8C170",
"]+	c #D5B167",
"^+	c #8C7440",
"/+	c #644C39",
"(+	c #A98265",
"_+	c #C29574",
":+	c #C09372",
"<+	c #BB8B6A",
"[+	c #AA795A",
"}+	c #75513A",
"|+	c #1C1514",
"1+	c #051624",
"2+	c #19202D",
"3+	c #181E2A",
"4+	c #0F151E",
"5+	c #0A0B13",
"6+	c #1F212F",
"7+	c #3E3842",
"8+	c #604D47",
"9+	c #3B2E22",
"0+	c #735F37",
"a+	c #A78B53",
"b+	c #B29458",
"c+	c #A28750",
"d+	c #685630",
"e+	c #AA8265",
"f+	c #C19574",
"g+	c #C09473",
"h+	c #BD8E6D",
"i+	c #AE8061",
"j+	c #78563F",
"k+	c #231E24",
"l+	c #252E42",
"m+	c #353B50",
"n+	c #343A4F",
"o+	c #272C3D",
"p+	c #181519",
"q+	c #584538",
"r+	c #6F5648",
"s+	c #352820",
"t+	c #2B251D",
"u+	c #453C2F",
"v+	c #564839",
"w+	c #574837",
"x+	c #332A1F",
"y+	c #B68B6C",
"z+	c #7E6048",
"A+	c #28252C",
"B+	c #323A51",
"C+	c #424861",
"D+	c #414760",
"E+	c #31364A",
"F+	c #231F23",
"G+	c #564337",
"H+	c #664F42",
"I+	c #32251F",
"J+	c #000011",
"K+	c #261C29",
"L+	c #71564A",
"M+	c #886854",
"N+	c #5A4436",
"O+	c #C29674",
"P+	c #B78D6E",
"Q+	c #80614A",
"R+	c #241F23",
"S+	c #222B3E",
"T+	c #32384C",
"U+	c #31374B",
"V+	c #252939",
"W+	c #221C1D",
"X+	c #231A1B",
"Y+	c #3F2D2E",
"Z+	c #937059",
"`+	c #AE8668",
" @	c #765A44",
".@	c #644B39",
"+@	c #B78D6D",
"@@	c #1E1816",
"#@	c #001221",
"$@	c #181F2B",
"%@	c #171F2A",
"&@	c #10161F",
"*@	c #1E1714",
"=@	c #413028",
"-@	c #937158",
";@	c #B18869",
">@	c #785B46",
",@	c #1E1715",
"'@	c #000E1D",
")@	c #141C27",
"!@	c #131C26",
"~@	c #0D131C",
"{@	c #1D1614",
"]@	c #544134",
"^@	c #84654E",
"/@	c #977459",
"(@	c #624B39",
"_@	c #AA8366",
":@	c #7E604A",
"<@	c #171112",
"[@	c #000A1D",
"}@	c #181A26",
"|@	c #121822",
"1@	c #282222",
"2@	c #44352C",
"3@	c #634C3C",
"4@	c #533F2F",
"5@	c #34251A",
"6@	c #A98264",
"7@	c #81634C",
"8@	c #2B1F1A",
"9@	c #160D1F",
"0@	c #1C1321",
"a@	c #1A1419",
"b@	c #48382F",
"c@	c #554236",
"d@	c #20110B",
"e@	c #593928",
"f@	c #7B5740",
"g@	c #916D53",
"h@	c #A88164",
"i@	c #BB9170",
"j@	c #BB9070",
"k@	c #9F7A5E",
"l@	c #775A46",
"m@	c #48352E",
"n@	c #2E2023",
"o@	c #48372F",
"p@	c #553C2C",
"q@	c #8D6247",
"r@	c #95674C",
"s@	c #674935",
"t@	c #B48A6B",
"u@	c #C19473",
"v@	c #BF9372",
"w@	c #BC9171",
"x@	c #A78064",
"y@	c #674E3C",
"z@	c #3E2F27",
"A@	c #6C5546",
"B@	c #755A46",
"C@	c #957157",
"D@	c #AE8163",
"E@	c #A2775A",
"F@	c #5D4331",
"G@	c #6B4D39",
"H@	c #AA7D5F",
"I@	c #C39675",
"J@	c #B08869",
"K@	c #6D533F",
"L@	c #423329",
"M@	c #614B3D",
"N@	c #614939",
"O@	c #967359",
"P@	c #BA8F6F",
"Q@	c #684531",
"R@	c #A37254",
"S@	c #B88767",
"T@	c #BF9271",
"U@	c #AF8768",
"V@	c #6C523F",
"W@	c #423229",
"X@	c #564336",
"Y@	c #735844",
"Z@	c #9B775C",
"`@	c #B2896A",
" #	c #674430",
".#	c #A37152",
"+#	c #B88766",
"@#	c #AF8769",
"##	c #6D523F",
"$#	c #3D2E25",
"%#	c #7E614A",
"&#	c #BE9170",
"*#	c #A77E61",
"=#	c #684A39",
"-#	c #613D2D",
";#	c #926449",
">#	c #AC7D5E",
",#	c #BA8C6C",
"'#	c #BE906F",
")#	c #AB8163",
"!#	c #6A4F3B",
"~#	c #3C2D24",
"{#	c #7F614A",
"]#	c #B88D6E",
"^#	c #A27155",
"/#	c #734739",
"(#	c #512924",
"_#	c #5E3D2C",
":#	c #8B6248",
"<#	c #AD7B5C",
"[#	c #B48060",
"}#	c #A17355",
"|#	c #644532",
"1#	c #382A21",
"2#	c #795943",
"3#	c #B18465",
"4#	c #BC8C6C",
"5#	c #B88868",
"6#	c #B37F5F",
"7#	c #A06C50",
"8#	c #784739",
"9#	c #502024",
"0#	c #441F1D",
"a#	c #704736",
"b#	c #936149",
"c#	c #9A664C",
"d#	c #8A5B44",
"e#	c #543627",
"f#	c #413128",
"g#	c #463428",
"h#	c #78543E",
"i#	c #A97758",
"j#	c #B27D5D",
"k#	c #AF7B5B",
"l#	c #AD7858",
"m#	c #9D694E",
"n#	c #774639",
"o#	c #5C282A",
"p#	c #5B2A29",
"q#	c #64332E",
"r#	c #6D3C34",
"s#	c #6F3E34",
"t#	c #63372E",
"u#	c #3E221C",
"v#	c #45352B",
"w#	c #695140",
"x#	c #83644D",
"y#	c #9E765A",
"z#	c #B28263",
"A#	c #AA7556",
"B#	c #9B674D",
"C#	c #875542",
"D#	c #6D3B33",
"E#	c #602B2C",
"F#	c #612C2C",
"G#	c #4F2123",
"H#	c #472422",
"I#	c #4F382F",
"J#	c #735A4A",
"K#	c #6B513D",
"L#	c #A98163",
"M#	c #BC8F6F",
"N#	c #BB8E6D",
"O#	c #B38262",
"P#	c #A16E51",
"Q#	c #82503F",
"R#	c #673430",
"S#	c #612D2D",
"T#	c #602C2C",
"U#	c #5C2A2A",
"V#	c #401B1B",
"W#	c #392821",
"X#	c #403128",
"Y#	c #674936",
"Z#	c #A77A5C",
"`#	c #B98766",
" $	c #B48363",
".$	c #A06F54",
"+$	c #845341",
"@$	c #5F2A2B",
"#$	c #5F2B2B",
"$$	c #5B2929",
"%$	c #3C1919",
"&$	c #5B3C2B",
"*$	c #94644A",
"=$	c #A57053",
"-$	c #9F6C50",
";$	c #865442",
">$	c #66342F",
",$	c #5F2B2C",
"'$	c #5B2A2A",
")$	c #3D1A1A",
"!$	c #362820",
"~$	c #44271E",
"{$	c #714335",
"]$	c #7E4C3C",
"^$	c #7A493B",
"/$	c #6E3C34",
"($	c #331414",
"_$	c #562627",
":$	c #562727",
"<$	c #572727",
"[$	c #331515",
"}$	c #534034",
"|$	c #432A24",
"1$	c #502726",
"2$	c #5A2929",
"3$	c #5F2C2B",
"4$	c #35271F",
"5$	c #5D473B",
"6$	c #402822",
"7$	c #471F1F",
"8$	c #372821",
"9$	c #341618",
"0$	c #512528",
"a$	c #5C2A2C",
"b$	c #5F2C2C",
"c$	c #592828",
"d$	c #4F2625",
"e$	c #492F28",
"f$	c #544035",
"g$	c #231016",
"h$	c #3C1E26",
"i$	c #51262A",
"j$	c #5D2B2B",
"k$	c #5E2B2B",
"l$	c #4A2121",
"m$	c #36201C",
"n$	c #594438",
"o$	c #1E0E16",
"p$	c #321A24",
"q$	c #3E1D23",
"r$	c #582828",
"s$	c #451E1E",
"t$	c #2C1E18",
"u$	c #1E0F16",
"v$	c #2D1823",
"w$	c #24121A",
"x$	c #2B1011",
"y$	c #4F2323",
"z$	c #461E1E",
"A$	c #2D1D18",
"B$	c #140C14",
"C$	c #1F151F",
"D$	c #0F0C14",
"E$	c #210B0C",
"F$	c #4E2222",
"G$	c #080A11",
"H$	c #0F121C",
"I$	c #010A13",
"J$	c #230C0D",
"K$	c #4E2322",
"L$	c #070A11",
"M$	c #0D111C",
"N$	c #000A12",
"O$	c #312622",
"P$	c #131318",
"Q$	c #00070E",
"R$	c #1D0A0C",
"S$	c #441E21",
"T$	c #54272A",
"U$	c #54272B",
"V$	c #55272B",
"W$	c #52262A",
"X$	c #3C1A1D",
"Y$	c #2A1C17",
"Z$	c #5D493C",
"`$	c #271D19",
" %	c #000103",
".%	c #10050A",
"+%	c #2A141F",
"@%	c #351B28",
"#%	c #361B28",
"$%	c #341A27",
"%%	c #25111B",
"&%	c #32251E",
"*%	c #070309",
"=%	c #1A0F1E",
"-%	c #221527",
";%	c #1F1224",
">%	c #180E1E",
",%	c #352826",
"'%	c #513F34",
")%	c #271C19",
"!%	c #1E121E",
"~%	c #231425",
"{%	c #231426",
"]%	c #1F121F",
"^%	c #281D1C",
"/%	c #6A5345",
"(%	c #352725",
"_%	c #160B18",
":%	c #503D32",
"<%	c #2D221B",
"[%	c #765C4D",
"}%	c #624C3F",
"                                                                                                                                ",
"                                                                                                                                ",
"                                                                              . + + @                                           ",
"                                                                            # $ % & * .                                         ",
"                                                                            = - ; > , ' .                                       ",
"                                                                            ) ! ~ { ] ^ / (                                     ",
"                                                                            _ : < [ } | 1 2 3                                   ",
"                                                                            3 4 5 6 7 8 9 0 a                                   ",
"                                                                                b c d e f g h i j                               ",
"                                                                      ( @ @ @ ( k l m n o p q r )                               ",
"                                                                      2 s t u u v w x y z A B C a                               ",
"                                                            + D D E F & G H I J K L M N O P Q R S                               ",
"                                                          E T U V W X Y Z `  ...+.@.#.$.%.P B R S                               ",
"                                                + &.*.=.-.;.>.,.'.).!.~.{.].^./.(._.:.<.[.P B R S                               ",
"                                                ) U }.|.1.2.3.4.5.` ` ` ` 6.7.8.9.0.a.b.c.P B R S                               ",
"                                                d.e.f.g.h.i.j.k.l.m.n.o.p.q.r.s.t.u.U v.w.P B x.S                               ",
"                                                d.y.z.A.B.C.D.E.F.G.H.I.J.K.L.M.N.O.P.Q.w.R.S.T.S                               ",
"                                                d.U.V.W.X.Y.Z.`. +.+++@+#+$+%+&+*+=+` -+;+>+,+'+_                               ",
"                                                d.)+!+~+{+]+^+/+(+_+:+<+[+}+|+1+2+3+4+5+6+7+8+F @                               ",
"                                                d.9+0+a+b+c+d+o.e+f+g+h+i+j+k+l+m+n+o+p+Y q+r+                                  ",
"                                                d.s+t+u+v+w+x+o. +f+g+++y+z+A+B+C+D+E+F+G+F                                     ",
"                                                H+I+J+K+L+M+N+o. +f+g+O+P+Q+R+S+T+U+V+W+& .                                     ",
"                                                S }.X+Y+Z+`+ @.@e+f+g+_++@Q+@@#@$@%@&@*@0.+                                     ",
"                                                D ;.: =@-@;@>@.@e+f+g+_++@Q+,@'@)@!@~@{@0.+                                     ",
"                                                  ( b ]@^@/@o.(@_@_+g+_++@:@<@[@}@|@1@2@$ .                                     ",
"                                                    E ) 3@4@5@.@6@g+g+_+P+7@8@9@0@a@b@;.D                                       ",
"                                                      + c@d@e@f@g@h@i@O+j@k@l@m@n@o@$ +                                         ",
"                                                    ( &.G+p@q@r@s@:@t@u@v@w@x@y@z@/ +                                           ",
"                                                    A@& B@C@D@E@F@G@H@h+:+I@J@K@L@=                                             ",
"                                                . -.M@N@O@P@g+6@m.Q@R@S@T@O+U@V@W@2                                             ",
"                                                2 X@Y@Z@`@g+.+_@o. #.#+#v@.+@###W@2                                             ",
"                                                d.$#%#+@O+:+&#*#=#-#;#>#,#'#)#!#W@2                                             ",
"                                                d.~#{#]#.+&#S@^#/#(#_#:#<#[#}#|#W@2                                             ",
"                                                b 1#2#3#4#5#6#7#8#9#0#a#b#c#d#e#f#)                                             ",
"                                              @ k g#h#i#j#k#l#m#n#o#p#q#r#s#t#u#v#=                                             ",
"                                            # $ w#x#y#z#6#A#B#C#D#E#F#E#o#G#H#I#s J#                                            ",
"                                            = - K#L#M#N#O#P#Q#R#S#T#T#F#U#V#W#$ +                                               ",
"                                            ) X#Y#Z#`# $.$+$D#@$#$T#T#S#$$%$s+b                                                 ",
"                                            2 W@&$*$=$-$;$>$,$T#T#T#T#F#'$)$!$d.                                                ",
"                                            2 W@~${$]$^$/$T##$T#T#T#T#F#'$)$!$d.                                                ",
"                                            2 W@($_$T#,$T#T#T#T#T#T#T#F#'$)$!$d.                                                ",
"                                            2 W@($:$T#,$T#T#T#T#T#T#T#F#'$)$!$d.                                                ",
"                                            2 W@($<$F#T#T#T#T#T#T#T#T#F#'$)$!$d.                                                ",
"                                            2 W@($<$F#T#T#T#T#T#T#T#T#F#'$)$!$d.                                                ",
"                                            2 W@($<$F#T#T#T#T#T#T#T#T#F#'$)$!$d.                                                ",
"                                            2 W@($<$F#T#T#T#T#T#T#T#T#F#'$)$!$d.                                                ",
"                                            2 f#[$<$S#T#T#T#T#T#T#T#T#F#'$)$!$d.                                                ",
"                                            *.}$|$1$2$3$T#T#T#T#T#T#T#S#U#)$4$d.                                                ",
"                                            + r+5$6$7$U#F#T#T#T#T#T#T#F#$$)$8$d.                                                ",
"                                                b s+9$0$a$T#T#T#T#T#b$c$d$e$f$2                                                 ",
"                                                d.s+g$h$i$j$T#T#T#F#k$l$m$n$=..                                                 ",
"                                                d.s+o$p$q$l$r$T#T#F#k$s$t$u.                                                    ",
"                                                d.s+u$v$w$x$y$T#T#F#k$z$A$u @                                                   ",
"                                                d.s+B$C$D$E$F$T#T#F#k$z$A$u @                                                   ",
"                                                d.l G$H$I$J$K$T#F#F#k$z$A$u @                                                   ",
"                                                d.l L$M$N$J$K$T#F#F#k$z$A$u @                                                   ",
"                                                4 : O$P$Q$R$S$T$U$V$W$X$Y$Z$@                                                   ",
"                                                + = G+`$ %.%+%@%@%#%$%%%8@u.@                                                   ",
"                                                    i v &%*%=%-%-%;%>%,%'%S (                                                   ",
"                                                    @ *.}$)%!%~%{%]%^%V *.@                                                     ",
"                                                      @ /%W (%_%_%(%W /%@                                                       ",
"                                                          _ :%<%<%:%_                                                           ",
"                                                          [%i }%}%i [%                                                          ",
"                                                                                                                                "};
