/* XPM */
static char * mining_up4_xpm[] = {
"64 64 405 2",
"  	c #785E4E",
". 	c #775D4D",
"+ 	c #735A4B",
"@ 	c #685143",
"# 	c #614B3E",
"$ 	c #604B3E",
"% 	c #765D4D",
"& 	c #695244",
"* 	c #4B3A30",
"= 	c #312620",
"- 	c #2F251F",
"; 	c #665042",
"> 	c #534339",
", 	c #373534",
"' 	c #222E32",
") 	c #765C4D",
"! 	c #49392F",
"~ 	c #2F2F2F",
"{ 	c #313D42",
"] 	c #35454B",
"^ 	c #735A4A",
"/ 	c #654E41",
"( 	c #514137",
"_ 	c #363534",
": 	c #2A383D",
"< 	c #35454A",
"[ 	c #3A4B51",
"} 	c #765C4C",
"| 	c #675143",
"1 	c #483831",
"2 	c #2E2E31",
"3 	c #323E43",
"4 	c #36474D",
"5 	c #38494F",
"6 	c #394A50",
"7 	c #715949",
"8 	c #634D3F",
"9 	c #51413D",
"0 	c #3C3844",
"a 	c #333B4A",
"b 	c #37464E",
"c 	c #394A4F",
"d 	c #6A5344",
"e 	c #46362C",
"f 	c #2E2B35",
"g 	c #3A3E54",
"h 	c #3F485D",
"i 	c #3C4A56",
"j 	c #3A4A52",
"k 	c #3C2E25",
"l 	c #181C28",
"m 	c #2E3346",
"n 	c #394155",
"o 	c #3F495B",
"p 	c #414C5E",
"q 	c #3E2F26",
"r 	c #090D14",
"s 	c #171D29",
"t 	c #2A3142",
"u 	c #3C4259",
"v 	c #434A63",
"w 	c #444B63",
"x 	c #04080D",
"y 	c #0E161F",
"z 	c #1F2534",
"A 	c #2E3347",
"B 	c #353B50",
"C 	c #363E53",
"D 	c #373F53",
"E 	c #373F54",
"F 	c #070C12",
"G 	c #121A23",
"H 	c #18202C",
"I 	c #1B232F",
"J 	c #1E2734",
"K 	c #212D38",
"L 	c #232F3A",
"M 	c #232F3B",
"N 	c #0A1116",
"O 	c #16212A",
"P 	c #1B2731",
"Q 	c #1A2730",
"R 	c #1A262E",
"S 	c #19252E",
"T 	c #19242D",
"U 	c #0C1218",
"V 	c #1A242C",
"W 	c #202C35",
"X 	c #202D36",
"Y 	c #1E2A34",
"Z 	c #1A242E",
"` 	c #17212B",
" .	c #17202B",
"..	c #1A242D",
"+.	c #070A14",
"@.	c #131826",
"#.	c #1A2330",
"$.	c #1E2B35",
"%.	c #1F2D36",
"&.	c #1D2A33",
"*.	c #1C2831",
"=.	c #212C36",
"-.	c #222631",
";.	c #1D1C28",
">.	c #0E0D15",
",.	c #3F3027",
"'.	c #261716",
").	c #422B2A",
"!.	c #453133",
"~.	c #312E34",
"{.	c #1F2B35",
"].	c #1E2A35",
"^.	c #1F2A34",
"/.	c #202631",
"(.	c #201C29",
"_.	c #1A101E",
":.	c #0A040E",
"<.	c #482E21",
"[.	c #79513D",
"}.	c #7B5442",
"|.	c #4F3836",
"1.	c #191D2D",
"2.	c #141B2D",
"3.	c #171928",
"4.	c #120F1D",
"5.	c #04010E",
"6.	c #000000",
"7.	c #715849",
"8.	c #665041",
"9.	c #5B4536",
"0.	c #75543F",
"a.	c #9C6F52",
"b.	c #9D6E53",
"c.	c #745041",
"d.	c #523633",
"e.	c #503532",
"f.	c #492F2C",
"g.	c #361E1D",
"h.	c #37231B",
"i.	c #4A3629",
"j.	c #685142",
"k.	c #6F5748",
"l.	c #584538",
"m.	c #654E3D",
"n.	c #8D6C54",
"o.	c #A67F61",
"p.	c #B48768",
"q.	c #B18263",
"r.	c #9C6E54",
"s.	c #8F6149",
"t.	c #8E6149",
"u.	c #8F614A",
"v.	c #8F624A",
"w.	c #90624A",
"x.	c #815541",
"y.	c #643B30",
"z.	c #6B473A",
"A.	c #8E6A53",
"B.	c #674F3E",
"C.	c #705748",
"D.	c #675041",
"E.	c #604939",
"F.	c #7F614A",
"G.	c #AB8466",
"H.	c #BF9372",
"I.	c #C09473",
"J.	c #BC8E6D",
"K.	c #B48363",
"L.	c #AF7C5D",
"M.	c #AF7C5C",
"N.	c #AE7B5B",
"O.	c #AD7858",
"P.	c #AB7656",
"Q.	c #B07D5D",
"R.	c #9F6D53",
"S.	c #7B4B3D",
"T.	c #825747",
"U.	c #AB8165",
"V.	c #80624B",
"W.	c #6E5647",
"X.	c #574337",
"Y.	c #674F3D",
"Z.	c #906E55",
"`.	c #A98265",
" +	c #BA8F6F",
".+	c #C19574",
"++	c #BF9271",
"@+	c #BB8C6B",
"#+	c #B88767",
"$+	c #B27D5D",
"%+	c #AE7857",
"&+	c #BC8D6C",
"*+	c #A97C5F",
"=+	c #815444",
"-+	c #845848",
";+	c #AE8366",
">+	c #AA8365",
",+	c #403127",
"'+	c #664E3B",
")+	c #A68063",
"!+	c #BF9373",
"~+	c #C19473",
"{+	c #BB8D6C",
"]+	c #B27F5F",
"^+	c #AD7757",
"/+	c #BD9170",
"(+	c #B58A6B",
"_+	c #A0755C",
":+	c #7B5042",
"<+	c #AD8266",
"[+	c #3D2F26",
"}+	c #674E3B",
"|+	c #A78164",
"1+	c #C09574",
"2+	c #BB8D6D",
"3+	c #B38060",
"4+	c #B4896B",
"5+	c #986F58",
"6+	c #7D5143",
"7+	c #6B3B35",
"8+	c #C29574",
"9+	c #755B4C",
"0+	c #674F40",
"a+	c #654D3C",
"b+	c #84654D",
"c+	c #AE8567",
"d+	c #C19573",
"e+	c #BD8F6F",
"f+	c #835848",
"g+	c #5F2A2B",
"h+	c #AD8366",
"i+	c #6D5546",
"j+	c #534034",
"k+	c #684E3D",
"l+	c #947258",
"m+	c #AE8668",
"n+	c #BA906F",
"o+	c #BC8F6E",
"p+	c #B68565",
"q+	c #5D2729",
"r+	c #5E282A",
"s+	c #684F3C",
"t+	c #A88164",
"u+	c #825848",
"v+	c #5E292B",
"w+	c #A78063",
"x+	c #6D5547",
"y+	c #554136",
"z+	c #927056",
"A+	c #AC8466",
"B+	c #AE8367",
"C+	c #5E292A",
"D+	c #755C4C",
"E+	c #664F41",
"F+	c #624B3A",
"G+	c #81634C",
"H+	c #AD8567",
"I+	c #664D3B",
"J+	c #B78A6A",
"K+	c #A57458",
"L+	c #A37156",
"M+	c #B38364",
"N+	c #BB8C6C",
"O+	c #B17D5D",
"P+	c #AE7757",
"Q+	c #AD7A5B",
"R+	c #AA7C60",
"S+	c #9A7058",
"T+	c #784C40",
"U+	c #695243",
"V+	c #B08467",
"W+	c #8D604C",
"X+	c #875643",
"Y+	c #A27054",
"Z+	c #B07C5D",
"`+	c #AF7B5B",
" @	c #AC7657",
".@	c #AC7656",
"+@	c #A16E52",
"@@	c #895B47",
"#@	c #74473C",
"$@	c #673632",
"%@	c #602B2C",
"&@	c #3D2E25",
"*@	c #815647",
"=@	c #713F35",
"-@	c #8A5843",
";@	c #97644A",
">@	c #98644B",
",@	c #97644B",
"'@	c #98654B",
")@	c #8B5944",
"!@	c #703F35",
"~@	c #602C2C",
"{@	c #413228",
"]@	c #674E3C",
"^@	c #A57F62",
"/@	c #65322F",
"(@	c #6C3932",
"_@	c #714036",
":@	c #724036",
"<@	c #6D3B33",
"[@	c #65322E",
"}@	c #5A4639",
"|@	c #8B6B53",
"1@	c #B98E6E",
"2@	c #AF8467",
"3@	c #5F2B2C",
"4@	c #5D272A",
"5@	c #72594A",
"6@	c #584334",
"7@	c #795C47",
"8@	c #AB8064",
"9@	c #4D3A2B",
"0@	c #82634C",
"a@	c #8B6750",
"b@	c #73493C",
"c@	c #5F2B2B",
"d@	c #231911",
"e@	c #3E2E22",
"f@	c #4F342A",
"g@	c #5A2F2B",
"h@	c #010004",
"i@	c #0B000D",
"j@	c #2B0E1A",
"k@	c #461F25",
"l@	c #55282A",
"m@	c #5D2B2C",
"n@	c #612C2C",
"o@	c #16090F",
"p@	c #29151E",
"q@	c #331B25",
"r@	c #381D27",
"s@	c #462229",
"t@	c #56282B",
"u@	c #5E2B2C",
"v@	c #5E2B2B",
"w@	c #5D2B2B",
"x@	c #5D2A2A",
"y@	c #180A11",
"z@	c #2C1721",
"A@	c #341C27",
"B@	c #331C27",
"C@	c #3B1E28",
"D@	c #492329",
"E@	c #4F252A",
"F@	c #4F262A",
"G@	c #4D2427",
"H@	c #482021",
"I@	c #451E1E",
"J@	c #180A10",
"K@	c #361C27",
"L@	c #391E27",
"M@	c #381D26",
"N@	c #341C23",
"O@	c #2F1C1B",
"P@	c #2C1B16",
"Q@	c #2F1924",
"R@	c #26141D",
"S@	c #352523",
"T@	c #4C3B31",
"U@	c #584438",
"V@	c #2D1721",
"W@	c #1B0C13",
"X@	c #745B4C",
"Y@	c #2C1720",
"Z@	c #17090F",
"`@	c #351C27",
" #	c #170910",
".#	c #2A1621",
"+#	c #321B27",
"@#	c #130810",
"##	c #241321",
"$#	c #2B1827",
"%#	c #241421",
"&#	c #0F0710",
"*#	c #1F1121",
"=#	c #251527",
"-#	c #241526",
";#	c #221424",
">#	c #231520",
",#	c #2C201E",
"'#	c #4B3A2F",
")#	c #6B5345",
"!#	c #0E0610",
"~#	c #1E1121",
"{#	c #241527",
"]#	c #241528",
"^#	c #201223",
"/#	c #180D1B",
"(#	c #332523",
"_#	c #544136",
":#	c #675042",
"<#	c #6B5445",
"[#	c #4D3B30",
"}#	c #2F2220",
"|#	c #231721",
"1#	c #4C3B30",
"2#	c #564237",
"3#	c #342624",
"4#	c #120814",
"5#	c #745B4B",
"6#	c #775D4E",
"7#	c #4E3C31",
"8#	c #362821",
"                                                                                                                                ",
"                                                                                                                                ",
"                                                                                                                                ",
"                                                                                                                                ",
"                                                                                                                                ",
"                                                                                                                                ",
"                                                        . . . . . . . .                                                         ",
"                                                      + @ # $ # # $ # @ +                                                       ",
"                                                    % & * = - = = - = * & %                                                     ",
"                                                  + ; > , ' ' ' ' ' ' , > ; +                                                   ",
"                                                ) @ ! ~ { ] ] ] ] ] ] { ~ ! @ )                                                 ",
"                                              ^ / ( _ : < [ [ [ [ [ [ < : _ ( / ^                                               ",
"                                            } | 1 2 3 4 5 6 6 6 6 6 6 5 4 3 2 1 | }                                             ",
"                                          7 8 9 0 a b 6 6 c c c c c c 6 6 b a 0 9 8 7                                           ",
"                                          d e f g h i j j j j j j j j j j i h g f e d                                           ",
"                                          @ k l m n o p p p p p p p p p p o n m l k @                                           ",
"                                          @ q r s t u v w w w w w w w w v u t s r q @                                           ",
"                                          @ q x y z A B C D E D D E D C B A z y x q @                                           ",
"                                          @ q F G H I J K L M L L M L K J I H G F q @                                           ",
"                                          @ q N O P Q R S T T T T T T S R Q P O N q @                                           ",
"                                          @ q U V W X Y Z `  .` `  .` Z Y X W ..U q @                                           ",
"                                          @ q +.@.#.$.%.&.*.*.*.*.*.*.&.%.=.-.;.>.q @                                           ",
"                                          @ ,.'.).!.~.{.].^.^.^.^.^.^.{.{./.(._.:.,.@                                           ",
"                                          & ,.<.[.}.|.1.2.1.1.1.1.1.1.1.1.3.4.5.6.,.&                                           ",
"                                      % 7.8.9.0.a.b.c.d.e.d.d.d.d.d.d.d.d.f.g.h.i.9.j.7.%                                       ",
"                                      k.l.m.n.o.p.q.r.s.t.u.v.v.v.v.u.w.s.x.y.z.A.n.B.l.k.                                      ",
"                                  } C.D.E.F.G.H.I.J.K.L.M.N.O.P.P.O.N.Q.Q.R.S.T.U.G.V.E.D.C.}                                   ",
"                                  W.X.Y.Z.`. +.+.+++J.@+@+#+$+%+%+$+#+&+&+*+=+-+;+ +>+Z.Y.X.W.                                  ",
"                                  & ,+'+)+!+~+I.I.I.I.I.I.{+]+^+^+]+{+/+(+_+:+T.<+~+I.)+'+,+&                                   ",
"                                  @ [+}+|+.+.+I.I.I.I.1+I.2+]+^+^+3+2+4+5+6+7+T.<+.+8+|+}+[+@                                   ",
"                              9+W.0+a+b+c+I.d+++e+e+++I.I.2+]+^+^+3+2+;+f+g+g+T.h+d+d+c+b+a+0+W.9+                              ",
"                              i+j+k+l+m+n+I.I.o+p+p+o+I.I.2+]+^+^+3+2+<+T.q+r+T.h+I.d+n+m+l+k+j+i+                              ",
"                              @ [+s+t+d+.+I.I.{+]+]+{+I.I.2+]+^+^+3+2+h+u+v+v+T.h+I.d+.+d+t+s+[+@                               ",
"                              @ q s+w+I..+I.I.{+]+]+{+I.I.2+]+^+^+3+2+h+u+v+v+T.h+I.d+.+I.w+s+q @                               ",
"                              x+y+B.z+A+ +I.I.{+3+3+2+1+1+2+]+^+^+3+J.B+f+v+C+T.h+I.d+ +A+z+B.y+x+                              ",
"                              D+k.E+F+G+H+I.d+{+]+]+{+I.I.{+]+^+^+3+{+<+T.v+v+T.h+d+d+H+G+F+E+k.D+                              ",
"                                  & ,.I+w+I..+J+K+L+M+@+N+#+O+%+P+Q+R+S+T+v+g+T.h+.+d+w+I+,.&                                   ",
"                                  U+,.}+w+d+.+V+W+X+Y+Z+Q.`+O. @.@+@@@#@$@v+%@T.h+.+d+w+}+,.U+                                  ",
"                                  @ &@s+t+8+.+<+*@=@-@;@>@,@,@'@,@)@!@C+g+v+~@T.h+.+8+t+s+&@@                                   ",
"                                  & {@]@^@H.I.h+T./@(@_@:@_@:@:@:@<@[@%@%@v+~@T.h+I.H.^@]@{@&                                   ",
"                                  k.}@B.|@w+1@2@f+3@4@v+v+v+v+v+v+g+3@~@~@C+~@f+2@1@w+|@B.}@k.                                  ",
"                                  % 5@8.6@7@t+8@T.~@C+~@~@~@~@~@~@~@~@~@~@v+~@T.8@t+7@6@8.5@%                                   ",
"                                      & ,.9@0@a@b@~@c@~@~@~@~@~@~@~@~@~@~@c@~@b@a@0@9@,.&                                       ",
"                                      @ q d@e@f@g@3@~@~@~@~@~@~@~@~@~@~@~@~@3@g@f@e@d@q @                                       ",
"                                      @ q h@i@j@k@l@m@n@n@n@n@n@n@n@n@n@n@m@l@k@j@i@h@q @                                       ",
"                                      @ q o@p@q@r@s@t@u@u@v@w@x@x@w@v@u@u@t@s@r@q@p@o@q @                                       ",
"                                      @ q y@z@A@B@C@D@E@F@G@H@I@I@H@G@F@E@D@C@B@A@z@y@q @                                       ",
"                                      @ q J@z@A@A@K@r@L@M@N@O@P@P@O@N@M@L@r@K@A@A@z@J@q @                                       ",
"                                      @ q J@z@A@A@A@B@Q@R@S@T@U@U@T@S@R@Q@B@A@A@A@z@J@q @                                       ",
"                                      @ q J@z@A@A@A@A@V@W@q / X@X@/ q W@V@A@A@A@A@z@J@q @                                       ",
"                                      @ q J@z@A@A@A@A@Y@Z@,.&     & ,.Z@Y@A@A@A@A@z@J@q @                                       ",
"                                      @ q J@z@A@A@A@A@z@J@q @     @ q J@z@A@A@A@A@z@J@q @                                       ",
"                                      @ q J@z@A@`@`@A@z@J@q @     @ q J@z@A@`@`@A@z@J@q @                                       ",
"                                      @ q  #.#+#+#+#+#.# #q @     @ q  #.#+#+#+#+#.# #q @                                       ",
"                                      @ q @###$#$#$#$#%#@#&@@     @ &@@#%#$#$#$#$###@#q @                                       ",
"                                      @ q &#*#=#=#-#;#>#,#'#)#    )#'#,#>#;#-#=#=#*#&#q @                                       ",
"                                      @ &@!#~#{#]#^#/#(#_#:#^     ^ :#_#(#/#^#]#{#~#!#&@@                                       ",
"                                      <#[#}#|#^#^#|#}#1#d .         . d 1#}#|#^#^#|#}#[#<#                                      ",
"                                      + & 2#3#4#4#3#2#& 5#            5#& 2#3#4#4#3#2#& +                                       ",
"                                        6#)#7#8#8#7#)#6#                6#)#7#8#8#7#)#6#                                        ",
"                                          5#)#/ / )#5#                    5#)#/ / )#5#                                          ",
"                                                                                                                                ",
"                                                                                                                                ",
"                                                                                                                                "};
