/* XPM */
static char * player_right5_xpm[] = {
"64 64 707 2",
"  	c #785E4E",
". 	c #745B4C",
"+ 	c #6D5546",
"@ 	c #6A5244",
"# 	c #6A5344",
"$ 	c #6F5748",
"% 	c #775D4D",
"& 	c #6B5345",
"* 	c #4B3A2F",
"= 	c #392B23",
"- 	c #3B2D25",
"; 	c #3B2E25",
"> 	c #3A2D24",
", 	c #3C2E25",
"' 	c #564337",
") 	c #72594A",
"! 	c #755C4C",
"~ 	c #534136",
"{ 	c #292120",
"] 	c #0B1218",
"^ 	c #10191F",
"/ 	c #192328",
"( 	c #1F2A2E",
"_ 	c #202A2E",
": 	c #3E3834",
"< 	c #5D4A3E",
"[ 	c #6F5648",
"} 	c #775D4E",
"| 	c #4B3A30",
"1 	c #261F1E",
"2 	c #181B23",
"3 	c #17212B",
"4 	c #1F2B34",
"5 	c #2B3A41",
"6 	c #344449",
"7 	c #35454B",
"8 	c #35444A",
"9 	c #303A3E",
"0 	c #332C28",
"a 	c #584538",
"b 	c #765D4D",
"c 	c #765C4D",
"d 	c #685143",
"e 	c #513F34",
"f 	c #2E2623",
"g 	c #0E151E",
"h 	c #141C26",
"i 	c #1A252F",
"j 	c #223038",
"k 	c #304047",
"l 	c #394A50",
"m 	c #3A4B51",
"n 	c #3A4B50",
"o 	c #38494E",
"p 	c #26383E",
"q 	c #020116",
"r 	c #3C2D25",
"s 	c #594539",
"t 	c #5F4A3D",
"u 	c #705849",
"v 	c #6E5647",
"w 	c #4E3D32",
"x 	c #221C1B",
"y 	c #131821",
"z 	c #141C27",
"A 	c #151D28",
"B 	c #19242E",
"C 	c #212F38",
"D 	c #2F3F46",
"E 	c #38494F",
"F 	c #3B4C54",
"G 	c #404F5A",
"H 	c #474C4F",
"I 	c #4E4430",
"J 	c #544423",
"K 	c #524226",
"L 	c #3A2E1A",
"M 	c #3D2F25",
"N 	c #675143",
"O 	c #4E3C32",
"P 	c #2F2623",
"Q 	c #0D141C",
"R 	c #111923",
"S 	c #131B26",
"T 	c #131C26",
"U 	c #17232C",
"V 	c #202E37",
"W 	c #2F3F45",
"X 	c #384A4F",
"Y 	c #425262",
"Z 	c #596480",
"` 	c #877D7D",
" .	c #AF9361",
"..	c #BA9A56",
"+.	c #AE9052",
"@.	c #786337",
"#.	c #3A2D21",
"$.	c #664F42",
"%.	c #765C4C",
"&.	c #5A4639",
"*.	c #241D1B",
"=.	c #1A1F2C",
"-.	c #242A3A",
";.	c #252B3B",
">.	c #242B3B",
",.	c #272F3E",
"'.	c #2B3644",
").	c #35424E",
"!.	c #3B4A54",
"~.	c #47556B",
"{.	c #636C8E",
"].	c #A4938E",
"^.	c #DAB776",
"/.	c #EAC26F",
"(.	c #DCB76A",
"_.	c #997E47",
":.	c #403224",
"<.	c #665042",
"[.	c #221D20",
"}.	c #2E3346",
"|.	c #3D435A",
"1.	c #3E445C",
"2.	c #3D435B",
"3.	c #3F465D",
"4.	c #414960",
"5.	c #434C62",
"6.	c #454F6A",
"7.	c #555B79",
"8.	c #9F8C7B",
"9.	c #DDB973",
"0.	c #EEC672",
"a.	c #DFBA6B",
"b.	c #9B8049",
"c.	c #413224",
"d.	c #241E22",
"e.	c #3C425B",
"f.	c #383F5A",
"g.	c #3C425A",
"h.	c #82715C",
"i.	c #BB9C60",
"j.	c #CBA962",
"k.	c #BF9F5D",
"l.	c #846D3E",
"m.	c #3E3023",
"n.	c #201919",
"o.	c #242A3B",
"p.	c #272A3B",
"q.	c #302A3B",
"r.	c #322B3B",
"s.	c #312F3C",
"t.	c #4E453D",
"u.	c #6B5A3F",
"v.	c #715F3F",
"w.	c #68583A",
"x.	c #463A25",
"y.	c #372A21",
"z.	c #584438",
"A.	c #1A1412",
"B.	c #0C131B",
"C.	c #121B26",
"D.	c #161A25",
"E.	c #1A1825",
"F.	c #141524",
"G.	c #34252A",
"H.	c #614237",
"I.	c #785443",
"J.	c #7E604C",
"K.	c #806451",
"L.	c #7B5F4F",
"M.	c #5C4740",
"N.	c #1C1728",
"O.	c #000012",
"P.	c #32251F",
"Q.	c #5C473B",
"R.	c #2B211C",
"S.	c #12161D",
"T.	c #161C28",
"U.	c #161D28",
"V.	c #171C28",
"W.	c #1C1A28",
"X.	c #221727",
"Y.	c #180F26",
"Z.	c #493030",
"`.	c #895D47",
" +	c #A9785A",
".+	c #B48869",
"++	c #B98F6F",
"@+	c #B48B6C",
"#+	c #8B6A56",
"$+	c #3D2C2D",
"%+	c #0E0914",
"&+	c #6C5445",
"*+	c #574438",
"=+	c #392D28",
"-+	c #15151D",
";+	c #1A1724",
">+	c #1E1928",
",+	c #211727",
"'+	c #241527",
")+	c #190C25",
"!+	c #4D3231",
"~+	c #91634A",
"{+	c #B37F5F",
"]+	c #BE906E",
"^+	c #C49775",
"/+	c #C09473",
"(+	c #937158",
"_+	c #42302B",
":+	c #44342B",
"<+	c #4C3B30",
"[+	c #130C11",
"}+	c #190E1D",
"|+	c #201325",
"1+	c #221426",
"2+	c #231427",
"3+	c #180C25",
"4+	c #4C3231",
"5+	c #90624A",
"6+	c #B17E5E",
"7+	c #BC8E6D",
"8+	c #BD9271",
"9+	c #B2896A",
"0+	c #85664E",
"a+	c #3F2F25",
"b+	c #755B4C",
"c+	c #735A4B",
"d+	c #4F3D32",
"e+	c #0E0908",
"f+	c #00000A",
"g+	c #080017",
"h+	c #170922",
"i+	c #1C0E25",
"j+	c #1D1026",
"k+	c #120925",
"l+	c #B27F5F",
"m+	c #AC8467",
"n+	c #81624C",
"o+	c #523E2E",
"p+	c #31251C",
"q+	c #735A4A",
"r+	c #2B1F17",
"s+	c #533E2F",
"t+	c #644C3C",
"u+	c #664D41",
"v+	c #64483F",
"w+	c #5D3E37",
"x+	c #482C2E",
"y+	c #573632",
"z+	c #91624A",
"A+	c #B17D5D",
"B+	c #B88968",
"C+	c #A37A5D",
"D+	c #6C4D38",
"E+	c #3A2417",
"F+	c #2A1E17",
"G+	c #5E493C",
"H+	c #4E3C31",
"I+	c #503C2D",
"J+	c #916F56",
"K+	c #AB8466",
"L+	c #AB8367",
"M+	c #A57A5F",
"N+	c #996A50",
"O+	c #7A4C3D",
"P+	c #6C3F35",
"Q+	c #95634B",
"R+	c #AE7959",
"S+	c #AB7859",
"T+	c #996A4D",
"U+	c #704C36",
"V+	c #3A281E",
"W+	c #5D493C",
"X+	c #654D3F",
"Y+	c #644635",
"Z+	c #805C44",
"`+	c #AD8466",
" @	c #C29674",
".@	c #C19573",
"+@	c #BA8B6A",
"@@	c #AC7758",
"#@	c #895642",
"$@	c #754539",
"%@	c #9C6D53",
"&@	c #B38261",
"*@	c #B48262",
"=@	c #B58362",
"-@	c #B28161",
";@	c #986C50",
">@	c #714E39",
",@	c #634839",
"'@	c #675042",
")@	c #4C3629",
"!@	c #825841",
"~@	c #A77759",
"{@	c #B98B6B",
"]@	c #C19574",
"^@	c #AC7859",
"/@	c #895743",
"(@	c #774A3D",
"_@	c #A4795E",
":@	c #BD906F",
"<@	c #BE9170",
"[@	c #BD8F6F",
"}@	c #B28363",
"|@	c #9D6D50",
"1@	c #6E4B36",
"2@	c #47362B",
"3@	c #695244",
"4@	c #3E2C20",
"5@	c #8E674D",
"6@	c #B78867",
"7@	c #BF9170",
"8@	c #BD8F6E",
"9@	c #B38364",
"0@	c #8E604B",
"a@	c #784C3F",
"b@	c #A67C61",
"c@	c #C09372",
"d@	c #BA8968",
"e@	c #A87456",
"f@	c #704B35",
"g@	c #35271F",
"h@	c #715949",
"i@	c #5B4639",
"j@	c #5C4535",
"k@	c #9A765B",
"l@	c #BD9171",
"m@	c #C19473",
"n@	c #BA8E6E",
"o@	c #946A54",
"p@	c #794D40",
"q@	c #A57B61",
"r@	c #BF9372",
"s@	c #B98868",
"t@	c #A77455",
"u@	c #79513A",
"v@	c #4D3629",
"w@	c #644D3F",
"x@	c #745B4B",
"y@	c #6C5446",
"z@	c #5A4538",
"A@	c #765A46",
"B@	c #99755B",
"C@	c #BF9473",
"D@	c #966C56",
"E@	c #794D41",
"F@	c #A67B61",
"G@	c #B88868",
"H@	c #AB7758",
"I@	c #99684C",
"J@	c #815841",
"K@	c #624737",
"L@	c #715849",
"M@	c #6A5345",
"N@	c #544135",
"O@	c #4C3A2F",
"P@	c #564236",
"Q@	c #634D40",
"R@	c #403026",
"S@	c #86674F",
"T@	c #B88E6E",
"U@	c #BC9070",
"V@	c #B08568",
"W@	c #8D624F",
"X@	c #774A3E",
"Y@	c #A3775D",
"Z@	c #BC8F6E",
"`@	c #BC8E6E",
" #	c #B68564",
".#	c #AD7757",
"+#	c #9C6B4E",
"@#	c #61412F",
"##	c #45352B",
"$#	c #604A3D",
"%#	c #2B211F",
"&#	c #232737",
"*#	c #403C4A",
"=#	c #5E4C48",
"-#	c #705748",
";#	c #624C3F",
">#	c #3D2E24",
",#	c #876750",
"'#	c #BB9070",
")#	c #AC8165",
"!#	c #8B604D",
"~#	c #6F4239",
"{#	c #724238",
"]#	c #9C6C52",
"^#	c #B28060",
"/#	c #B38160",
"(#	c #B38060",
"_#	c #B07C5C",
":#	c #AD7858",
"<#	c #AF7858",
"[#	c #9E6C4F",
"}#	c #61412E",
"|#	c #423229",
"1#	c #2B262C",
"2#	c #474D6A",
"3#	c #5A6082",
"4#	c #4E4B5D",
"5#	c #534034",
"6#	c #624D3F",
"7#	c #3E2E24",
"8#	c #87674F",
"9#	c #BA8F6F",
"0#	c #C29574",
"a#	c #BB8F70",
"b#	c #AE8367",
"c#	c #926853",
"d#	c #6A3B34",
"e#	c #5B2328",
"f#	c #6F3D34",
"g#	c #98654B",
"h#	c #B38161",
"i#	c #AE7858",
"j#	c #B27E5E",
"k#	c #A47558",
"l#	c #654734",
"m#	c #43342A",
"n#	c #4D3E3C",
"o#	c #54546E",
"p#	c #5B6386",
"q#	c #4D5372",
"r#	c #494657",
"s#	c #5E4D48",
"t#	c #6D5547",
"u#	c #895F4D",
"v#	c #6E3F37",
"w#	c #62302E",
"x#	c #5D272A",
"y#	c #6E3D34",
"z#	c #97634A",
"A#	c #AF7C5C",
"B#	c #B98A69",
"C#	c #B58464",
"D#	c #B78666",
"E#	c #AA8063",
"F#	c #6A4F3C",
"G#	c #413228",
"H#	c #6A5347",
"I#	c #524446",
"J#	c #3F435B",
"K#	c #596083",
"L#	c #5D6386",
"M#	c #454252",
"N#	c #AB8165",
"O#	c #784C40",
"P#	c #5C2428",
"Q#	c #602C2C",
"R#	c #5F2A2B",
"S#	c #693731",
"T#	c #845240",
"U#	c #9E6C52",
"V#	c #B28263",
"W#	c #BA8A6A",
"X#	c #B48464",
"Y#	c #A77D5F",
"Z#	c #8B6B52",
"`#	c #543F30",
" $	c #32261E",
".$	c #554236",
"+$	c #604B3E",
"@$	c #2D2E3F",
"#$	c #5D6589",
"$$	c #646C92",
"%$	c #393E56",
"&$	c #47362C",
"*$	c #AA7F63",
"=$	c #774C3F",
"-$	c #5B2628",
";$	c #612E2D",
">$	c #66332F",
",$	c #7E4D3E",
"'$	c #9F6C51",
")$	c #B08567",
"!$	c #84644D",
"~$	c #423124",
"{$	c #1C130D",
"]$	c #130D09",
"^$	c #231A14",
"/$	c #281D17",
"($	c #261C15",
"_$	c #17100C",
":$	c #2D2F41",
"<$	c #636B91",
"[$	c #393D55",
"}$	c #48372D",
"|$	c #3C2D23",
"1$	c #886850",
"2$	c #C39675",
"3$	c #BF9271",
"4$	c #9F7257",
"5$	c #654133",
"6$	c #4C1E21",
"7$	c #5D2B2B",
"8$	c #612C2C",
"9$	c #602B2C",
"0$	c #5E292B",
"a$	c #6A3832",
"b$	c #82503E",
"c$	c #8B5843",
"d$	c #8A5944",
"e$	c #8B624B",
"f$	c #83634C",
"g$	c #5A4534",
"h$	c #1B120E",
"i$	c #170E0B",
"j$	c #201610",
"k$	c #1B0D00",
"l$	c #353444",
"m$	c #5F668A",
"n$	c #664F41",
"o$	c #49382C",
"p$	c #81634C",
"q$	c #B08769",
"r$	c #BE906F",
"s$	c #986B4F",
"t$	c #533728",
"u$	c #3A1418",
"v$	c #5B2A2A",
"w$	c #64312E",
"x$	c #66322F",
"y$	c #63312E",
"z$	c #502A25",
"A$	c #301F17",
"B$	c #271C15",
"C$	c #281C16",
"D$	c #251601",
"E$	c #3A3645",
"F$	c #60668A",
"G$	c #695140",
"H$	c #7F614A",
"I$	c #A78164",
"J$	c #BF9272",
"K$	c #BE8F6E",
"L$	c #A0775B",
"M$	c #553E2E",
"N$	c #361015",
"O$	c #5B2929",
"P$	c #612D2D",
"Q$	c #5C292A",
"R$	c #43191C",
"S$	c #060000",
"T$	c #000201",
"U$	c #180F0B",
"V$	c #19100C",
"W$	c #18100B",
"X$	c #120400",
"Y$	c #323243",
"Z$	c #614C3F",
"`$	c #564234",
" %	c #8B6A52",
".%	c #A98264",
"+%	c #AB8366",
"@%	c #4E3A2B",
"#%	c #381216",
"$%	c #5D2A2A",
"%%	c #562727",
"&%	c #4A2925",
"*%	c #3D2C24",
"=%	c #3B2D24",
"-%	c #3A2C23",
";%	c #281E17",
">%	c #2B2E40",
",%	c #636B92",
"'%	c #393E55",
")%	c #695243",
"!%	c #644D3D",
"~%	c #644C3A",
"{%	c #634B39",
"]%	c #533F2F",
"^%	c #2C1F16",
"/%	c #3C1819",
"(%	c #5B292A",
"_%	c #522525",
":%	c #3B1C1B",
"<%	c #503B31",
"[%	c #49382E",
"}%	c #303243",
"|%	c #5D6488",
"1%	c #48382D",
"2%	c #4A392E",
"3%	c #3E2F26",
"4%	c #1D1510",
"5%	c #3D1919",
"6%	c #4E2222",
"7%	c #2A1613",
"8%	c #644F45",
"9%	c #544B57",
"0%	c #4B4F6B",
"a%	c #555C7E",
"b%	c #575B7A",
"c%	c #4E454F",
"d%	c #5D483B",
"e%	c #5D483C",
"f%	c #34241E",
"g%	c #3F1B1B",
"h%	c #5F2B2C",
"i%	c #4C2222",
"j%	c #2A1714",
"k%	c #3F3437",
"l%	c #525574",
"m%	c #5F678B",
"n%	c #494E6C",
"o%	c #463E45",
"p%	c #655046",
"q%	c #745A4B",
"r%	c #654F41",
"s%	c #543D33",
"t%	c #482824",
"u%	c #502424",
"v%	c #5E2B2B",
"w%	c #5D2B2C",
"x%	c #53272A",
"y%	c #3F1D20",
"z%	c #251513",
"A%	c #242026",
"B%	c #3E435C",
"C%	c #534A56",
"D%	c #391D1C",
"E%	c #552726",
"F%	c #5F2B2B",
"G%	c #59292B",
"H%	c #442128",
"I%	c #2C161E",
"J%	c #1F1312",
"K%	c #614B3E",
"L%	c #352922",
"M%	c #634E44",
"N%	c #48382F",
"O%	c #2C1F22",
"P%	c #3A1A22",
"Q%	c #59292A",
"R%	c #622D2D",
"S%	c #412028",
"T%	c #27141E",
"U%	c #1D1312",
"V%	c #1A1113",
"W%	c #1C101F",
"X%	c #391C28",
"Y%	c #52262A",
"Z%	c #5C2A2C",
"`%	c #5F2C2C",
" &	c #5B2A2B",
".&	c #512629",
"+&	c #3E1F28",
"@&	c #28151E",
"#&	c #1E1312",
"$&	c #4D3C31",
"%&	c #10090E",
"&&	c #1D1020",
"*&	c #2C1828",
"=&	c #3A1D28",
"-&	c #4E242A",
";&	c #612D2C",
">&	c #5C2A2B",
",&	c #482326",
"'&	c #361D24",
")&	c #341C26",
"!&	c #29151E",
"~&	c #11090E",
"{&	c #231527",
"]&	c #261627",
"^&	c #3B1C26",
"/&	c #4E2325",
"(&	c #532627",
"_&	c #4D2527",
":&	c #321C23",
"<&	c #1A1621",
"[&	c #271824",
"}&	c #23131D",
"|&	c #191010",
"1&	c #534035",
"2&	c #1A1213",
"3&	c #1D101F",
"4&	c #231426",
"5&	c #25121F",
"6&	c #281014",
"7&	c #2B151A",
"8&	c #291920",
"9&	c #1C1620",
"0&	c #12141F",
"a&	c #171520",
"b&	c #141019",
"c&	c #1E1614",
"d&	c #49382F",
"e&	c #1A0E1D",
"f&	c #1A0E1C",
"g&	c #100813",
"h&	c #000104",
"i&	c #00060C",
"j&	c #040C15",
"k&	c #080D16",
"l&	c #0A0D16",
"m&	c #090D16",
"n&	c #2B2220",
"o&	c #45342C",
"p&	c #1F1614",
"q&	c #1F1612",
"r&	c #1E1510",
"s&	c #1E1511",
"t&	c #1E1613",
"u&	c #1E1713",
"v&	c #1D1512",
"w&	c #201814",
"x&	c #6B5445",
"                                                                                                                                ",
"                                                                                                                                ",
"                                                                                                                                ",
"                                                                                                                                ",
"                                                                                                                                ",
"                                                                                                                                ",
"                                                                                                                                ",
"                                                                                                                                ",
"                                                                                                                                ",
"                                                                                                                                ",
"                                                                                                                                ",
"                                                                                                                                ",
"                                                                                                                                ",
"                                                                                                                                ",
"                                                                                                                                ",
"                                                . + @ # # # # # # $ %                                                           ",
"                                                & * = - - ; ; > , ' )                                                           ",
"                                            ! @ ~ { ] ^ / ( _ ( ( : < [                                                         ",
"                                          } + | 1 2 3 4 5 6 7 7 8 9 0 a ) b c }                                                 ",
"                                        b d e f g h i j k l m n o p q r ' s t u                                                 ",
"                                      b v w x y z A B C D E l F G H I J K L M d                                                 ",
"                                    % N O P Q R S T U V W o X Y Z `  ...+.@.#.$.                                                ",
"                                    %.&.*.=.-.;.>.;.,.'.).!.!.~.{.].^./.(._.:.<.                                                ",
"                                    %.a [.}.|.1.2.2.1.3.4.5.5.6.7.8.9.0.a.b.c.<.                                                ",
"                                    %.s d.}.|.1.2.2.2.2.2.2.e.f.g.h.i.j.k.l.m.<.                                                ",
"                                    %.s n.=.-.;.>.>.>.;.o.p.q.r.s.t.u.v.w.x.y.<.                                                ",
"                                    %.z.A.B.S T C.S D.E.F.G.H.I.J.K.L.M.N.O.P.$.                                                ",
"                                    %.Q.R.S.h T.U.V.W.X.Y.Z.`. +.+++@+#+$+%+, d                                                 ",
"                                    % &+*+=+-+;+>+>+,+'+)+!+~+{+]+^+/+(+_+:+t u                                                 ",
"                                        u <+[+}+|+1+2+2+3+4+5+6+7+8+9+0+a+Q.b+                                                  ",
"                                        c+d+e+f+g+h+i+j+k+4+5+l+7+m+n+o+p+t                                                     ",
"                                        q+d+r+s+t+u+v+w+x+y+z+A+B+C+D+E+F+G+%                                                   ",
"                                        ) H+I+J+K+L+M+N+O+P+Q+R+A+S+T+U+V+W+b                                                   ",
"                                    % $ X+Y+Z+`+ @.@+@@@#@$@%@&@*@=@-@;@>@,@'@q+                                                ",
"                                    c G+)@!@~@{@]@/++@^@/@(@_@:@<@<@[@}@|@1@2@3@                                                ",
"                                    b s 4@5@6@7@/+/+8@9@0@a@b@/+]@]@c@d@e@f@g@'@                                                ",
"                                  % h@i@j@k@l@m@/+/+m@n@o@p@q@/+.@/+r@s@t@u@v@w@x@% %.q+) c+c                                   ",
"                                  y@z@A@B@9+C@m@/+/+ @l@D@E@F@/+]@]@c@G@H@I@J@K@W+L@M@N@O@P@+                                   ",
"                                  Q@R@S@T@.@/+/+/+/+U@V@W@X@Y@Z@:@[@`@ #R+.#+#@###y@$#%#&#*#=#-#b                               ",
"                                  ;#>#,#'# @/+/+.@r@)#!#~#{#]#^#/#(#^#_#:#<#[#}#|#&+t 1#2#3#4#5#[                               ",
"                                  6#7#8#9#0#/+/+a#b#c#d#e#f#g#R+l+h#(#_#i#j#k#l#m#+ 3@n#o#p#q#r#s#t#%.                          ",
"                                  6#7#8#9#0#/+/+V@u#v#w#x#y#z#A#B#8@7+C#_#D#E#F#G#y@. H#I#J#K#L#M#N@h@                          ",
"                                  6#7#8#9#0#/+]@N#O#P#Q#R#S#T#U#V#+@W#s@X#Y#Z#`# $.$+$Q.|#@$#$$$%$&$-#                          ",
"                                  6#7#8#9#0#/+r@*$=$-$Q#Q#;$>$,$'$@@^@9@)$!$~${$]$^$/$($_$:$#$<$[$}$u                           ",
"                                  ;#|$1$'#2$3$B#4$5$6$7$8$9$0$a$b$c$d$e$f$g$h$i$j$j$j$j$k$l$m$<$[$}$u                           ",
"                                  n$o$p$q$8+r$ #s$t$u$v$8$Q#Q#;$w$x$y$z$A$B$C$C$C$C$C$C$D$E$F$<$[$}$u                           ",
"                                  ) '@G$H$I$J$K$L$M$N$O$P$Q#Q#9$R#R#Q$R$S$T$U$V$W$W$W$W$X$Y$m$<$[$}$u                           ",
"                                    c Z$`$ %.%+%J+@%#%O$8$Q#Q#Q#Q#$%%%&%*%r =%=%=%=%, -%;%>%#$,%'%}$-#                          ",
"                                      q+)%!%~%{%]%^%/%(%8$Q#Q#Q#Q#_%:%<%'@& # # # # & <.[%}%|%<$'%1%u                           ",
"                                        b+$#2%[%3%4%5%O$P$Q#Q#8$Q#6%7%N@b+          h@8%9%0%a%b%c%d%q+                          ",
"                                        } c+u v e%f%g%v$8$Q#Q#Q#h%i%j%N@x@        % 6#k%l%m%n%o%p%q%%                           ",
"                                            ! r%s%t%u%v%8$Q#Q#w%x%y%z%N@x@        % d%A%B%l%C%G+)                               ",
"                                          %.3@:+D%E%F%Q#Q#Q#Q#G%H%I%J%N@x@        % K%L%A%k%M%b+                                ",
"                                        b+6#N%O%P%Q%R%Q#Q#Q#8$G%S%T%U%N@x@          v K%d%;#u                                   ",
"                                        ) d+V%W%X%Y%Z%`%8$`% &.&+&@&#&N@x@            % % %                                     ",
"                                        ) $&%&&&*&=&-&w%;&>&,&'&)&!&#&N@x@                                                      ",
"                                        ) $&~&&&{&]&^&/&(&_&:&<&[&}&|&1&x@                                                      ",
"                                        ) d+2&3&{&4&5&6&7&8&9&0&a&b&c&.$x@                                                      ",
"                                        b+6#d&O%e&f&g&h&i&j&k&l&m&n&| r%%.                                                      ",
"                                          %.3@o&p&p&q&r&s&t&u&v&w&d&x&c                                                         ",
"                                            x@Q@s s s s s s s a s n$!                                                           ",
"                                              b %.%.%.%.%.%.%.%.%.b                                                             ",
"                                                                                                                                ",
"                                                                                                                                "};
