/* XPM */
static char * player_down1_xpm[] = {
"64 64 643 2",
"  	c #785E4E",
". 	c #765D4D",
"+ 	c #6D5547",
"@ 	c #675042",
"# 	c #664F42",
"$ 	c #665042",
"% 	c #705748",
"& 	c #544136",
"* 	c #372A23",
"= 	c #332821",
"- 	c #352922",
"; 	c #6B5445",
"> 	c #59463B",
", 	c #3D3835",
"' 	c #222E32",
") 	c #232E32",
"! 	c #775D4D",
"~ 	c #6F5748",
"{ 	c #534135",
"] 	c #302D2B",
"^ 	c #303B3F",
"/ 	c #36464B",
"( 	c #36474C",
"_ 	c #36464C",
": 	c #695243",
"< 	c #534136",
"[ 	c #3B3835",
"} 	c #2B383D",
"| 	c #344449",
"1 	c #394A50",
"2 	c #3A4B51",
"3 	c #755C4C",
"4 	c #53413A",
"5 	c #2F2C31",
"6 	c #2E3A41",
"7 	c #37484E",
"8 	c #4D3D35",
"9 	c #3E3944",
"0 	c #393E52",
"a 	c #3A4653",
"b 	c #394A51",
"c 	c #5A463A",
"d 	c #2A2324",
"e 	c #32374C",
"f 	c #434A62",
"g 	c #404C5C",
"h 	c #384A4F",
"i 	c #384A50",
"j 	c #364950",
"k 	c #344850",
"l 	c #5A4639",
"m 	c #282123",
"n 	c #32374B",
"o 	c #434A63",
"p 	c #404C5D",
"q 	c #3A4A52",
"r 	c #3A4A50",
"s 	c #3B4B50",
"t 	c #3C4C50",
"u 	c #272020",
"v 	c #282C3E",
"w 	c #3C435A",
"x 	c #4B556D",
"y 	c #4F5B73",
"z 	c #445265",
"A 	c #585959",
"B 	c #83765B",
"C 	c #97845D",
"D 	c #595A5B",
"E 	c #455266",
"F 	c #241C19",
"G 	c #10151E",
"H 	c #2F3549",
"I 	c #555D7D",
"J 	c #626C91",
"K 	c #525C7E",
"L 	c #796E6B",
"M 	c #BDA06A",
"N 	c #DBB76C",
"O 	c #BD9F69",
"P 	c #786D68",
"Q 	c #515B7D",
"R 	c #241B16",
"S 	c #0D0810",
"T 	c #262637",
"U 	c #454A66",
"V 	c #565D80",
"W 	c #586288",
"X 	c #8A8086",
"Y 	c #CEAF7A",
"Z 	c #EDC572",
"` 	c #EDC571",
" .	c #CCAB6F",
"..	c #80726B",
"+.	c #485173",
"@.	c #525A7B",
"#.	c #454A67",
"$.	c #251B17",
"%.	c #170C19",
"&.	c #221829",
"*.	c #222130",
"=.	c #353C53",
"-.	c #545E83",
";.	c #8A8391",
">.	c #C4A77D",
",.	c #DEB96C",
"'.	c #DEB96B",
").	c #C0A169",
"!.	c #786B65",
"~.	c #333D58",
"{.	c #293043",
"].	c #242334",
"^.	c #190C1A",
"/.	c #211425",
"(.	c #181420",
"_.	c #1F2737",
":.	c #38435F",
"<.	c #5F5D6B",
"[.	c #88765C",
"}.	c #9B824F",
"|.	c #9B824E",
"1.	c #85714D",
"2.	c #514B4A",
"3.	c #1B293E",
"4.	c #141D29",
"5.	c #1A1623",
"6.	c #180C1A",
"7.	c #211815",
"8.	c #594539",
"9.	c #765C4C",
"0.	c #140A16",
"a.	c #1D1222",
"b.	c #181625",
"c.	c #26222B",
"d.	c #443434",
"e.	c #533E39",
"f.	c #584138",
"g.	c #594237",
"h.	c #594236",
"i.	c #574137",
"j.	c #533D36",
"k.	c #433332",
"l.	c #26212A",
"m.	c #161525",
"n.	c #1E1322",
"o.	c #271A1F",
"p.	c #3D2F27",
"q.	c #614C3E",
"r.	c #765C4D",
"s.	c #231A15",
"t.	c #070309",
"u.	c #0F0814",
"v.	c #0C0A1E",
"w.	c #422D2E",
"x.	c #7A5440",
"y.	c #93654A",
"z.	c #94654C",
"A.	c #92644C",
"B.	c #93654C",
"C.	c #7A5442",
"D.	c #09081E",
"E.	c #1C1219",
"F.	c #48372F",
"G.	c #654F41",
"H.	c #72594A",
"I.	c #735A4A",
"J.	c #4C3A30",
"K.	c #1D1510",
"L.	c #1D0306",
"M.	c #3A1C1A",
"N.	c #53342D",
"O.	c #734D3E",
"P.	c #99684E",
"Q.	c #AE7959",
"R.	c #B27F5E",
"S.	c #B38161",
"T.	c #98684E",
"U.	c #744F3F",
"V.	c #67493B",
"W.	c #6C513E",
"X.	c #695140",
"Y.	c #695244",
"Z.	c #46362B",
"`.	c #2C2219",
" +	c #281913",
".+	c #3F1B1B",
"++	c #60342D",
"@+	c #875843",
"#+	c #9F6D51",
"$+	c #A97455",
"%+	c #B07C5C",
"&+	c #B88868",
"*+	c #BD8F6E",
"=+	c #A87354",
"-+	c #A27053",
";+	c #A77A5D",
">+	c #AA8164",
",+	c #886951",
"'+	c #4E3B2E",
")+	c #352820",
"!+	c #48372C",
"~+	c #654E41",
"{+	c #715949",
"]+	c #624C3F",
"^+	c #6A5140",
"/+	c #7B5E48",
"(+	c #80624B",
"_+	c #7E5E49",
":+	c #6F493C",
"<+	c #704238",
"[+	c #9A6A52",
"}+	c #B38061",
"|+	c #B17C5C",
"1+	c #AF7B5B",
"2+	c #B58463",
"3+	c #B98969",
"4+	c #B07B5B",
"5+	c #B58363",
"6+	c #BC8D6C",
"7+	c #BD9170",
"8+	c #A57F63",
"9+	c #85664E",
"0+	c #7D5F49",
"a+	c #6B5342",
"b+	c #644E40",
"c+	c #715849",
"d+	c #755B4C",
"e+	c #533F32",
"f+	c #81624B",
"g+	c #AD8668",
"h+	c #BA8F6F",
"i+	c #B2896A",
"j+	c #916752",
"k+	c #764A3E",
"l+	c #9E735B",
"m+	c #B98C6C",
"n+	c #AF7A5A",
"o+	c #B07D5C",
"p+	c #B48362",
"q+	c #BC8E6E",
"r+	c #BF9372",
"s+	c #BC9170",
"t+	c #B88E6E",
"u+	c #AC8567",
"v+	c #7A5D47",
"w+	c #45352A",
"x+	c #664F41",
"y+	c #5E493C",
"z+	c #6A5240",
"A+	c #896951",
"B+	c #A57F62",
"C+	c #BC9171",
"D+	c #C49776",
"E+	c #BD9171",
"F+	c #986D57",
"G+	c #784C40",
"H+	c #9F755D",
"I+	c #BD9070",
"J+	c #BC8D6D",
"K+	c #B88867",
"L+	c #B78766",
"M+	c #BB8C6C",
"N+	c #C19574",
"O+	c #C09574",
"P+	c #C29574",
"Q+	c #C49775",
"R+	c #B68C6D",
"S+	c #3B2D23",
"T+	c #634D40",
"U+	c #775D4E",
"V+	c #685143",
"W+	c #413128",
"X+	c #735742",
"Y+	c #AD8567",
"Z+	c #C09473",
"`+	c #BB8F70",
" @	c #966C56",
".@	c #784C3F",
"+@	c #9F755C",
"@@	c #BD9271",
"#@	c #C19473",
"$@	c #C09372",
"%@	c #BF9272",
"&@	c #BE9170",
"*@	c #BF9271",
"=@	c #B48B6C",
"-@	c #7C5F49",
";@	c #3C2E24",
">@	c #3B2D24",
",@	c #745843",
"'@	c #B1886A",
")@	c #C29674",
"!@	c #BB9070",
"~@	c #976D56",
"{@	c #BE9271",
"]@	c #B68565",
"^@	c #BA8B6A",
"/@	c #392B22",
"(@	c #3D2E25",
"_@	c #735843",
":@	c #B08869",
"<@	c #B78A6A",
"[@	c #946852",
"}@	c #774B3F",
"|@	c #B88968",
"1@	c #B07D5D",
"2@	c #B78D6E",
"3@	c #906E55",
"4@	c #684F3D",
"5@	c #654E3F",
"6@	c #BB8C6B",
"7@	c #AF7D5E",
"8@	c #8D5C47",
"9@	c #76493D",
"0@	c #9F7A5E",
"a@	c #705541",
"b@	c #4F3D32",
"c@	c #6C5445",
"d@	c #C39775",
"e@	c #BA8969",
"f@	c #AC7758",
"g@	c #8A5743",
"h@	c #74453A",
"i@	c #9A6E56",
"j@	c #B78868",
"k@	c #BA8B6B",
"l@	c #B98A6A",
"m@	c #B08566",
"n@	c #A47D60",
"o@	c #A77D5F",
"p@	c #B28263",
"q@	c #C19573",
"r@	c #C29675",
"s@	c #3C2D24",
"t@	c #735743",
"u@	c #BE9372",
"v@	c #BC9070",
"w@	c #B58666",
"x@	c #A77456",
"y@	c #885642",
"z@	c #724237",
"A@	c #94634C",
"B@	c #AE7B5C",
"C@	c #B27E5D",
"D@	c #B17D5C",
"E@	c #AF7C5C",
"F@	c #95694E",
"G@	c #6A4D39",
"H@	c #896850",
"I@	c #B68A6B",
"J@	c #6C5341",
"K@	c #876750",
"L@	c #8E6D53",
"M@	c #8A654C",
"N@	c #815841",
"O@	c #6F4234",
"P@	c #704137",
"Q@	c #9A6B53",
"R@	c #B58464",
"S@	c #B88766",
"T@	c #B48363",
"U@	c #AD7656",
"V@	c #B38262",
"W@	c #916A4F",
"X@	c #4D3729",
"Y@	c #7E614A",
"Z@	c #BB8D6C",
"`@	c #B98A69",
" #	c #BF9170",
".#	c #745844",
"+#	c #4E3B2F",
"@#	c #413125",
"##	c #392A1F",
"$#	c #372118",
"%#	c #491F1F",
"&#	c #6C3F37",
"*#	c #9B7058",
"=#	c #BC906F",
"-#	c #B27F5F",
";#	c #AD7757",
">#	c #B38060",
",#	c #9C765A",
"'#	c #644936",
")#	c #806049",
"!#	c #AF8768",
"~#	c #BD9272",
"{#	c #B28060",
"]#	c #B68868",
"^#	c #A98264",
"/#	c #725743",
"(#	c #46352B",
"_#	c #5C473B",
":#	c #46362C",
"<#	c #1C120D",
"[#	c #41181B",
"}#	c #643531",
"|#	c #7F5445",
"1#	c #966B55",
"2#	c #AB7C5F",
"3#	c #B48262",
"4#	c #AE7857",
"5#	c #A8795B",
"6#	c #91654A",
"7#	c #835D45",
"8#	c #86654D",
"9#	c #A47E62",
"0#	c #B48666",
"a#	c #997358",
"b#	c #7C5E49",
"c#	c #685040",
"d#	c #745B4B",
"e#	c #2D1D17",
"f#	c #451D1E",
"g#	c #5D2B2B",
"h#	c #612D2D",
"i#	c #703F36",
"j#	c #905E48",
"k#	c #A26E51",
"l#	c #A36F52",
"m#	c #A36E52",
"n#	c #9E6B4F",
"o#	c #7E533D",
"p#	c #56392B",
"q#	c #81614B",
"r#	c #AA8265",
"s#	c #A57E62",
"t#	c #7A5C48",
"u#	c #503D31",
"v#	c #5B463A",
"w#	c #2D1D18",
"x#	c #451E1E",
"y#	c #5D2A2A",
"z#	c #5F2A2B",
"A#	c #63302D",
"B#	c #724136",
"C#	c #7C4A3B",
"D#	c #7D4C3C",
"E#	c #7D4B3C",
"F#	c #7C4B3C",
"G#	c #7E4C3C",
"H#	c #6D3D33",
"I#	c #572C28",
"J#	c #5D3E32",
"K#	c #6B503D",
"L#	c #6E5440",
"M#	c #6B5240",
"N#	c #674F40",
"O#	c #2C1D17",
"P#	c #441D1D",
"Q#	c #612C2C",
"R#	c #602C2C",
"S#	c #602B2C",
"T#	c #5F2B2C",
"U#	c #451D1D",
"V#	c #1B0B0A",
"W#	c #2F231C",
"X#	c #4B3A2F",
"Y#	c #2F1D18",
"Z#	c #461E1E",
"`#	c #5D2A2B",
" $	c #281814",
".$	c #503E33",
"+$	c #745B4C",
"@$	c #604A3D",
"#$	c #50382F",
"$$	c #452320",
"%$	c #512424",
"&$	c #5E2B2B",
"*$	c #492123",
"=$	c #311C1E",
"-$	c #614B3E",
";$	c #3C2C24",
">$	c #421F1E",
",$	c #582928",
"'$	c #5F2B2B",
")$	c #5F2C2C",
"!$	c #5E2B2C",
"~$	c #4E2529",
"{$	c #351C25",
"]$	c #26171B",
"^$	c #392B23",
"/$	c #2D1F19",
"($	c #411C1C",
"_$	c #5C2A2A",
":$	c #4C2222",
"<$	c #4B2121",
"[$	c #5A2929",
"}$	c #4F262A",
"|$	c #371C26",
"1$	c #1F0F18",
"2$	c #291E19",
"3$	c #5F4A3D",
"4$	c #30221B",
"5$	c #401B1B",
"6$	c #5D2B2C",
"7$	c #5B2A2B",
"8$	c #5B292A",
"9$	c #532827",
"0$	c #402520",
"a$	c #3E241F",
"b$	c #512725",
"c$	c #4F252A",
"d$	c #361C25",
"e$	c #2C201A",
"f$	c #411B1B",
"g$	c #622D2D",
"h$	c #53272A",
"i$	c #462127",
"j$	c #3E1C1F",
"k$	c #442923",
"l$	c #584236",
"m$	c #594338",
"n$	c #462C26",
"o$	c #471F1F",
"p$	c #2B1F1A",
"q$	c #30211B",
"r$	c #3B191B",
"s$	c #542729",
"t$	c #5A2A2B",
"u$	c #55282A",
"v$	c #472229",
"w$	c #321A24",
"x$	c #1C0D15",
"y$	c #372922",
"z$	c #3E2F26",
"A$	c #351515",
"B$	c #562727",
"C$	c #4D2428",
"D$	c #341C23",
"E$	c #322221",
"F$	c #2E211B",
"G$	c #2B1319",
"H$	c #3E1F26",
"I$	c #422129",
"J$	c #402028",
"K$	c #3A1E28",
"L$	c #301923",
"M$	c #1B0D14",
"N$	c #372A22",
"O$	c #341515",
"P$	c #472021",
"Q$	c #2F1D1C",
"R$	c #503D33",
"S$	c #6A5244",
"T$	c #745A4B",
"U$	c #2A1E19",
"V$	c #1D0E18",
"W$	c #2C1825",
"X$	c #2F1A28",
"Y$	c #2E1A27",
"Z$	c #2B1724",
"`$	c #1A0C15",
" %	c #572727",
".%	c #612D2C",
"+%	c #5C2B2C",
"@%	c #532629",
"#%	c #3B1A1C",
"$%	c #2B1C17",
"%%	c #604B3E",
"&%	c #32251F",
"*%	c #180D17",
"=%	c #251524",
"-%	c #261626",
";%	c #261526",
">%	c #231423",
",%	c #180D16",
"'%	c #3B2D25",
")%	c #552627",
"!%	c #53272B",
"~%	c #3F1F27",
"{%	c #29131A",
"]%	c #271B17",
"^%	c #6C5446",
"/%	c #584438",
"(%	c #3E2F2A",
"_%	c #1E121C",
":%	c #180D1B",
"<%	c #23181E",
"[%	c #43332C",
"}%	c #3D2F26",
"|%	c #2A1114",
"1%	c #472125",
"2%	c #50262A",
"3%	c #4E252A",
"4%	c #452229",
"5%	c #351C26",
"6%	c #21111A",
"7%	c #261B17",
"8%	c #5B473A",
"9%	c #342720",
"0%	c #231915",
"a%	c #261C17",
"b%	c #3A2C25",
"c%	c #1D0C12",
"d%	c #321A23",
"e%	c #391E28",
"f%	c #381D27",
"g%	c #371D28",
"h%	c #331B26",
"i%	c #24121A",
"j%	c #6E5647",
"k%	c #5D483C",
"l%	c #624D3F",
"m%	c #705849",
"n%	c #190B12",
"o%	c #2D1822",
"p%	c #331C27",
"q%	c #341C27",
"r%	c #321B26",
"s%	c #3C2E25",
"t%	c #180B12",
"u%	c #2C1722",
"v%	c #321B27",
"w%	c #321B28",
"x%	c #301A26",
"y%	c #22111A",
"z%	c #251A16",
"A%	c #130912",
"B%	c #241422",
"C%	c #2A1827",
"D%	c #291727",
"E%	c #2A1828",
"F%	c #281626",
"G%	c #1C0E1A",
"H%	c #241A16",
"I%	c #534035",
"J%	c #382A26",
"K%	c #241821",
"L%	c #1D1020",
"M%	c #1E1220",
"N%	c #2F2223",
"O%	c #47362D",
"P%	c #352823",
"Q%	c #11090E",
"R%	c #140C10",
"S%	c #0F080E",
"T%	c #221817",
"U%	c #4F3D33",
"V%	c #6A5345",
"W%	c #584538",
"X%	c #4D3B31",
"Y%	c #4E3C31",
"Z%	c #513F34",
"                                                                                                                                ",
"                                                                                                                                ",
"                                                                                                                                ",
"                                                                                                                                ",
"                                                                                                                                ",
"                                                                                                                                ",
"                                                                                                                                ",
"                                                                                                                                ",
"                                                      . + @ # $ $ # @ + .                                                       ",
"                                                      % & * = - - = * & %                                                       ",
"                                                  . ; > , ' ) ' ' ) ' , > ; .                                                   ",
"                                                ! ~ { ] ^ / ( _ _ ( / ^ ] { ~ !                                                 ",
"                                              ! : < [ } | 1 2 2 2 2 1 | } [ < : !                                               ",
"                                            3 + 4 5 6 7 1 1 1 1 1 1 1 1 7 6 5 4 + 3                                             ",
"                                          . $ 8 9 0 a b 1 1 1 1 1 1 1 1 b a 0 9 8 $ .                                           ",
"                                          3 c d e f g 1 h i j k k j i h 1 g f e d c 3                                           ",
"                                          3 l m n o p q 1 r s t t s r 1 q p o n m l 3                                           ",
"                                          3 l u v w x y z A B C C B D E y x w v u l 3                                           ",
"                                          3 l F G H I J K L M N N O P Q J I H G F l 3                                           ",
"                                          3 l R S T U V W X Y Z `  ...+.@.#.T S R l 3                                           ",
"                                          3 l $.%.&.*.=.-.;.>.,.'.).!.~.{.].&.%.$.l 3                                           ",
"                                          3 l $.^./.(._.:.<.[.}.|.1.2.3.4.5./.6.7.8.3                                           ",
"                                          9.c R 0.a.b.c.d.e.f.g.h.i.j.k.l.m.n.o.p.q.r.                                          ",
"                                          9.c s.t.u.v.w.x.y.z.A.A.z.B.C.w.D.E.F.G.H.                                            ",
"                                        I.$ J.K.L.M.N.O.P.Q.R.S.S.R.Q.T.U.V.W.X.G.@ Y.H.                                        ",
"                                      r.G.Z.`. +.+++@+#+$+%+&+*+*+&+%+=+-+;+>+,+'+)+!+~+r.                                      ",
"                                    {+]+^+/+(+_+:+<+[+}+|+1+2+3+3+2+1+4+5+6+7+8+9+0+/+a+b+c+                                    ",
"                                  d+b+e+f+g+h+i+j+k+l+m+2+n+4+o+o+4+n+p+q+r+r+s+t+t+u+v+w+x+                                    ",
"                                % y+z+A+B+C+D+E+F+G+H+I+J+K+L+L+L+L+K+M+r+N+O+N+P+Q+R+0+S+T+U+                                  ",
"                                V+W+X+Y+r+Z+N+`+ @.@+@@@#@r+r+r+r+r+r+$@Z+%@&@*@Z+P+=@-@;@T+                                    ",
"                                @ >@,@'@)@Z+N+!@~@.@+@{@N+Z+Z+Z+Z+Z+Z+O+$@M+]@^@r+)@=@/+/@b+                                    ",
"                                @ (@_@:@P+Z+*@<@[@}@+@{@N+Z+Z+Z+Z+Z+Z+N+Z+|@1@]@*@)@2@3@4@5@+ d+                                ",
"                                @ (@_@:@)@r+6@7@8@9@+@@@N+Z+Z+Z+Z+Z+Z+Z+r+&+%+]@*@N+@@=@0@a@b@c@                                ",
"                                @ >@,@'@d@#@e@f@g@h@i@j@k@l@^@^@^@^@l@m@n@o@p@k@r+O+q@r@'@,@s@@                                 ",
"                                V+W+t@Y+u@v@w@x@y@z@A@B@C@1@%+%+%+D@E@F@G@H@I@$@Z+$@$@N+:@_@(@@                                 ",
"                                % y+J@K@3@L@M@N@O@P@Q@R@S@T@4+U@U@|+V@W@X@Y@t+d@r+Z@`@ #'@.#>@@                                 ",
"                                  d+@ +#@#@###$#%#&#*#I@=#k@-#;#;#>#l@,#'#)#!#~#{@K+{#]#^#/#(#Y.                                ",
"                                    c+T+y+_#:#<#[#}#|#1#2#3#|+4#4#D@3#5#6#7#8#9#E+ #0#a#b#c#~+H.                                ",
"                                      !   d#8.e#f#g#h#i#j#k#l#k#k#k#m#l#n#o#p#q#r#i+s#t#u#@ !                                   ",
"                                          r.v#w#x#y#z#A#B#C#D#E#E#F#F#G#F#H#I#J#K#L#M#N#: d#                                    ",
"                                          9.v#O#P#y#Q#R#S#T#T#T#T#T#T#T#T#Q#y#U#V#W#X#V+!                                       ",
"                                          d#8.Y#Z#g#Q#R#R#T#T#T#T#T#T#T#T#Q#`#f# $.$; +$                                        ",
"                                      U+~ @$#$$$%$&$Q#R#R#R#Q#Q#R#R#R#R#R#Q#g#*$=$F.-$% U+                                      ",
"                                      ! ]+;$>$,$'$R#R#R#R#)$&$&$)$R#R#R#R#Q#!$~${$]$^$]+!                                       ",
"                                      . y+/$($_$h#R#R#Q#h#_$:$<$[$Q#R#R#R#Q#!$}$|$1$2$y+.                                       ",
"                                      . 3$4$5$_$h#R#6$7$8$9$0$a$b$_$'$R#R#Q#!$c$d$1$e$3$.                                       ",
"                                      . 3$4$f$_$g$!$h$i$j$k$l$m$n$o$[$R#R#Q#!$c$|$1$p$3$.                                       ",
"                                      . 3$q$r$s$t$u$v$w$x$y$x+: z$A$B$Q#R#Q#&$C$D$E$:## !                                       ",
"                                      . 3$F$G$H$I$J$K$L$M$N$$ Y.z$O$B$Q#R#Q#g#P$Q$R$S$T$                                        ",
"                                      . y+U$V$W$X$Y$X$Z$`$)+x+Y.z$A$ %.%R#+%@%#%$%v#9.                                          ",
"                                      . %%&%*%=%-%;%-%>%,%'%@ Y.z$O$)%R#!$!%~%{%]%c 3                                           ",
"                                      ! ^%/%(%_%:%6.:%<%[%_#% Y.}%|%1%2%3%4%5%6%7%l 3                                           ",
"                                        U+H.8%9%0%a%0%b%-$+$  Y.(@c%d%e%f%g%h%i%7%l 3                                           ",
"                                            j%-$k%y+k%l%m%    Y.(@n%o%p%p%q%r%i%7%l 3                                           ",
"                                            U+! ! ! ! !       Y.s%t%u%v%v%w%x%y%z%l 3                                           ",
"                                                              Y.s%A%B%C%D%E%F%G%H%l 3                                           ",
"                                                              j%I%J%K%L%L%L%M%N%O%b+r.                                          ",
"                                                              9.% k%P%Q%R%S%T%U%V%d#                                            ",
"                                                                  j%W%X%Y%X%Z%x+.                                               ",
"                                                                  . T$H.H.H.I.3                                                 ",
"                                                                                                                                ",
"                                                                                                                                ",
"                                                                                                                                ",
"                                                                                                                                "};
