/* XPM */
static char * player_right1_xpm[] = {
"64 64 702 2",
"  	c #785E4E",
". 	c #775D4D",
"+ 	c #755B4C",
"@ 	c #745B4B",
"# 	c #765C4C",
"$ 	c #705849",
"% 	c #5C473B",
"& 	c #534034",
"* 	c #544135",
"= 	c #534035",
"- 	c #634D3F",
"; 	c #735A4A",
"> 	c #604B3E",
", 	c #362A23",
"' 	c #131112",
") 	c #1A1717",
"! 	c #1D1C1C",
"~ 	c #1F2020",
"{ 	c #1D1E1F",
"] 	c #202020",
"^ 	c #483A32",
"/ 	c #695345",
"( 	c #72594A",
"_ 	c #5A4639",
": 	c #3D2F29",
"< 	c #1E1C21",
"[ 	c #131C24",
"} 	c #19252C",
"| 	c #253238",
"1 	c #2C3A3F",
"2 	c #2D3C40",
"3 	c #2D3B40",
"4 	c #35383A",
"5 	c #634D40",
"6 	c #765D4D",
"7 	c #715849",
"8 	c #614B3E",
"9 	c #3B2E27",
"0 	c #0B1119",
"a 	c #131B25",
"b 	c #19242E",
"c 	c #212F38",
"d 	c #2F3F46",
"e 	c #38494F",
"f 	c #394A50",
"g 	c #2A3A3F",
"h 	c #15191D",
"i 	c #4A392E",
"j 	c #665042",
"k 	c #6B5345",
"l 	c #6D5546",
"m 	c #735A4B",
"n 	c #5A463A",
"o 	c #382C26",
"p 	c #1F1D21",
"q 	c #121A24",
"r 	c #151D28",
"s 	c #222F38",
"t 	c #3A4B51",
"u 	c #3A4A51",
"v 	c #303D42",
"w 	c #1B1F1D",
"x 	c #2B1F16",
"y 	c #3C2E24",
"z 	c #3B2D24",
"A 	c #4B3A2F",
"B 	c #6F5748",
"C 	c #5F4A3D",
"D 	c #3E3029",
"E 	c #0B1016",
"F 	c #101821",
"G 	c #131B26",
"H 	c #141C27",
"I 	c #18232C",
"J 	c #202F37",
"K 	c #2F3F45",
"L 	c #394A4F",
"M 	c #3F4F5B",
"N 	c #4E5B70",
"O 	c #6D686A",
"P 	c #8A744D",
"Q 	c #927842",
"R 	c #89713F",
"S 	c #5D4C29",
"T 	c #372A20",
"U 	c #765C4D",
"V 	c #5E493C",
"W 	c #352922",
"X 	c #1E1D23",
"Y 	c #171E2A",
"Z 	c #19202C",
"` 	c #19202D",
" .	c #1A212D",
"..	c #1D2732",
"+.	c #24313B",
"@.	c #304048",
"#.	c #394950",
"$.	c #465569",
"%.	c #626C8D",
"&.	c #9D8F8C",
"*.	c #CEAD71",
"=.	c #DDB768",
"-.	c #CFAC63",
";.	c #907743",
">.	c #3F3123",
",.	c #584438",
"'.	c #1E191D",
").	c #272C3C",
"!.	c #343A4E",
"~.	c #353B50",
"{.	c #343A4F",
"].	c #353C51",
"^.	c #384054",
"/.	c #3C4759",
"(.	c #404C5D",
"_.	c #404C5C",
":.	c #47526C",
"<.	c #5D6485",
"[.	c #A49286",
"}.	c #DFBB77",
"|.	c #F0C872",
"1.	c #E1BB6C",
"2.	c #9D8249",
"3.	c #413324",
"4.	c #594539",
"5.	c #241F23",
"6.	c #31364A",
"7.	c #414760",
"8.	c #424861",
"9.	c #414761",
"0.	c #424761",
"a.	c #424962",
"b.	c #434962",
"c.	c #414964",
"d.	c #494E68",
"e.	c #93806A",
"f.	c #D1AE6B",
"g.	c #D3B066",
"h.	c #937945",
"i.	c #3F3124",
"j.	c #221B1D",
"k.	c #252939",
"l.	c #31374B",
"m.	c #32384C",
"n.	c #31364B",
"o.	c #30334A",
"p.	c #2B3049",
"q.	c #2A3247",
"r.	c #635749",
"s.	c #917A4D",
"t.	c #9E844F",
"u.	c #957C4B",
"v.	c #665432",
"w.	c #3A2C22",
"x.	c #1E1714",
"y.	c #10161F",
"z.	c #171F2A",
"A.	c #171F2B",
"B.	c #191E2B",
"C.	c #1A1E2B",
"D.	c #181D2A",
"E.	c #29232C",
"F.	c #473132",
"G.	c #563D38",
"H.	c #5A453E",
"I.	c #5E4B41",
"J.	c #5F4C40",
"K.	c #4F4038",
"L.	c #312B2B",
"M.	c #181618",
"N.	c #342720",
"O.	c #1D1614",
"P.	c #0D131C",
"Q.	c #131C26",
"R.	c #141C26",
"S.	c #191A26",
"T.	c #1E1726",
"U.	c #161124",
"V.	c #422C2D",
"W.	c #7C5441",
"X.	c #996C52",
"Y.	c #A27A5F",
"Z.	c #A68065",
"`.	c #A07C62",
" +	c #7B5E4E",
".+	c #30222B",
"++	c #000011",
"@+	c #45352C",
"#+	c #292323",
"$+	c #151923",
"%+	c #181A26",
"&+	c #1A1B28",
"*+	c #1B1B28",
"=+	c #1F1927",
"-+	c #231627",
";+	c #190C25",
">+	c #4C3231",
",+	c #90624A",
"'+	c #B27F5E",
")+	c #BD8F6E",
"!+	c #C29675",
"~+	c #BE9272",
"{+	c #927059",
"]+	c #402F2C",
"^+	c #302420",
"/+	c #4F3D32",
"(+	c #6C5446",
"_+	c #695244",
":+	c #47372E",
"<+	c #151117",
"[+	c #1B1321",
"}+	c #211727",
"|+	c #221727",
"1+	c #241527",
"2+	c #C19574",
"3+	c #BB9070",
"4+	c #8E6D54",
"5+	c #413128",
"6+	c #554236",
"7+	c #6E5647",
"8+	c #0E090A",
"9+	c #010012",
"0+	c #09001C",
"a+	c #140522",
"b+	c #180925",
"c+	c #1A0D25",
"d+	c #0F0724",
"e+	c #4B3231",
"f+	c #B27F5F",
"g+	c #BC8E6E",
"h+	c #B48B6C",
"i+	c #9A765C",
"j+	c #6D533F",
"k+	c #382A20",
"l+	c #4E3C31",
"m+	c #1B130D",
"n+	c #2D2019",
"o+	c #3A2A25",
"p+	c #3F2D2E",
"q+	c #3F2B2F",
"r+	c #3B262C",
"s+	c #2D1A28",
"t+	c #503331",
"u+	c #B27E5E",
"v+	c #BB8C6C",
"w+	c #A47D60",
"x+	c #684D3A",
"y+	c #332319",
"z+	c #2B1F18",
"A+	c #3E2F23",
"B+	c #7A5D47",
"C+	c #916F57",
"D+	c #926F58",
"E+	c #8D6852",
"F+	c #835A46",
"G+	c #684037",
"H+	c #633B34",
"I+	c #93624A",
"J+	c #AF7A5A",
"K+	c #B48262",
"L+	c #A6785A",
"M+	c #855B42",
"N+	c #593A28",
"O+	c #2D2018",
"P+	c #755C4C",
"Q+	c #553F32",
"R+	c #694D39",
"S+	c #A47E61",
"T+	c #BD9271",
"U+	c #BC9171",
"V+	c #B68767",
"W+	c #A87557",
"X+	c #865541",
"Y+	c #724238",
"Z+	c #99674E",
"`+	c #B07C5C",
" @	c #B17D5D",
".@	c #AA7859",
"+@	c #875E45",
"@@	c #563C2B",
"#@	c #5E483A",
"$@	c #705748",
"%@	c #664F41",
"&@	c #574033",
"*@	c #75513B",
"=@	c #996C50",
"-@	c #B58969",
";@	c #C29674",
">@	c #C19573",
",@	c #BB8B6A",
"'@	c #AC7858",
")@	c #895642",
"!@	c #77483C",
"~@	c #A1745A",
"{@	c #B98A6A",
"]@	c #BA8B6A",
"^@	c #BB8B6B",
"/@	c #B98A69",
"(@	c #A97A5C",
"_@	c #8D6248",
":@	c #6A4A37",
"<@	c #564236",
"[@	c #6D5547",
"}@	c #624C3F",
"|@	c #46362C",
"1@	c #574337",
"2@	c #422F23",
"3@	c #8A6148",
"4@	c #B28161",
"5@	c #C09473",
"6@	c #BB8D6C",
"7@	c #AF7D5E",
"8@	c #8B5B47",
"9@	c #784B3F",
"0@	c #A67B61",
"a@	c #BF9373",
"b@	c #BF9372",
"c@	c #B98868",
"d@	c #A67355",
"e@	c #714C36",
"f@	c #3C2C23",
"g@	c #1E1B21",
"h@	c #2D3145",
"i@	c #484351",
"j@	c #614E48",
"k@	c #584538",
"l@	c #483427",
"m@	c #936F54",
"n@	c #BB8E6D",
"o@	c #C09372",
"p@	c #BF9371",
"q@	c #B88A6B",
"r@	c #926651",
"s@	c #794D40",
"t@	c #C09574",
"u@	c #B98968",
"v@	c #A77455",
"w@	c #3A2B22",
"x@	c #2C2C3B",
"y@	c #515777",
"z@	c #5B6081",
"A@	c #484452",
"B@	c #564337",
"C@	c #624737",
"D@	c #76533D",
"E@	c #A47C5F",
"F@	c #966C56",
"G@	c #A67455",
"H@	c #6F4A35",
"I@	c #36281F",
"J@	c #675042",
"K@	c #644E40",
"L@	c #504346",
"M@	c #575974",
"N@	c #585F81",
"O@	c #4B516F",
"P@	c #4E4959",
"Q@	c #604D46",
"R@	c #47342A",
"S@	c #75503A",
"T@	c #A27254",
"U@	c #B68868",
"V@	c #B98D6E",
"W@	c #936954",
"X@	c #794C40",
"Y@	c #A57A60",
"Z@	c #BF9271",
"`@	c #B88867",
" #	c #755039",
".#	c #463328",
"+#	c #654F41",
"@#	c #675146",
"##	c #493E40",
"$#	c #414661",
"%#	c #5E668B",
"&#	c #595F81",
"*#	c #3F3944",
"=#	c #3B2B21",
"-#	c #805C45",
";#	c #B38464",
">#	c #BE906F",
",#	c #B3886A",
"'#	c #9D735B",
")#	c #7E5344",
"!#	c #74463B",
"~#	c #9F7157",
"{#	c #B78767",
"]#	c #B88767",
"^#	c #B78666",
"/#	c #B38060",
"(#	c #AB7758",
"_#	c #996E53",
":#	c #82634C",
"<#	c #695140",
"[#	c #5B463A",
"}#	c #352820",
"|#	c #373C53",
"1#	c #646C92",
"2#	c #5D6589",
"3#	c #2F3143",
"4#	c #624D3F",
"5#	c #3E2E24",
"6#	c #86664E",
"7#	c #B98E6E",
"8#	c #A47A60",
"9#	c #764A3E",
"0#	c #602C2C",
"a#	c #703F35",
"b#	c #99664D",
"c#	c #B07D5D",
"d#	c #AF7959",
"e#	c #AA8365",
"f#	c #6D5340",
"g#	c #1E1610",
"h#	c #211812",
"i#	c #221812",
"j#	c #1E150F",
"k#	c #0F0906",
"l#	c #3A3E55",
"m#	c #636B92",
"n#	c #5D6488",
"o#	c #313243",
"p#	c #876850",
"q#	c #BA9070",
"r#	c #C29574",
"s#	c #A2785E",
"t#	c #6D3E37",
"u#	c #581F26",
"v#	c #6F3D34",
"w#	c #98654B",
"x#	c #B07B5B",
"y#	c #B78665",
"z#	c #B88868",
"A#	c #B08769",
"B#	c #060303",
"C#	c #1A110D",
"D#	c #221712",
"E#	c #211710",
"F#	c #1F1303",
"G#	c #414257",
"H#	c #656C92",
"I#	c #5C6488",
"J#	c #87674F",
"K#	c #BA8F6F",
"L#	c #B1886A",
"M#	c #956D56",
"N#	c #6B3D36",
"O#	c #5B2428",
"P#	c #6C3A33",
"Q#	c #8F5D46",
"R#	c #A97659",
"S#	c #B78868",
"T#	c #BD8F6F",
"U#	c #BC8E6D",
"V#	c #B78766",
"W#	c #B48161",
"X#	c #BC8D6C",
"Y#	c #AF8768",
"Z#	c #0A0604",
"`#	c #201611",
" $	c #281C16",
".$	c #281C15",
"+$	c #271C15",
"@$	c #271B14",
"#$	c #251809",
"$$	c #434358",
"%$	c #AD8667",
"&$	c #81624C",
"*$	c #654436",
"=$	c #61312E",
"-$	c #5F2A2B",
";$	c #64312E",
">$	c #734136",
",$	c #8C5B47",
"'$	c #A9775A",
")$	c #000000",
"!$	c #0D0705",
"~$	c #160E0A",
"{$	c #150D07",
"]$	c #110600",
"^$	c #3D3F56",
"/$	c #3D2E24",
"($	c #876750",
"_$	c #9F775B",
":$	c #543D2D",
"<$	c #350E14",
"[$	c #5B2929",
"}$	c #612D2D",
"|$	c #5E2A2B",
"1$	c #714036",
"2$	c #905E47",
"3$	c #9C684D",
"4$	c #9C694E",
"5$	c #A07358",
"6$	c #A47D61",
"7$	c #A57F63",
"8$	c #98755A",
"9$	c #6B523F",
"0$	c #423229",
"a$	c #43342A",
"b$	c #3E2F26",
"c$	c #271C16",
"d$	c #383C54",
"e$	c #303142",
"f$	c #403026",
"g$	c #86674F",
"h$	c #B88E6E",
"i$	c #BE9070",
"j$	c #B68565",
"k$	c #976B4F",
"l$	c #513627",
"m$	c #381216",
"n$	c #5F2B2C",
"o$	c #744237",
"p$	c #724236",
"q$	c #674234",
"r$	c #5A4232",
"s$	c #584332",
"t$	c #5E4737",
"u$	c #685142",
"v$	c #654E41",
"w$	c #403128",
"x$	c #3A3F57",
"y$	c #626A90",
"z$	c #5C6387",
"A$	c #343343",
"B$	c #5A4538",
"C$	c #755A46",
"D$	c #99755A",
"E$	c #B2896A",
"F$	c #BB8A6A",
"G$	c #9F7256",
"H$	c #644032",
"I$	c #4A1D20",
"J$	c #5D2A2B",
"K$	c #612C2C",
"L$	c #5C282A",
"M$	c #42181B",
"N$	c #150E0A",
"O$	c #574437",
"P$	c #5E4C47",
"Q$	c #524F61",
"R$	c #4E5574",
"S$	c #555C7D",
"T$	c #53546E",
"U$	c #524445",
"V$	c #5E493B",
"W$	c #5F4838",
"X$	c #BA8E6E",
"Y$	c #A47A5F",
"Z$	c #74493D",
"`$	c #5A2628",
" %	c #5E2B2B",
".%	c #461E1E",
"+%	c #2C1C17",
"@%	c #745B4C",
"#%	c #3A3641",
"$%	c #575D7E",
"%%	c #43465C",
"&%	c #4E403E",
"*%	c #6C5548",
"=%	c #6C5546",
"-%	c #765A46",
";%	c #886850",
">%	c #896951",
",%	c #7E5C48",
"'%	c #6A3D35",
")%	c #602A2B",
"!%	c #2E1E18",
"~%	c #523F34",
"{%	c #1D202D",
"]%	c #404660",
"^%	c #50526A",
"/%	c #56484A",
"(%	c #2F2118",
"_%	c #332119",
":%	c #462521",
"<%	c #5A2A29",
"[%	c #2D1D18",
"}%	c #332721",
"|%	c #2D2526",
"1%	c #493B36",
"2%	c #6A5447",
"3%	c #160404",
"4%	c #3D1418",
"5%	c #522224",
"6%	c #5D2A2A",
"7%	c #5F2B2B",
"8%	c #5D493C",
"9%	c #614C3F",
"0%	c #685143",
"a%	c #745A4B",
"b%	c #422D26",
"c%	c #4D2725",
"d%	c #582828",
"e%	c #5C2A2A",
"f%	c #552727",
"g%	c #482824",
"h%	c #47352B",
"i%	c #462F28",
"j%	c #411C1C",
"k%	c #592828",
"l%	c #532525",
"m%	c #3C1C1B",
"n%	c #503A30",
"o%	c #423329",
"p%	c #281012",
"q%	c #472123",
"r%	c #4F2628",
"s%	c #502628",
"t%	c #59292A",
"u%	c #542626",
"v%	c #411F1E",
"w%	c #4E372E",
"x%	c #11090E",
"y%	c #23151D",
"z%	c #261821",
"A%	c #2E1A22",
"B%	c #4B2427",
"C%	c #5D2B2B",
"D%	c #592928",
"E%	c #472321",
"F%	c #3D2C24",
"G%	c #03060D",
"H%	c #08101B",
"I%	c #05131F",
"J%	c #161520",
"K%	c #3A1E25",
"L%	c #50262A",
"M%	c #5B2A2C",
"N%	c #2B1B16",
"O%	c #5D483C",
"P%	c #05070D",
"Q%	c #0D111B",
"R%	c #0E131E",
"S%	c #14131E",
"T%	c #271721",
"U%	c #3D1E26",
"V%	c #54272A",
"W%	c #0E111B",
"X%	c #0A0B13",
"Y%	c #100A13",
"Z%	c #2D141A",
"`%	c #512526",
" &	c #04060B",
".&	c #0B0E17",
"+&	c #090C14",
"@&	c #070507",
"#&	c #251B15",
"$&	c #392620",
"%&	c #4D2825",
"&&	c #5E2B2C",
"*&	c #58282A",
"=&	c #411D20",
"-&	c #2C1C1B",
";&	c #554237",
">&	c #010204",
",&	c #04050A",
"'&	c #030408",
")&	c #160F0C",
"!&	c #4D3B30",
"~&	c #5F493C",
"{&	c #4B332B",
"]&	c #421D1C",
"^&	c #57282B",
"/&	c #422029",
"(&	c #301825",
"_&	c #251721",
":&	c #342624",
"<&	c #47372C",
"[&	c #49382E",
"}&	c #270F11",
"|&	c #492125",
"1&	c #48222A",
"2&	c #2E1828",
"3&	c #231528",
"4&	c #221425",
"5&	c #140A16",
"6&	c #32261F",
"7&	c #664F42",
"8&	c #1D1013",
"9&	c #2E1622",
"0&	c #301927",
"a&	c #261527",
"b&	c #231527",
"c&	c #211324",
"d&	c #362921",
"e&	c #604A3D",
"f&	c #45352D",
"g&	c #271C20",
"h&	c #180D1C",
"i&	c #1A0E1C",
"j&	c #1A0E1D",
"k&	c #1F131D",
"l&	c #3D2E29",
"m&	c #775D4E",
"n&	c #403028",
"o&	c #1E1513",
"p&	c #201714",
"q&	c #1C1312",
"r&	c #31241F",
"s&	c #5D483B",
"                                                                                                                                ",
"                                                                                                                                ",
"                                                                                                                                ",
"                                                                                                                                ",
"                                                                                                                                ",
"                                                                                                                                ",
"                                                                                                                                ",
"                                                                                                                                ",
"                                                                                                                                ",
"                                                                                                                                ",
"                                                                                                                                ",
"                                                . + @ @ @ @ @ @ @ #                                                             ",
"                                                $ % & * * * * = * - +                                                           ",
"                                            . ; > , ' ) ! ~ ~ { ] ^ / +                                                         ",
"                                            ( _ : < [ } | 1 2 3 3 4 ^ 5 6                                                       ",
"                                        . 7 8 9 0 a b c d e f f e g h i j k l @                                                 ",
"                                        m n o p q r b s d e t t u v w x y z A k                                                 ",
"                                    . B C D E F G H I J K e L M N O P Q R S T j                                                 ",
"                                    U V W X Y Z `  ...+.@.#.f $.%.&.*.=.-.;.>.j                                                 ",
"                                    # ,.'.).!.~.{.{.].^./.(._.:.<.[.}.|.1.2.3.j                                                 ",
"                                    # 4.5.6.7.8.9.0.8.8.a.b.b.c.d.e.f.1.g.h.i.j                                                 ",
"                                    # 4.j.k.l.m.l.l.l.l.l.n.o.p.q.r.s.t.u.v.w.j                                                 ",
"                                    # 4.x.y.z.A.A.A.B.C.D.E.F.G.H.I.J.K.L.M.N.j                                                 ",
"                                    # 4.O.P.Q.H Q.R.S.T.U.V.W.X.Y.Z.`. +.+++N.j                                                 ",
"                                    6 5 @+#+$+%+&+*+=+-+;+>+,+'+)+!+~+{+]+^+/+(+                                                ",
"                                      @ _+:+<+[+}+|+-+1+;+>+,+'+)+2+3+4+5+6+7+#                                                 ",
"                                        m /+8+9+0+a+b+c+d+e+,+f+g+h+i+j+k+C                                                     ",
"                                        ( l+m+n+o+p+q+r+s+t+,+u+v+w+x+y+z+V .                                                   ",
"                                        m /+A+B+C+D+E+F+G+H+I+J+K+L+M+N+O+C                                                     ",
"                                      P+l Q+R+S+T+U+V+W+X+Y+Z+`+ @`+.@+@@@#@7 6         @ $ $@( 6                               ",
"                                    6 %@&@*@=@-@;@>@,@'@)@!@~@{@]@^@/@(@_@:@<@[@      # }@A |@1@$@                              ",
"                                    U 4.2@3@4@)+5@5@6@7@8@9@0@a@5@5@b@c@d@e@f@j       @ * g@h@i@j@$@.                           ",
"                                    P+k@l@m@n@o@5@5@p@q@r@s@0@5@2+t@b@u@v@e@w@j       @ * x@y@z@A@B@(                           ",
"                                  ( %@C@D@E@b@2+5@5@;@U+F@s@0@5@2+2+o@u@G@H@I@J@      6 K@L@M@N@O@P@Q@7+.                       ",
"                                  %@R@S@T@U@b@5@5@5@5@V@W@X@Y@b@o@o@Z@`@v@ #.#+## # # P+( @###$#%#&#*#_ +                       ",
"                                  }@=#-#;#>#5@5@5@a@,#'#)#!#~#{#]#{#^#/#(#_#:#<#4.4.4.4.[#* }#|#1#2#3#& @                       ",
"                                  4#5#6#7#>@5@5@2+b@8#9#0#a#b#J+`+c#`+d#J+V+e#f#g#g#h#h#i#j#k#l#m#n#o#* @                       ",
"                                  4#5#p#q#r#5@5@2+5@s#t#u#v#w#x#y#/@z#/#x#,@A#f#B#C#D#D#D#E#F#G#H#I#o#* @                       ",
"                                  4#5#J#K#r#5@5@U+L#M#N#O#P#Q#R#S#T#U#V#W#X#Y#j+Z#`# $.$+$@$#$$$H#I#o#* @                       ",
"                                  4#5#J#K#r#5@5@%$&$*$=$-$;$>$,$'$W#W#^#6@o@A#j+)$!$~$~$~${$]$^$1#n#o#* @                       ",
"                                  }@/$($3+;@b@)+_$:$<$[$}$0#|$1$2$3$4$5$6$7$8$9$0$0$0$0$a$b$c$d$1#2#e$= @                       ",
"                                  5 f$g$h$2+i$j$k$l$m$[$}$0#n$;$v#o$p$q$r$s$t$u$[@[@[@[@[@v$w$x$y$z$A$6+@                       ",
"                                  (+B$C$D$E$Z@F$G$H$I$J$K$0#0#n$|$-$L$M$N$z O$B         [@P$Q$R$S$T$U$+##                       ",
"                                  . ( V$W$D$h$X$Y$Z$`$0#0#0#0#0#0#K$ %.%+%4.( .       @%k@#%$%2#%%&%*%U                         ",
"                                      =%V$-%;%>%,%'%)%0#0#0#0#0#0#K$ %.%!%C           @ ~%{%]%^%/%j P+                          ",
"                                        7 & (%_%:%<%K$0#0#0#0#0#0#K$ %.%[%V .         + _ }%|%1%2%.                             ",
"                                        m l+3%4%5%6%0#0#0#0#0#0#0#}$7%.%+%8%.         . [@5 9%0%@                               ",
"                                        a%n b%c%d% %K$0#0#0#0#0#0#e%f%g%h%+#.                                                   ",
"                                        . 7 }@i%j%k%0#0#0#0#0#0#0#l%m%n%0%m                                                     ",
"                                            7+o%p%q%r%s%t%0#0#0#0#u%v%w%- 7                                                     ",
"                                            [@0$x%y%z%A%B%C%0#0#0# %D%E%F%4#.                                                   ",
"                                            [@0$G%H%I%J%K%L%M%0#0#}$7%.%N%O%.                                                   ",
"                                            [@0$P%Q%R%S%T%U%V%0#0#K$ %.%[%V .                                                   ",
"                                            [@0$P%W%Q%X%Y%Z%`%0#K$K$7%.%!%C                                                     ",
"                                            [@0$ &.&+&@&#&$&%&k% %&&*&=&-&;&7+#                                                 ",
"                                            [@0$>&,&'&)&!&~&{&]&d%^&/&(&_&:&/+(+                                                ",
"                                            $ B@0$0$w$<&+#7+[&}&|&1&2&3&4&5&6&7&                                                ",
"                                            U $ [@[@l 7+@%$ i 8&9&0&a&b&c&5&d&J@                                                ",
"                                                          m e&f&g&h&i&j&k&l&1@7+                                                ",
"                                                          m&+ 7&n&o&p&q&r&% ( .                                                 ",
"                                                              ; }@k@4.,.s&7+                                                    ",
"                                                              m&6 # # # # .                                                     ",
"                                                                                                                                ",
"                                                                                                                                "};
