/* XPM */
static char * player_left1_xpm[] = {
"64 64 702 2",
"  	c #785E4E",
". 	c #765C4C",
"+ 	c #745B4B",
"@ 	c #755B4C",
"# 	c #775D4D",
"$ 	c #634D3F",
"% 	c #544135",
"& 	c #534035",
"* 	c #534034",
"= 	c #5C473B",
"- 	c #705849",
"; 	c #695345",
"> 	c #483A32",
", 	c #202020",
"' 	c #1D1E1F",
") 	c #1F2020",
"! 	c #1D1C1C",
"~ 	c #1A1717",
"{ 	c #131112",
"] 	c #362A23",
"^ 	c #604B3E",
"/ 	c #735A4A",
"( 	c #765D4D",
"_ 	c #634D40",
": 	c #35383A",
"< 	c #2D3B40",
"[ 	c #2D3C40",
"} 	c #2C3A3F",
"| 	c #253238",
"1 	c #19252C",
"2 	c #131C24",
"3 	c #1E1C21",
"4 	c #3D2F29",
"5 	c #5A4639",
"6 	c #72594A",
"7 	c #6D5546",
"8 	c #6B5345",
"9 	c #665042",
"0 	c #4A392E",
"a 	c #15191D",
"b 	c #2A3A3F",
"c 	c #38494F",
"d 	c #394A50",
"e 	c #2F3F46",
"f 	c #212F38",
"g 	c #19242E",
"h 	c #131B25",
"i 	c #0B1119",
"j 	c #3B2E27",
"k 	c #614B3E",
"l 	c #715849",
"m 	c #4B3A2F",
"n 	c #3B2D24",
"o 	c #3C2E24",
"p 	c #2B1F16",
"q 	c #1B1F1D",
"r 	c #303D42",
"s 	c #3A4A51",
"t 	c #3A4B51",
"u 	c #222F38",
"v 	c #151D28",
"w 	c #121A24",
"x 	c #1F1D21",
"y 	c #382C26",
"z 	c #5A463A",
"A 	c #735A4B",
"B 	c #372A20",
"C 	c #5D4C29",
"D 	c #89713F",
"E 	c #927842",
"F 	c #8A744D",
"G 	c #6D686A",
"H 	c #4E5B70",
"I 	c #3F4F5B",
"J 	c #394A4F",
"K 	c #2F3F45",
"L 	c #202F37",
"M 	c #18232C",
"N 	c #141C27",
"O 	c #131B26",
"P 	c #101821",
"Q 	c #0B1016",
"R 	c #3E3029",
"S 	c #5F4A3D",
"T 	c #6F5748",
"U 	c #3F3123",
"V 	c #907743",
"W 	c #CFAC63",
"X 	c #DDB768",
"Y 	c #CEAD71",
"Z 	c #9D8F8C",
"` 	c #626C8D",
" .	c #465569",
"..	c #394950",
"+.	c #304048",
"@.	c #24313B",
"#.	c #1D2732",
"$.	c #1A212D",
"%.	c #19202D",
"&.	c #19202C",
"*.	c #171E2A",
"=.	c #1E1D23",
"-.	c #352922",
";.	c #5E493C",
">.	c #765C4D",
",.	c #413324",
"'.	c #9D8249",
").	c #E1BB6C",
"!.	c #F0C872",
"~.	c #DFBB77",
"{.	c #A49286",
"].	c #5D6485",
"^.	c #47526C",
"/.	c #404C5C",
"(.	c #404C5D",
"_.	c #3C4759",
":.	c #384054",
"<.	c #353C51",
"[.	c #343A4F",
"}.	c #353B50",
"|.	c #343A4E",
"1.	c #272C3C",
"2.	c #1E191D",
"3.	c #584438",
"4.	c #3F3124",
"5.	c #937945",
"6.	c #D3B066",
"7.	c #D1AE6B",
"8.	c #93806A",
"9.	c #494E68",
"0.	c #414964",
"a.	c #434962",
"b.	c #424962",
"c.	c #424861",
"d.	c #424761",
"e.	c #414761",
"f.	c #414760",
"g.	c #31364A",
"h.	c #241F23",
"i.	c #594539",
"j.	c #3A2C22",
"k.	c #665432",
"l.	c #957C4B",
"m.	c #9E844F",
"n.	c #917A4D",
"o.	c #635749",
"p.	c #2A3247",
"q.	c #2B3049",
"r.	c #30334A",
"s.	c #31364B",
"t.	c #31374B",
"u.	c #32384C",
"v.	c #252939",
"w.	c #221B1D",
"x.	c #342720",
"y.	c #181618",
"z.	c #312B2B",
"A.	c #4F4038",
"B.	c #5F4C40",
"C.	c #5E4B41",
"D.	c #5A453E",
"E.	c #563D38",
"F.	c #473132",
"G.	c #29232C",
"H.	c #181D2A",
"I.	c #1A1E2B",
"J.	c #191E2B",
"K.	c #171F2B",
"L.	c #171F2A",
"M.	c #10161F",
"N.	c #1E1714",
"O.	c #000011",
"P.	c #30222B",
"Q.	c #7B5E4E",
"R.	c #A07C62",
"S.	c #A68065",
"T.	c #A27A5F",
"U.	c #996C52",
"V.	c #7C5441",
"W.	c #422C2D",
"X.	c #161124",
"Y.	c #1E1726",
"Z.	c #191A26",
"`.	c #141C26",
" +	c #131C26",
".+	c #0D131C",
"++	c #1D1614",
"@+	c #6C5446",
"#+	c #4F3D32",
"$+	c #302420",
"%+	c #402F2C",
"&+	c #927059",
"*+	c #BE9272",
"=+	c #C29675",
"-+	c #BD8F6E",
";+	c #B27F5E",
">+	c #90624A",
",+	c #4C3231",
"'+	c #190C25",
")+	c #231627",
"!+	c #1F1927",
"~+	c #1B1B28",
"{+	c #1A1B28",
"]+	c #181A26",
"^+	c #151923",
"/+	c #292323",
"(+	c #45352C",
"_+	c #6E5647",
":+	c #554236",
"<+	c #413128",
"[+	c #8E6D54",
"}+	c #BB9070",
"|+	c #C19574",
"1+	c #241527",
"2+	c #221727",
"3+	c #211727",
"4+	c #1B1321",
"5+	c #151117",
"6+	c #47372E",
"7+	c #695244",
"8+	c #382A20",
"9+	c #6D533F",
"0+	c #9A765C",
"a+	c #B48B6C",
"b+	c #BC8E6E",
"c+	c #B27F5F",
"d+	c #4B3231",
"e+	c #0F0724",
"f+	c #1A0D25",
"g+	c #180925",
"h+	c #140522",
"i+	c #09001C",
"j+	c #010012",
"k+	c #0E090A",
"l+	c #2B1F18",
"m+	c #332319",
"n+	c #684D3A",
"o+	c #A47D60",
"p+	c #BB8C6C",
"q+	c #B27E5E",
"r+	c #503331",
"s+	c #2D1A28",
"t+	c #3B262C",
"u+	c #3F2B2F",
"v+	c #3F2D2E",
"w+	c #3A2A25",
"x+	c #2D2019",
"y+	c #1B130D",
"z+	c #4E3C31",
"A+	c #2D2018",
"B+	c #593A28",
"C+	c #855B42",
"D+	c #A6785A",
"E+	c #B48262",
"F+	c #AF7A5A",
"G+	c #93624A",
"H+	c #633B34",
"I+	c #684037",
"J+	c #835A46",
"K+	c #8D6852",
"L+	c #926F58",
"M+	c #916F57",
"N+	c #7A5D47",
"O+	c #3E2F23",
"P+	c #705748",
"Q+	c #5E483A",
"R+	c #563C2B",
"S+	c #875E45",
"T+	c #AA7859",
"U+	c #B07C5C",
"V+	c #B17D5D",
"W+	c #99674E",
"X+	c #724238",
"Y+	c #865541",
"Z+	c #A87557",
"`+	c #B68767",
" @	c #BC9171",
".@	c #BD9271",
"+@	c #A47E61",
"@@	c #694D39",
"#@	c #553F32",
"$@	c #755C4C",
"%@	c #574337",
"&@	c #46362C",
"*@	c #624C3F",
"=@	c #6D5547",
"-@	c #564236",
";@	c #6A4A37",
">@	c #8D6248",
",@	c #A97A5C",
"'@	c #B98A69",
")@	c #BB8B6B",
"!@	c #BA8B6A",
"~@	c #B98A6A",
"{@	c #A1745A",
"]@	c #77483C",
"^@	c #895642",
"/@	c #AC7858",
"(@	c #BB8B6A",
"_@	c #C19573",
":@	c #C29674",
"<@	c #B58969",
"[@	c #996C50",
"}@	c #75513B",
"|@	c #574033",
"1@	c #664F41",
"2@	c #614E48",
"3@	c #484351",
"4@	c #2D3145",
"5@	c #1E1B21",
"6@	c #3C2C23",
"7@	c #714C36",
"8@	c #A67355",
"9@	c #B98868",
"0@	c #BF9372",
"a@	c #C09473",
"b@	c #BF9373",
"c@	c #A67B61",
"d@	c #784B3F",
"e@	c #8B5B47",
"f@	c #AF7D5E",
"g@	c #BB8D6C",
"h@	c #B28161",
"i@	c #8A6148",
"j@	c #422F23",
"k@	c #564337",
"l@	c #484452",
"m@	c #5B6081",
"n@	c #515777",
"o@	c #2C2C3B",
"p@	c #3A2B22",
"q@	c #A77455",
"r@	c #B98968",
"s@	c #C09574",
"t@	c #794D40",
"u@	c #926651",
"v@	c #B88A6B",
"w@	c #BF9371",
"x@	c #C09372",
"y@	c #BB8E6D",
"z@	c #936F54",
"A@	c #483427",
"B@	c #584538",
"C@	c #604D46",
"D@	c #4E4959",
"E@	c #4B516F",
"F@	c #585F81",
"G@	c #575974",
"H@	c #504346",
"I@	c #644E40",
"J@	c #675042",
"K@	c #36281F",
"L@	c #6F4A35",
"M@	c #A67455",
"N@	c #966C56",
"O@	c #A47C5F",
"P@	c #76533D",
"Q@	c #624737",
"R@	c #3F3944",
"S@	c #595F81",
"T@	c #5E668B",
"U@	c #414661",
"V@	c #493E40",
"W@	c #675146",
"X@	c #654F41",
"Y@	c #463328",
"Z@	c #755039",
"`@	c #B88867",
" #	c #BF9271",
".#	c #A57A60",
"+#	c #794C40",
"@#	c #936954",
"##	c #B98D6E",
"$#	c #B68868",
"%#	c #A27254",
"&#	c #75503A",
"*#	c #47342A",
"=#	c #2F3143",
"-#	c #5D6589",
";#	c #646C92",
">#	c #373C53",
",#	c #352820",
"'#	c #5B463A",
")#	c #695140",
"!#	c #82634C",
"~#	c #996E53",
"{#	c #AB7758",
"]#	c #B38060",
"^#	c #B78666",
"/#	c #B78767",
"(#	c #B88767",
"_#	c #9F7157",
":#	c #74463B",
"<#	c #7E5344",
"[#	c #9D735B",
"}#	c #B3886A",
"|#	c #BE906F",
"1#	c #B38464",
"2#	c #805C45",
"3#	c #3B2B21",
"4#	c #313243",
"5#	c #5D6488",
"6#	c #636B92",
"7#	c #3A3E55",
"8#	c #0F0906",
"9#	c #1E150F",
"0#	c #221812",
"a#	c #211812",
"b#	c #1E1610",
"c#	c #6D5340",
"d#	c #AA8365",
"e#	c #AF7959",
"f#	c #B07D5D",
"g#	c #99664D",
"h#	c #703F35",
"i#	c #602C2C",
"j#	c #764A3E",
"k#	c #A47A60",
"l#	c #B98E6E",
"m#	c #86664E",
"n#	c #3E2E24",
"o#	c #624D3F",
"p#	c #5C6488",
"q#	c #656C92",
"r#	c #414257",
"s#	c #1F1303",
"t#	c #211710",
"u#	c #221712",
"v#	c #1A110D",
"w#	c #060303",
"x#	c #B08769",
"y#	c #B07B5B",
"z#	c #B88868",
"A#	c #B78665",
"B#	c #98654B",
"C#	c #6F3D34",
"D#	c #581F26",
"E#	c #6D3E37",
"F#	c #A2785E",
"G#	c #C29574",
"H#	c #BA9070",
"I#	c #876850",
"J#	c #434358",
"K#	c #251809",
"L#	c #271B14",
"M#	c #271C15",
"N#	c #281C15",
"O#	c #281C16",
"P#	c #201611",
"Q#	c #0A0604",
"R#	c #AF8768",
"S#	c #BC8D6C",
"T#	c #B48161",
"U#	c #B78766",
"V#	c #BC8E6D",
"W#	c #BD8F6F",
"X#	c #B78868",
"Y#	c #A97659",
"Z#	c #8F5D46",
"`#	c #6C3A33",
" $	c #5B2428",
".$	c #6B3D36",
"+$	c #956D56",
"@$	c #B1886A",
"#$	c #BA8F6F",
"$$	c #87674F",
"%$	c #3D3F56",
"&$	c #110600",
"*$	c #150D07",
"=$	c #160E0A",
"-$	c #0D0705",
";$	c #000000",
">$	c #A9775A",
",$	c #8C5B47",
"'$	c #734136",
")$	c #64312E",
"!$	c #5F2A2B",
"~$	c #61312E",
"{$	c #654436",
"]$	c #81624C",
"^$	c #AD8667",
"/$	c #303142",
"($	c #383C54",
"_$	c #271C16",
":$	c #3E2F26",
"<$	c #43342A",
"[$	c #423229",
"}$	c #6B523F",
"|$	c #98755A",
"1$	c #A57F63",
"2$	c #A47D61",
"3$	c #A07358",
"4$	c #9C694E",
"5$	c #9C684D",
"6$	c #905E47",
"7$	c #714036",
"8$	c #5E2A2B",
"9$	c #612D2D",
"0$	c #5B2929",
"a$	c #350E14",
"b$	c #543D2D",
"c$	c #9F775B",
"d$	c #876750",
"e$	c #3D2E24",
"f$	c #343343",
"g$	c #5C6387",
"h$	c #626A90",
"i$	c #3A3F57",
"j$	c #403128",
"k$	c #654E41",
"l$	c #685142",
"m$	c #5E4737",
"n$	c #584332",
"o$	c #5A4232",
"p$	c #674234",
"q$	c #724236",
"r$	c #744237",
"s$	c #5F2B2C",
"t$	c #381216",
"u$	c #513627",
"v$	c #976B4F",
"w$	c #B68565",
"x$	c #BE9070",
"y$	c #B88E6E",
"z$	c #86674F",
"A$	c #403026",
"B$	c #524445",
"C$	c #53546E",
"D$	c #555C7D",
"E$	c #4E5574",
"F$	c #524F61",
"G$	c #5E4C47",
"H$	c #574437",
"I$	c #150E0A",
"J$	c #42181B",
"K$	c #5C282A",
"L$	c #612C2C",
"M$	c #5D2A2B",
"N$	c #4A1D20",
"O$	c #644032",
"P$	c #9F7256",
"Q$	c #BB8A6A",
"R$	c #B2896A",
"S$	c #99755A",
"T$	c #755A46",
"U$	c #5A4538",
"V$	c #6C5548",
"W$	c #4E403E",
"X$	c #43465C",
"Y$	c #575D7E",
"Z$	c #3A3641",
"`$	c #745B4C",
" %	c #2C1C17",
".%	c #461E1E",
"+%	c #5E2B2B",
"@%	c #5A2628",
"#%	c #74493D",
"$%	c #A47A5F",
"%%	c #BA8E6E",
"&%	c #5F4838",
"*%	c #5E493B",
"=%	c #56484A",
"-%	c #50526A",
";%	c #404660",
">%	c #1D202D",
",%	c #523F34",
"'%	c #2E1E18",
")%	c #602A2B",
"!%	c #6A3D35",
"~%	c #7E5C48",
"{%	c #896951",
"]%	c #886850",
"^%	c #765A46",
"/%	c #6C5546",
"(%	c #6A5447",
"_%	c #493B36",
":%	c #2D2526",
"<%	c #332721",
"[%	c #2D1D18",
"}%	c #5A2A29",
"|%	c #462521",
"1%	c #332119",
"2%	c #2F2118",
"3%	c #685143",
"4%	c #614C3F",
"5%	c #5D493C",
"6%	c #5F2B2B",
"7%	c #5D2A2A",
"8%	c #522224",
"9%	c #3D1418",
"0%	c #160404",
"a%	c #47352B",
"b%	c #482824",
"c%	c #552727",
"d%	c #5C2A2A",
"e%	c #582828",
"f%	c #4D2725",
"g%	c #422D26",
"h%	c #745A4B",
"i%	c #503A30",
"j%	c #3C1C1B",
"k%	c #532525",
"l%	c #592828",
"m%	c #411C1C",
"n%	c #462F28",
"o%	c #4E372E",
"p%	c #411F1E",
"q%	c #542626",
"r%	c #59292A",
"s%	c #502628",
"t%	c #4F2628",
"u%	c #472123",
"v%	c #281012",
"w%	c #423329",
"x%	c #3D2C24",
"y%	c #472321",
"z%	c #592928",
"A%	c #5D2B2B",
"B%	c #4B2427",
"C%	c #2E1A22",
"D%	c #261821",
"E%	c #23151D",
"F%	c #11090E",
"G%	c #5D483C",
"H%	c #2B1B16",
"I%	c #5B2A2C",
"J%	c #50262A",
"K%	c #3A1E25",
"L%	c #161520",
"M%	c #05131F",
"N%	c #08101B",
"O%	c #03060D",
"P%	c #54272A",
"Q%	c #3D1E26",
"R%	c #271721",
"S%	c #14131E",
"T%	c #0E131E",
"U%	c #0D111B",
"V%	c #05070D",
"W%	c #512526",
"X%	c #2D141A",
"Y%	c #100A13",
"Z%	c #0A0B13",
"`%	c #0E111B",
" &	c #554237",
".&	c #2C1C1B",
"+&	c #411D20",
"@&	c #58282A",
"#&	c #5E2B2C",
"$&	c #4D2825",
"%&	c #392620",
"&&	c #251B15",
"*&	c #070507",
"=&	c #090C14",
"-&	c #0B0E17",
";&	c #04060B",
">&	c #342624",
",&	c #251721",
"'&	c #301825",
")&	c #422029",
"!&	c #57282B",
"~&	c #421D1C",
"{&	c #4B332B",
"]&	c #5F493C",
"^&	c #4D3B30",
"/&	c #160F0C",
"(&	c #030408",
"_&	c #04050A",
":&	c #010204",
"<&	c #664F42",
"[&	c #32261F",
"}&	c #140A16",
"|&	c #221425",
"1&	c #231528",
"2&	c #2E1828",
"3&	c #48222A",
"4&	c #492125",
"5&	c #270F11",
"6&	c #49382E",
"7&	c #47372C",
"8&	c #362921",
"9&	c #211324",
"0&	c #231527",
"a&	c #261527",
"b&	c #301927",
"c&	c #2E1622",
"d&	c #1D1013",
"e&	c #3D2E29",
"f&	c #1F131D",
"g&	c #1A0E1D",
"h&	c #1A0E1C",
"i&	c #180D1C",
"j&	c #271C20",
"k&	c #45352D",
"l&	c #604A3D",
"m&	c #31241F",
"n&	c #1C1312",
"o&	c #201714",
"p&	c #1E1513",
"q&	c #403028",
"r&	c #775D4E",
"s&	c #5D483B",
"                                                                                                                                ",
"                                                                                                                                ",
"                                                                                                                                ",
"                                                                                                                                ",
"                                                                                                                                ",
"                                                                                                                                ",
"                                                                                                                                ",
"                                                                                                                                ",
"                                                                                                                                ",
"                                                                                                                                ",
"                                                                                                                                ",
"                                                            . + + + + + + + @ #                                                 ",
"                                                          @ $ % & % % % % * = -                                                 ",
"                                                        @ ; > , ' ) ) ! ~ { ] ^ / #                                             ",
"                                                      ( _ > : < < [ } | 1 2 3 4 5 6                                             ",
"                                                + 7 8 9 0 a b c d d c e f g h i j k l #                                         ",
"                                                8 m n o p q r s t t c e u g v w x y z A                                         ",
"                                                9 B C D E F G H I J c K L M N O P Q R S T #                                     ",
"                                                9 U V W X Y Z `  .d ..+.@.#.$.%.&.*.=.-.;.>.                                    ",
"                                                9 ,.'.).!.~.{.].^./.(._.:.<.[.[.}.|.1.2.3..                                     ",
"                                                9 4.5.6.).7.8.9.0.a.a.b.c.c.d.e.c.f.g.h.i..                                     ",
"                                                9 j.k.l.m.n.o.p.q.r.s.t.t.t.t.t.u.t.v.w.i..                                     ",
"                                                9 x.y.z.A.B.C.D.E.F.G.H.I.J.K.K.K.L.M.N.i..                                     ",
"                                                9 x.O.P.Q.R.S.T.U.V.W.X.Y.Z.`. +N  +.+++i..                                     ",
"                                                @+#+$+%+&+*+=+-+;+>+,+'+)+!+~+{+]+^+/+(+_ (                                     ",
"                                                . _+:+<+[+}+|+-+;+>+,+'+1+)+2+3+4+5+6+7++                                       ",
"                                                    S 8+9+0+a+b+c+>+d+e+f+g+h+i+j+k+#+A                                         ",
"                                                  # ;.l+m+n+o+p+q+>+r+s+t+u+v+w+x+y+z+6                                         ",
"                                                    S A+B+C+D+E+F+G+H+I+J+K+L+M+N+O+#+A                                         ",
"                              ( 6 P+- +         ( l Q+R+S+T+U+V+U+W+X+Y+Z+`+ @.@+@@@#@7 $@                                      ",
"                              P+%@&@m *@.       =@-@;@>@,@'@)@!@~@{@]@^@/@(@_@:@<@[@}@|@1@(                                     ",
"                          # P+2@3@4@5@% +       9 6@7@8@9@0@a@a@b@c@d@e@f@g@a@a@-+h@i@j@i.>.                                    ",
"                          6 k@l@m@n@o@% +       9 p@7@q@r@0@s@|+a@c@t@u@v@w@a@a@x@y@z@A@B@$@                                    ",
"                      # _+C@D@E@F@G@H@I@(       J@K@L@M@r@x@|+|+a@c@t@N@ @:@a@a@|+0@O@P@Q@1@6                                   ",
"                      @ 5 R@S@T@U@V@W@6 $@. . . X@Y@Z@q@`@ #x@x@0@.#+#@###a@a@a@a@0@$#%#&#*#1@                                  ",
"                      + * =#-#;#>#,#% '#i.i.i.i.)#!#~#{#]#^#/#(#/#_#:#<#[#}#b@a@a@a@|#1#2#3#*@                                  ",
"                      + % 4#5#6#7#8#9#0#a#a#b#b#c#d#`+F+e#U+f#U+F+g#h#i#j#k#0@|+a@a@_@l#m#n#o#                                  ",
"                      + % 4#p#q#r#s#t#u#u#u#v#w#c#x#(@y#]#z#'@A#y#B#C#D#E#F#a@|+a@a@G#H#I#n#o#                                  ",
"                      + % 4#p#q#J#K#L#M#N#O#P#Q#9+R#S#T#U#V#W#X#Y#Z#`# $.$+$@$ @a@a@G##$$$n#o#                                  ",
"                      + % 4#5#;#%$&$*$=$=$=$-$;$9+x#x@g@^#T#T#>$,$'$)$!$~${$]$^$a@a@G##$$$n#o#                                  ",
"                      + & /$-#;#($_$:$<$[$[$[$[$}$|$1$2$3$4$5$6$7$8$i#9$0$a$b$c$-+0@:@}+d$e$*@                                  ",
"                      + :+f$g$h$i$j$k$=@=@=@=@=@l$m$n$o$p$q$r$C#)$s$i#9$0$t$u$v$w$x$|+y$z$A$_                                   ",
"                      . X@B$C$D$E$F$G$=@        T H$n I$J$K$!$8$s$i#i#L$M$N$O$P$Q$ #R$S$T$U$@+                                  ",
"                        >.V$W$X$-#Y$Z$B@`$      # 6 i. %.%+%L$i#i#i#i#i#i#@%#%$%%%y$S$&%*%6 #                                   ",
"                          $@9 =%-%;%>%,%+           S '%.%+%L$i#i#i#i#i#i#)%!%~%{%]%^%*%/%                                      ",
"                            # (%_%:%<%5 @         # ;.[%.%+%L$i#i#i#i#i#i#L$}%|%1%2%* l                                         ",
"                              + 3%4%_ =@#         # 5% %.%6%9$i#i#i#i#i#i#i#7%8%9%0%z+A                                         ",
"                                                  # X@a%b%c%d%i#i#i#i#i#i#L$+%e%f%g%z h%                                        ",
"                                                    A 3%i%j%k%i#i#i#i#i#i#i#l%m%n%*@l #                                         ",
"                                                    l $ o%p%q%i#i#i#i#r%s%t%u%v%w%_+                                            ",
"                                                  # o#x%y%z%+%i#i#i#A%B%C%D%E%F%[$=@                                            ",
"                                                  # G%H%.%6%9$i#i#I%J%K%L%M%N%O%[$=@                                            ",
"                                                  # ;.[%.%+%L$i#i#P%Q%R%S%T%U%V%[$=@                                            ",
"                                                    S '%.%6%L$L$i#W%X%Y%Z%U%`%V%[$=@                                            ",
"                                                . _+ &.&+&@&#&+%l%$&%&&&*&=&-&;&[$=@                                            ",
"                                                @+#+>&,&'&)&!&e%~&{&]&^&/&(&_&:&[$=@                                            ",
"                                                <&[&}&|&1&2&3&4&5&6&_+X@7&j$[$[$k@-                                             ",
"                                                J@8&}&9&0&a&b&c&d&0 - `$_+7 =@=@- >.                                            ",
"                                                _+%@e&f&g&h&i&j&k&l&A                                                           ",
"                                                # 6 = m&n&o&p&q&<&@ r&                                                          ",
"                                                    _+s&3.i.B@*@/                                                               ",
"                                                    # . . . . ( r&                                                              ",
"                                                                                                                                ",
"                                                                                                                                "};
