/* XPM */
static char * player_right4_xpm[] = {
"64 64 653 2",
"  	c #785E4E",
". 	c #745B4C",
"+ 	c #6D5546",
"@ 	c #6A5244",
"# 	c #6A5344",
"$ 	c #6F5748",
"% 	c #775D4D",
"& 	c #6B5345",
"* 	c #4B3A2F",
"= 	c #392B23",
"- 	c #3B2D25",
"; 	c #3B2E25",
"> 	c #3A2D24",
", 	c #3C2E25",
"' 	c #564337",
") 	c #72594A",
"! 	c #755C4C",
"~ 	c #534136",
"{ 	c #292120",
"] 	c #0B1218",
"^ 	c #10191F",
"/ 	c #192328",
"( 	c #1F2A2E",
"_ 	c #202A2E",
": 	c #3E3834",
"< 	c #5D4A3E",
"[ 	c #6F5648",
"} 	c #775D4E",
"| 	c #4B3A30",
"1 	c #261F1E",
"2 	c #181B23",
"3 	c #17212B",
"4 	c #1F2B34",
"5 	c #2B3A41",
"6 	c #344449",
"7 	c #35454B",
"8 	c #35444A",
"9 	c #303A3E",
"0 	c #332C28",
"a 	c #584538",
"b 	c #765D4D",
"c 	c #765C4D",
"d 	c #685143",
"e 	c #513F34",
"f 	c #2E2623",
"g 	c #0E151E",
"h 	c #141C26",
"i 	c #1A252F",
"j 	c #223038",
"k 	c #304047",
"l 	c #394A50",
"m 	c #3A4B51",
"n 	c #3A4B50",
"o 	c #38494E",
"p 	c #26383E",
"q 	c #020116",
"r 	c #3C2D25",
"s 	c #594539",
"t 	c #5F4A3D",
"u 	c #705849",
"v 	c #6E5647",
"w 	c #4E3D32",
"x 	c #221C1B",
"y 	c #131821",
"z 	c #141C27",
"A 	c #151D28",
"B 	c #19242E",
"C 	c #212F38",
"D 	c #2F3F46",
"E 	c #38494F",
"F 	c #3B4C54",
"G 	c #404F5A",
"H 	c #474C4F",
"I 	c #4E4430",
"J 	c #544423",
"K 	c #524226",
"L 	c #3A2E1A",
"M 	c #3D2F25",
"N 	c #675143",
"O 	c #4E3C32",
"P 	c #2F2623",
"Q 	c #0D141C",
"R 	c #111923",
"S 	c #131B26",
"T 	c #131C26",
"U 	c #17232C",
"V 	c #202E37",
"W 	c #2F3F45",
"X 	c #384A4F",
"Y 	c #425262",
"Z 	c #596480",
"` 	c #877D7D",
" .	c #AF9361",
"..	c #BA9A56",
"+.	c #AE9052",
"@.	c #786337",
"#.	c #3A2D21",
"$.	c #664F42",
"%.	c #765C4C",
"&.	c #5A4639",
"*.	c #241D1B",
"=.	c #1A1F2C",
"-.	c #242A3A",
";.	c #252B3B",
">.	c #242B3B",
",.	c #272F3E",
"'.	c #2B3644",
").	c #35424E",
"!.	c #3B4A54",
"~.	c #47556B",
"{.	c #636C8E",
"].	c #A4938E",
"^.	c #DAB776",
"/.	c #EAC26F",
"(.	c #DCB76A",
"_.	c #997E47",
":.	c #403224",
"<.	c #665042",
"[.	c #221D20",
"}.	c #2E3346",
"|.	c #3D435A",
"1.	c #3E445C",
"2.	c #3D435B",
"3.	c #3F465D",
"4.	c #414960",
"5.	c #434C62",
"6.	c #454F6A",
"7.	c #555B79",
"8.	c #9F8C7B",
"9.	c #DDB973",
"0.	c #EEC672",
"a.	c #DFBA6B",
"b.	c #9B8049",
"c.	c #413224",
"d.	c #241E22",
"e.	c #3C425B",
"f.	c #383F5A",
"g.	c #3C425A",
"h.	c #82715C",
"i.	c #BB9C60",
"j.	c #CBA962",
"k.	c #BF9F5D",
"l.	c #846D3E",
"m.	c #3E3023",
"n.	c #201919",
"o.	c #242A3B",
"p.	c #272A3B",
"q.	c #302A3B",
"r.	c #322B3B",
"s.	c #312F3C",
"t.	c #4E453D",
"u.	c #6B5A3F",
"v.	c #715F3F",
"w.	c #68583A",
"x.	c #463A25",
"y.	c #372A21",
"z.	c #584438",
"A.	c #1A1412",
"B.	c #0C131B",
"C.	c #121B26",
"D.	c #161A25",
"E.	c #1A1825",
"F.	c #141524",
"G.	c #34252A",
"H.	c #614237",
"I.	c #785443",
"J.	c #7E604C",
"K.	c #806451",
"L.	c #7B5F4F",
"M.	c #5C4740",
"N.	c #1C1728",
"O.	c #000012",
"P.	c #32251F",
"Q.	c #5C473B",
"R.	c #2B211C",
"S.	c #12161D",
"T.	c #161C28",
"U.	c #161D28",
"V.	c #171C28",
"W.	c #1C1A28",
"X.	c #221727",
"Y.	c #180F26",
"Z.	c #493030",
"`.	c #895D47",
" +	c #A9785A",
".+	c #B48869",
"++	c #B98F6F",
"@+	c #B48B6C",
"#+	c #8B6A56",
"$+	c #3D2C2D",
"%+	c #0E0914",
"&+	c #6C5445",
"*+	c #574438",
"=+	c #392D29",
"-+	c #11131C",
";+	c #090E21",
">+	c #080C24",
",+	c #100C24",
"'+	c #180D25",
")+	c #0F0624",
"!+	c #4C3231",
"~+	c #91634A",
"{+	c #B37F5F",
"]+	c #BE906E",
"^+	c #C39775",
"/+	c #BE9372",
"(+	c #927058",
"_+	c #42302B",
":+	c #44342B",
"<+	c #4C3B30",
"[+	c #261B19",
"}+	c #463330",
"|+	c #543E39",
"1+	c #513A36",
"2+	c #3A222B",
"3+	c #533432",
"4+	c #91624A",
"5+	c #B17E5E",
"6+	c #BC8E6D",
"7+	c #C19473",
"8+	c #BA8E6E",
"9+	c #8D6B52",
"0+	c #413025",
"a+	c #755B4C",
"b+	c #745B4B",
"c+	c #4F3D32",
"d+	c #483529",
"e+	c #886851",
"f+	c #A07B61",
"g+	c #A07A61",
"h+	c #9B7259",
"i+	c #8F624B",
"j+	c #71473A",
"k+	c #683D35",
"l+	c #94634A",
"m+	c #B17F5F",
"n+	c #BC8E6E",
"o+	c #BE906F",
"p+	c #B28263",
"q+	c #855F47",
"r+	c #3F2D22",
"s+	c #735A4A",
"t+	c #695143",
"u+	c #5C4233",
"v+	c #74543F",
"w+	c #A98164",
"x+	c #C09473",
"y+	c #BF9372",
"z+	c #B98969",
"A+	c #AB7758",
"B+	c #885642",
"C+	c #734137",
"D+	c #96634A",
"E+	c #B07C5D",
"F+	c #B98968",
"G+	c #B88767",
"H+	c #AC7859",
"I+	c #80573E",
"J+	c #3D2A1F",
"K+	c #5E493C",
"L+	c #624C3F",
"M+	c #513B2E",
"N+	c #7C553E",
"O+	c #A17255",
"P+	c #B78A6A",
"Q+	c #C19574",
"R+	c #BA8A6A",
"S+	c #895743",
"T+	c #734237",
"U+	c #97644B",
"V+	c #AE7959",
"W+	c #B17D5D",
"X+	c #AA7656",
"Y+	c #80573F",
"Z+	c #433023",
"`+	c #8D654B",
" @	c #B58565",
".@	c #B18061",
"+@	c #8D5E49",
"@@	c #75463A",
"#@	c #9C6D53",
"$@	c #B38261",
"%@	c #B48262",
"&@	c #B58362",
"*@	c #B07F60",
"=@	c #866047",
"-@	c #473528",
";@	c #947056",
">@	c #BC906F",
",@	c #C09472",
"'@	c #B98D6D",
")@	c #936853",
"!@	c #784C3F",
"~@	c #A4785E",
"{@	c #BD906F",
"]@	c #BE9170",
"^@	c #BF9170",
"/@	c #BA8E6D",
"(@	c #423025",
"_@	c #483629",
":@	c #977459",
"<@	c #BC9070",
"[@	c #956B55",
"}@	c #794D40",
"|@	c #A67B61",
"1@	c #C29674",
"2@	c #BD9271",
"3@	c #8F6E55",
"4@	c #433226",
"5@	c #967359",
"6@	c #BE9272",
"7@	c #BB9070",
"8@	c #A57B61",
"9@	c #C19573",
"0@	c #BC9171",
"a@	c #8F6D54",
"b@	c #423126",
"c@	c #5D493C",
"d@	c #4D3B31",
"e@	c #624D3F",
"f@	c #977359",
"g@	c #A3775D",
"h@	c #BC8F6E",
"i@	c #B98C6C",
"j@	c #8C6A51",
"k@	c #413125",
"l@	c #6C5446",
"m@	c #45352B",
"n@	c #191C28",
"o@	c #313244",
"p@	c #51454A",
"q@	c #6A5347",
"r@	c #76473B",
"s@	c #9B6B51",
"t@	c #B28060",
"u@	c #B38160",
"v@	c #B48161",
"w@	c #AF7D5E",
"x@	c #855E46",
"y@	c #423229",
"z@	c #34394F",
"A@	c #565D7F",
"B@	c #555773",
"C@	c #4A3D3E",
"D@	c #644E40",
"E@	c #634D40",
"F@	c #574335",
"G@	c #866750",
"H@	c #A98265",
"I@	c #734338",
"J@	c #B27F5F",
"K@	c #AF7E5E",
"L@	c #4D4857",
"M@	c #5B6081",
"N@	c #555C7D",
"O@	c #454861",
"P@	c #55494E",
"Q@	c #685145",
"R@	c #5E4839",
"S@	c #755944",
"T@	c #AA8265",
"U@	c #976D56",
"V@	c #96624A",
"W@	c #AF7C5C",
"X@	c #B98A69",
"Y@	c #8C6950",
"Z@	c #413024",
"`@	c #5D483C",
" #	c #5F4C45",
".#	c #423E4D",
"+#	c #4D5473",
"@#	c #60678D",
"##	c #50536E",
"$#	c #453835",
"%#	c #675042",
"&#	c #735A4B",
"*#	c #4E3C31",
"=#	c #554030",
"-#	c #A47E62",
";#	c #C29574",
">#	c #BD9171",
",#	c #A97F63",
"'#	c #946953",
")#	c #91614B",
"!#	c #9E6D52",
"~#	c #BC8C6B",
"{#	c #B68868",
"]#	c #8B664D",
"^#	c #3C2B20",
"/#	c #49382E",
"(#	c #513E33",
"_#	c #29201C",
":#	c #4A506E",
"<#	c #687199",
"[#	c #505676",
"}#	c #30292C",
"|#	c #523F34",
"1#	c #5B4535",
"2#	c #A07B5F",
"3#	c #BF9373",
"4#	c #BE9271",
"5#	c #B18669",
"6#	c #8C604D",
"7#	c #7E4E3E",
"8#	c #9F6C51",
"9#	c #AD7959",
"0#	c #A87556",
"a#	c #805841",
"b#	c #332117",
"c#	c #1B130E",
"d#	c #251B15",
"e#	c #271D17",
"f#	c #1E1610",
"g#	c #18151A",
"h#	c #4B516F",
"i#	c #687098",
"j#	c #4F5676",
"k#	c #332B2D",
"l#	c #644D3E",
"m#	c #7C5F4A",
"n#	c #9C775C",
"o#	c #B98E6F",
"p#	c #C39675",
"q#	c #C49775",
"r#	c #B98D6E",
"s#	c #8B614E",
"t#	c #6B3932",
"u#	c #814F3E",
"v#	c #8C5944",
"w#	c #6A4235",
"x#	c #331C1E",
"y#	c #09020B",
"z#	c #0A0504",
"A#	c #19110C",
"B#	c #1D1103",
"C#	c #241D1F",
"D#	c #4F5470",
"E#	c #48372C",
"F#	c #6B513E",
"G#	c #B58B6C",
"H#	c #B48A6B",
"I#	c #B68C6D",
"J#	c #AE8366",
"K#	c #865C4A",
"L#	c #622F2D",
"M#	c #632F2D",
"N#	c #66322F",
"O#	c #63312E",
"P#	c #52292B",
"Q#	c #351C25",
"R#	c #1B0D15",
"S#	c #0F0806",
"T#	c #211611",
"U#	c #26190B",
"V#	c #2C2222",
"W#	c #515571",
"X#	c #423329",
"Y#	c #3C2D21",
"Z#	c #6A513E",
"`#	c #775B45",
" $	c #785A45",
".$	c #835E4A",
"+$	c #855B4A",
"@$	c #72443A",
"#$	c #602C2C",
"$$	c #5E292B",
"%$	c #5F2A2B",
"&$	c #5D292B",
"*$	c #4F242A",
"=$	c #361C25",
"-$	c #1D0E16",
";$	c #080404",
">$	c #120C07",
",$	c #150A00",
"'$	c #1E191C",
")$	c #4E5370",
"!$	c #160706",
"~$	c #2C1211",
"{$	c #301513",
"]$	c #361816",
"^$	c #4F2423",
"/$	c #5F2D2C",
"($	c #612D2D",
"_$	c #5E2B2C",
":$	c #58292B",
"<$	c #4A242A",
"[$	c #351B25",
"}$	c #18110D",
"|$	c #32261E",
"1$	c #1C1718",
"2$	c #322A2D",
"3$	c #2C0F10",
"4$	c #4A1F20",
"5$	c #532324",
"6$	c #532325",
"7$	c #592728",
"8$	c #5E2A2B",
"9$	c #602B2C",
"0$	c #57282B",
"a$	c #462229",
"b$	c #3B1E28",
"c$	c #321B25",
"d$	c #1F0F16",
"e$	c #2E221B",
"f$	c #312827",
"g$	c #4A516F",
"h$	c #677097",
"i$	c #342B2E",
"j$	c #5C463A",
"k$	c #472D27",
"l$	c #471F1F",
"m$	c #5B2929",
"n$	c #612C2C",
"o$	c #54272B",
"p$	c #3C1F28",
"q$	c #321C27",
"r$	c #321B26",
"s$	c #28141D",
"t$	c #342421",
"u$	c #564237",
"v$	c #5C4D4D",
"w$	c #4D4C62",
"x$	c #505777",
"y$	c #585F81",
"z$	c #514F65",
"A$	c #52413A",
"B$	c #715849",
"C$	c #554136",
"D$	c #3D2620",
"E$	c #502624",
"F$	c #5C2A2A",
"G$	c #5F2C2C",
"H$	c #5F2B2B",
"I$	c #5E2B2B",
"J$	c #52262A",
"K$	c #3C1E28",
"L$	c #331C27",
"M$	c #341C27",
"N$	c #2F1A20",
"O$	c #2E1E1B",
"P$	c #454559",
"Q$	c #5F6589",
"R$	c #3F3E51",
"S$	c #584743",
"T$	c #6F5749",
"U$	c #5A4438",
"V$	c #4B2F29",
"W$	c #492020",
"X$	c #5A2928",
"Y$	c #622D2D",
"Z$	c #612D2C",
"`$	c #502424",
" %	c #461E1E",
".%	c #451E1E",
"+%	c #411E22",
"@%	c #371D26",
"#%	c #351D28",
"$%	c #2F1822",
"%%	c #19090F",
"&%	c #2D3246",
"*%	c #4C5371",
"=%	c #545267",
"-%	c #56453F",
";%	c #6A5345",
">%	c #34221D",
",%	c #462020",
"'%	c #58282A",
")%	c #5C2A2B",
"!%	c #5C2A2C",
"~%	c #5B2A2A",
"{%	c #562828",
"]%	c #422320",
"^%	c #2E1E18",
"/%	c #2D1E18",
"(%	c #2F1D1D",
"_%	c #311B23",
":%	c #331B26",
"<%	c #2D1822",
"[%	c #180C13",
"}%	c #0C0E17",
"|%	c #1E1E29",
"1%	c #4F3F3B",
"2%	c #221412",
"3%	c #34171E",
"4%	c #442029",
"5%	c #45212A",
"6%	c #421E24",
"7%	c #3E1B1C",
"8%	c #3D1A19",
"9%	c #41221F",
"0%	c #533C32",
"a%	c #2F1F1F",
"b%	c #2B161F",
"c%	c #2C1A25",
"d%	c #211621",
"e%	c #14111B",
"f%	c #04060C",
"g%	c #050302",
"h%	c #1F1614",
"i%	c #1C0F1C",
"j%	c #261627",
"k%	c #271628",
"l%	c #261526",
"m%	c #231323",
"n%	c #1B0D19",
"o%	c #110709",
"p%	c #231812",
"q%	c #433229",
"r%	c #614C3E",
"s%	c #2E221C",
"t%	c #201018",
"u%	c #2C1924",
"v%	c #221823",
"w%	c #12141F",
"x%	c #0E121C",
"y%	c #1A161B",
"z%	c #322721",
"A%	c #190E1C",
"B%	c #221427",
"C%	c #231527",
"D%	c #1E1122",
"E%	c #120916",
"F%	c #05030A",
"G%	c #160F0C",
"H%	c #4A392F",
"I%	c #745A4B",
"J%	c #634D3F",
"K%	c #2D221B",
"L%	c #120C14",
"M%	c #1C1520",
"N%	c #171621",
"O%	c #0E121D",
"P%	c #080B14",
"Q%	c #372A24",
"R%	c #45342C",
"S%	c #2C1F22",
"T%	c #1D1020",
"U%	c #2A1D22",
"V%	c #3C2E27",
"W%	c #413128",
"X%	c #47372C",
"Y%	c #695244",
"Z%	c #2D2420",
"`%	c #0F1119",
" &	c #0C1019",
".&	c #1A171B",
"+&	c #49382F",
"@&	c #191112",
"#&	c #0F080E",
"$&	c #3F3028",
"%&	c #211916",
"&&	c #030408",
"*&	c #4C3A30",
"                                                                                                                                ",
"                                                                                                                                ",
"                                                                                                                                ",
"                                                                                                                                ",
"                                                                                                                                ",
"                                                                                                                                ",
"                                                                                                                                ",
"                                                                                                                                ",
"                                                                                                                                ",
"                                                                                                                                ",
"                                                                                                                                ",
"                                                                                                                                ",
"                                                                                                                                ",
"                                                                                                                                ",
"                                                                                                                                ",
"                                                . + @ # # # # # # $ %                                                           ",
"                                                & * = - - ; ; > , ' )                                                           ",
"                                            ! @ ~ { ] ^ / ( _ ( ( : < [                                                         ",
"                                          } + | 1 2 3 4 5 6 7 7 8 9 0 a ) b c }                                                 ",
"                                        b d e f g h i j k l m n o p q r ' s t u                                                 ",
"                                      b v w x y z A B C D E l F G H I J K L M d                                                 ",
"                                    % N O P Q R S T U V W o X Y Z `  ...+.@.#.$.                                                ",
"                                    %.&.*.=.-.;.>.;.,.'.).!.!.~.{.].^./.(._.:.<.                                                ",
"                                    %.a [.}.|.1.2.2.1.3.4.5.5.6.7.8.9.0.a.b.c.<.                                                ",
"                                    %.s d.}.|.1.2.2.2.2.2.2.e.f.g.h.i.j.k.l.m.<.                                                ",
"                                    %.s n.=.-.;.>.>.>.;.o.p.q.r.s.t.u.v.w.x.y.<.                                                ",
"                                    %.z.A.B.S T C.S D.E.F.G.H.I.J.K.L.M.N.O.P.$.                                                ",
"                                    %.Q.R.S.h T.U.V.W.X.Y.Z.`. +.+++@+#+$+%+, d                                                 ",
"                                    % &+*+=+-+;+>+>+,+'+)+!+~+{+]+^+/+(+_+:+t u                                                 ",
"                                        u <+[+}+|+|+1+!+2+3+4+5+6+7+8+9+0+Q.a+                                                  ",
"                                        b+c+d+e+f+g+h+i+j+k+l+m+n+o+p+q+r+t                                                     ",
"                                    } s+t+u+v+w+x+y+z+A+B+C+D+E+F+G+H+I+J+K+%                                                   ",
"                                    b L+M+N+O+P+Q+x+R+H+S+T+U+V+W+W+X+Y+J+K+%                                                   ",
"                                    %.a Z+`+ @o+x+x+6+.@+@@@#@$@%@&@*@=@r+K+%                                                   ",
"                                    %.s -@;@>@x+x+x+,@'@)@!@~@{@]@^@/@9+(@K+%                                                   ",
"                                    %.s _@:@/+Q+x+x+Q+<@[@}@|@x+Q+1@2@3@4@K+%                                                   ",
"                                    %.s _@5@6@Q+x+x+Q+7@[@}@8@x+9@Q+0@a@b@K+%.a+) ) a+                                          ",
"                                    %.s _@5@6@Q+x+x+Q+7@[@}@|@x+Q+1@2@3@4@t u c@d@c+e@%.                                        ",
"                                    %.s _@f@/+Q+x+x+Q+7@[@!@g@h@{@o+i@j@k@t l@m@n@o@p@q@b+                                      ",
"                                    %.s _@f@/+Q+x+x+Q+7@[@r@s@t@u@v@w@x@r+t &+y@z@A@B@C@D@b                                     ",
"                                    b E@F@G@H@++x+x+Q+7@[@I@D+V+J@v@K@x@r+t u z.L@M@N@O@P@Q@s+                                  ",
"                                      b+&+R@S@T@x+x+Q+7@U@r@V@W@X@o+i@Y@Z@`@b+u  #.#+#@###$#%#                                  ",
"                                        &#*#=#-#;#9@9@>#,#'#)#!#p+~#{#]#^#/#c@t (#_#:#<#[#}#L+                                  ",
"                                        s+|#1#2#0@3#x+x+4#5#6#7#8#9#0#a#b#c#d#e#f#g#h#i#j#k#e@                                  ",
"                                        ! d l#m#n#o#p#;#q#r#s#t#u#v#B+w#x#y#z#A#B#C#D#i#j#k#e@                                  ",
"                                            l@E#F#-#G#H#I#J#K#L#M#N#O#P#Q#R#S#T#U#V#W#i#j#k#e@                                  ",
"                                            v X#Y#Z#`# $.$+$@$#$$$%$&$*$=$-$;$>$,$'$)$i#j#k#e@                                  ",
"                                            v y@!$~${$]$^$/$($#$#$_$:$<$[$-$}$|$|$1$h#i#[#2$L+                                  ",
"                                            + y@3$4$5$6$7$8$9$#$#$0$a$b$c$d$e$&.&.f$g$h$j#i$e@                                  ",
"                                        % + j$k$l$m$($n$#$#$#$n$n$o$p$q$r$s$t$u$v$w$x$y$z$A$&                                   ",
"                                        B$C$D$E$F$G$#$#$#$#$H$I$I$J$K$L$M$c$N$O$P$Q$A@R$S$T$c                                   ",
"                                    % &+U$V$W$X$Y$Z$n$n$($I$`$ %.%+%@%M$M$#%$%%%&%*%=%-%;%                                      ",
"                                    %.Q.>%,%'%)%!%)%)%~%F${%]%^%/%(%_%:%M$L$<%[%}%|%1%T$}                                       ",
"                                    %.z.2%3%4%5%4%4%6%7%8%9%0%K+K+O a%b%r$c%d%e%f%g%*#&#                                        ",
"                                    %.s h%i%j%k%l%m%n%o%p%q%$.% % r%s%t%u%v%w%x%y%z%z.&#                                        ",
"                                    %.s h%A%B%C%D%E%F%G%H%%#I%    J%K%L%M%N%O%P%Q%K+$ b                                         ",
"                                    b E@R%S%T%T%U%V%W%X%E@b       Y%* Z%`% &.&Q%' B$                                            ",
"                                      b+Y%+&@&#&$&D@v v &#        ! + e %&&&z%K+B$b                                             ",
"                                        %.e@c+d@`@s+                } d |#*&z.$                                                 ",
"                                          a+) ) b+%                   ! s+) &#b                                                 ",
"                                                                                                                                ",
"                                                                                                                                ",
"                                                                                                                                ",
"                                                                                                                                "};
