/* XPM */
static char * player_left6_xpm[] = {
"64 64 736 2",
"  	c #785E4E",
". 	c #765C4C",
"+ 	c #745B4B",
"@ 	c #755B4C",
"# 	c #775D4D",
"$ 	c #634D3F",
"% 	c #544135",
"& 	c #534035",
"* 	c #534034",
"= 	c #5C473B",
"- 	c #705849",
"; 	c #695345",
"> 	c #483A32",
", 	c #202020",
"' 	c #1D1E1F",
") 	c #1F2020",
"! 	c #1D1C1C",
"~ 	c #1A1717",
"{ 	c #131112",
"] 	c #362A23",
"^ 	c #604B3E",
"/ 	c #735A4A",
"( 	c #765D4D",
"_ 	c #634D40",
": 	c #35383A",
"< 	c #2D3B40",
"[ 	c #2D3C40",
"} 	c #2C3A3F",
"| 	c #253238",
"1 	c #19252C",
"2 	c #131C24",
"3 	c #1E1C21",
"4 	c #3D2F29",
"5 	c #5A4639",
"6 	c #72594A",
"7 	c #6D5546",
"8 	c #6B5345",
"9 	c #665042",
"0 	c #4A392E",
"a 	c #15191D",
"b 	c #2A3A3F",
"c 	c #38494F",
"d 	c #394A50",
"e 	c #2F3F46",
"f 	c #212F38",
"g 	c #19242E",
"h 	c #131B25",
"i 	c #0B1119",
"j 	c #3B2E27",
"k 	c #614B3E",
"l 	c #715849",
"m 	c #4B3A2F",
"n 	c #3B2D24",
"o 	c #3C2E24",
"p 	c #2B1F16",
"q 	c #1B1F1D",
"r 	c #303D42",
"s 	c #3A4A51",
"t 	c #3A4B51",
"u 	c #222F38",
"v 	c #151D28",
"w 	c #121A24",
"x 	c #1F1D21",
"y 	c #382C26",
"z 	c #5A463A",
"A 	c #735A4B",
"B 	c #372A20",
"C 	c #5D4C29",
"D 	c #89713F",
"E 	c #927842",
"F 	c #8A744D",
"G 	c #6D686A",
"H 	c #4E5B70",
"I 	c #3F4F5B",
"J 	c #394A4F",
"K 	c #2F3F45",
"L 	c #202F37",
"M 	c #18232C",
"N 	c #141C27",
"O 	c #131B26",
"P 	c #101821",
"Q 	c #0B1016",
"R 	c #3E3029",
"S 	c #5F4A3D",
"T 	c #6F5748",
"U 	c #3F3123",
"V 	c #907743",
"W 	c #CFAC63",
"X 	c #DDB768",
"Y 	c #CEAD71",
"Z 	c #9D8F8C",
"` 	c #626C8D",
" .	c #465569",
"..	c #394950",
"+.	c #304048",
"@.	c #24313B",
"#.	c #1D2732",
"$.	c #1A212D",
"%.	c #19202D",
"&.	c #19202C",
"*.	c #171E2A",
"=.	c #1E1D23",
"-.	c #352922",
";.	c #5E493C",
">.	c #765C4D",
",.	c #413324",
"'.	c #9D8249",
").	c #E1BB6C",
"!.	c #F0C872",
"~.	c #DFBB77",
"{.	c #A49286",
"].	c #5D6485",
"^.	c #47526C",
"/.	c #404C5C",
"(.	c #404C5D",
"_.	c #3C4759",
":.	c #384054",
"<.	c #353C51",
"[.	c #343A4F",
"}.	c #353B50",
"|.	c #343A4E",
"1.	c #272C3C",
"2.	c #1E191D",
"3.	c #584438",
"4.	c #3F3124",
"5.	c #937945",
"6.	c #D3B066",
"7.	c #D1AE6B",
"8.	c #93806A",
"9.	c #494E68",
"0.	c #414964",
"a.	c #434962",
"b.	c #424962",
"c.	c #424861",
"d.	c #424761",
"e.	c #414761",
"f.	c #414760",
"g.	c #31364A",
"h.	c #241F23",
"i.	c #594539",
"j.	c #3A2C22",
"k.	c #665432",
"l.	c #957C4B",
"m.	c #9E844F",
"n.	c #917A4D",
"o.	c #635749",
"p.	c #2A3247",
"q.	c #2B3049",
"r.	c #30334A",
"s.	c #31364B",
"t.	c #31374B",
"u.	c #32384C",
"v.	c #252939",
"w.	c #221B1D",
"x.	c #342720",
"y.	c #181618",
"z.	c #312B2B",
"A.	c #4F4038",
"B.	c #5F4C40",
"C.	c #5E4B41",
"D.	c #5A453E",
"E.	c #563D38",
"F.	c #473132",
"G.	c #29232C",
"H.	c #181D2A",
"I.	c #1A1E2B",
"J.	c #191E2B",
"K.	c #171F2B",
"L.	c #171F2A",
"M.	c #10161F",
"N.	c #1E1714",
"O.	c #000011",
"P.	c #30222B",
"Q.	c #7B5E4E",
"R.	c #A07C62",
"S.	c #A68065",
"T.	c #A27A5F",
"U.	c #996C52",
"V.	c #7C5441",
"W.	c #422C2D",
"X.	c #161124",
"Y.	c #1E1726",
"Z.	c #191A26",
"`.	c #141C26",
" +	c #131C26",
".+	c #0D131C",
"++	c #1D1614",
"@+	c #6C5446",
"#+	c #4F3D32",
"$+	c #302420",
"%+	c #402F2C",
"&+	c #927059",
"*+	c #BE9272",
"=+	c #C29675",
"-+	c #BD8F6E",
";+	c #B27F5E",
">+	c #90624A",
",+	c #4C3231",
"'+	c #190C25",
")+	c #231627",
"!+	c #1F1927",
"~+	c #1B1B28",
"{+	c #1A1B28",
"]+	c #181A26",
"^+	c #151923",
"/+	c #292323",
"(+	c #45352C",
"_+	c #6E5647",
":+	c #554236",
"<+	c #413128",
"[+	c #8E6D54",
"}+	c #BB9070",
"|+	c #C19574",
"1+	c #241527",
"2+	c #221727",
"3+	c #211727",
"4+	c #1B1321",
"5+	c #151117",
"6+	c #47372E",
"7+	c #695244",
"8+	c #382A20",
"9+	c #6D533F",
"0+	c #9A765C",
"a+	c #B48B6C",
"b+	c #BC8E6E",
"c+	c #B27F5F",
"d+	c #4B3131",
"e+	c #0D0424",
"f+	c #170824",
"g+	c #160624",
"h+	c #140422",
"i+	c #09001C",
"j+	c #010012",
"k+	c #0E090A",
"l+	c #755C4C",
"m+	c #2B1F18",
"n+	c #332319",
"o+	c #684D3A",
"p+	c #A47D60",
"q+	c #BB8C6C",
"r+	c #B27E5E",
"s+	c #503331",
"t+	c #301F2B",
"u+	c #402D30",
"v+	c #412E31",
"w+	c #3F2D2E",
"x+	c #3A2A25",
"y+	c #2D2019",
"z+	c #1B130D",
"A+	c #4E3C31",
"B+	c #523F34",
"C+	c #564236",
"D+	c #675042",
"E+	c #2D2018",
"F+	c #593A28",
"G+	c #855B42",
"H+	c #A6785A",
"I+	c #B48262",
"J+	c #AF7A5A",
"K+	c #936249",
"L+	c #643C35",
"M+	c #715044",
"N+	c #8F6C57",
"O+	c #93715A",
"P+	c #916F56",
"Q+	c #7A5D47",
"R+	c #3E2F23",
"S+	c #745A4B",
"T+	c #655147",
"U+	c #463D44",
"V+	c #252735",
"W+	c #251E1F",
"X+	c #5E483A",
"Y+	c #563C2B",
"Z+	c #875E45",
"`+	c #AA7859",
" @	c #B07C5C",
".@	c #B17D5D",
"+@	c #98674E",
"@@	c #74453A",
"#@	c #936954",
"$@	c #B88D6E",
"%@	c #BD9171",
"&@	c #A47E61",
"*@	c #694D39",
"=@	c #553F32",
"-@	c #5D483C",
";@	c #4E454F",
">@	c #575B7A",
",@	c #4B5170",
"'@	c #684937",
")@	c #8D6248",
"!@	c #A97A5C",
"~@	c #B98A69",
"{@	c #BB8B6B",
"]@	c #BA8B6A",
"^@	c #B98A6A",
"/@	c #A1735A",
"(@	c #784A3E",
"_@	c #966C56",
":@	c #C39675",
"<@	c #C29574",
"[@	c #B58969",
"}@	c #996C50",
"|@	c #75503B",
"1@	c #543E32",
"2@	c #655047",
"3@	c #4D444D",
"4@	c #464B68",
"5@	c #5B6286",
"6@	c #473E44",
"7@	c #6A5344",
"8@	c #634B3D",
"9@	c #5E4131",
"0@	c #82583F",
"a@	c #A87556",
"b@	c #B88867",
"c@	c #BF9372",
"d@	c #C09473",
"e@	c #BF9373",
"f@	c #A57B60",
"g@	c #794D40",
"h@	c #956B55",
"i@	c #BC9070",
"j@	c #B38262",
"k@	c #976C51",
"l@	c #6F523E",
"m@	c #634C3D",
"n@	c #745B4C",
"o@	c #575B7B",
"p@	c #464C68",
"q@	c #4C444E",
"r@	c #725A4A",
"s@	c #5B473A",
"t@	c #3F3026",
"u@	c #634534",
"v@	c #8E6247",
"w@	c #A26F51",
"x@	c #AD7859",
"y@	c #C09574",
"z@	c #A67B61",
"A@	c #BB8F70",
"B@	c #B68A6B",
"C@	c #A88163",
"D@	c #7E614A",
"E@	c #513E32",
"F@	c #685143",
"G@	c #303142",
"H@	c #5D6589",
"I@	c #636B92",
"J@	c #373C54",
"K@	c #5C483B",
"L@	c #654F41",
"M@	c #644E40",
"N@	c #6F5543",
"O@	c #755944",
"P@	c #765A45",
"Q@	c #89644B",
"R@	c #A57355",
"S@	c #AE7757",
"T@	c #AF7959",
"U@	c #C09372",
"V@	c #A67C61",
"W@	c #774B3F",
"X@	c #845949",
"Y@	c #B88C6D",
"Z@	c #C19573",
"`@	c #BD9271",
" #	c #9E7A5E",
".#	c #785B47",
"+#	c #67503F",
"@#	c #313243",
"##	c #5D6488",
"$#	c #393E55",
"%#	c #17100C",
"&#	c #2A1F18",
"*#	c #2E221B",
"=#	c #4A382B",
"-#	c #906E56",
";#	c #B2896A",
">#	c #B48A6B",
",#	c #B18465",
"'#	c #AE7B5B",
")#	c #AD7656",
"!#	c #AE7959",
"~#	c #B78766",
"{#	c #BF9271",
"]#	c #74473C",
"^#	c #643330",
"/#	c #7D5143",
"(#	c #A47A60",
"_#	c #BC9171",
":#	c #A98365",
"<#	c #725843",
"[#	c #49382D",
"}#	c #646C92",
"|#	c #3F4157",
"1#	c #1B0F00",
"2#	c #1C130C",
"3#	c #000000",
"4#	c #413124",
"5#	c #99755B",
"6#	c #BE9271",
"7#	c #BD8E6D",
"8#	c #B68464",
"9#	c #AE7858",
"0#	c #B28060",
"a#	c #B78666",
"b#	c #B78767",
"c#	c #B88767",
"d#	c #A07258",
"e#	c #714239",
"f#	c #592127",
"g#	c #663431",
"h#	c #865B4A",
"i#	c #A3795F",
"j#	c #B98D6E",
"k#	c #B58B6C",
"l#	c #3C2D24",
"m#	c #6A5244",
"n#	c #5C6488",
"o#	c #656C92",
"p#	c #434358",
"q#	c #27190B",
"r#	c #271B14",
"s#	c #020103",
"t#	c #423124",
"u#	c #98755A",
"v#	c #BB8E6E",
"w#	c #B58362",
"x#	c #AD7757",
"y#	c #B07D5D",
"z#	c #99664D",
"A#	c #6F3E35",
"B#	c #5D282A",
"C#	c #612E2D",
"D#	c #64322F",
"E#	c #7D5243",
"F#	c #BA8F6F",
"G#	c #B38A6B",
"H#	c #765A44",
"I#	c #3E2F26",
"J#	c #3E4057",
"K#	c #180C00",
"L#	c #1A110B",
"M#	c #413024",
"N#	c #99765B",
"O#	c #BC8F6E",
"P#	c #B58261",
"Q#	c #AE7857",
"R#	c #B48161",
"S#	c #B88868",
"T#	c #B78665",
"U#	c #B07B5B",
"V#	c #98654B",
"W#	c #6F3D34",
"X#	c #5E292B",
"Y#	c #602B2C",
"Z#	c #5D272A",
"`#	c #643731",
" $	c #765543",
".$	c #967359",
"+$	c #B78D6D",
"@$	c #383D55",
"#$	c #1D1510",
"$$	c #31241D",
"%$	c #352820",
"&$	c #4D3A2D",
"*$	c #8E6D55",
"=$	c #AA8163",
"-$	c #A47558",
";$	c #9D6C4E",
">$	c #9D6B4E",
",$	c #A06F51",
"'$	c #AF8061",
")$	c #BB8E6D",
"!$	c #BD906F",
"~$	c #B78868",
"{$	c #A97659",
"]$	c #8F5D46",
"^$	c #6C3A33",
"/$	c #602C2C",
"($	c #612C2C",
"_$	c #572727",
":$	c #381A18",
"<$	c #6D523E",
"[$	c #AD8365",
"}$	c #C29674",
"|$	c #3D2E25",
"1$	c #636B91",
"2$	c #695243",
"3$	c #675041",
"4$	c #6A5240",
"5$	c #6A4F3C",
"6$	c #654734",
"7$	c #61412E",
"8$	c #5F3F2C",
"9$	c #6A4833",
"0$	c #94694E",
"a$	c #B17F5F",
"b$	c #B58262",
"c$	c #A9775A",
"d$	c #8C5B47",
"e$	c #734136",
"f$	c #64312E",
"g$	c #5F2B2C",
"h$	c #612D2C",
"i$	c #562526",
"j$	c #2D0B10",
"k$	c #624432",
"l$	c #A37557",
"m$	c #BA8A69",
"n$	c #4A3F44",
"o$	c #565976",
"p$	c #596083",
"q$	c #494F6C",
"r$	c #4F4855",
"s$	c #634F47",
"t$	c #715949",
"u$	c #44342A",
"v$	c #423229",
"w$	c #413228",
"x$	c #31251D",
"y$	c #2B1A12",
"z$	c #734C38",
"A$	c #99664C",
"B$	c #9D694E",
"C$	c #905E47",
"D$	c #714036",
"E$	c #5E2A2B",
"F$	c #562627",
"G$	c #311213",
"H$	c #654733",
"I$	c #A47658",
"J$	c #BB8B6A",
"K$	c #9D785D",
"L$	c #6F5542",
"M$	c #775D4E",
"N$	c #685247",
"O$	c #4D4248",
"P$	c #454964",
"Q$	c #5C6487",
"R$	c #575D7C",
"S$	c #433B44",
"T$	c #5D483B",
"U$	c #6D5547",
"V$	c #564337",
"W$	c #302019",
"X$	c #542F26",
"Y$	c #714035",
"Z$	c #744237",
"`$	c #562626",
" %	c #311113",
".%	c #694E3B",
"+%	c #B98E6E",
"@%	c #947157",
"#%	c #644B3B",
"$%	c #644E3F",
"%%	c #705748",
"&%	c #50464D",
"*%	c #555875",
"=%	c #484E6B",
"-%	c #222433",
";%	c #6B5445",
">%	c #564136",
",%	c #56332E",
"'%	c #5E2B2B",
")%	c #321213",
"!%	c #544030",
"~%	c #8A6A52",
"{%	c #755946",
"]%	c #574337",
"^%	c #675247",
"/%	c #463B3E",
"(%	c #26242F",
"_%	c #29201F",
":%	c #6E5546",
"<%	c #67443B",
"[%	c #612F2E",
"}%	c #351516",
"|%	c #221811",
"1%	c #3A2B20",
"2%	c #433225",
"3%	c #4C392C",
"4%	c #614B3D",
"5%	c #624C3F",
"6%	c #5A4438",
"7%	c #5B3730",
"8%	c #602D2C",
"9%	c #59292A",
"0%	c #3D1C21",
"a%	c #180813",
"b%	c #070403",
"c%	c #382A22",
"d%	c #574437",
"e%	c #6C5546",
"f%	c #33231D",
"g%	c #471F1F",
"h%	c #5E2B2C",
"i%	c #56282B",
"j%	c #422028",
"k%	c #2A161F",
"l%	c #180E10",
"m%	c #4C3B30",
"n%	c #5D493C",
"o%	c #2B1C16",
"p%	c #461E1E",
"q%	c #53272A",
"r%	c #452229",
"s%	c #3A1E28",
"t%	c #2B1720",
"u%	c #170B0F",
"v%	c #2D1D18",
"w%	c #5C2A2A",
"x%	c #562727",
"y%	c #562728",
"z%	c #55282A",
"A%	c #462229",
"B%	c #341C26",
"C%	c #2F1923",
"D%	c #301E21",
"E%	c #3C2D26",
"F%	c #5B463A",
"G%	c #532525",
"H%	c #391818",
"I%	c #37191E",
"J%	c #3F1F27",
"K%	c #301924",
"L%	c #211018",
"M%	c #3D2D27",
"N%	c #2A1D17",
"O%	c #371716",
"P%	c #4F2323",
"Q%	c #5B2929",
"R%	c #4E2222",
"S%	c #220C0D",
"T%	c #1D0F18",
"U%	c #321B26",
"V%	c #351D28",
"W%	c #301A24",
"X%	c #24121B",
"Y%	c #3B2B25",
"Z%	c #261B15",
"`%	c #140506",
" &	c #301314",
".&	c #502424",
"+&	c #4E2423",
"@&	c #2A1614",
"#&	c #23151A",
"$&	c #321B25",
"%&	c #341C27",
"&&	c #331C26",
"*&	c #311A25",
"=&	c #2E1B21",
"-&	c #31231F",
";&	c #251B16",
">&	c #06040E",
",&	c #200F1A",
"'&	c #3E1D25",
")&	c #4B232A",
"!&	c #4F302F",
"~&	c #513C33",
"{&	c #43322B",
"]&	c #2B191F",
"^&	c #351C28",
"/&	c #2C1823",
"(&	c #170F18",
"_&	c #372B25",
":&	c #574438",
"<&	c #6C5445",
"[&	c #261C17",
"}&	c #170C19",
"|&	c #231425",
"1&	c #291627",
"2&	c #2B1727",
"3&	c #2B1726",
"4&	c #4F3B37",
"5&	c #6B5346",
"6&	c #231716",
"7&	c #28141D",
"8&	c #2D1A25",
"9&	c #1A151F",
"0&	c #0F0F17",
"a&	c #2B201B",
"b&	c #241A16",
"c&	c #190D1B",
"d&	c #231527",
"e&	c #241528",
"f&	c #1F1224",
"g&	c #150C1B",
"h&	c #4B3A32",
"i&	c #6E5648",
"j&	c #1E1412",
"k&	c #27131C",
"l&	c #1A1621",
"m&	c #080D16",
"n&	c #1A1310",
"o&	c #3E2F27",
"p&	c #271A20",
"q&	c #201322",
"r&	c #201223",
"s&	c #231621",
"t&	c #312421",
"u&	c #614C3E",
"v&	c #3B2C25",
"w&	c #2E1D20",
"x&	c #2F1A23",
"y&	c #301A25",
"z&	c #291924",
"A&	c #191520",
"B&	c #090D16",
"C&	c #1D1512",
"D&	c #47372F",
"E&	c #190F15",
"F&	c #100712",
"G&	c #342623",
"H&	c #45332C",
"I&	c #1E1217",
"J&	c #1D141E",
"K&	c #1B1621",
"L&	c #13141F",
"M&	c #45352B",
"N&	c #3F3027",
"O&	c #6F5648",
"P&	c #4D3C31",
"Q&	c #090709",
"R&	c #080B13",
"S&	c #0C0F19",
"T&	c #271F1F",
"U&	c #44342B",
"V&	c #503D32",
"W&	c #16100C",
"X&	c #0A080B",
"Y&	c #161110",
"Z&	c #48382E",
"`&	c #624D3F",
"                                                                                                                                ",
"                                                                                                                                ",
"                                                                                                                                ",
"                                                                                                                                ",
"                                                                                                                                ",
"                                                                                                                                ",
"                                                                                                                                ",
"                                                                                                                                ",
"                                                                                                                                ",
"                                                                                                                                ",
"                                                                                                                                ",
"                                                            . + + + + + + + @ #                                                 ",
"                                                          @ $ % & % % % % * = -                                                 ",
"                                                        @ ; > , ' ) ) ! ~ { ] ^ / #                                             ",
"                                                      ( _ > : < < [ } | 1 2 3 4 5 6                                             ",
"                                                + 7 8 9 0 a b c d d c e f g h i j k l #                                         ",
"                                                8 m n o p q r s t t c e u g v w x y z A                                         ",
"                                                9 B C D E F G H I J c K L M N O P Q R S T #                                     ",
"                                                9 U V W X Y Z `  .d ..+.@.#.$.%.&.*.=.-.;.>.                                    ",
"                                                9 ,.'.).!.~.{.].^./.(._.:.<.[.[.}.|.1.2.3..                                     ",
"                                                9 4.5.6.).7.8.9.0.a.a.b.c.c.d.e.c.f.g.h.i..                                     ",
"                                                9 j.k.l.m.n.o.p.q.r.s.t.t.t.t.t.u.t.v.w.i..                                     ",
"                                                9 x.y.z.A.B.C.D.E.F.G.H.I.J.K.K.K.L.M.N.i..                                     ",
"                                                9 x.O.P.Q.R.S.T.U.V.W.X.Y.Z.`. +N  +.+++i..                                     ",
"                                                @+#+$+%+&+*+=+-+;+>+,+'+)+!+~+{+]+^+/+(+_ (                                     ",
"                                                . _+:+<+[+}+|+-+;+>+,+'+1+)+2+3+4+5+6+7++                                       ",
"                                                    S 8+9+0+a+b+c+>+d+e+f+g+h+i+j+k+#+A                                         ",
"                              # l++ + >.          # ;.m+n+o+p+q+r+>+s+t+u+v+w+x+y+z+A+6                                         ",
"                              6 ;.B+C+D+>.          S E+F+G+H+I+J+K+L+M+N+O+&+P+Q+R+#+A                                         ",
"                          # S+T+U+V+W+C++       ( - X+Y+Z+`+ @.@ @+@@@#@$@*+%@%@&@*@=@7 l+                                      ",
"                          S+-@;@>@,@V+B++       _+% '@)@!@~@{@]@^@/@(@_@%@:@<@<@[@}@|@1@9 #                                     ",
"                      # 6 2@3@4@5@>@6@S + l 8 7@8@9@0@a@b@c@d@d@e@f@g@h@i@|+d@d@-+j@k@l@m@8 n@                                  ",
"                      l+;.U+o@5@p@q@2@6 r@s@t@n u@v@w@x@b@c@y@|+d@z@g@h@A@|+d@d@c@-+B@C@D@E@F@                                  ",
"                      + & G@H@I@J@n K@L@M@N@O@P@Q@R@S@T@b@U@|+|+d@V@W@X@V@Y@d@Z@d@d@<@`@ #.#+#F@+                               ",
"                      + % @###I@$#%#&#*#=#-#;#>#,#'#)#!#~#{#U@U@c@z@]#^#/#(#_#d@d@d@d@e@}+:#<#[#@+                              ",
"                      + % @###}#|#1#2#3#4#5#6#7#8#J+)#9#0#a#b#c#b#d#e#f#g#h#i#j#|+d@d@d@:@k#P@l#m#                              ",
"                      + % @#n#o#p#q#r#s#t#u#v#w#9#x#x#x#J+ @y# @J+z#A#B#C#D#E#V@F#c@d@d@<@G#H#I#7@                              ",
"                      + % @###}#J#K#L#3#M#N#O#P#S@Q#Q#T@R#S#~@T#U#V#W#X#Y#Z#`# $.$+$|+d@<@G#H#I#7@                              ",
"                      + % @###I@@$#$$$%$&$*$=$-$;$;$>$,$'$)$!$~${$]$^$X#/$($_$:$<$[${#d@}$>#P@|$7@                              ",
"                      + % @###1$@$|$S 2$3$4$5$6$7$7$8$9$0$a$b$c$d$e$f$g$/$h$i$j$k$l$m${#=+>#P@|$7@                              ",
"                      l+^ n$o$p$q$r$s$t$A -@u$<+v$w$x$y$z$A$B$C$D$E$/$/$/$($F$G$H$I$J$6#G#K$L$& _+                              ",
"                      M$A N$O$P$Q$R$S$T$+ / U$U$_+@+V$W$X$Y$Z$W#f$g$/$/$/$($`$ %.%=${#+%@%#%$%%%>.                              ",
"                          + ^ &%*%=%-%B++           ;%>%,%'%X#E$g$/$/$/$/$($F$)%!%~%N#@%{%]%7                                   ",
"                          M$@ ^%/%(%_%]%n@          l+:%<%[%/$/$/$/$/$/$/$($_$}%|%1%2%3%4%6 #                                   ",
"                              / 5%3.z 7+(         M$@+6%7%8%/$/$/$/$/$/$/$($9%0%a%b%c%d%e%                                      ",
"                              M$( . . #           # S f%g%'%($/$/$/$/$/$/$h%i%j%k%l%m%-                                         ",
"                                                  # n%o%p%'%($/$/$/$($($h%q%r%s%t%u%A+A                                         ",
"                                                  # ;.v%p%'%($/$/$w%x%y%z%A%B%C%D%E%F%+                                         ",
"                                                  # ;.v%p%'%($/$/$G%H%I%J%s%K%L%M%k - #                                         ",
"                                                  # ;.N%O%P%Q%($/$R%S%T%U%V%W%X%Y%= _+#                                         ",
"                                                  # ;.Z%`% &.&h%h%+&@&#&$&%&&&*&=&-&% l                                         ",
"                                                  # ;.;&>&,&'&)&)&!&~&{&]&C%%&^&/&(&_&:&<&#                                     ",
"                                                  # ;.[&}&|&1&2&3&4&5&3.6&7&%&%&8&9&0&a&= .                                     ",
"                                                  # -@b&c&d&e&f&g&h&i&F%j&k&%&^&8&l&m&n&3..                                     ",
"                                                  # _ o&p&q&r&s&t&:+T u&v&w&x&y&z&A&B&C&i..                                     ",
"                                                    6 L@D&E&F&G&z _+l+t$_ H&I&J&K&L&B&C&i..                                     ",
"                                                      . ^ M&N&* O&      6 P&Q&R&S&S&T&U&_ (                                     ",
"                                                        / _+7 %%.       / V&W&Q&X&Y&Z&7++                                       ",
"                                                                        @ 5%#+P&P&#+`&.                                         ",
"                                                                        M$@ 6 6 6 6 @                                           ",
"                                                                                                                                ",
"                                                                                                                                ",
"                                                                                                                                ",
"                                                                                                                                "};
