/* XPM */
static char * player_up3_xpm[] = {
"64 64 609 2",
"  	c #785E4E",
". 	c #765C4C",
"+ 	c #745B4B",
"@ 	c #765C4D",
"# 	c #755B4C",
"$ 	c #644E40",
"% 	c #554136",
"& 	c #534035",
"* 	c #544135",
"= 	c #534034",
"- 	c #564337",
"; 	c #675042",
"> 	c #775D4D",
", 	c #6A5345",
"' 	c #493B33",
") 	c #222121",
"! 	c #1C1E1F",
"~ 	c #1F2020",
"{ 	c #1B1D1F",
"] 	c #272423",
"^ 	c #504037",
"/ 	c #6D5547",
"( 	c #634D40",
"_ 	c #483A31",
": 	c #363839",
"< 	c #2D3B40",
"[ 	c #2D3C41",
"} 	c #2C3A3F",
"| 	c #393837",
"1 	c #4C3C32",
"2 	c #735A4B",
"3 	c #675143",
"4 	c #4B3D35",
"5 	c #272D30",
"6 	c #303E43",
"7 	c #38494F",
"8 	c #394A50",
"9 	c #38484E",
"0 	c #2C2D2E",
"a 	c #514137",
"b 	c #745B4C",
"c 	c #634D3F",
"d 	c #43362E",
"e 	c #333739",
"f 	c #334146",
"g 	c #37474D",
"h 	c #36464C",
"i 	c #323F44",
"j 	c #343535",
"k 	c #48382F",
"l 	c #72594A",
"m 	c #644E41",
"n 	c #4E3F3E",
"o 	c #313340",
"p 	c #323F49",
"q 	c #394B50",
"r 	c #38484F",
"s 	c #313C47",
"t 	c #35333F",
"u 	c #52423E",
"v 	c #675043",
"w 	c #775D4E",
"x 	c #654F41",
"y 	c #3F312B",
"z 	c #343343",
"A 	c #3E445A",
"B 	c #3E4959",
"C 	c #3A4A52",
"D 	c #3A4A51",
"E 	c #3A4A53",
"F 	c #3E485A",
"G 	c #3E4258",
"H 	c #33303D",
"I 	c #46362D",
"J 	c #614C3E",
"K 	c #2C221E",
"L 	c #222636",
"M 	c #353C50",
"N 	c #3D4659",
"O 	c #404B5D",
"P 	c #414C5D",
"Q 	c #404B5C",
"R 	c #3C4558",
"S 	c #33394D",
"T 	c #1E2230",
"U 	c #372A22",
"V 	c #624C3F",
"W 	c #2E231D",
"X 	c #0D121B",
"Y 	c #1F2634",
"Z 	c #353B50",
"` 	c #424861",
" .	c #444B63",
"..	c #434A63",
"+.	c #41475F",
"@.	c #32384C",
"#.	c #1C222F",
"$.	c #0B0F17",
"%.	c #392B23",
"&.	c #685143",
"*.	c #2E231C",
"=.	c #080E14",
"-.	c #151D28",
";.	c #262C3D",
">.	c #30364A",
",.	c #333B4F",
"'.	c #343D50",
").	c #333A4E",
"!.	c #2F3549",
"~.	c #232939",
"{.	c #131A24",
"].	c #060B11",
"^.	c #6F5748",
"/.	c #584538",
"(.	c #291F19",
"_.	c #0C131B",
":.	c #161F29",
"<.	c #19222D",
"[.	c #1A242F",
"}.	c #1E2933",
"|.	c #202C36",
"1.	c #1F2C36",
"2.	c #1D2833",
"3.	c #1A232E",
"4.	c #18222D",
"5.	c #151E28",
"6.	c #0A1017",
"7.	c #513F33",
"8.	c #33261F",
"9.	c #15100D",
"0.	c #111A21",
"a.	c #1C2831",
"b.	c #1D2A33",
"c.	c #19252E",
"d.	c #18222C",
"e.	c #17222C",
"f.	c #17222B",
"g.	c #1A252F",
"h.	c #1C2932",
"i.	c #1A262F",
"j.	c #0E161C",
"k.	c #755C4C",
"l.	c #6C5446",
"m.	c #5E4D4B",
"n.	c #494658",
"o.	c #32374C",
"p.	c #161824",
"q.	c #12171D",
"r.	c #202731",
"s.	c #212C36",
"t.	c #1F2D36",
"u.	c #1B2831",
"v.	c #19232D",
"w.	c #18232D",
"x.	c #19242E",
"y.	c #202D36",
"z.	c #1E252F",
"A.	c #11151C",
"B.	c #503E33",
"C.	c #464456",
"D.	c #5C6285",
"E.	c #535A7A",
"F.	c #262A3C",
"G.	c #0F050D",
"H.	c #211C29",
"I.	c #222732",
"J.	c #1F2C35",
"K.	c #1E2B34",
"L.	c #222531",
"M.	c #201A27",
"N.	c #120C16",
"O.	c #382A22",
"P.	c #6D5546",
"Q.	c #413228",
"R.	c #2C3147",
"S.	c #4B5374",
"T.	c #434C6C",
"U.	c #101C31",
"V.	c #000000",
"W.	c #010018",
"X.	c #0F1627",
"Y.	c #16212F",
"Z.	c #172230",
"`.	c #162230",
" +	c #171826",
".+	c #140C1A",
"++	c #0A040C",
"@+	c #2A1F19",
"#+	c #513E33",
"$+	c #423329",
"%+	c #201B1F",
"&+	c #393137",
"*+	c #3E3336",
"=+	c #372A24",
"-+	c #36271C",
";+	c #372820",
">+	c #392828",
",+	c #3B282D",
"'+	c #3C282E",
")+	c #3C292E",
"!+	c #3A272C",
"~+	c #2C1B20",
"{+	c #19090D",
"]+	c #090203",
"^+	c #0A0604",
"/+	c #1E1610",
"(+	c #48372D",
"_+	c #6B5345",
":+	c #765D4D",
"<+	c #4D3929",
"[+	c #806148",
"}+	c #916E53",
"|+	c #906E55",
"1+	c #906F55",
"2+	c #8F6D54",
"3+	c #89634C",
"4+	c #845A45",
"5+	c #835844",
"6+	c #835944",
"7+	c #845945",
"8+	c #7F5542",
"9+	c #684033",
"0+	c #441F1D",
"a+	c #1D0005",
"b+	c #291E18",
"c+	c #4C3B30",
"d+	c #674E3B",
"e+	c #A88164",
"f+	c #BD9271",
"g+	c #BC9171",
"h+	c #BB8F6F",
"i+	c #B48565",
"j+	c #AD7B5B",
"k+	c #AC795A",
"l+	c #AC7859",
"m+	c #AB7657",
"n+	c #AA7555",
"o+	c #AA7556",
"p+	c #AE7B5B",
"q+	c #A87557",
"r+	c #895945",
"s+	c #61332E",
"t+	c #51332A",
"u+	c #443225",
"v+	c #251B12",
"w+	c #1A120D",
"x+	c #4F3D32",
"y+	c #715949",
"z+	c #6A503D",
"A+	c #AD8567",
"B+	c #C39675",
"C+	c #C29574",
"D+	c #C19574",
"E+	c #C19473",
"F+	c #BE906F",
"G+	c #BB8C6B",
"H+	c #B88867",
"I+	c #B27E5D",
"J+	c #AE7757",
"K+	c #AE7858",
"L+	c #B3805F",
"M+	c #B98968",
"N+	c #BD8D6C",
"O+	c #B68768",
"P+	c #91644F",
"Q+	c #72453B",
"R+	c #8C6650",
"S+	c #8D6C53",
"T+	c #544030",
"U+	c #050302",
"V+	c #4C3A2F",
"W+	c #694F3C",
"X+	c #AC8466",
"Y+	c #C09473",
"Z+	c #BC8F6E",
"`+	c #B38060",
" @	c #AD7656",
".@	c #AD7757",
"+@	c #B58363",
"@@	c #BD906F",
"#@	c #BA8F6F",
"$@	c #AC8165",
"%@	c #885E4B",
"&@	c #784C40",
"*@	c #A67B61",
"=@	c #B08769",
"-@	c #85664E",
";@	c #624A38",
">@	c #614A38",
",@	c #654D3D",
"'@	c #6A5244",
")@	c #C09574",
"!@	c #B58463",
"~@	c #BB8F6E",
"{@	c #A77D62",
"]@	c #845949",
"^@	c #6A3B35",
"/@	c #76493E",
"(@	c #A77C61",
"_@	c #BB9070",
":@	c #B2896A",
"<@	c #AB8366",
"[@	c #A98265",
"}@	c #8D6B54",
"|@	c #574234",
"1@	c #5F4A3D",
"2@	c #6E5647",
"3@	c #43342A",
"4@	c #AB8466",
"5@	c #BB8C6C",
"6@	c #B68463",
"7@	c #BA8E6E",
"8@	c #9D735B",
"9@	c #581D25",
"0@	c #74483D",
"a@	c #A67C61",
"b@	c #BF9373",
"c@	c #C29674",
"d@	c #BF9473",
"e@	c #9A765B",
"f@	c #4C392B",
"g@	c #6B5445",
"h@	c #48372C",
"i@	c #6E5440",
"j@	c #C09372",
"k@	c #B98969",
"l@	c #B88969",
"m@	c #BF9372",
"n@	c #9E745B",
"o@	c #6C3D36",
"p@	c #591F26",
"q@	c #BE9372",
"r@	c #99755B",
"s@	c #4D3A2C",
"t@	c #644D3E",
"u@	c #7B5F4A",
"v@	c #B68C6D",
"w@	c #B17D5C",
"x@	c #B88767",
"y@	c #BD8F6E",
"z@	c #B68464",
"A@	c #9F755C",
"B@	c #592026",
"C@	c #C19573",
"D@	c #5C4536",
"E@	c #9F7A5F",
"F@	c #BC9170",
"G@	c #C09573",
"H@	c #B58666",
"I@	c #AC785A",
"J@	c #B48364",
"K@	c #BD9070",
"L@	c #BF9271",
"M@	c #BB8D6C",
"N@	c #B27F5F",
"O@	c #B38161",
"P@	c #B58869",
"Q@	c #996F58",
"R@	c #6B3C35",
"S@	c #5A2126",
"T@	c #B78D6E",
"U@	c #937258",
"V@	c #513E30",
"W@	c #594539",
"X@	c #715849",
"Y@	c #4B3A2F",
"Z@	c #5A4433",
"`@	c #A47E62",
" #	c #BE9272",
".#	c #A97C61",
"+#	c #91614B",
"@#	c #A17055",
"##	c #B48363",
"$#	c #B78565",
"%#	c #B48262",
"&#	c #B07C5B",
"*#	c #AE7857",
"=#	c #A57356",
"-#	c #946852",
";#	c #7D5244",
">#	c #653430",
",#	c #5B2428",
"'#	c #75483D",
")#	c #C29675",
"!#	c #B18869",
"~#	c #8E6D54",
"{#	c #715744",
"]#	c #644D3F",
"^#	c #5B4434",
"/#	c #A37D61",
"(#	c #BB8D6D",
"_#	c #9C7058",
":#	c #75463A",
"<#	c #885642",
"[#	c #A16D51",
"}#	c #A46F52",
"|#	c #A36E52",
"1#	c #A26E51",
"2#	c #A36E51",
"3#	c #A26D51",
"4#	c #8F5D47",
"5#	c #6E3E35",
"6#	c #602D2D",
"7#	c #602C2C",
"8#	c #5D272A",
"9#	c #70433A",
"0#	c #997159",
"a#	c #AF8768",
"b#	c #B08869",
"c#	c #99755A",
"d#	c #624B3A",
"e#	c #564236",
"f#	c #BC8E6D",
"g#	c #B28162",
"h#	c #94644D",
"i#	c #6C3B34",
"j#	c #6D3B33",
"k#	c #7B4A3B",
"l#	c #7D4B3C",
"m#	c #7C4B3C",
"n#	c #7D4C3C",
"o#	c #724136",
"p#	c #632F2D",
"q#	c #5E292B",
"r#	c #602B2C",
"s#	c #62342F",
"t#	c #684839",
"u#	c #6D523F",
"v#	c #6D533F",
"w#	c #6A513F",
"x#	c #664F41",
"y#	c #6F5648",
"z#	c #5C473B",
"A#	c #60493A",
"B#	c #AC8567",
"C#	c #BE8F6E",
"D#	c #B38262",
"E#	c #96654E",
"F#	c #6B3A33",
"G#	c #5F2B2C",
"H#	c #612C2C",
"I#	c #5A2929",
"J#	c #3D1A1D",
"K#	c #12040D",
"L#	c #000001",
"M#	c #43332A",
"N#	c #695243",
"O#	c #5F4839",
"P#	c #7F614A",
"Q#	c #AE8668",
"R#	c #B98C6C",
"S#	c #9B6F57",
"T#	c #5D2629",
"U#	c #5B2A2B",
"V#	c #442026",
"W#	c #27121D",
"X#	c #0D030B",
"Y#	c #735A4A",
"Z#	c #5E493C",
"`#	c #664E3E",
" $	c #8B6B53",
".$	c #99765B",
"+$	c #967359",
"@$	c #835D4A",
"#$	c #673732",
"$$	c #5F292A",
"%$	c #482329",
"&$	c #2F1822",
"*$	c #170A11",
"=$	c #685142",
"-$	c #4F3C2F",
";$	c #413024",
">$	c #433025",
",$	c #502E28",
"'$	c #5C2C2B",
")$	c #2E1822",
"!$	c #160A10",
"~$	c #695244",
"{$	c #150013",
"]$	c #351620",
"^$	c #4B2328",
"/$	c #59292B",
"($	c #5C2A2B",
"_$	c #1C0D14",
":$	c #2F1923",
"<$	c #341C27",
"[$	c #3A1E27",
"}$	c #4D252A",
"|$	c #5A2A2B",
"1$	c #5B2929",
"2$	c #5F2B2B",
"3$	c #5E2B2C",
"4$	c #57292B",
"5$	c #452229",
"6$	c #170A10",
"7$	c #1D0D14",
"8$	c #301A24",
"9$	c #341C28",
"0$	c #351C27",
"a$	c #3F1F28",
"b$	c #462229",
"c$	c #3D1B1D",
"d$	c #461E1E",
"e$	c #612D2D",
"f$	c #54272A",
"g$	c #3B1F28",
"h$	c #180A11",
"i$	c #301924",
"j$	c #341C26",
"k$	c #301D22",
"l$	c #382823",
"m$	c #432B24",
"n$	c #4F2725",
"o$	c #552626",
"p$	c #542626",
"q$	c #562728",
"r$	c #452129",
"s$	c #331B27",
"t$	c #311B27",
"u$	c #2B1722",
"v$	c #160911",
"w$	c #423229",
"x$	c #311A25",
"y$	c #23121A",
"z$	c #352722",
"A$	c #5B473B",
"B$	c #5E473B",
"C$	c #412A24",
"D$	c #2E1211",
"E$	c #301314",
"F$	c #34181E",
"G$	c #371B27",
"H$	c #301928",
"I$	c #281727",
"J$	c #231322",
"K$	c #130812",
"L$	c #554236",
"M$	c #46362C",
"N$	c #372926",
"O$	c #1C111E",
"P$	c #1B0F1E",
"Q$	c #261A20",
"R$	c #3F3029",
"S$	c #5A4639",
"T$	c #1D0D15",
"U$	c #554237",
"V$	c #2A1E1B",
"W$	c #150E10",
"X$	c #191112",
"Y$	c #160F10",
"Z$	c #3A2C25",
"`$	c #372921",
" %	c #351D28",
".%	c #372A21",
"+%	c #6A5344",
"@%	c #584438",
"#%	c #5D493C",
"$%	c #27191A",
"%%	c #301A23",
"&%	c #331B26",
"*%	c #311A24",
"=%	c #200F17",
"-%	c #362822",
";%	c #4E3B32",
">%	c #2F1F1F",
",%	c #2A161F",
"'%	c #321B26",
")%	c #2C1721",
"!%	c #312021",
"~%	c #45342C",
"{%	c #5D483B",
"]%	c #614B3E",
"^%	c #2F231D",
"/%	c #211018",
"(%	c #321A25",
"_%	c #1C0F13",
":%	c #6C5546",
"<%	c #624D3F",
"[%	c #2F231C",
"}%	c #201017",
"|%	c #351C28",
"1%	c #190B11",
"2%	c #403127",
"3%	c #614C3F",
"4%	c #2D211B",
"5%	c #1E0E18",
"6%	c #2E1925",
"7%	c #311B28",
"8%	c #301A27",
"9%	c #2A1722",
"0%	c #160A11",
"a%	c #31251E",
"b%	c #180C17",
"c%	c #251525",
"d%	c #271627",
"e%	c #221322",
"f%	c #150C13",
"g%	c #544136",
"h%	c #3A2C27",
"i%	c #1E121D",
"j%	c #1A0E1D",
"k%	c #190E1C",
"l%	c #1A0E1C",
"m%	c #43332C",
"n%	c #1C1312",
"o%	c #201714",
"p%	c #1D1412",
"q%	c #3C2E26",
"r%	c #5C483B",
"                                                                                                                                ",
"                                                                                                                                ",
"                                                                                                                                ",
"                                                                                                                                ",
"                                                                                                                                ",
"                                                                                                                                ",
"                                                                                                                                ",
"                                                                                                                                ",
"                                                                                                                                ",
"                                                                                                                                ",
"                                                                                                                                ",
"                                                          . + + + + + + @                                                       ",
"                                                        # $ % & * * = - ; >                                                     ",
"                                                      # , ' ) ! ~ ~ { ] ^ / .                                                   ",
"                                                    . ( _ : < < < < [ } | 1 ; >                                                 ",
"                                                  2 3 4 5 6 7 8 8 8 8 9 < 0 a , b                                               ",
"                                                @ c d e f g 8 8 8 8 8 8 h i j k 3 >                                             ",
"                                              l m n o p 7 q 8 8 8 8 8 8 q r s t u v 2                                           ",
"                                            w x y z A B C D D D D D D D D E F G H I ,                                           ",
"                                            w J K L M N O P P P P P P P P Q R S T U ;                                           ",
"                                            w V W X Y Z `  ............. .+.@.#.$.%.&.                                          ",
"                                              c *.=.-.;.>.,.'.'.'.'.'.'.).!.~.{.].%.&.                                          ",
"                                          @ ^./.(._.:.<.[.}.|.|.|.|.|.1.2.3.4.5.6.%.&.                                          ",
"                                          / 7.8.9.0.a.b.a.c.d.e.d.d.f.d.g.h.b.i.j.%.&.                                          ",
"                                      k.l.m.n.o.p.q.r.s.t.u.v.w.w.w.w.x.h.y.s.z.A.%.&.                                          ",
"                                      ^.B.C.D.E.F.G.H.I.y.J.K.K.K.K.K.K.t.|.L.M.N.O.;                                           ",
"                                      P.Q.R.S.T.U.V.W.X.Y.Z.Z.Z.Z.Z.Z.Z.`.Y. +.+++@+#+; #                                       ",
"                                      P.$+%+&+*+=+-+;+>+,+'+'+'+'+'+'+'+)+!+~+{+]+^+/+(+_+:+                                    ",
"                                      P.$+<+[+}+|+1+2+3+4+5+6+7+4+4+7+6+7+8+9+0+a+V.V.b+c+$ +                                   ",
"                                      P.$+d+e+f+g+f+h+i+j+k+l+m+n+o+m+k+p+q+r+s+t+u+v+V.w+x+y+                                  ",
"                                      P.$+z+A+B+C+D+E+F+G+G+H+I+J+K+L+M+N+O+P+Q+R+S+T+V.U+V+y+                                  ",
"                                      P.$+W+X+D+Y+Y+Y+Y+Y+Y+Z+`+ @.@+@@@#@$@%@&@*@=@-@;@>@,@'@l >                               ",
"                                      P.$+W+X+D+Y+Y+Y+Y+Y+)@Z+`+ @.@!@~@{@]@^@/@(@_@:@<@[@}@|@1@#                               ",
"                                      2@3@d+4@D+Y+@@5@@@Y+)@Z+`+ @.@6@7@8@^@9@0@a@b@C+c@d@e@f@* +                               ",
"                                    w g@h@i@A+D+j@k@`+l@m@D+Z+`+ @.@6@7@n@o@p@0@a@m@D+D+q@r@s@* +                               ",
"                                  # ; t@u@e@v@D+m@H+w@x@j@D+y@`+ @.@z@Z+A@o@B@0@a@m@C@C+Y+e@f@* +                               ",
"                                  y+B.D@E@F@b@G@m@H@I@J@K@L@M@N@.@.@O@P@Q@R@S@0@a@b@D+q@T@U@V@W@+                               ",
"                                  X@Y@Z@`@D+D+D+ #.#+#@###$#%#&#K+*#=#-#;#>#,#'#{@D+)#!#~#{#]#l.:+                              ",
"                                  X@V+^#/#Y+E+j@(#_#:#<#[#}#|#1#2#3#4#5#6#7#8#9#0#a#b#c#d#e#y+                                  ",
"                                  X@V+^#/#C@E+f#g#h#i#j#k#l#m#l#n#m#o#p#q#7#r#s#t#u#v#w#x#y#>                                   ",
"                                  2 z#A#|+B#_@C#D#E#F#8#G#G#G#G#G#G#r#7#7#7#H#I#J#K#L#M#/                                       ",
"                                  > l N#O#P#Q#L@R#S#o@T#G#G#G#G#G#G#7#7#7#7#H#U#V#W#X#M#/                                       ",
"                                      Y#Z#`# $.$+$@$#$$$7#7#7#7#7#7#7#7#7#7#H#U#%$&$*$$+P.                                      ",
"                                      > b =$-$;$>$,$'$G#7#7#7#7#7#7#7#7#7#7#H#U#%$)$!$$+P.                                      ",
"                                          ~$%.V.{$]$^$/$7#H#H#H#H#7#7#7#7#7#H#($%$)$!$$+P.                                      ",
"                                          &.%._$:$<$[$}$|$($U#I#1$2$7#7#7#7#3$4$5$)$6$$+P.                                      ",
"                                          &.%.7$8$9$0$a$b$%$V#c$d$I#e$H#H#G#f$b$g$)$h$$+P.                                      ",
"                                          &.%.7$i$0$<$<$j$8$k$l$m$n$o$p$q$f$r$s$t$u$v$w$P.                                      ",
"                                          &.%.7$i$0$<$<$x$y$z$A$B$C$D$E$F$G$H$I$I$J$K$M#P.                                      ",
"                                          &.%.7$i$0$<$0$8$7$O.3 2@L$(+M$N$O$P$P$P$Q$R$S$X@                                      ",
"                                          &.%.7$i$0$<$0$8$T$U ; @ l X@2@U$V$W$X$Y$Z$V Y#>                                       ",
"                                          ; `$7$8$ %<$0$i$7$.%&.        +%@%= * & #%X@                                          ",
"                                          '@$+$%%%&%<$0$*%=%-%V + >     :+b + + + # >                                           ",
"                                          l $ ;%>%,%&%0$'%)%!%~%{%y+                                                            ",
"                                            :+]%^%/%(%0$<$<$)$_%M#:%                                                            ",
"                                              <%[%}%(%0$<$|%)$1%2%l.                                                            ",
"                                            w 3%4%5%6%7%8%7%9%0%2%l.                                                            ",
"                                            w <%a%b%c%d%d%d%e%f%M#:%                                                            ",
"                                              l.g%h%i%j%k%l%Q$m%{%y+                                                            ",
"                                              > y+W@^%n%o%p%q%( + >                                                             ",
"                                                  :%r%@%W@/.]%y+                                                                ",
"                                                  > . . . . @ w                                                                 ",
"                                                                                                                                ",
"                                                                                                                                "};
