/* XPM */
static char * player_up2_xpm[] = {
"64 64 609 2",
"  	c #785E4E",
". 	c #765C4C",
"+ 	c #745B4B",
"@ 	c #765C4D",
"# 	c #755B4C",
"$ 	c #644E40",
"% 	c #554136",
"& 	c #534035",
"* 	c #544135",
"= 	c #534034",
"- 	c #564337",
"; 	c #675042",
"> 	c #775D4D",
", 	c #6A5345",
"' 	c #493B33",
") 	c #222121",
"! 	c #1C1E1F",
"~ 	c #1F2020",
"{ 	c #1B1D1F",
"] 	c #272423",
"^ 	c #504037",
"/ 	c #6D5547",
"( 	c #634D40",
"_ 	c #483A31",
": 	c #363839",
"< 	c #2D3B40",
"[ 	c #2D3C41",
"} 	c #2C3A3F",
"| 	c #393837",
"1 	c #4C3C32",
"2 	c #735A4B",
"3 	c #675143",
"4 	c #4B3D35",
"5 	c #272D30",
"6 	c #303E43",
"7 	c #38494F",
"8 	c #394A50",
"9 	c #38484E",
"0 	c #2C2D2E",
"a 	c #514137",
"b 	c #745B4C",
"c 	c #634D3F",
"d 	c #43362E",
"e 	c #333739",
"f 	c #334146",
"g 	c #37474D",
"h 	c #36464C",
"i 	c #323F44",
"j 	c #343535",
"k 	c #48382F",
"l 	c #72594A",
"m 	c #644E41",
"n 	c #4E3F3E",
"o 	c #313340",
"p 	c #323F49",
"q 	c #394B50",
"r 	c #38484F",
"s 	c #313C47",
"t 	c #35333F",
"u 	c #52423E",
"v 	c #675043",
"w 	c #775D4E",
"x 	c #654F41",
"y 	c #3F312B",
"z 	c #343343",
"A 	c #3E445A",
"B 	c #3E4959",
"C 	c #3A4A52",
"D 	c #3A4A51",
"E 	c #3A4A53",
"F 	c #3E485A",
"G 	c #3E4258",
"H 	c #33303D",
"I 	c #46362D",
"J 	c #614C3E",
"K 	c #2C221E",
"L 	c #222636",
"M 	c #353C50",
"N 	c #3D4659",
"O 	c #404B5D",
"P 	c #414C5D",
"Q 	c #404B5C",
"R 	c #3C4558",
"S 	c #33394D",
"T 	c #1E2230",
"U 	c #372A22",
"V 	c #624C3F",
"W 	c #2E231D",
"X 	c #0D121B",
"Y 	c #1F2634",
"Z 	c #353B50",
"` 	c #424861",
" .	c #444B63",
"..	c #434A63",
"+.	c #41475F",
"@.	c #32384C",
"#.	c #1C222F",
"$.	c #0B0F17",
"%.	c #392B23",
"&.	c #685143",
"*.	c #2E231C",
"=.	c #080E14",
"-.	c #151D28",
";.	c #262C3D",
">.	c #30364A",
",.	c #333B4F",
"'.	c #343D50",
").	c #333A4E",
"!.	c #2F3549",
"~.	c #232939",
"{.	c #131A24",
"].	c #060B11",
"^.	c #6F5748",
"/.	c #584538",
"(.	c #291F19",
"_.	c #0C131B",
":.	c #161F29",
"<.	c #19222D",
"[.	c #1A242F",
"}.	c #1E2933",
"|.	c #202C36",
"1.	c #1F2C36",
"2.	c #1D2833",
"3.	c #1A232E",
"4.	c #18222D",
"5.	c #151E28",
"6.	c #0A1017",
"7.	c #513F33",
"8.	c #33261F",
"9.	c #15100D",
"0.	c #111A21",
"a.	c #1C2831",
"b.	c #1D2A33",
"c.	c #19252E",
"d.	c #18222C",
"e.	c #17222C",
"f.	c #17222B",
"g.	c #1A252F",
"h.	c #1C2932",
"i.	c #1A262F",
"j.	c #0E161C",
"k.	c #755C4C",
"l.	c #6C5446",
"m.	c #5E4D4B",
"n.	c #484557",
"o.	c #31354B",
"p.	c #151823",
"q.	c #12171D",
"r.	c #202731",
"s.	c #212C36",
"t.	c #1F2D36",
"u.	c #1B2831",
"v.	c #19232D",
"w.	c #18232D",
"x.	c #19242E",
"y.	c #202D36",
"z.	c #1E252F",
"A.	c #11151C",
"B.	c #503E33",
"C.	c #474557",
"D.	c #5D6487",
"E.	c #545B7C",
"F.	c #272A3C",
"G.	c #0F050D",
"H.	c #211C29",
"I.	c #222732",
"J.	c #1F2C35",
"K.	c #1E2B34",
"L.	c #222531",
"M.	c #201A27",
"N.	c #120C16",
"O.	c #3B2D24",
"P.	c #6D5546",
"Q.	c #413228",
"R.	c #3D435C",
"S.	c #656E95",
"T.	c #5E668B",
"U.	c #2C3044",
"V.	c #000000",
"W.	c #040018",
"X.	c #0F1627",
"Y.	c #16212F",
"Z.	c #172230",
"`.	c #162230",
" +	c #171826",
".+	c #251A20",
"++	c #41312B",
"@+	c #5A463A",
"#+	c #705849",
"$+	c #423329",
"%+	c #3A3F58",
"&+	c #61688E",
"*+	c #596184",
"=+	c #2B2E40",
"-+	c #1F1100",
";+	c #35261F",
">+	c #3A2928",
",+	c #3B282D",
"'+	c #3C282E",
")+	c #3C292E",
"!+	c #3A272C",
"~+	c #2C1B1F",
"{+	c #32221E",
"]+	c #5B463A",
"^+	c #252B3E",
"/+	c #404866",
"(+	c #35405E",
"_+	c #1D1F2D",
":+	c #604935",
"<+	c #896850",
"[+	c #8B654D",
"}+	c #845A45",
"|+	c #835844",
"1+	c #835944",
"2+	c #845945",
"3+	c #7F5542",
"4+	c #674033",
"5+	c #4C2924",
"6+	c #4C352D",
"7+	c #614B3E",
"8+	c #281E1B",
"9+	c #473731",
"0+	c #4C3B32",
"a+	c #554032",
"b+	c #8D6C53",
"c+	c #B58A6B",
"d+	c #B68666",
"e+	c #AD7B5B",
"f+	c #AC795A",
"g+	c #AC7859",
"h+	c #AB7657",
"i+	c #AA7555",
"j+	c #AA7556",
"k+	c #AE7B5B",
"l+	c #A87557",
"m+	c #895945",
"n+	c #61342E",
"o+	c #53352B",
"p+	c #503C2E",
"q+	c #503D2E",
"r+	c #5B4637",
"s+	c #6B5344",
"t+	c #55402F",
"u+	c #8D6C51",
"v+	c #9F795D",
"w+	c #A07B5F",
"x+	c #AF8769",
"y+	c #BE9271",
"z+	c #BF916F",
"A+	c #BB8C6B",
"B+	c #B88867",
"C+	c #B27E5D",
"D+	c #AE7757",
"E+	c #AE7858",
"F+	c #B3805F",
"G+	c #B98968",
"H+	c #BD8D6C",
"I+	c #B68768",
"J+	c #91644F",
"K+	c #71453A",
"L+	c #8A654F",
"M+	c #9D785D",
"N+	c #9E795E",
"O+	c #8B6B53",
"P+	c #614A3B",
"Q+	c #5F4A3D",
"R+	c #745A4B",
"S+	c #43332A",
"T+	c #674E3B",
"U+	c #AB8466",
"V+	c #C19573",
"W+	c #C09473",
"X+	c #BC8F6E",
"Y+	c #B38060",
"Z+	c #AD7656",
"`+	c #AD7757",
" @	c #B58363",
".@	c #BD906F",
"+@	c #BA8F6F",
"@@	c #AC8165",
"#@	c #885E4B",
"$@	c #784C40",
"%@	c #A57A60",
"&@	c #BF9372",
"*@	c #A27D61",
"=@	c #594333",
"-@	c #4D3B30",
";@	c #715949",
">@	c #6C5546",
",@	c #6A503D",
"'@	c #AD8567",
")@	c #C29674",
"!@	c #C19574",
"~@	c #C09574",
"{@	c #B58463",
"]@	c #BB8F6E",
"^@	c #A77D62",
"/@	c #845949",
"(@	c #6A3B35",
"_@	c #76493E",
":@	c #A67C61",
"<@	c #C19473",
"[@	c #C29574",
"}@	c #A47E61",
"|@	c #5B4534",
"1@	c #4B3A2F",
"2@	c #664F40",
"3@	c #705543",
"4@	c #8F6D54",
"5@	c #B38A6B",
"6@	c #BB8C6C",
"7@	c #B68463",
"8@	c #BA8E6E",
"9@	c #9D735B",
"0@	c #581D25",
"a@	c #74483D",
"b@	c #AE8668",
"c@	c #886850",
"d@	c #6D5442",
"e@	c #664F41",
"f@	c #6E5647",
"g@	c #5D4637",
"h@	c #9A765C",
"i@	c #B78D6D",
"j@	c #BE9272",
"k@	c #B98969",
"l@	c #B88969",
"m@	c #9E745B",
"n@	c #6C3D36",
"o@	c #591F26",
"p@	c #BF9373",
"q@	c #BD9271",
"r@	c #B58B6C",
"s@	c #916F56",
"t@	c #533F31",
"u@	c #715849",
"v@	c #5A4433",
"w@	c #A47E62",
"x@	c #C09372",
"y@	c #B07C5C",
"z@	c #B78766",
"A@	c #592026",
"B@	c #9A765B",
"C@	c #4C392B",
"D@	c #4C3A30",
"E@	c #A37D61",
"F@	c #C09373",
"G@	c #BE9170",
"H@	c #B78767",
"I@	c #74473C",
"J@	c #A57A5F",
"K@	c #BD9170",
"L@	c #BF9271",
"M@	c #99755B",
"N@	c #4D3A2C",
"O@	c #BD8F6F",
"P@	c #B88766",
"Q@	c #B27E5E",
"R@	c #B07C5B",
"S@	c #B88868",
"T@	c #BD8F6E",
"U@	c #B68464",
"V@	c #9F755C",
"W@	c #5A2127",
"X@	c #724238",
"Y@	c #9F6F55",
"Z@	c #BC906F",
"`@	c #99765B",
" #	c #BE906F",
".#	c #B38465",
"+#	c #A37355",
"@#	c #9F6C4F",
"##	c #A47154",
"$#	c #B18162",
"%#	c #BC8E6E",
"&#	c #BA8B6A",
"*#	c #B27F5E",
"=#	c #B17F60",
"-#	c #B08366",
";#	c #946B55",
">#	c #6A3A34",
",#	c #5B2528",
"'#	c #6C3B33",
")#	c #8C5C45",
"!#	c #A27052",
"~#	c #AD7A5B",
"{#	c #B78666",
"]#	c #BC8F6F",
"^#	c #B68564",
"/#	c #9B6E52",
"(#	c #724E38",
"_#	c #6A4232",
":#	c #80503F",
"<#	c #9D6C52",
"[#	c #B17F5F",
"}#	c #B48161",
"|#	c #B27F5F",
"1#	c #AF7A5A",
"2#	c #AE7857",
"3#	c #A06E53",
"4#	c #8A5D4A",
"5#	c #75483D",
"6#	c #64322F",
"7#	c #5F2A2B",
"8#	c #602F2C",
"9#	c #5E382B",
"0#	c #7B5841",
"a#	c #A97E60",
"b#	c #BF9170",
"c#	c #B68565",
"d#	c #93694E",
"e#	c #4A3224",
"f#	c #360C15",
"g#	c #62312D",
"h#	c #855341",
"i#	c #99664C",
"j#	c #9C694E",
"k#	c #9C684D",
"l#	c #9B674D",
"m#	c #895743",
"n#	c #6A3831",
"o#	c #5E292B",
"p#	c #602C2C",
"q#	c #612D2D",
"r#	c #592828",
"s#	c #341013",
"t#	c #503C2D",
"u#	c #A67F63",
"v#	c #A37E61",
"w#	c #886951",
"x#	c #594436",
"y#	c #4D3B31",
"z#	c #A27C60",
"A#	c #BB8E6E",
"B#	c #997358",
"C#	c #4D3729",
"D#	c #380E15",
"E#	c #5D2B2B",
"F#	c #6B3932",
"G#	c #724136",
"H#	c #734237",
"I#	c #622F2D",
"J#	c #5F2B2B",
"K#	c #612D2C",
"L#	c #381517",
"M#	c #281C14",
"N#	c #4B382A",
"O#	c #584332",
"P#	c #594433",
"Q#	c #624B3B",
"R#	c #6C5445",
"S#	c #614C3F",
"T#	c #624B3C",
"U#	c #876750",
"V#	c #98745A",
"W#	c #97745A",
"X#	c #7C5F49",
"Y#	c #3F2D21",
"Z#	c #3C1518",
"`#	c #5C2A2A",
" $	c #602B2C",
".$	c #612C2C",
"+$	c #5A292A",
"@$	c #401D20",
"#$	c #1A0912",
"$$	c #281E17",
"%$	c #48372D",
"&$	c #574335",
"*$	c #473528",
"=$	c #423125",
"-$	c #33261B",
";$	c #20120F",
">$	c #411B1C",
",$	c #5B2A2B",
"'$	c #462228",
")$	c #2C1720",
"!$	c #14080F",
"~$	c #3F3027",
"{$	c #4C3B30",
"]$	c #271D17",
"^$	c #000004",
"/$	c #241018",
"($	c #472124",
"_$	c #5C2A2C",
":$	c #482329",
"<$	c #2F1822",
"[$	c #170A11",
"}$	c #43342A",
"|$	c #1A0C13",
"1$	c #311923",
"2$	c #59292B",
"3$	c #5F2B2C",
"4$	c #5E2B2C",
"5$	c #57292B",
"6$	c #452229",
"7$	c #2E1822",
"8$	c #170A10",
"9$	c #695243",
"0$	c #3A2C23",
"a$	c #1C0D14",
"b$	c #311A24",
"c$	c #3D1F28",
"d$	c #56282B",
"e$	c #5F2C2C",
"f$	c #54272A",
"g$	c #462229",
"h$	c #3B1E28",
"i$	c #180A11",
"j$	c #1D0D14",
"k$	c #301924",
"l$	c #341C27",
"m$	c #381D27",
"n$	c #4A2429",
"o$	c #57282B",
"p$	c #57282A",
"q$	c #552727",
"r$	c #542626",
"s$	c #562728",
"t$	c #58292A",
"u$	c #472229",
"v$	c #361D27",
"w$	c #351C27",
"x$	c #412028",
"y$	c #422128",
"z$	c #3E1E25",
"A$	c #34181A",
"B$	c #2F1312",
"C$	c #2F1413",
"D$	c #36191C",
"E$	c #3F1F26",
"F$	c #422129",
"G$	c #402028",
"H$	c #3A1E28",
"I$	c #321B26",
"J$	c #2D1822",
"K$	c #311F22",
"L$	c #403029",
"M$	c #49382E",
"N$	c #3E2E28",
"O$	c #2E1C21",
"P$	c #2E1823",
"Q$	c #211018",
"R$	c #362822",
"S$	c #604B3E",
"T$	c #705748",
"U$	c #2D201C",
"V$	c #24121B",
"W$	c #321B25",
"X$	c #372A21",
"Y$	c #2E221B",
"Z$	c #301A24",
"`$	c #1D0E15",
" %	c #372921",
".%	c #2D211B",
"+%	c #201018",
"@%	c #301A25",
"#%	c #331C27",
"$%	c #331B27",
"%%	c #2C1722",
"&%	c #2A1F1A",
"*%	c #1B0D18",
"=%	c #2A1726",
"-%	c #2C1928",
";%	c #2C1827",
">%	c #261422",
",%	c #130811",
"'%	c #423229",
")%	c #281C1F",
"!%	c #221422",
"~%	c #211323",
"{%	c #201223",
"]%	c #211223",
"^%	c #241722",
"/%	c #2F2320",
"(%	c #735A4A",
"_%	c #201518",
":%	c #0F0712",
"<%	c #0F0711",
"[%	c #312421",
"}%	c #594539",
"|%	c #1A0C14",
"1%	c #2C1824",
"2%	c #311B28",
"3%	c #301A27",
"4%	c #1B0C15",
"5%	c #362921",
"6%	c #665042",
"7%	c #765D4D",
"8%	c #403128",
"9%	c #413128",
"0%	c #513F34",
"a%	c #140914",
"b%	c #241423",
"c%	c #271627",
"d%	c #150A15",
"e%	c #392C23",
"f%	c #3F302A",
"g%	c #22161F",
"h%	c #1A0E1D",
"i%	c #190E1C",
"j%	c #21161E",
"k%	c #3E2F2A",
"l%	c #584438",
"m%	c #6F5648",
"n%	c #362922",
"o%	c #1C1312",
"p%	c #201714",
"q%	c #352821",
"r%	c #5E493C",
"                                                                                                                                ",
"                                                                                                                                ",
"                                                                                                                                ",
"                                                                                                                                ",
"                                                                                                                                ",
"                                                                                                                                ",
"                                                                                                                                ",
"                                                                                                                                ",
"                                                                                                                                ",
"                                                                                                                                ",
"                                                                                                                                ",
"                                                          . + + + + + + @                                                       ",
"                                                        # $ % & * * = - ; >                                                     ",
"                                                      # , ' ) ! ~ ~ { ] ^ / .                                                   ",
"                                                    . ( _ : < < < < [ } | 1 ; >                                                 ",
"                                                  2 3 4 5 6 7 8 8 8 8 9 < 0 a , b                                               ",
"                                                @ c d e f g 8 8 8 8 8 8 h i j k 3 >                                             ",
"                                              l m n o p 7 q 8 8 8 8 8 8 q r s t u v 2                                           ",
"                                            w x y z A B C D D D D D D D D E F G H I ,                                           ",
"                                            w J K L M N O P P P P P P P P Q R S T U ;                                           ",
"                                            w V W X Y Z `  ............. .+.@.#.$.%.&.                                          ",
"                                              c *.=.-.;.>.,.'.'.'.'.'.'.).!.~.{.].%.&.                                          ",
"                                          @ ^./.(._.:.<.[.}.|.|.|.|.|.1.2.3.4.5.6.%.&.                                          ",
"                                          / 7.8.9.0.a.b.a.c.d.e.d.d.f.d.g.h.b.i.j.%.&.                                          ",
"                                      k.l.m.n.o.p.q.r.s.t.u.v.w.w.w.w.x.h.y.s.z.A.U 3                                           ",
"                                      ^.B.C.D.E.F.G.H.I.y.J.K.K.K.K.K.K.t.|.L.M.N.O.&.                                          ",
"                                      P.Q.R.S.T.U.V.W.X.Y.Z.Z.Z.Z.Z.Z.Z.`.Y. +.+++@+#+                                          ",
"                                      P.$+%+&+*+=+-+;+>+,+'+'+'+'+'+'+'+)+!+~+{+]+^.2 k.w                                       ",
"                                      P.$+^+/+(+_+:+<+[+}+|+1+2+}+}+2+1+2+3+4+5+6+* % 7+2                                       ",
"                                      P.$+8+9+0+a+b+c+d+e+f+g+h+i+j+h+f+k+l+m+n+o+p+q+r+s++ >                                   ",
"                                      P.$+t+u+v+w+x+y+z+A+A+B+C+D+E+F+G+H+I+J+K+L+M+N+O+P+Q+R+                                  ",
"                                      / S+T+U+V+W+W+W+W+W+W+X+Y+Z+`+ @.@+@@@#@$@%@&@W+*@=@-@;@                                  ",
"                                      >@$+,@'@)@!@W+W+W+W+~@X+Y+Z+`+{@]@^@/@(@_@:@<@[@}@|@1@#+                                  ",
"                                  . l.2@3@4@5@!@W+.@6@.@W+~@X+Y+Z+`+7@8@9@(@0@a@:@W+!@b@c@d@e@f@>                               ",
"                                  l * g@h@i@j@W+&@k@Y+l@&@!@X+Y+Z+`+7@8@m@n@o@a@:@p@!@q@r@s@t@]+b                               ",
"                                  u@1@v@w@!@!@~@x@B+y@z@&@!@X+Y+Z+`+7@8@m@n@A@a@:@W+!@)@W+B@C@* +                               ",
"                                  u@D@|@E@W+<@F@G@d+y@H@&@!@X+Y+Z+`+7@8@m@n@A@I@J@K@L@x@y+M@N@% +                               ",
"                                  u@D@|@E@W+!@O@P@Q@R@S@x@!@T@Y+Z+`+U@X+V@n@W@X@Y@{@U@k@Z@`@N@% +                               ",
"                                  u@D@|@E@x@ #.#+#@###$#%# #&#*#`+`+=#-#;#>#,#'#)#!#~#{#]#B@N@* +                               ",
"                                  u@D@|@E@.@^#/#(#_#:#<#[#}#|#1#2#`+3#4#5#6#7#8#9#0#a# #y+`@N@* +                               ",
"                                  u@1@v@}@b#c#d#e#f#g#h#i#j#k#k#j#l#m#n#o#p#q#r#s#t#4@u#v#w#x#7+k.                              ",
"                                  u@y#|@z#y+A#B#C#D#E#F#G#H#H#H#H#H#'#I#J#p#K#r#L#M#N#O#P#Q#R#R+w                               ",
"                                  + S#T#U#V#W#X#Y#Z#`# $o#o#o#o#o#o#7#p#p#p#.$+$@$#$V.$$%$V #                                   ",
"                                  w k.R#&$*$=$-$;$>$`#.$p#p#p#p#p#p#p#p#p#p#.$,$'$)$!$~$&.k.w                                   ",
"                                      + $ {$]$^$/$($E#.$p#p#p#p#p#p#p#p#p#p#.$_$:$<$[$}$f@                                      ",
"                                        > e@U |$1$:$2$3$p#p#p#p#p#p#p#p#p#p#4$5$6$7$8$$+P.                                      ",
"                                          9$0$a$b$c$:$d$e$.$p#.$.$.$.$p#.$3$f$g$h$7$i$$+P.                                      ",
"                                          &.%.j$k$l$m$n$o$2$p$q$r$r$s$t$2$d$u$v$l$7$i$$+P.                                      ",
"                                          &.%.j$k$l$w$h$x$y$z$A$B$C$D$E$F$G$H$l$l$7$i$$+P.                                      ",
"                                          &.%.j$k$w$l$l$I$J$K$L$M$%$N$O$P$I$l$l$l$7$i$$+P.                                      ",
"                                          &.%.j$k$w$l$l$b$Q$R$S$u@T$]+U$V$W$l$l$l$7$i$$+P.                                      ",
"                                          &.%.j$k$w$l$w$k$j$X$&.    S#Y$Q$W$w$l$w$7$i$$+P.                                      ",
"                                          &.%.j$k$w$l$w$Z$`$ %;     7+.%+%@%#%$%#%%%[$$+P.                                      ",
"                                          &.%.j$k$w$l$w$Z$`$ %;   w S$&%*%=%-%;%-%>%,%Q.P.                                      ",
"                                          &.%.j$k$w$l$w$Z$`$ %;     e@'%)%!%~%{%]%^%/%B.^.                                      ",
"                                          &.%.j$k$w$l$w$Z$`$ %;     (%; 0+_%:%<%:%[%}%l.k.                                      ",
"                                          3 U |%1%2%3%2%1%4%5%6%      7%$ %$8%'%9%0%P.                                          ",
"                                          &.O.a%b%c%c%c%b%d%e%;         2 f@P./ / T$k.                                          ",
"                                          ^.}%f%g%h%i%h%j%k%l%m%                                                                ",
"                                          > (%Q+n%o%p%o%q%r%(%>                                                                 ",
"                                              ^.r%l%}%l%r%m%                                                                    ",
"                                              > @ . . . @ >                                                                     ",
"                                                                                                                                ",
"                                                                                                                                "};
