/* XPM */
static char * player_right6_xpm[] = {
"64 64 736 2",
"  	c #785E4E",
". 	c #775D4D",
"+ 	c #755B4C",
"@ 	c #745B4B",
"# 	c #765C4C",
"$ 	c #705849",
"% 	c #5C473B",
"& 	c #534034",
"* 	c #544135",
"= 	c #534035",
"- 	c #634D3F",
"; 	c #735A4A",
"> 	c #604B3E",
", 	c #362A23",
"' 	c #131112",
") 	c #1A1717",
"! 	c #1D1C1C",
"~ 	c #1F2020",
"{ 	c #1D1E1F",
"] 	c #202020",
"^ 	c #483A32",
"/ 	c #695345",
"( 	c #72594A",
"_ 	c #5A4639",
": 	c #3D2F29",
"< 	c #1E1C21",
"[ 	c #131C24",
"} 	c #19252C",
"| 	c #253238",
"1 	c #2C3A3F",
"2 	c #2D3C40",
"3 	c #2D3B40",
"4 	c #35383A",
"5 	c #634D40",
"6 	c #765D4D",
"7 	c #715849",
"8 	c #614B3E",
"9 	c #3B2E27",
"0 	c #0B1119",
"a 	c #131B25",
"b 	c #19242E",
"c 	c #212F38",
"d 	c #2F3F46",
"e 	c #38494F",
"f 	c #394A50",
"g 	c #2A3A3F",
"h 	c #15191D",
"i 	c #4A392E",
"j 	c #665042",
"k 	c #6B5345",
"l 	c #6D5546",
"m 	c #735A4B",
"n 	c #5A463A",
"o 	c #382C26",
"p 	c #1F1D21",
"q 	c #121A24",
"r 	c #151D28",
"s 	c #222F38",
"t 	c #3A4B51",
"u 	c #3A4A51",
"v 	c #303D42",
"w 	c #1B1F1D",
"x 	c #2B1F16",
"y 	c #3C2E24",
"z 	c #3B2D24",
"A 	c #4B3A2F",
"B 	c #6F5748",
"C 	c #5F4A3D",
"D 	c #3E3029",
"E 	c #0B1016",
"F 	c #101821",
"G 	c #131B26",
"H 	c #141C27",
"I 	c #18232C",
"J 	c #202F37",
"K 	c #2F3F45",
"L 	c #394A4F",
"M 	c #3F4F5B",
"N 	c #4E5B70",
"O 	c #6D686A",
"P 	c #8A744D",
"Q 	c #927842",
"R 	c #89713F",
"S 	c #5D4C29",
"T 	c #372A20",
"U 	c #765C4D",
"V 	c #5E493C",
"W 	c #352922",
"X 	c #1E1D23",
"Y 	c #171E2A",
"Z 	c #19202C",
"` 	c #19202D",
" .	c #1A212D",
"..	c #1D2732",
"+.	c #24313B",
"@.	c #304048",
"#.	c #394950",
"$.	c #465569",
"%.	c #626C8D",
"&.	c #9D8F8C",
"*.	c #CEAD71",
"=.	c #DDB768",
"-.	c #CFAC63",
";.	c #907743",
">.	c #3F3123",
",.	c #584438",
"'.	c #1E191D",
").	c #272C3C",
"!.	c #343A4E",
"~.	c #353B50",
"{.	c #343A4F",
"].	c #353C51",
"^.	c #384054",
"/.	c #3C4759",
"(.	c #404C5D",
"_.	c #404C5C",
":.	c #47526C",
"<.	c #5D6485",
"[.	c #A49286",
"}.	c #DFBB77",
"|.	c #F0C872",
"1.	c #E1BB6C",
"2.	c #9D8249",
"3.	c #413324",
"4.	c #594539",
"5.	c #241F23",
"6.	c #31364A",
"7.	c #414760",
"8.	c #424861",
"9.	c #414761",
"0.	c #424761",
"a.	c #424962",
"b.	c #434962",
"c.	c #414964",
"d.	c #494E68",
"e.	c #93806A",
"f.	c #D1AE6B",
"g.	c #D3B066",
"h.	c #937945",
"i.	c #3F3124",
"j.	c #221B1D",
"k.	c #252939",
"l.	c #31374B",
"m.	c #32384C",
"n.	c #31364B",
"o.	c #30334A",
"p.	c #2B3049",
"q.	c #2A3247",
"r.	c #635749",
"s.	c #917A4D",
"t.	c #9E844F",
"u.	c #957C4B",
"v.	c #665432",
"w.	c #3A2C22",
"x.	c #1E1714",
"y.	c #10161F",
"z.	c #171F2A",
"A.	c #171F2B",
"B.	c #191E2B",
"C.	c #1A1E2B",
"D.	c #181D2A",
"E.	c #29232C",
"F.	c #473132",
"G.	c #563D38",
"H.	c #5A453E",
"I.	c #5E4B41",
"J.	c #5F4C40",
"K.	c #4F4038",
"L.	c #312B2B",
"M.	c #181618",
"N.	c #342720",
"O.	c #1D1614",
"P.	c #0D131C",
"Q.	c #131C26",
"R.	c #141C26",
"S.	c #191A26",
"T.	c #1E1726",
"U.	c #161124",
"V.	c #422C2D",
"W.	c #7C5441",
"X.	c #996C52",
"Y.	c #A27A5F",
"Z.	c #A68065",
"`.	c #A07C62",
" +	c #7B5E4E",
".+	c #30222B",
"++	c #000011",
"@+	c #45352C",
"#+	c #292323",
"$+	c #151923",
"%+	c #181A26",
"&+	c #1A1B28",
"*+	c #1B1B28",
"=+	c #1F1927",
"-+	c #231627",
";+	c #190C25",
">+	c #4C3231",
",+	c #90624A",
"'+	c #B27F5E",
")+	c #BD8F6E",
"!+	c #C29675",
"~+	c #BE9272",
"{+	c #927059",
"]+	c #402F2C",
"^+	c #302420",
"/+	c #4F3D32",
"(+	c #6C5446",
"_+	c #695244",
":+	c #47372E",
"<+	c #151117",
"[+	c #1B1321",
"}+	c #211727",
"|+	c #221727",
"1+	c #241527",
"2+	c #C19574",
"3+	c #BB9070",
"4+	c #8E6D54",
"5+	c #413128",
"6+	c #554236",
"7+	c #6E5647",
"8+	c #0E090A",
"9+	c #010012",
"0+	c #09001C",
"a+	c #140422",
"b+	c #160624",
"c+	c #170824",
"d+	c #0D0424",
"e+	c #4B3131",
"f+	c #B27F5F",
"g+	c #BC8E6E",
"h+	c #B48B6C",
"i+	c #9A765C",
"j+	c #6D533F",
"k+	c #382A20",
"l+	c #4E3C31",
"m+	c #1B130D",
"n+	c #2D2019",
"o+	c #3A2A25",
"p+	c #3F2D2E",
"q+	c #412E31",
"r+	c #402D30",
"s+	c #301F2B",
"t+	c #503331",
"u+	c #B27E5E",
"v+	c #BB8C6C",
"w+	c #A47D60",
"x+	c #684D3A",
"y+	c #332319",
"z+	c #2B1F18",
"A+	c #755C4C",
"B+	c #3E2F23",
"C+	c #7A5D47",
"D+	c #916F56",
"E+	c #93715A",
"F+	c #8F6C57",
"G+	c #715044",
"H+	c #643C35",
"I+	c #936249",
"J+	c #AF7A5A",
"K+	c #B48262",
"L+	c #A6785A",
"M+	c #855B42",
"N+	c #593A28",
"O+	c #2D2018",
"P+	c #675042",
"Q+	c #564236",
"R+	c #523F34",
"S+	c #553F32",
"T+	c #694D39",
"U+	c #A47E61",
"V+	c #BD9171",
"W+	c #B88D6E",
"X+	c #936954",
"Y+	c #74453A",
"Z+	c #98674E",
"`+	c #B07C5C",
" @	c #B17D5D",
".@	c #AA7859",
"+@	c #875E45",
"@@	c #563C2B",
"#@	c #5E483A",
"$@	c #251E1F",
"%@	c #252735",
"&@	c #463D44",
"*@	c #655147",
"=@	c #745A4B",
"-@	c #543E32",
";@	c #75503B",
">@	c #996C50",
",@	c #B58969",
"'@	c #C29574",
")@	c #C39675",
"!@	c #966C56",
"~@	c #784A3E",
"{@	c #A1735A",
"]@	c #B98A6A",
"^@	c #BA8B6A",
"/@	c #BB8B6B",
"(@	c #B98A69",
"_@	c #A97A5C",
":@	c #8D6248",
"<@	c #684937",
"[@	c #4B5170",
"}@	c #575B7A",
"|@	c #4E454F",
"1@	c #5D483C",
"2@	c #745B4C",
"3@	c #634C3D",
"4@	c #6F523E",
"5@	c #976C51",
"6@	c #B38262",
"7@	c #C09473",
"8@	c #BC9070",
"9@	c #956B55",
"0@	c #794D40",
"a@	c #A57B60",
"b@	c #BF9373",
"c@	c #BF9372",
"d@	c #B88867",
"e@	c #A87556",
"f@	c #82583F",
"g@	c #5E4131",
"h@	c #634B3D",
"i@	c #6A5344",
"j@	c #473E44",
"k@	c #5B6286",
"l@	c #464B68",
"m@	c #4D444D",
"n@	c #655047",
"o@	c #685143",
"p@	c #513E32",
"q@	c #7E614A",
"r@	c #A88163",
"s@	c #B68A6B",
"t@	c #BB8F70",
"u@	c #A67B61",
"v@	c #C09574",
"w@	c #AD7859",
"x@	c #A26F51",
"y@	c #8E6247",
"z@	c #634534",
"A@	c #3F3026",
"B@	c #5B473A",
"C@	c #725A4A",
"D@	c #4C444E",
"E@	c #464C68",
"F@	c #575B7B",
"G@	c #67503F",
"H@	c #785B47",
"I@	c #9E7A5E",
"J@	c #BD9271",
"K@	c #C19573",
"L@	c #B88C6D",
"M@	c #A67C61",
"N@	c #845949",
"O@	c #774B3F",
"P@	c #C09372",
"Q@	c #AF7959",
"R@	c #AE7757",
"S@	c #A57355",
"T@	c #89644B",
"U@	c #765A45",
"V@	c #755944",
"W@	c #6F5543",
"X@	c #644E40",
"Y@	c #654F41",
"Z@	c #5C483B",
"`@	c #373C54",
" #	c #636B92",
".#	c #5D6589",
"+#	c #303142",
"@#	c #49382D",
"##	c #725843",
"$#	c #A98365",
"%#	c #BC9171",
"&#	c #A47A60",
"*#	c #7D5143",
"=#	c #643330",
"-#	c #74473C",
";#	c #BF9271",
">#	c #B78766",
",#	c #AE7959",
"'#	c #AD7656",
")#	c #AE7B5B",
"!#	c #B18465",
"~#	c #B48A6B",
"{#	c #B2896A",
"]#	c #906E56",
"^#	c #4A382B",
"/#	c #2E221B",
"(#	c #2A1F18",
"_#	c #17100C",
":#	c #393E55",
"<#	c #5D6488",
"[#	c #313243",
"}#	c #6A5244",
"|#	c #3C2D24",
"1#	c #B58B6C",
"2#	c #B98D6E",
"3#	c #A3795F",
"4#	c #865B4A",
"5#	c #663431",
"6#	c #592127",
"7#	c #714239",
"8#	c #A07258",
"9#	c #B78767",
"0#	c #B88767",
"a#	c #B78666",
"b#	c #B28060",
"c#	c #AE7858",
"d#	c #B68464",
"e#	c #BD8E6D",
"f#	c #BE9271",
"g#	c #99755B",
"h#	c #413124",
"i#	c #000000",
"j#	c #1C130C",
"k#	c #1B0F00",
"l#	c #3F4157",
"m#	c #646C92",
"n#	c #3E2F26",
"o#	c #765A44",
"p#	c #B38A6B",
"q#	c #BA8F6F",
"r#	c #7D5243",
"s#	c #64322F",
"t#	c #612E2D",
"u#	c #5D282A",
"v#	c #6F3E35",
"w#	c #99664D",
"x#	c #B07D5D",
"y#	c #AD7757",
"z#	c #B58362",
"A#	c #BB8E6E",
"B#	c #98755A",
"C#	c #423124",
"D#	c #020103",
"E#	c #271B14",
"F#	c #27190B",
"G#	c #434358",
"H#	c #656C92",
"I#	c #5C6488",
"J#	c #B78D6D",
"K#	c #967359",
"L#	c #765543",
"M#	c #643731",
"N#	c #5D272A",
"O#	c #602B2C",
"P#	c #5E292B",
"Q#	c #6F3D34",
"R#	c #98654B",
"S#	c #B07B5B",
"T#	c #B78665",
"U#	c #B88868",
"V#	c #B48161",
"W#	c #AE7857",
"X#	c #B58261",
"Y#	c #BC8F6E",
"Z#	c #99765B",
"`#	c #413024",
" $	c #1A110B",
".$	c #180C00",
"+$	c #3E4057",
"@$	c #3D2E25",
"#$	c #C29674",
"$$	c #AD8365",
"%$	c #6D523E",
"&$	c #381A18",
"*$	c #572727",
"=$	c #612C2C",
"-$	c #602C2C",
";$	c #6C3A33",
">$	c #8F5D46",
",$	c #A97659",
"'$	c #B78868",
")$	c #BD906F",
"!$	c #BB8E6D",
"~$	c #AF8061",
"{$	c #A06F51",
"]$	c #9D6B4E",
"^$	c #9D6C4E",
"/$	c #A47558",
"($	c #AA8163",
"_$	c #8E6D55",
":$	c #4D3A2D",
"<$	c #352820",
"[$	c #31241D",
"}$	c #1D1510",
"|$	c #383D55",
"1$	c #BA8A69",
"2$	c #A37557",
"3$	c #624432",
"4$	c #2D0B10",
"5$	c #562526",
"6$	c #612D2C",
"7$	c #5F2B2C",
"8$	c #64312E",
"9$	c #734136",
"0$	c #8C5B47",
"a$	c #A9775A",
"b$	c #B58262",
"c$	c #B17F5F",
"d$	c #94694E",
"e$	c #6A4833",
"f$	c #5F3F2C",
"g$	c #61412E",
"h$	c #654734",
"i$	c #6A4F3C",
"j$	c #6A5240",
"k$	c #675041",
"l$	c #695243",
"m$	c #636B91",
"n$	c #6F5542",
"o$	c #9D785D",
"p$	c #BB8B6A",
"q$	c #A47658",
"r$	c #654733",
"s$	c #311213",
"t$	c #562627",
"u$	c #5E2A2B",
"v$	c #714036",
"w$	c #905E47",
"x$	c #9D694E",
"y$	c #99664C",
"z$	c #734C38",
"A$	c #2B1A12",
"B$	c #31251D",
"C$	c #413228",
"D$	c #423229",
"E$	c #44342A",
"F$	c #715949",
"G$	c #634F47",
"H$	c #4F4855",
"I$	c #494F6C",
"J$	c #596083",
"K$	c #565976",
"L$	c #4A3F44",
"M$	c #705748",
"N$	c #644E3F",
"O$	c #644B3B",
"P$	c #947157",
"Q$	c #B98E6E",
"R$	c #694E3B",
"S$	c #311113",
"T$	c #562626",
"U$	c #744237",
"V$	c #714035",
"W$	c #542F26",
"X$	c #302019",
"Y$	c #564337",
"Z$	c #6D5547",
"`$	c #5D483B",
" %	c #433B44",
".%	c #575D7C",
"+%	c #5C6487",
"@%	c #454964",
"#%	c #4D4248",
"$%	c #685247",
"%%	c #775D4E",
"&%	c #574337",
"*%	c #755946",
"=%	c #8A6A52",
"-%	c #544030",
";%	c #321213",
">%	c #5E2B2B",
",%	c #56332E",
"'%	c #564136",
")%	c #6B5445",
"!%	c #222433",
"~%	c #484E6B",
"{%	c #555875",
"]%	c #50464D",
"^%	c #614B3D",
"/%	c #4C392C",
"(%	c #433225",
"_%	c #3A2B20",
":%	c #221811",
"<%	c #351516",
"[%	c #612F2E",
"}%	c #67443B",
"|%	c #6E5546",
"1%	c #29201F",
"2%	c #26242F",
"3%	c #463B3E",
"4%	c #675247",
"5%	c #6C5546",
"6%	c #574437",
"7%	c #382A22",
"8%	c #070403",
"9%	c #180813",
"0%	c #3D1C21",
"a%	c #59292A",
"b%	c #602D2C",
"c%	c #5B3730",
"d%	c #5A4438",
"e%	c #624C3F",
"f%	c #4C3B30",
"g%	c #180E10",
"h%	c #2A161F",
"i%	c #422028",
"j%	c #56282B",
"k%	c #5E2B2C",
"l%	c #471F1F",
"m%	c #33231D",
"n%	c #170B0F",
"o%	c #2B1720",
"p%	c #3A1E28",
"q%	c #452229",
"r%	c #53272A",
"s%	c #461E1E",
"t%	c #2B1C16",
"u%	c #5D493C",
"v%	c #5B463A",
"w%	c #3C2D26",
"x%	c #301E21",
"y%	c #2F1923",
"z%	c #341C26",
"A%	c #462229",
"B%	c #55282A",
"C%	c #562728",
"D%	c #562727",
"E%	c #5C2A2A",
"F%	c #2D1D18",
"G%	c #3D2D27",
"H%	c #211018",
"I%	c #301924",
"J%	c #3F1F27",
"K%	c #37191E",
"L%	c #391818",
"M%	c #532525",
"N%	c #3B2B25",
"O%	c #24121B",
"P%	c #301A24",
"Q%	c #351D28",
"R%	c #321B26",
"S%	c #1D0F18",
"T%	c #220C0D",
"U%	c #4E2222",
"V%	c #5B2929",
"W%	c #4F2323",
"X%	c #371716",
"Y%	c #2A1D17",
"Z%	c #31231F",
"`%	c #2E1B21",
" &	c #311A25",
".&	c #331C26",
"+&	c #341C27",
"@&	c #321B25",
"#&	c #23151A",
"$&	c #2A1614",
"%&	c #4E2423",
"&&	c #502424",
"*&	c #301314",
"=&	c #140506",
"-&	c #261B15",
";&	c #6C5445",
">&	c #574438",
",&	c #372B25",
"'&	c #170F18",
")&	c #2C1823",
"!&	c #351C28",
"~&	c #2B191F",
"{&	c #43322B",
"]&	c #513C33",
"^&	c #4F302F",
"/&	c #4B232A",
"(&	c #3E1D25",
"_&	c #200F1A",
":&	c #06040E",
"<&	c #251B16",
"[&	c #2B201B",
"}&	c #0F0F17",
"|&	c #1A151F",
"1&	c #2D1A25",
"2&	c #28141D",
"3&	c #231716",
"4&	c #6B5346",
"5&	c #4F3B37",
"6&	c #2B1726",
"7&	c #2B1727",
"8&	c #291627",
"9&	c #231425",
"0&	c #170C19",
"a&	c #261C17",
"b&	c #1A1310",
"c&	c #080D16",
"d&	c #1A1621",
"e&	c #27131C",
"f&	c #1E1412",
"g&	c #6E5648",
"h&	c #4B3A32",
"i&	c #150C1B",
"j&	c #1F1224",
"k&	c #241528",
"l&	c #231527",
"m&	c #190D1B",
"n&	c #241A16",
"o&	c #1D1512",
"p&	c #090D16",
"q&	c #191520",
"r&	c #291924",
"s&	c #301A25",
"t&	c #2F1A23",
"u&	c #2E1D20",
"v&	c #3B2C25",
"w&	c #614C3E",
"x&	c #312421",
"y&	c #231621",
"z&	c #201223",
"A&	c #201322",
"B&	c #271A20",
"C&	c #3E2F27",
"D&	c #13141F",
"E&	c #1B1621",
"F&	c #1D141E",
"G&	c #1E1217",
"H&	c #45332C",
"I&	c #342623",
"J&	c #100712",
"K&	c #190F15",
"L&	c #47372F",
"M&	c #44342B",
"N&	c #271F1F",
"O&	c #0C0F19",
"P&	c #080B13",
"Q&	c #090709",
"R&	c #4D3C31",
"S&	c #6F5648",
"T&	c #3F3027",
"U&	c #45352B",
"V&	c #48382E",
"W&	c #161110",
"X&	c #0A080B",
"Y&	c #16100C",
"Z&	c #503D32",
"`&	c #624D3F",
"                                                                                                                                ",
"                                                                                                                                ",
"                                                                                                                                ",
"                                                                                                                                ",
"                                                                                                                                ",
"                                                                                                                                ",
"                                                                                                                                ",
"                                                                                                                                ",
"                                                                                                                                ",
"                                                                                                                                ",
"                                                                                                                                ",
"                                                . + @ @ @ @ @ @ @ #                                                             ",
"                                                $ % & * * * * = * - +                                                           ",
"                                            . ; > , ' ) ! ~ ~ { ] ^ / +                                                         ",
"                                            ( _ : < [ } | 1 2 3 3 4 ^ 5 6                                                       ",
"                                        . 7 8 9 0 a b c d e f f e g h i j k l @                                                 ",
"                                        m n o p q r b s d e t t u v w x y z A k                                                 ",
"                                    . B C D E F G H I J K e L M N O P Q R S T j                                                 ",
"                                    U V W X Y Z `  ...+.@.#.f $.%.&.*.=.-.;.>.j                                                 ",
"                                    # ,.'.).!.~.{.{.].^./.(._.:.<.[.}.|.1.2.3.j                                                 ",
"                                    # 4.5.6.7.8.9.0.8.8.a.b.b.c.d.e.f.1.g.h.i.j                                                 ",
"                                    # 4.j.k.l.m.l.l.l.l.l.n.o.p.q.r.s.t.u.v.w.j                                                 ",
"                                    # 4.x.y.z.A.A.A.B.C.D.E.F.G.H.I.J.K.L.M.N.j                                                 ",
"                                    # 4.O.P.Q.H Q.R.S.T.U.V.W.X.Y.Z.`. +.+++N.j                                                 ",
"                                    6 5 @+#+$+%+&+*+=+-+;+>+,+'+)+!+~+{+]+^+/+(+                                                ",
"                                      @ _+:+<+[+}+|+-+1+;+>+,+'+)+2+3+4+5+6+7+#                                                 ",
"                                        m /+8+9+0+a+b+c+d+e+,+f+g+h+i+j+k+C                                                     ",
"                                        ( l+m+n+o+p+q+r+s+t+,+u+v+w+x+y+z+V .           U @ @ A+.                               ",
"                                        m /+B+C+D+{+E+F+G+H+I+J+K+L+M+N+O+C           U P+Q+R+V (                               ",
"                                      A+l S+T+U+V+V+~+W+X+Y+Z+`+ @`+.@+@@@#@$ 6       @ Q+$@%@&@*@=@.                           ",
"                                    . j -@;@>@,@'@'@)@V+!@~@{@]@^@/@(@_@:@<@* 7+      @ R+%@[@}@|@1@=@                          ",
"                                  2@k 3@4@5@6@)+7@7@2+8@9@0@a@b@7@7@c@d@e@f@g@h@i@k 7 @ C j@}@k@l@m@n@( .                       ",
"                                  o@p@q@r@s@)+c@7@7@2+t@9@0@u@7@2+v@c@d@w@x@y@z@z A@B@C@( n@D@E@k@F@&@V A+                      ",
"                              @ o@G@H@I@J@'@7@7@K@7@L@M@N@O@M@7@2+2+P@d@Q@R@S@T@U@V@W@X@Y@Z@z `@ #.#+#= @                       ",
"                              (+@###$#3+b@7@7@7@7@%#&#*#=#-#u@c@P@P@;#>#,#'#)#!#~#{#]#^#/#(#_#:# #<#[#* @                       ",
"                              }#|#U@1#)@7@7@7@2+2#3#4#5#6#7#8#9#0#9#a#b#c#'#J+d#e#f#g#h#i#j#k#l#m#<#[#* @                       ",
"                              i@n#o#p#'@7@7@c@q#M@r#s#t#u#v#w#J+`+x#`+J+y#y#y#c#z#A#B#C#D#E#F#G#H#I#[#* @                       ",
"                              i@n#o#p#'@7@2+J#K#L#M#N#O#P#Q#R#S#T#(@U#V#Q@W#W#R@X#Y#Z#`#i# $.$+$m#<#[#* @                       ",
"                              i@@$U@~##$7@;#$$%$&$*$=$-$P#;$>$,$'$)$!$~${$]$^$^$/$($_$:$<$[$}$|$ #<#[#* @                       ",
"                              i@@$U@~#!+;#1$2$3$4$5$6$-$7$8$9$0$a$b$c$d$e$f$g$g$h$i$j$k$l$C @$|$m$<#[#* @                       ",
"                              7+= n$o$p#f#p$q$r$s$t$=$-$-$-$u$v$w$x$y$z$A$B$C$D$5+E$1@m F$G$H$I$J$K$L$> A+                      ",
"                              U M$N$O$P$Q$;#($R$S$T$=$-$-$-$7$8$Q#U$V$W$X$Y$(+7+Z$Z$; @ `$ %.%+%@%#%$%m %%                      ",
"                                  l &%*%P$Z#=%-%;%t$=$-$-$-$-$7$u$P#>%,%'%)%          @ R+!%~%{%]%> @                           ",
"                                  . ( ^%/%(%_%:%<%*$=$-$-$-$-$-$-$-$[%}%|%A+          2@&%1%2%3%4%+ %%                          ",
"                                      5%6%7%8%9%0%a%=$-$-$-$-$-$-$-$b%c%d%(+%%        6 _+n ,.e%;                               ",
"                                        $ f%g%h%i%j%k%-$-$-$-$-$-$=$>%l%m%C .           . # # 6 %%                              ",
"                                        m l+n%o%p%q%r%k%=$=$-$-$-$=$>%s%t%u%.                                                   ",
"                                        @ v%w%x%y%z%A%B%C%D%E%-$-$=$>%s%F%V .                                                   ",
"                                        . $ 8 G%H%I%p%J%K%L%M%-$-$=$>%s%F%V .                                                   ",
"                                        . 7+% N%O%P%Q%R%S%T%U%-$=$V%W%X%Y%V .                                                   ",
"                                        7 * Z%`% &.&+&@&#&$&%&k%k%&&*&=&-&V .                                                   ",
"                                    . ;&>&,&'&)&!&+&y%~&{&]&^&/&/&(&_&:&<&V .                                                   ",
"                                    # % [&}&|&1&+&+&2&3&,.4&5&6&7&8&9&0&a&V .                                                   ",
"                                    # ,.b&c&d&1&!&+&e&f&v%g&h&i&j&k&l&m&n&1@.                                                   ",
"                                    # 4.o&p&q&r&s&t&u&v&w&B 6+x&y&z&A&B&C&5 .                                                   ",
"                                    # 4.o&p&D&E&F&G&H&5 F$A+7+n I&J&K&L&Y@(                                                     ",
"                                    6 5 M&N&O&O&P&Q&R&(       S&& T&U&> #                                                       ",
"                                      @ _+V&W&X&Q&Y&Z&;       # M$l 7+;                                                         ",
"                                        # `&/+R&R&/+e%+                                                                         ",
"                                          + ( ( ( ( + %%                                                                        ",
"                                                                                                                                ",
"                                                                                                                                ",
"                                                                                                                                ",
"                                                                                                                                "};
