/* XPM */
static char * player_right3_xpm[] = {
"64 64 679 2",
"  	c #785E4E",
". 	c #775D4D",
"+ 	c #755B4C",
"@ 	c #745B4B",
"# 	c #765C4C",
"$ 	c #705849",
"% 	c #5C473B",
"& 	c #534034",
"* 	c #544135",
"= 	c #534035",
"- 	c #634D3F",
"; 	c #735A4A",
"> 	c #604B3E",
", 	c #362A23",
"' 	c #131112",
") 	c #1A1717",
"! 	c #1D1C1C",
"~ 	c #1F2020",
"{ 	c #1D1E1F",
"] 	c #202020",
"^ 	c #483A32",
"/ 	c #695345",
"( 	c #72594A",
"_ 	c #5A4639",
": 	c #3D2F29",
"< 	c #1E1C21",
"[ 	c #131C24",
"} 	c #19252C",
"| 	c #253238",
"1 	c #2C3A3F",
"2 	c #2D3C40",
"3 	c #2D3B40",
"4 	c #35383A",
"5 	c #634D40",
"6 	c #765D4D",
"7 	c #715849",
"8 	c #614B3E",
"9 	c #3B2E27",
"0 	c #0B1119",
"a 	c #131B25",
"b 	c #19242E",
"c 	c #212F38",
"d 	c #2F3F46",
"e 	c #38494F",
"f 	c #394A50",
"g 	c #2A3A3F",
"h 	c #15191D",
"i 	c #4A392E",
"j 	c #665042",
"k 	c #6B5345",
"l 	c #6D5546",
"m 	c #735A4B",
"n 	c #5A463A",
"o 	c #382C26",
"p 	c #1F1D21",
"q 	c #121A24",
"r 	c #151D28",
"s 	c #222F38",
"t 	c #3A4B51",
"u 	c #3A4A51",
"v 	c #303D42",
"w 	c #1B1F1D",
"x 	c #2B1F16",
"y 	c #3C2E24",
"z 	c #3B2D24",
"A 	c #4B3A2F",
"B 	c #6F5748",
"C 	c #5F4A3D",
"D 	c #3E3029",
"E 	c #0B1016",
"F 	c #101821",
"G 	c #131B26",
"H 	c #141C27",
"I 	c #18232C",
"J 	c #202F37",
"K 	c #2F3F45",
"L 	c #394A4F",
"M 	c #3F4F5B",
"N 	c #4E5B70",
"O 	c #6D686A",
"P 	c #8A744D",
"Q 	c #927842",
"R 	c #89713F",
"S 	c #5D4C29",
"T 	c #372A20",
"U 	c #765C4D",
"V 	c #5E493C",
"W 	c #352922",
"X 	c #1E1D23",
"Y 	c #171E2A",
"Z 	c #19202C",
"` 	c #19202D",
" .	c #1A212D",
"..	c #1D2732",
"+.	c #24313B",
"@.	c #304048",
"#.	c #394950",
"$.	c #465569",
"%.	c #626C8D",
"&.	c #9D8F8C",
"*.	c #CEAD71",
"=.	c #DDB768",
"-.	c #CFAC63",
";.	c #907743",
">.	c #3F3123",
",.	c #584438",
"'.	c #1E191D",
").	c #272C3C",
"!.	c #343A4E",
"~.	c #353B50",
"{.	c #343A4F",
"].	c #353C51",
"^.	c #384054",
"/.	c #3C4759",
"(.	c #404C5D",
"_.	c #404C5C",
":.	c #47526C",
"<.	c #5D6485",
"[.	c #A49286",
"}.	c #DFBB77",
"|.	c #F0C872",
"1.	c #E1BB6C",
"2.	c #9D8249",
"3.	c #413324",
"4.	c #594539",
"5.	c #241F23",
"6.	c #31364A",
"7.	c #414760",
"8.	c #424861",
"9.	c #414761",
"0.	c #424761",
"a.	c #424962",
"b.	c #434962",
"c.	c #414964",
"d.	c #494E68",
"e.	c #93806A",
"f.	c #D1AE6B",
"g.	c #D3B066",
"h.	c #937945",
"i.	c #3F3124",
"j.	c #221B1D",
"k.	c #252939",
"l.	c #31374B",
"m.	c #32384C",
"n.	c #31364B",
"o.	c #30334A",
"p.	c #2B3049",
"q.	c #2A3247",
"r.	c #635749",
"s.	c #917A4D",
"t.	c #9E844F",
"u.	c #957C4B",
"v.	c #665432",
"w.	c #3A2C22",
"x.	c #1E1714",
"y.	c #10161F",
"z.	c #171F2A",
"A.	c #171F2B",
"B.	c #191E2B",
"C.	c #1A1E2B",
"D.	c #181D2A",
"E.	c #29232C",
"F.	c #473132",
"G.	c #563D38",
"H.	c #5A453E",
"I.	c #5E4B41",
"J.	c #5F4C40",
"K.	c #4F4038",
"L.	c #312B2B",
"M.	c #181618",
"N.	c #342720",
"O.	c #1D1614",
"P.	c #0D131C",
"Q.	c #131C26",
"R.	c #141C26",
"S.	c #191A26",
"T.	c #1E1726",
"U.	c #161124",
"V.	c #422C2D",
"W.	c #7C5441",
"X.	c #996C52",
"Y.	c #A27A5F",
"Z.	c #A68065",
"`.	c #A07C62",
" +	c #7B5E4E",
".+	c #30222B",
"++	c #000011",
"@+	c #45352C",
"#+	c #292323",
"$+	c #131822",
"%+	c #0E1624",
"&+	c #0D1526",
"*+	c #0E1526",
"=+	c #151326",
"-+	c #1D1126",
";+	c #130925",
">+	c #4C3231",
",+	c #90624A",
"'+	c #B27F5E",
")+	c #BD8F6E",
"!+	c #C29674",
"~+	c #BD9271",
"{+	c #927058",
"]+	c #402E2C",
"^+	c #302420",
"/+	c #4F3D32",
"(+	c #6C5446",
"_+	c #695244",
":+	c #47372E",
"<+	c #191417",
"[+	c #261B24",
"}+	c #2E212B",
"|+	c #2E202B",
"1+	c #2E1F2A",
"2+	c #2D1C29",
"3+	c #201126",
"4+	c #4E3231",
"5+	c #B27E5E",
"6+	c #BC9171",
"7+	c #906E55",
"8+	c #423128",
"9+	c #554236",
"0+	c #6E5647",
"a+	c #503D32",
"b+	c #382921",
"c+	c #6E5343",
"d+	c #836351",
"e+	c #7E5C4B",
"f+	c #755040",
"g+	c #5C3933",
"h+	c #5E3933",
"i+	c #93624A",
"j+	c #B17E5F",
"k+	c #BF9271",
"l+	c #B68868",
"m+	c #89654C",
"n+	c #412F23",
"o+	c #775D4E",
"p+	c #705748",
"q+	c #503C30",
"r+	c #5F4635",
"s+	c #9E795E",
"t+	c #B88E6F",
"u+	c #B78D6E",
"v+	c #B18465",
"w+	c #A47255",
"x+	c #835240",
"y+	c #704036",
"z+	c #96634A",
"A+	c #B17E5E",
"B+	c #BB8D6C",
"C+	c #BB8C6B",
"D+	c #AE7C5C",
"E+	c #815941",
"F+	c #3E2C20",
"G+	c #6A5244",
"H+	c #5D4638",
"I+	c #6F4D39",
"J+	c #8F664C",
"K+	c #B28768",
"L+	c #C29574",
"M+	c #BB8B6A",
"N+	c #AC7858",
"O+	c #8A5742",
"P+	c #734237",
"Q+	c #97634A",
"R+	c #AF7A5A",
"S+	c #B48262",
"T+	c #B48161",
"U+	c #AA7656",
"V+	c #80563D",
"W+	c #3D2A1F",
"X+	c #5B463A",
"Y+	c #463125",
"Z+	c #875E45",
"`+	c #AF7E5E",
" @	c #BB8D6D",
".@	c #C09473",
"+@	c #AE7B5C",
"@@	c #8B5A45",
"#@	c #744338",
"$@	c #99674E",
"%@	c #B07C5C",
"&@	c #B17D5D",
"*@	c #B27D5D",
"=@	c #AC795A",
"-@	c #835B42",
";@	c #453225",
">@	c #926C52",
",@	c #BA8C6B",
"'@	c #C09271",
")@	c #BF9170",
"!@	c #91644F",
"~@	c #77493D",
"{@	c #A1745A",
"]@	c #B98A6A",
"^@	c #BA8B6A",
"/@	c #8A664E",
"(@	c #402F24",
"_@	c #483629",
":@	c #967359",
"<@	c #BE9272",
"[@	c #C19574",
"}@	c #BB9070",
"|@	c #956B55",
"1@	c #794D40",
"2@	c #A57B61",
"3@	c #C19573",
"4@	c #8F6D54",
"5@	c #423126",
"6@	c #977359",
"7@	c #BE9372",
"8@	c #946A55",
"9@	c #76483D",
"0@	c #A07359",
"a@	c #BB8B6B",
"b@	c #8A664D",
"c@	c #675042",
"d@	c #614C3E",
"e@	c #644E40",
"f@	c #BC9070",
"g@	c #986E57",
"h@	c #794B3E",
"i@	c #9A684F",
"j@	c #AD7A5B",
"k@	c #835C43",
"l@	c #3E2C21",
"m@	c #43332A",
"n@	c #2A2120",
"o@	c #3A2F2F",
"p@	c #5E4A40",
"q@	c #745B4C",
"r@	c #473528",
"s@	c #977459",
"t@	c #BF9473",
"u@	c #BE9271",
"v@	c #AB8165",
"w@	c #9C7058",
"x@	c #AE7A5A",
"y@	c #B88766",
"z@	c #B38363",
"A@	c #87624A",
"B@	c #402E23",
"C@	c #312622",
"D@	c #32374D",
"E@	c #4B506E",
"F@	c #534D5C",
"G@	c #5D483C",
"H@	c #5D483B",
"I@	c #4E3B2E",
"J@	c #917056",
"K@	c #B78D6D",
"L@	c #BA8D6D",
"M@	c #B38262",
"N@	c #B28060",
"O@	c #B98D6D",
"P@	c #8D6A51",
"Q@	c #403024",
"R@	c #715949",
"S@	c #3E312C",
"T@	c #494D67",
"U@	c #60688C",
"V@	c #505575",
"W@	c #413B44",
"X@	c #614C42",
"Y@	c #6D5547",
"Z@	c #644D3F",
"`@	c #715644",
" #	c #8E6D54",
".#	c #B2896A",
"+#	c #C19473",
"@#	c #C09472",
"##	c #BC8E6D",
"$#	c #B88868",
"%#	c #B78665",
"&#	c #B88665",
"*#	c #B38263",
"=#	c #88634A",
"-#	c #38271C",
";#	c #3C2E25",
">#	c #4D3B31",
",#	c #5C483D",
"'#	c #584D55",
")#	c #4E526D",
"!#	c #535A7A",
"~#	c #555A7A",
"{#	c #504A58",
"]#	c #554031",
"^#	c #B58B6C",
"/#	c #BF9372",
"(#	c #BE906F",
"_#	c #BA8C6C",
":#	c #AA795B",
"<#	c #A46F52",
"[#	c #A06C50",
"}#	c #7A523C",
"|#	c #2D1C13",
"1#	c #070403",
"2#	c #170F0B",
"3#	c #403127",
"4#	c #2F2C37",
"5#	c #545B7D",
"6#	c #666E95",
"7#	c #444A66",
"8#	c #3E3028",
"9#	c #6A5345",
"0#	c #2C2017",
"a#	c #5A4433",
"b#	c #8C6B53",
"c#	c #BC8D6C",
"d#	c #B58464",
"e#	c #BA8B6B",
"f#	c #C19674",
"g#	c #B4886A",
"h#	c #90624D",
"i#	c #7C4A3B",
"j#	c #7A493A",
"k#	c #5C362A",
"l#	c #22110C",
"m#	c #150F0B",
"n#	c #251A14",
"o#	c #2F231C",
"p#	c #3E2F26",
"q#	c #34271F",
"r#	c #21202C",
"s#	c #555C7D",
"t#	c #677097",
"u#	c #454B67",
"v#	c #3B2D26",
"w#	c #6A5344",
"x#	c #4E3C31",
"y#	c #170908",
"z#	c #270A0C",
"A#	c #654939",
"B#	c #9F7659",
"C#	c #976A4E",
"D#	c #9C7357",
"E#	c #A57E61",
"F#	c #AA8165",
"G#	c #9E735B",
"H#	c #774B3F",
"I#	c #5F292B",
"J#	c #5D2A2A",
"K#	c #461E1E",
"L#	c #190907",
"M#	c #17110C",
"N#	c #261A14",
"O#	c #211711",
"P#	c #19110C",
"Q#	c #0F0200",
"R#	c #25242F",
"S#	c #575D7E",
"T#	c #676F97",
"U#	c #3C2E27",
"V#	c #281210",
"W#	c #481E1F",
"X#	c #57302A",
"Y#	c #583E30",
"Z#	c #553D2D",
"`#	c #513627",
" $	c #533B2B",
".$	c #5E4334",
"+$	c #704A3C",
"@$	c #74473C",
"#$	c #663632",
"$$	c #5F2B2C",
"%$	c #5D2A2B",
"&$	c #180707",
"*$	c #040403",
"=$	c #110A07",
"-$	c #160E0A",
";$	c #1D140F",
">$	c #241913",
",$	c #251603",
"'$	c #312B33",
")$	c #595E7F",
"!$	c #454A67",
"~$	c #2E1513",
"{$	c #522525",
"]$	c #572627",
"^$	c #41171B",
"/$	c #361015",
"($	c #381316",
"_$	c #361115",
":$	c #3E1418",
"<$	c #522023",
"[$	c #5E282A",
"}$	c #602B2C",
"|$	c #5C2B2C",
"1$	c #52272A",
"2$	c #3F1E22",
"3$	c #241017",
"4$	c #0D050A",
"5$	c #201712",
"6$	c #44342A",
"7$	c #45352B",
"8$	c #2C2019",
"9$	c #1E1000",
"0$	c #2D2831",
"a$	c #585E7F",
"b$	c #2D1513",
"c$	c #512424",
"d$	c #5F2B2B",
"e$	c #5C2A2A",
"f$	c #5B2929",
"g$	c #5E2B2B",
"h$	c #602C2C",
"i$	c #5E2B2C",
"j$	c #54272A",
"k$	c #402028",
"l$	c #361C27",
"m$	c #2F1923",
"n$	c #1D0D15",
"o$	c #31241D",
"p$	c #604A3D",
"q$	c #3A2C23",
"r$	c #100A07",
"s$	c #21212E",
"t$	c #565C7E",
"u$	c #612C2C",
"v$	c #612D2D",
"w$	c #612D2C",
"x$	c #5D2B2C",
"y$	c #452229",
"z$	c #371D27",
"A$	c #341C28",
"B$	c #321B25",
"C$	c #200F16",
"D$	c #241A14",
"E$	c #48382D",
"F$	c #46362C",
"G$	c #25222B",
"H$	c #687098",
"I$	c #3A2D26",
"J$	c #5F2C2C",
"K$	c #522627",
"L$	c #3E1E25",
"M$	c #331B25",
"N$	c #341C27",
"O$	c #331C27",
"P$	c #2E1924",
"Q$	c #1E1018",
"R$	c #060407",
"S$	c #0E0A07",
"T$	c #403128",
"U$	c #5A4842",
"V$	c #3C3B4C",
"W$	c #545B7C",
"X$	c #61698D",
"Y$	c #494A62",
"Z$	c #48372E",
"`$	c #2B1412",
" %	c #492020",
".%	c #331516",
"+%	c #230F15",
"@%	c #25131C",
"#%	c #311A25",
"$%	c #2D1A25",
"%%	c #211722",
"&%	c #16131D",
"*%	c #0A0D15",
"=%	c #030408",
"-%	c #221913",
";%	c #43342E",
">%	c #545062",
",%	c #5A6082",
"'%	c #515878",
")%	c #494B62",
"!%	c #584A4D",
"~%	c #685143",
"{%	c #4C362D",
"]%	c #3D1C1B",
"^%	c #552626",
"/%	c #512726",
"(%	c #452B25",
"_%	c #19110D",
":%	c #190C13",
"<%	c #2A1822",
"[%	c #241823",
"}%	c #14141F",
"|%	c #0D121C",
"1%	c #19161C",
"2%	c #322722",
"3%	c #32251E",
"4%	c #1B1619",
"5%	c #414661",
"6%	c #5B6386",
"7%	c #50526C",
"8%	c #4A3B38",
"9%	c #624C3F",
"0%	c #443229",
"a%	c #4A2724",
"b%	c #562727",
"c%	c #5D2B2B",
"d%	c #4A2020",
"e%	c #3E2520",
"f%	c #5B4539",
"g%	c #352820",
"h%	c #0D0910",
"i%	c #19141E",
"j%	c #181621",
"k%	c #10131E",
"l%	c #090C15",
"m%	c #302520",
"n%	c #5B473A",
"o%	c #2E231E",
"p%	c #232637",
"q%	c #3C3C50",
"r%	c #57494D",
"s%	c #291814",
"t%	c #5A2929",
"u%	c #4F2323",
"v%	c #482C26",
"w%	c #513E33",
"x%	c #574337",
"y%	c #392C26",
"z%	c #17151A",
"A%	c #0B0F18",
"B%	c #131218",
"C%	c #362A24",
"D%	c #46352B",
"E%	c #4D3B30",
"F%	c #664F41",
"G%	c #745A4B",
"H%	c #2B1916",
"I%	c #4A2121",
"J%	c #4D2222",
"K%	c #3A221E",
"L%	c #574236",
"M%	c #30251F",
"N%	c #070609",
"O%	c #2B211B",
"P%	c #5C483B",
"Q%	c #41322C",
"R%	c #2C181E",
"S%	c #4D2325",
"T%	c #4A2E28",
"U%	c #554135",
"V%	c #523F34",
"W%	c #584538",
"X%	c #372922",
"Y%	c #180F1A",
"Z%	c #2C1725",
"`%	c #4B2329",
" &	c #5C2A2C",
".&	c #321615",
"+&	c #4D3A30",
"@&	c #281D18",
"#&	c #150B19",
"$&	c #281626",
"%&	c #391C29",
"&&	c #4A232A",
"*&	c #5A292B",
"=&	c #2C1412",
"-&	c #42332A",
";&	c #281C1F",
">&	c #221423",
",&	c #231426",
"'&	c #341A28",
")&	c #4E252A",
"!&	c #4B2123",
"~&	c #291211",
"{&	c #4C3A31",
"]&	c #1F1519",
"^&	c #1B1020",
"/&	c #291627",
"(&	c #371B28",
"_&	c #331821",
":&	c #1D0E11",
"<&	c #45342B",
"[&	c #2C1F22",
"}&	c #1D1020",
"|&	c #281B21",
"1&	c #3E2F28",
"2&	c #49382F",
"3&	c #191112",
"4&	c #0E070E",
"5&	c #644E41",
"6&	c #624D3F",
"                                                                                                                                ",
"                                                                                                                                ",
"                                                                                                                                ",
"                                                                                                                                ",
"                                                                                                                                ",
"                                                                                                                                ",
"                                                                                                                                ",
"                                                                                                                                ",
"                                                                                                                                ",
"                                                                                                                                ",
"                                                                                                                                ",
"                                                . + @ @ @ @ @ @ @ #                                                             ",
"                                                $ % & * * * * = * - +                                                           ",
"                                            . ; > , ' ) ! ~ ~ { ] ^ / +                                                         ",
"                                            ( _ : < [ } | 1 2 3 3 4 ^ 5 6                                                       ",
"                                        . 7 8 9 0 a b c d e f f e g h i j k l @                                                 ",
"                                        m n o p q r b s d e t t u v w x y z A k                                                 ",
"                                    . B C D E F G H I J K e L M N O P Q R S T j                                                 ",
"                                    U V W X Y Z `  ...+.@.#.f $.%.&.*.=.-.;.>.j                                                 ",
"                                    # ,.'.).!.~.{.{.].^./.(._.:.<.[.}.|.1.2.3.j                                                 ",
"                                    # 4.5.6.7.8.9.0.8.8.a.b.b.c.d.e.f.1.g.h.i.j                                                 ",
"                                    # 4.j.k.l.m.l.l.l.l.l.n.o.p.q.r.s.t.u.v.w.j                                                 ",
"                                    # 4.x.y.z.A.A.A.B.C.D.E.F.G.H.I.J.K.L.M.N.j                                                 ",
"                                    # 4.O.P.Q.H Q.R.S.T.U.V.W.X.Y.Z.`. +.+++N.j                                                 ",
"                                    6 5 @+#+$+%+&+*+=+-+;+>+,+'+)+!+~+{+]+^+/+(+                                                ",
"                                      @ _+:+<+[+}+|+1+2+3+4+,+5+)+!+6+7+8+9+0+#                                                 ",
"                                        @ a+b+c+d+d+e+f+g+h+i+j+)+k+l+m+n+C                                                     ",
"                                      o+p+q+r+s+t+u+v+w+x+y+z+A+B+C+D+E+F+V .                                                   ",
"                                    . G+H+I+J+K+!+L+M+N+O+P+Q+R+S+T+U+V+W+V .                                                   ",
"                                    # X+Y+Z+`+ @.@.@C++@@@#@$@%@&@*@=@-@F+V .                                                   ",
"                                    # ,.;@>@,@'@.@.@)@l+!@~@{@]@^@C+l+/@(@V .                                                   ",
"                                    # 4._@:@<@[@.@.@[@}@|@1@2@.@3@[@6+4@5@V .                                                   ",
"                                    # 4._@6@7@[@.@.@[@}@|@1@2@.@3@[@6+4@5@V .                                                   ",
"                                    # 4._@:@<@[@.@.@[@}@8@9@0@]@^@a@l+b@(@V .   ( c@d@e@B                                       ",
"                                    # 4._@:@<@[@.@.@[@f@g@h@i@%@&@5+j@k@l@V .   _+m@n@o@p@q@                                    ",
"                                    # ,.r@s@t@L+.@.@3@u@v@w@w+x@S+y@z@A@B@C     j C@D@E@F@G@p+                                  ",
"                                    # H@I@J@K@7@.@.@.@.@<@L@M@N@^@)@O@P@Q@4.R@m 5 S@T@U@V@W@X@m .                               ",
"                                    . Y@Z@`@ #.#[@+#.@.@[@@###$#%#&#*#=#-#;#>#/+* ,#'#)#!#~#{#n $                               ",
"                                        ( >#]#:@^#u@/#(#k+.@+#_#:#<#[#}#|#1#2#2#3#d@9+4#5#6#7#8#9#                              ",
"                                        ; /+0#a#b#^#c#d#e#.@f#g#h#i#j#k#l#m#n#n#o#p#q#r#s#t#u#v#w#                              ",
"                                        ( x#y#z#A#6@B#C#D#E#F#G#H#I#J#K#L#M#n#N#O#P#Q#R#S#T#u#U#w#                              ",
"                                        ( x#V#W#X#Y#Z#`# $.$+$@$#$$$%$K#&$*$=$-$;$>$,$'$)$T#!$U#w#                              ",
"                                        ( x#~${$]$^$/$($_$:$<$[$}$|$1$2$3$4$5$6$7$8$9$0$a$T#u#U#w#                              ",
"                                        ( x#b$c$d$e$f$f$f$e$g$h$i$j$k$l$m$n$o$V p$q$r$s$t$T#u#U#w#                              ",
"                                        ( x#b$c$u$v$v$u$u$w$v$x$1$y$z$A$B$C$D$E$,.4.F$G$s#H$u#I$G+                              ",
"                                        ( x#b$c$h$h$h$h$h$J$e$K$L$M$N$O$P$Q$R$S$T$5 U$V$W$X$Y$Z$(+                              ",
"                                        ; /+`$c$h$h$h$h$v$e$ %.%+%@%#%$%%%&%*%=%-%;%>%,%'%)%!%~%@                               ",
"                                    o+; c@{%]%^%h$h$h$h$f$/%(%q#_%:%<%[%}%|%1%2%3%4%5%6%7%8%~%                                  ",
"                                    6 9%0%a%b%c%h$h$u$c%d%e%f%G@g%h%i%j%k%l%m%n%n o%p%q%r%9#q@                                  ",
"                                    6 4.s%d%J$u$h$h$t%u%v%w%(+p+x%y%z%A%B%C%= 0+0+* D%E%F%.                                     ",
"                                    G%x%H%I%J$u$h$g$J%K%L%B 6 . ( G@M%N%O%4.$ 6 # R@p+$ q@                                      ",
"                                  B P%Q%R%S%h$u$t%J%T%U%9#        0+_ V%W%(+                                                    ",
"                                  e@X%Y%Z%`% &h${$.&+&B o+        . + @ q@6                                                     ",
"                                  d@@&#&$&%&&&*&c$=&/+m                                                                         ",
"                                  c@-&;&>&,&'&)&!&~&x#(                                                                         ",
"                                  ; c@{&]&^&/&(&_&:&x#(                                                                         ",
"                                    6 e@<&[&}&}&|&1&G@@                                                                         ",
"                                      @ _+2&3&4&1&5&; .                                                                         ",
"                                        # 6&/+>#G@;                                                                             ",
"                                          + ( ( @ .                                                                             ",
"                                                                                                                                ",
"                                                                                                                                ",
"                                                                                                                                ",
"                                                                                                                                "};
