/* XPM */
static char * player_down6_xpm[] = {
"64 64 589 2",
"  	c #785E4E",
". 	c #6F5748",
"+ 	c #675042",
"@ 	c #664F42",
"# 	c #665042",
"$ 	c #745B4B",
"% 	c #5B473B",
"& 	c #392C25",
"* 	c #332821",
"= 	c #352922",
"- 	c #705748",
"; 	c #5E493D",
"> 	c #443B35",
", 	c #242F32",
"' 	c #232E32",
") 	c #222E32",
"! 	c #372E2A",
"~ 	c #2D373B",
"{ 	c #35454B",
"] 	c #36474C",
"^ 	c #36464C",
"/ 	c #705849",
"( 	c #5B473A",
"_ 	c #433A34",
": 	c #324247",
"< 	c #394A50",
"[ 	c #3A4B51",
"} 	c #775D4D",
"| 	c #735A4A",
"1 	c #614C41",
"2 	c #3B3132",
"3 	c #2A343B",
"4 	c #715949",
"5 	c #594539",
"6 	c #43383B",
"7 	c #3A3C4F",
"8 	c #394453",
"9 	c #394951",
"0 	c #394B50",
"a 	c #6D5547",
"b 	c #423329",
"c 	c #252839",
"d 	c #40455E",
"e 	c #424C60",
"f 	c #3A4A52",
"g 	c #384A4F",
"h 	c #384A50",
"i 	c #364950",
"j 	c #344850",
"k 	c #413228",
"l 	c #434D61",
"m 	c #3B4B54",
"n 	c #3A4A50",
"o 	c #3B4B50",
"p 	c #3C4C50",
"q 	c #423229",
"r 	c #1D202E",
"s 	c #363B51",
"t 	c #475068",
"u 	c #505B74",
"v 	c #465469",
"w 	c #52565A",
"x 	c #80735A",
"y 	c #96845D",
"z 	c #80745B",
"A 	c #53575B",
"B 	c #46546A",
"C 	c #505C74",
"D 	c #0A0D15",
"E 	c #212736",
"F 	c #4A516E",
"G 	c #626B90",
"H 	c #556084",
"I 	c #6E676C",
"J 	c #B89C6A",
"K 	c #DAB66C",
"L 	c #B89C69",
"M 	c #6D6669",
"N 	c #535F82",
"O 	c #4A526E",
"P 	c #070409",
"Q 	c #1B1826",
"R 	c #3C3F58",
"S 	c #535A7B",
"T 	c #556088",
"U 	c #7F7987",
"V 	c #CAAB7B",
"W 	c #ECC472",
"X 	c #ECC471",
"Y 	c #C7A76E",
"Z 	c #746A6C",
"` 	c #485276",
" .	c #525979",
"..	c #3C4059",
"+.	c #0F0711",
"@.	c #1F1323",
"#.	c #211D2C",
"$.	c #2D3346",
"%.	c #4C577B",
"&.	c #817D92",
"*.	c #C0A57F",
"=.	c #DEB96C",
"-.	c #DEB86B",
";.	c #BB9D69",
">.	c #6B6264",
",.	c #2C3854",
"'.	c #282D3E",
").	c #231F30",
"!.	c #6E5647",
"~.	c #100712",
"{.	c #201223",
"].	c #1C1422",
"^.	c #191F2C",
"/.	c #323D58",
"(.	c #59596C",
"_.	c #85745E",
":.	c #9B824F",
"<.	c #9A814E",
"[.	c #816E4D",
"}.	c #474549",
"|.	c #15253A",
"1.	c #141A25",
"2.	c #1D1624",
"3.	c #403128",
"4.	c #6D5546",
"5.	c #634D40",
"6.	c #3B2D24",
"7.	c #07020D",
"8.	c #1B0F1E",
"9.	c #1A1525",
"0.	c #1F1E29",
"a.	c #3E3133",
"b.	c #523D39",
"c.	c #584138",
"d.	c #594237",
"e.	c #594236",
"f.	c #574137",
"g.	c #513C36",
"h.	c #3E2F30",
"i.	c #1E1D28",
"j.	c #171324",
"k.	c #211522",
"l.	c #2E2220",
"m.	c #503D32",
"n.	c #5D483C",
"o.	c #3D2F26",
"p.	c #1F1711",
"q.	c #000003",
"r.	c #0B050F",
"s.	c #08071B",
"t.	c #312229",
"u.	c #714D3D",
"v.	c #91644A",
"w.	c #94654C",
"x.	c #92644C",
"y.	c #94664C",
"z.	c #92644B",
"A.	c #714E3E",
"B.	c #03041A",
"C.	c #2D2120",
"D.	c #574438",
"E.	c #6C5546",
"F.	c #765C4C",
"G.	c #775D4E",
"H.	c #715849",
"I.	c #685142",
"J.	c #695140",
"K.	c #6C523F",
"L.	c #6D533F",
"M.	c #604736",
"N.	c #442922",
"O.	c #492A26",
"P.	c #694639",
"Q.	c #92634B",
"R.	c #AC7758",
"S.	c #B27E5E",
"T.	c #B38161",
"U.	c #91634A",
"V.	c #6D4A3C",
"W.	c #684C3C",
"X.	c #6B513F",
"Y.	c #675040",
"Z.	c #765C4D",
"`.	c #604A3D",
" +	c #523E31",
".+	c #8D6C54",
"++	c #AE8668",
"@+	c #B08869",
"#+	c #9C755B",
"$+	c #70483B",
"%+	c #794B3B",
"&+	c #9B6A4F",
"*+	c #A87355",
"=+	c #AF7A5B",
"-+	c #B88767",
";+	c #BD8F6E",
">+	c #A67253",
",+	c #A27155",
"'+	c #AA7E61",
")+	c #A27C5F",
"!+	c #6F5542",
"~+	c #3A2C23",
"{+	c #3E2F25",
"]+	c #5A4639",
"^+	c #765D4D",
"/+	c #433225",
"(+	c #967359",
"_+	c #C09473",
":+	c #C39675",
"<+	c #AC8165",
"[+	c #7D5042",
"}+	c #8A5C48",
"|+	c #AF7E5F",
"1+	c #AF7A5A",
"2+	c #B48363",
"3+	c #B98969",
"4+	c #B17D5C",
"5+	c #B78665",
"6+	c #BE906F",
"7+	c #B78D6D",
"8+	c #7E604A",
"9+	c #7E6049",
"0+	c #735744",
"a+	c #644D3F",
"b+	c #594538",
"c+	c #574132",
"d+	c #9A765B",
"e+	c #BF9372",
"f+	c #C19574",
"g+	c #AA8064",
"h+	c #7C5042",
"i+	c #8F6450",
"j+	c #B68A6B",
"k+	c #B78766",
"l+	c #AF7B5B",
"m+	c #B07D5C",
"n+	c #B68565",
"o+	c #BD906F",
"p+	c #BE9372",
"q+	c #BA8F6F",
"r+	c #B88E6E",
"s+	c #B58C6C",
"t+	c #917056",
"u+	c #4E3B2E",
"v+	c #5D483B",
"w+	c #735845",
"x+	c #937057",
"y+	c #AF8768",
"z+	c #BF9473",
"A+	c #906652",
"B+	c #B98D6E",
"C+	c #B88868",
"D+	c #BC8E6D",
"E+	c #977459",
"F+	c #473528",
"G+	c #584438",
"H+	c #423127",
"I+	c #86664E",
"J+	c #8F6551",
"K+	c #B98E6E",
"L+	c #C19573",
"M+	c #C09373",
"N+	c #BF9271",
"O+	c #BE9170",
"P+	c #483629",
"Q+	c #624C3F",
"R+	c #3D2D23",
"S+	c #876850",
"T+	c #BB9070",
"U+	c #C29674",
"V+	c #C29574",
"W+	c #C09574",
"X+	c #B68666",
"Y+	c #BC8F6E",
"Z+	c #3E2E24",
"`+	c #87674F",
" @	c #BE9271",
".@	c #B58363",
"+@	c #B17E5E",
"@@	c #BB8C6C",
"#@	c #624D3F",
"$@	c #3F2F25",
"%@	c #B17D5D",
"&@	c #BB8C6B",
"*@	c #4A372A",
"=@	c #755C4C",
"-@	c #6B5345",
";@	c #564336",
">@	c #785B47",
",@	c #9E7A5E",
"'@	c #B48B6C",
")@	c #8B5F4B",
"!@	c #B38466",
"~@	c #B98A6A",
"{@	c #BA8B6A",
"]@	c #BA8A6A",
"^@	c #BA8B6B",
"/@	c #B98A69",
"(@	c #B27F5F",
"_@	c #A78063",
":@	c #80614B",
"<@	c #6A5140",
"[@	c #72594A",
"}@	c #705848",
"|@	c #5F493C",
"1@	c #644C3A",
"2@	c #9C775C",
"3@	c #BD9271",
"4@	c #A77D62",
"5@	c #7A4E41",
"6@	c #865643",
"7@	c #AB7859",
"8@	c #B07C5C",
"9@	c #B07D5D",
"0@	c #AD795A",
"a@	c #AD7858",
"b@	c #BB8D6C",
"c@	c #BC9171",
"d@	c #B08769",
"e@	c #81634C",
"f@	c #49382C",
"g@	c #664F41",
"h@	c #6A5345",
"i@	c #5B4639",
"j@	c #7A5D48",
"k@	c #8F6D54",
"l@	c #916F55",
"m@	c #83604B",
"n@	c #6E4238",
"o@	c #8B5D4A",
"p@	c #B18162",
"q@	c #B58463",
"r@	c #AD7656",
"s@	c #B38262",
"t@	c #9F7255",
"u@	c #8C6147",
"v@	c #A27457",
"w@	c #B78867",
"x@	c #BE9070",
"y@	c #886850",
"z@	c #3C2D23",
"A@	c #413226",
"B@	c #382A1F",
"C@	c #42251F",
"D@	c #5D302C",
"E@	c #8D624E",
"F@	c #B28668",
"G@	c #BC8F6F",
"H@	c #B38060",
"I@	c #AD7757",
"J@	c #B48161",
"K@	c #B78A6A",
"L@	c #8F6C52",
"M@	c #5D4433",
"N@	c #977358",
"O@	c #BD9171",
"P@	c #C19473",
"Q@	c #564337",
"R@	c #31251D",
"S@	c #2B060D",
"T@	c #582928",
"U@	c #774B3F",
"V@	c #916651",
"W@	c #A7795E",
"X@	c #B48262",
"Y@	c #B27D5D",
"Z@	c #AE7858",
"`@	c #B27E5D",
" #	c #B28161",
".#	c #856048",
"+#	c #4F3B2B",
"@#	c #96745A",
"##	c #331414",
"$#	c #572727",
"%#	c #612C2D",
"&#	c #693832",
"*#	c #8A5844",
"=#	c #A16D51",
"-#	c #A36F52",
";#	c #A26E51",
">#	c #A46F52",
",#	c #A06C50",
"'#	c #7A503B",
")#	c #53372A",
"!#	c #8A6951",
"~#	c #B1886A",
"{#	c #AC8567",
"]#	c #7F624B",
"^#	c #4C3A2F",
"/#	c #5F2A2B",
"(#	c #612C2C",
"_#	c #6F3D34",
":#	c #7B4A3B",
"<#	c #7D4C3C",
"[#	c #7D4B3C",
"}#	c #6A3B32",
"|#	c #582F2A",
"1#	c #5F4134",
"2#	c #81624B",
"3#	c #A47E62",
"4#	c #785B46",
"5#	c #664E3F",
"6#	c #695244",
"7#	c #5E493C",
"8#	c #3B2B26",
"9#	c #39191C",
"0#	c #582828",
"a#	c #602C2C",
"b#	c #5F2B2C",
"c#	c #5D2A2A",
"d#	c #45191C",
"e#	c #573B2F",
"f#	c #8F6C54",
"g#	c #A67F63",
"h#	c #A47E61",
"i#	c #866750",
"j#	c #564235",
"k#	c #644E40",
"l#	c #735A4B",
"m#	c #362722",
"n#	c #2E1C21",
"o#	c #421F26",
"p#	c #59292B",
"q#	c #5A2829",
"r#	c #572D29",
"s#	c #584232",
"t#	c #584333",
"u#	c #614A3B",
"v#	c #6B5445",
"w#	c #4D3B31",
"x#	c #150A0E",
"y#	c #2B1620",
"z#	c #452229",
"A#	c #5A2A2B",
"B#	c #612D2D",
"C#	c #2D0A0F",
"D#	c #000000",
"E#	c #0E0906",
"F#	c #4F3D32",
"G#	c #4E3C31",
"H#	c #1A0F10",
"I#	c #442129",
"J#	c #5E2B2B",
"K#	c #5F2C2C",
"L#	c #381717",
"M#	c #0F0303",
"N#	c #100907",
"O#	c #612D2C",
"P#	c #5D2B2B",
"Q#	c #4E2222",
"R#	c #4A2121",
"S#	c #5A2929",
"T#	c #5C2A2A",
"U#	c #4F2323",
"V#	c #3B1818",
"W#	c #22100D",
"X#	c #422128",
"Y#	c #56282B",
"Z#	c #5C2A2B",
"`#	c #5B2A2B",
" $	c #5B2A2A",
".$	c #552827",
"+$	c #422521",
"@$	c #3D241F",
"#$	c #522726",
"$$	c #5A292A",
"%$	c #5E2B2C",
"&$	c #5F2B2B",
"*$	c #2C1412",
"=$	c #1B0F10",
"-$	c #3A1E28",
";$	c #482329",
">$	c #462228",
",$	c #401D21",
"'$	c #412420",
")$	c #564035",
"!$	c #594438",
"~$	c #442A24",
"{$	c #3D1B1E",
"]$	c #472227",
"^$	c #54272B",
"/$	c #522424",
"($	c #2D1513",
"_$	c #4D3C31",
":$	c #170C0F",
"<$	c #281520",
"[$	c #311B27",
"}$	c #321B28",
"|$	c #301A26",
"1$	c #201019",
"2$	c #2E211B",
"3$	c #342522",
"4$	c #331C22",
"5$	c #4B2327",
"6$	c #512424",
"7$	c #180E11",
"8$	c #211220",
"9$	c #281727",
"0$	c #261525",
"a$	c #180C18",
"b$	c #2E231C",
"c$	c #564338",
"d$	c #31211E",
"e$	c #441E20",
"f$	c #5D2A2B",
"g$	c #44342C",
"h$	c #291D21",
"i$	c #1C101E",
"j$	c #362725",
"k$	c #30231C",
"l$	c #38181A",
"m$	c #522629",
"n$	c #5C2B2C",
"o$	c #42322A",
"p$	c #191112",
"q$	c #150E10",
"r$	c #271D1A",
"s$	c #554136",
"t$	c #2E221B",
"u$	c #261219",
"v$	c #3F1F27",
"w$	c #53272B",
"x$	c #502424",
"y$	c #2C1513",
"z$	c #604B3E",
"A$	c #544135",
"B$	c #534034",
"C$	c #574337",
"D$	c #6A5244",
"E$	c #1F0F18",
"F$	c #341C26",
"G$	c #4F252A",
"H$	c #50262A",
"I$	c #421E22",
"J$	c #220E0F",
"K$	c #745B4C",
"L$	c #2E211D",
"M$	c #24121A",
"N$	c #331B26",
"O$	c #371D28",
"P$	c #381D27",
"Q$	c #371C26",
"R$	c #301A21",
"S$	c #2D1F1B",
"T$	c #43312B",
"U$	c #2F1D21",
"V$	c #2E1822",
"W$	c #341C27",
"X$	c #301A24",
"Y$	c #25131C",
"Z$	c #382825",
"`$	c #574338",
" %	c #6A5344",
".%	c #1C0D14",
"+%	c #301923",
"@%	c #351C27",
"#%	c #2F1923",
"$%	c #1A0C12",
"%%	c #413229",
"&%	c #6C5446",
"*%	c #3A2C24",
"=%	c #351D28",
"-%	c #190B11",
";%	c #1A0C14",
">%	c #2C1824",
",%	c #311B28",
"'%	c #301A27",
")%	c #2B1723",
"!%	c #170A12",
"~%	c #413128",
"{%	c #140914",
"]%	c #241423",
"^%	c #271627",
"/%	c #231322",
"(%	c #160C13",
"_%	c #44342A",
":%	c #40302A",
"<%	c #22161F",
"[%	c #1A0E1D",
"}%	c #190E1C",
"|%	c #1A0E1C",
"1%	c #25191F",
"2%	c #43332C",
"3%	c #5F4A3D",
"4%	c #352822",
"5%	c #1C1312",
"6%	c #201714",
"7%	c #1D1412",
"8%	c #3A2C25",
"                                                                                                                                ",
"                                                                                                                                ",
"                                                                                                                                ",
"                                                                                                                                ",
"                                                                                                                                ",
"                                                                                                                                ",
"                                                                                                                                ",
"                                                                                                                                ",
"                                                        . + @ # # @ + .                                                         ",
"                                                      $ % & * = = * & % $                                                       ",
"                                                    - ; > , ' ) ) ' , > ; -                                                     ",
"                                                  $ ; ! ~ { ] ^ ^ ] { ~ ! ; $                                                   ",
"                                                / ( _ ~ : < [ [ [ [ < : ~ _ ( /                                                 ",
"                                            } | 1 2 3 ^ < < < < < < < < ^ 3 2 1 | }                                             ",
"                                            4 5 6 7 8 9 0 < < < < < < 0 9 8 7 6 5 4                                             ",
"                                            a b c d e f g h i j j i h g f e d c b a                                             ",
"                                            a k c d l m < n o p p o n < m l d c k a                                             ",
"                                            a q r s t u v w x y y z A B C t s r q a                                             ",
"                                            a q D E F G H I J K K L M N G O E D q a                                             ",
"                                            a q P Q R S T U V W X Y Z `  ...Q P q a                                             ",
"                                            a q +.@.#.$.%.&.*.=.-.;.>.,.'.).@.+.q a                                             ",
"                                            !.b ~.{.].^./.(._.:.<.[.}.|.1.2.{.~.3.4.                                            ",
"                                        } | 5.6.7.8.9.0.a.b.c.d.e.f.g.h.i.j.k.l.m.-                                             ",
"                                        $ n.o.p.q.r.s.t.u.v.w.x.x.y.z.A.t.B.C.D.E.F.                                            ",
"                                    G.H.I.J.K.L.M.N.O.P.Q.R.S.T.T.S.R.U.V.W.X.Y.+ + !.}                                         ",
"                                    Z.`. +.+++@+#+$+%+&+*+=+-+;+;+-+=+>+,+'+)+!+~+{+]+|                                         ",
"                                    ^+5 /+(+_+:+<+[+}+|+S.1+2+3+3+2+1+4+5+6+7+(+8+9+0+a+!.}                                     ",
"                                    | b+c+d+e+f+g+h+i+j+k+l+l+m+m+l+l+n+o+_+p+q+r+s+t+u+v+F.                                    ",
"                                  !.v+w+x+y+z+f+g+h+A+B+;+C+k+k+k+k+C+D+_+f+f+f+:+_+E+F+G+F.                                    ",
"                                  5.H+I+7+_+_+_+g+h+J+K+L+e+e+e+e+e+e+M+_+N+O+e+f+p+(+P+5 F.                                    ",
"                                  Q+R+S+T+U+_+_+g+h+J+K+V+_+_+_+_+_+_+W+N+3+X+Y+f+p+(+P+5 F.                                    ",
"                                  Q+Z+`+T+U+_+_+g+h+J+K+V+_+_+_+_+_+_+f+ @.@+@@@f+p+(+F+5 Z.                                    ",
"                                  #@$@`+q+f+_+_+g+h+J+B+f+_+_+_+_+_+_+_+O+.@%@&@f+p+E+*@5 =@                                    ",
"                                  -@;@>@,@'@f+U+<+h+)@!@&@~@{@{@{@{@]@^@/@(@%@@@f+e+_@:@<@+ [@                                  ",
"                                  Z.}@|@1@2@T+3@4@5@6@7@S.%@8@8@8@8@9@l+0@a@+@b@_+_+c@d@e@f@g@                                  ",
"                                      h@i@j@k@l@m@n@o@p@-+q@8@r@r@4+s@t@u@v@w@x@_+_+U+T+y@z@Q+                                  ",
"                                      } H.i@A@B@C@D@E@F@G@@@H@I@I@J@K@L@M@N@O@P@_+_+V+q+`+Z+#@                                  ",
"                                        } -@Q@R@S@T@U@V@W@X@Y@Z@Z@`@ #.#+#@#_+V+_+_+U+T+y@z@Q+                                  ",
"                                            E.k ##$#%#&#*#=#-#;#;#>#,#'#)#!#~#O@L+_+T+{#]#^#+                                   ",
"                                            !.b ##$#/#(#_#:#<#[#[#<#:#}#|#1#2#++V+z+3#4#5#6#|                                   ",
"                                        ^+. 7#8#9#0#(#a#a#b#b#b#b#b#b#a#c#d#e#f#g#h#i#j#k#^+                                    ",
"                                        l#G+m#n#o#p#(#a#a#b#b#b#b#b#b#a#b#q#r#e#s#t#u#v#$                                       ",
"                                        [@w#x#y#z#A#(#a#a#a#(#(#a#a#a#a#a#B#$#C#D#E#F#l#                                        ",
"                                        [@G#H#y#I#A#(#a#a#a#J#J#K#a#a#a#a#(#0#L#M#N#G#[@                                        ",
"                                        [@G#H#y#z#A#O#(#B#P#Q#R#S#B#(#a#a#a#T#U#V#W#G#[@                                        ",
"                                        [@G#H#y#X#Y#Z#`# $.$+$@$#$$$`#%$a#a#a#&$U#*$G#[@                                        ",
"                                        [@G#=$y#-$I#;$>$,$'$)$!$~${$]$^$b#a#a#(#/$($G#[@                                        ",
"                                        [@_$:$<$[$[$}$|$1$2$#@4.m.3$4$5$J#(#a#a#6$($G#[@                                        ",
"                                        [@F#7$8$9$9$9$0$a$b$5.=@!.c$d$e$f$(#a#a#6$($G#[@                                        ",
"                                        $ `.g$h$8.8.8.i$j$m.-@    5.k$l$m$n$a#(#6$($G#[@                                        ",
"                                        G.$ + o$p$p$q$r$s$. Z.    #@t$u$v$w$%$K#x$y$G#[@                                        ",
"                                            l#z$A$A$B$C$D$        5.t$E$F$z#G$H$I$J$w#[@                                        ",
"                                            G.=@$ $ $ K$^+    } l#7#L$M$N$O$P$Q$R$S$A$|                                         ",
"                                                              / ]+T$U$V$N$W$X$Y$Z$`$ %F.                                        ",
"                                                              h@o..%+%W$W$@%#%$%%%&%                                            ",
"                                                               %*%.%X$=%W$@%#%-%q !.                                            ",
"                                                               %*%;%>%,%'%,%)%!%~%a                                             ",
"                                                              h@o.{%]%^%^%^%/%(%_%a                                             ",
"                                                              / ]+:%<%[%}%|%1%2%v+[@                                            ",
"                                                              } l#3%4%5%6%7%8%5.$ }                                             ",
"                                                                  . 7#G+5 G+`.H.                                                ",
"                                                                  } Z.F.F.F.Z.G.                                                ",
"                                                                                                                                ",
"                                                                                                                                "};
