/* XPM */
static char * player_left_xpm[] = {
"64 64 942 2",
"  	c #785E4E",
". 	c #745B4B",
"+ 	c #6E5647",
"@ 	c #6B5345",
"# 	c #6C5446",
"$ 	c #72594A",
"% 	c #775D4D",
"& 	c #6B5445",
"* 	c #554236",
"= 	c #46362C",
"- 	c #47362C",
"; 	c #45352B",
"> 	c #4D3B30",
", 	c #634D40",
"' 	c #745B4C",
") 	c #755C4C",
"! 	c #6E5648",
"~ 	c #5C493D",
"{ 	c #3B322D",
"] 	c #1B2022",
"^ 	c #1A2022",
"/ 	c #1D2122",
"( 	c #1C1F20",
"_ 	c #191A1C",
": 	c #161517",
"< 	c #0D0F11",
"[ 	c #271F1C",
"} 	c #4F3D33",
"| 	c #695244",
"1 	c #735A4B",
"2 	c #775D4E",
"3 	c #564337",
"4 	c #423934",
"5 	c #32383B",
"6 	c #2B393E",
"7 	c #29363B",
"8 	c #212D33",
"9 	c #18222A",
"0 	c #121B23",
"a 	c #161920",
"b 	c #342926",
"c 	c #4C3B31",
"d 	c #715949",
"e 	c #5A463A",
"f 	c #352922",
"g 	c #232A2D",
"h 	c #314045",
"i 	c #38484E",
"j 	c #38494E",
"k 	c #34444B",
"l 	c #2B3941",
"m 	c #202D35",
"n 	c #19242E",
"o 	c #151D27",
"p 	c #11151D",
"q 	c #261E1C",
"r 	c #4D3C32",
"s 	c #755B4C",
"t 	c #675042",
"u 	c #574337",
"v 	c #523F34",
"w 	c #503E33",
"x 	c #3F3027",
"y 	c #1C140F",
"z 	c #072029",
"A 	c #2E3F44",
"B 	c #384A4F",
"C 	c #3A4B50",
"D 	c #3A4B51",
"E 	c #36474D",
"F 	c #2C3C43",
"G 	c #212F37",
"H 	c #1A252F",
"I 	c #161E29",
"J 	c #111822",
"K 	c #13161E",
"L 	c #4E3D32",
"M 	c #584438",
"N 	c #35281E",
"O 	c #3C2F1B",
"P 	c #4E3F25",
"Q 	c #524223",
"R 	c #49453C",
"S 	c #434C53",
"T 	c #3F4E59",
"U 	c #3B4C54",
"V 	c #394A50",
"W 	c #36464C",
"X 	c #2C3B42",
"Y 	c #212E37",
"Z 	c #141C27",
"` 	c #141C25",
" .	c #15171E",
"..	c #4B3A30",
"+.	c #544135",
"@.	c #3A2E1C",
"#.	c #735E34",
"$.	c #9C8149",
"%.	c #A98C4E",
"&.	c #A68A51",
"*.	c #948065",
"=.	c #716F7A",
"-.	c #525F78",
";.	c #425262",
">.	c #35464C",
",.	c #2B3B41",
"'.	c #1F2D35",
").	c #18232D",
"!.	c #141D27",
"~.	c #131B25",
"{.	c #121B25",
"].	c #0F1720",
"^.	c #0C1218",
"/.	c #322824",
"(.	c #4B3D24",
"_.	c #997F48",
":.	c #CFAC63",
"<.	c #E0BA6A",
"[.	c #DBB66C",
"}.	c #C1A57E",
"|.	c #8E8692",
"1.	c #5F6A8C",
"2.	c #48566D",
"3.	c #3B4B53",
"4.	c #37474E",
"5.	c #2E3C45",
"6.	c #24313B",
"7.	c #1F2934",
"8.	c #1C2330",
"9.	c #1B222F",
"0.	c #1A212C",
"a.	c #1B1D25",
"b.	c #28201E",
"c.	c #4C3A2F",
"d.	c #504126",
"e.	c #A4884D",
"f.	c #DEB86B",
"g.	c #EFC772",
"h.	c #EAC373",
"i.	c #CCAD7E",
"j.	c #91858B",
"k.	c #5A6385",
"l.	c #47546E",
"m.	c #404C5D",
"n.	c #3F4B5B",
"o.	c #3E4A5A",
"p.	c #3A4456",
"q.	c #363E51",
"r.	c #333B4E",
"s.	c #32394D",
"t.	c #32384C",
"u.	c #33394D",
"v.	c #31374B",
"w.	c #272C3C",
"x.	c #141720",
"y.	c #423229",
"z.	c #4E3E25",
"A.	c #9F844B",
"B.	c #D7B367",
"C.	c #E8C16F",
"D.	c #E2BD6F",
"E.	c #C3A570",
"F.	c #847772",
"G.	c #4B526F",
"H.	c #424C68",
"I.	c #444B63",
"J.	c #424962",
"K.	c #424861",
"L.	c #414760",
"M.	c #40455E",
"N.	c #33384C",
"O.	c #1E1F2B",
"P.	c #43342A",
"Q.	c #433521",
"R.	c #846D3F",
"S.	c #B39558",
"T.	c #C1A15E",
"U.	c #BC9C5D",
"V.	c #A0875A",
"W.	c #685D56",
"X.	c #333C55",
"Y.	c #333B56",
"Z.	c #393E57",
"`.	c #3A3F58",
" +	c #3B4058",
".+	c #3B4158",
"++	c #3C4259",
"@+	c #3A4057",
"#+	c #2E3346",
"$+	c #1D1D27",
"%+	c #30261A",
"&+	c #4C4028",
"*+	c #6A593A",
"=+	c #736140",
"-+	c #726040",
";+	c #63543F",
">+	c #453E3D",
",+	c #2F2E3C",
"'+	c #312B3C",
")+	c #2B2B3C",
"!+	c #262B3C",
"~+	c #252B3C",
"{+	c #252C3C",
"]+	c #262C3C",
"^+	c #242B3B",
"/+	c #1C212F",
"(+	c #15141A",
"_+	c #554136",
":+	c #211815",
"<+	c #000416",
"[+	c #1C1A26",
"}+	c #483937",
"|+	c #665044",
"1+	c #705849",
"2+	c #715849",
"3+	c #6F5445",
"4+	c #6B4B3E",
"5+	c #5D3F36",
"6+	c #412D2E",
"7+	c #1F1C27",
"8+	c #161826",
"9+	c #191A27",
"0+	c #171B27",
"a+	c #141D28",
"b+	c #141C26",
"c+	c #0E151E",
"d+	c #0A0B0F",
"e+	c #423329",
"f+	c #251B17",
"g+	c #000012",
"h+	c #2C1F29",
"i+	c #6F5448",
"j+	c #9B775F",
"k+	c #A98367",
"l+	c #A98366",
"m+	c #A67D60",
"n+	c #9E7155",
"o+	c #8A5E47",
"p+	c #5F4036",
"q+	c #2A1C28",
"r+	c #181125",
"s+	c #1F1726",
"t+	c #1A1A26",
"u+	c #151C27",
"v+	c #131B26",
"w+	c #0E151D",
"x+	c #100E11",
"y+	c #44342A",
"z+	c #5F4A3D",
"A+	c #44342B",
"B+	c #2A1F1E",
"C+	c #3A292A",
"D+	c #80614E",
"E+	c #B1886A",
"F+	c #C29574",
"G+	c #C09473",
"H+	c #BC8D6C",
"I+	c #B28060",
"J+	c #9B6B50",
"K+	c #6B483B",
"L+	c #2F1D29",
"M+	c #1A0E25",
"N+	c #231627",
"O+	c #1F1927",
"P+	c #1A1B28",
"Q+	c #191B28",
"R+	c #171A26",
"S+	c #151923",
"T+	c #252022",
"U+	c #392C26",
"V+	c #6D5547",
"W+	c #765D4D",
"X+	c #705748",
"Y+	c #644E40",
"Z+	c #4B3A2F",
"`+	c #3D2E27",
" @	c #7F614C",
".@	c #B2896A",
"+@	c #C39675",
"@@	c #BD8E6D",
"#@	c #B48160",
"$@	c #9D6B50",
"%@	c #6C483B",
"&@	c #1A0D25",
"*@	c #241527",
"=@	c #221627",
"-@	c #211727",
";@	c #211828",
">@	c #181420",
",@	c #18151A",
"'@	c #3E302A",
")@	c #5C473B",
"!@	c #735A4A",
"~@	c #594539",
"{@	c #3C2C23",
"]@	c #705541",
"^@	c #A07B5F",
"/@	c #B58C6D",
"(@	c #BD9171",
"_@	c #BC8D6D",
":@	c #B38060",
"<@	c #9C6B50",
"[@	c #2E1D29",
"}@	c #170C25",
"|@	c #211327",
"1@	c #211226",
"2@	c #201226",
"3@	c #1E1024",
"4@	c #1B0E21",
"5@	c #120917",
"6@	c #170F10",
"7@	c #49382E",
"8@	c #6C5445",
"9@	c #5B473A",
"0@	c #33261D",
"a@	c #483628",
"b@	c #957359",
"c@	c #B38A6B",
"d@	c #BC8E6D",
"e@	c #B38160",
"f@	c #2D1C29",
"g@	c #120825",
"h@	c #1C0F26",
"i@	c #1B0D25",
"j@	c #180923",
"k@	c #0E021C",
"l@	c #000008",
"m@	c #150E0B",
"n@	c #4A392F",
"o@	c #2E221B",
"p@	c #2A1A10",
"q@	c #4F3727",
"r@	c #83614A",
"s@	c #AD8364",
"t@	c #BA8A6A",
"u@	c #B37F5F",
"v@	c #6F493C",
"w@	c #3F252C",
"x@	c #41282D",
"y@	c #4F3432",
"z@	c #533B37",
"A@	c #553E39",
"B@	c #543E35",
"C@	c #4E3A2D",
"D@	c #3C2C20",
"E@	c #251B13",
"F@	c #4A392E",
"G@	c #6C5546",
"H@	c #2F221B",
"I@	c #4F3323",
"J@	c #7A523B",
"K@	c #976A4E",
"L@	c #AC7C5D",
"M@	c #B07B5B",
"N@	c #9E6B4F",
"O@	c #774B3C",
"P@	c #5F3732",
"Q@	c #744B3C",
"R@	c #895F49",
"S@	c #926B54",
"T@	c #96725B",
"U@	c #98755C",
"V@	c #927056",
"W@	c #735843",
"X@	c #403024",
"Y@	c #765C4C",
"Z@	c #6F5748",
"`@	c #5B4538",
" #	c #4F3729",
".#	c #77523B",
"+#	c #9E6E51",
"@#	c #AD7A5A",
"##	c #B07C5C",
"$#	c #B17D5C",
"%#	c #A16F53",
"&#	c #7F503F",
"*#	c #724237",
"=#	c #8F5D47",
"-#	c #A87658",
";#	c #B48565",
">#	c #B98E6E",
",#	c #BD9271",
"'#	c #B58C6C",
")#	c #906F55",
"!#	c #503C2E",
"~#	c #695243",
"{#	c #5D4739",
"]#	c #694A38",
"^#	c #7F5740",
"/#	c #9A6E52",
"(#	c #B08162",
"_#	c #B98867",
":#	c #B78767",
"<#	c #B88767",
"[#	c #A87A5D",
"}#	c #855746",
"|#	c #764438",
"1#	c #946048",
"2#	c #AE7A5A",
"3#	c #BA8A69",
"4#	c #C09372",
"5#	c #C49776",
"6#	c #BC9171",
"7#	c #957258",
"8#	c #503D2E",
"9#	c #453226",
"0#	c #744F39",
"a#	c #9E6D50",
"b#	c #B18061",
"c#	c #BB8D6C",
"d#	c #BF9271",
"e#	c #AF8366",
"f#	c #885D4B",
"g#	c #76463A",
"h#	c #94614A",
"i#	c #AE7B5C",
"j#	c #B98A69",
"k#	c #C29675",
"l#	c #BB9070",
"m#	c #987459",
"n#	c #5D4534",
"o#	c #4E3A2E",
"p#	c #6A5244",
"q#	c #3C291E",
"r#	c #775039",
"s#	c #A57254",
"t#	c #B78564",
"u#	c #BE906F",
"v#	c #C19574",
"w#	c #C09574",
"x#	c #B08668",
"y#	c #895F4C",
"z#	c #784A3D",
"A#	c #9A6B52",
"B#	c #BD8F6E",
"C#	c #BF9372",
"D#	c #BD9170",
"E#	c #855E46",
"F#	c #6C4A38",
"G#	c #61483A",
"H#	c #654E41",
"I#	c #3E2B20",
"J#	c #A47153",
"K#	c #B68464",
"L#	c #BD906F",
"M#	c #B08568",
"N#	c #895E4C",
"O#	c #7A4E41",
"P#	c #A0745B",
"Q#	c #BB8E6E",
"R#	c #C09472",
"S#	c #BE9271",
"T#	c #B68768",
"U#	c #A67658",
"V#	c #875C43",
"W#	c #563C2C",
"X#	c #7C5042",
"Y#	c #A3785F",
"Z#	c #BE9272",
"`#	c #B48464",
" $	c #92694F",
".$	c #523929",
"+$	c #B68463",
"@$	c #C09373",
"#$	c #AF8467",
"$$	c #885E4C",
"%$	c #7B4F41",
"&$	c #A0765D",
"*$	c #C19573",
"=$	c #9A755A",
"-$	c #5E4635",
";$	c #46352B",
">$	c #685143",
",$	c #A37152",
"'$	c #B88867",
")$	c #BA8B6B",
"!$	c #BA8B6A",
"~$	c #BA8C6B",
"{$	c #AB7D61",
"]$	c #865948",
"^$	c #74473C",
"/$	c #8F6551",
"($	c #A97E63",
"_$	c #B78C6D",
":$	c #BE9372",
"<$	c #A98265",
"[$	c #876750",
"}$	c #6E5541",
"|$	c #674F40",
"1$	c #695245",
"2$	c #4F3E34",
"3$	c #3A2C26",
"4$	c #372A23",
"5$	c #77513A",
"6$	c #A37052",
"7$	c #B17D5D",
"8$	c #B27F5E",
"9$	c #B27E5E",
"0$	c #B27F5F",
"a$	c #A47256",
"b$	c #825341",
"c$	c #693833",
"d$	c #704239",
"e$	c #875D4B",
"f$	c #A67C61",
"g$	c #BF9473",
"h$	c #BA8F6F",
"i$	c #AF8768",
"j$	c #947257",
"k$	c #654E3C",
"l$	c #4F3D32",
"m$	c #6A5344",
"n$	c #745A4B",
"o$	c #5C4C4B",
"p$	c #494656",
"q$	c #343950",
"r$	c #202333",
"s$	c #352822",
"t$	c #614B3E",
"u$	c #765C4D",
"v$	c #B17C5B",
"w$	c #AF7A5A",
"x$	c #A16C50",
"y$	c #804F3E",
"z$	c #632F2D",
"A$	c #5B2529",
"B$	c #6D3F37",
"C$	c #906551",
"D$	c #AA7F64",
"E$	c #A27D60",
"F$	c #654D3A",
"G$	c #3D2F26",
"H$	c #654F41",
"I$	c #4F3E35",
"J$	c #4C4859",
"K$	c #595E7E",
"L$	c #545B7C",
"M$	c #363B52",
"N$	c #362A26",
"O$	c #A37153",
"P$	c #B48161",
"Q$	c #B98969",
"R$	c #A06C50",
"S$	c #804E3D",
"T$	c #5C2629",
"U$	c #64322F",
"V$	c #73453B",
"W$	c #A57B60",
"X$	c #BB8F6F",
"Y$	c #BF9373",
"Z$	c #A37D61",
"`$	c #3D2E25",
" %	c #6C5447",
".%	c #5B4B48",
"+%	c #464251",
"@%	c #484F6C",
"#%	c #5B6286",
"$%	c #5B6181",
"%%	c #4A475A",
"&%	c #4C3C33",
"*%	c #675143",
"=%	c #B48261",
"-%	c #B68667",
";%	c #A87759",
">%	c #95624A",
",%	c #79483A",
"'%	c #622F2D",
")%	c #5E2A2B",
"!%	c #602C2C",
"~%	c #5E282A",
"{%	c #6F4138",
"]%	c #996F58",
"^%	c #B98D6E",
"/%	c #3E2F26",
"(%	c #514039",
"_%	c #4F4B5C",
":%	c #585D7D",
"<%	c #565D7F",
"[%	c #4B5270",
"}%	c #4D4B5D",
"|%	c #5B4C4D",
"1%	c #685144",
"2%	c #564236",
"3%	c #77503A",
"4%	c #B58363",
"5%	c #B48262",
"6%	c #A8775A",
"7%	c #91614A",
"8%	c #7B4A3B",
"9%	c #6B3932",
"0%	c #612D2D",
"a%	c #5F2B2C",
"b%	c #5B2428",
"c%	c #6C3D36",
"d%	c #986D57",
"e%	c #B88D6E",
"f%	c #5D493C",
"g%	c #372D2E",
"h%	c #464C68",
"i%	c #646C92",
"j%	c #5F668B",
"k%	c #3C415A",
"l%	c #392D2B",
"m%	c #4D3C31",
"n%	c #78513A",
"o%	c #A26F51",
"p%	c #AB7556",
"q%	c #A67153",
"r%	c #A47053",
"s%	c #A36F52",
"t%	c #95634A",
"u%	c #79483B",
"v%	c #63302E",
"w%	c #602B2C",
"x%	c #5D2629",
"y%	c #6E3F37",
"z%	c #986E57",
"A%	c #31292C",
"B%	c #464C69",
"C%	c #656D95",
"D%	c #60688D",
"E%	c #393E56",
"F%	c #261C16",
"G%	c #4E3C31",
"H%	c #48382D",
"I%	c #352820",
"J%	c #372419",
"K%	c #79523B",
"L%	c #A06D50",
"M%	c #A06B4F",
"N%	c #8D5A45",
"O%	c #845240",
"P%	c #6A3832",
"Q%	c #5F2A2B",
"R%	c #996E58",
"S%	c #5D483B",
"T%	c #342B2C",
"U%	c #656D94",
"V%	c #3C4058",
"W%	c #120C0B",
"X%	c #160D09",
"Y%	c #1D140F",
"Z%	c #1E1510",
"`%	c #1B130E",
" &	c #0E0906",
".&	c #332116",
"+&	c #7C563F",
"@&	c #A27154",
"#&	c #9A684E",
"$&	c #77473A",
"%&	c #64312E",
"&&	c #65322F",
"*&	c #622E2D",
"=&	c #5D2729",
"-&	c #6D3E37",
";&	c #976C55",
">&	c #B78A6B",
",&	c #62688D",
"'&	c #414359",
")&	c #211713",
"!&	c #1E1102",
"~&	c #201611",
"{&	c #211611",
"]&	c #1E140F",
"^&	c #000000",
"/&	c #37261B",
"(&	c #836149",
"_&	c #AB7E60",
":&	c #9F7158",
"<&	c #75473B",
"[&	c #5C272A",
"}&	c #5D282A",
"|&	c #6C3B34",
"1&	c #91634D",
"2&	c #AF8061",
"3&	c #BB8C6B",
"4&	c #3C2E25",
"5&	c #62698D",
"6&	c #45455A",
"7&	c #291D18",
"8&	c #27190B",
"9&	c #291D16",
"0&	c #261A14",
"a&	c #030103",
"b&	c #37281D",
"c&	c #81624B",
"d&	c #A88063",
"e&	c #9E735B",
"f&	c #76493D",
"g&	c #5E292B",
"h&	c #6B3933",
"i&	c #8E5D48",
"j&	c #AB785A",
"k&	c #BE9170",
"l&	c #B88E6E",
"m&	c #9D795D",
"n&	c #664D3B",
"o&	c #61688D",
"p&	c #201613",
"q&	c #1C1001",
"r&	c #1F1510",
"s&	c #1D130E",
"t&	c #040202",
"u&	c #281D14",
"v&	c #634C39",
"w&	c #84644D",
"x&	c #805C49",
"y&	c #6A3E36",
"z&	c #5F2B2B",
"A&	c #6C3C35",
"B&	c #93654E",
"C&	c #B28263",
"D&	c #BE8F6E",
"E&	c #9A765B",
"F&	c #80614B",
"G&	c #664F3E",
"H&	c #604A3D",
"I&	c #170F0B",
"J&	c #1F1711",
"K&	c #201712",
"L&	c #201711",
"M&	c #211711",
"N&	c #31251B",
"O&	c #423024",
"P&	c #513028",
"Q&	c #5C2D2B",
"R&	c #936953",
"S&	c #B28668",
"T&	c #BC9070",
"U&	c #9C785D",
"V&	c #6A503D",
"W&	c #534032",
"X&	c #656E95",
"Y&	c #271D17",
"Z&	c #513E33",
"`&	c #503D32",
" *	c #4C3B30",
".*	c #3A2C23",
"+*	c #150E0A",
"@*	c #381316",
"#*	c #582727",
"$*	c #612C2C",
"%*	c #663732",
"&*	c #7E5846",
"**	c #916E55",
"=*	c #98755A",
"-*	c #937157",
";*	c #785B46",
">*	c #403023",
",*	c #5E493C",
"'*	c #382E2E",
")*	c #474C68",
"!*	c #636B92",
"~*	c #5E668B",
"{*	c #3C415B",
"]*	c #3A2F2E",
"^*	c #6D5546",
"/*	c #31221C",
"(*	c #3C1919",
"_*	c #562727",
":*	c #5F2C2C",
"<*	c #5F2E2C",
"[*	c #59352D",
"}*	c #533B2D",
"|*	c #513D2D",
"1*	c #4E3A2C",
"2*	c #3F2E22",
"3*	c #2A1F16",
"4*	c #53423A",
"5*	c #504B5B",
"6*	c #565B7A",
"7*	c #565D7E",
"8*	c #4D5372",
"9*	c #4E4D61",
"0*	c #5B4C4E",
"a*	c #675043",
"b*	c #523E33",
"c*	c #493029",
"d*	c #4D2725",
"e*	c #542626",
"f*	c #5D2A2A",
"g*	c #4F2223",
"h*	c #3A1317",
"i*	c #220208",
"j*	c #43332A",
"k*	c #6D5548",
"l*	c #5C4B46",
"m*	c #45404E",
"n*	c #484E6B",
"o*	c #5B6386",
"p*	c #5C6182",
"q*	c #48475A",
"r*	c #4A3A32",
"s*	c #594337",
"t*	c #3E2721",
"u*	c #411C1C",
"v*	c #572727",
"w*	c #5B2929",
"x*	c #532425",
"y*	c #3F191A",
"z*	c #251310",
"A*	c #624D3F",
"B*	c #513F35",
"C*	c #4D4858",
"D*	c #52597A",
"E*	c #353A51",
"F*	c #352A25",
"G*	c #34261F",
"H*	c #301315",
"I*	c #4B2225",
"J*	c #59292B",
"K*	c #5E2B2C",
"L*	c #5A2929",
"M*	c #522625",
"N*	c #4A2A26",
"O*	c #48342B",
"P*	c #5E4D4A",
"Q*	c #494453",
"R*	c #32364C",
"S*	c #1E2130",
"T*	c #362922",
"U*	c #33261F",
"V*	c #220F14",
"W*	c #3A1C23",
"X*	c #4C2429",
"Y*	c #4D2222",
"Z*	c #3D1F1C",
"`*	c #4D372E",
" =	c #644D40",
".=	c #6A5345",
"+=	c #513E34",
"@=	c #3D2E26",
"#=	c #3B2D25",
"$=	c #1A0C13",
"%=	c #2E1822",
"&=	c #3F1F27",
"*=	c #4D2326",
"==	c #5C2A2A",
"-=	c #451E1E",
";=	c #2B1915",
">=	c #1B0C14",
",=	c #2D1721",
"'=	c #331A23",
")=	c #35171B",
"!=	c #552626",
"~=	c #441D1D",
"{=	c #2A1915",
"]=	c #190C13",
"^=	c #291620",
"/=	c #27151F",
"(=	c #180B11",
"_=	c #2E1212",
":=	c #4F2323",
"<=	c #110A11",
"[=	c #1D131D",
"}=	c #19121C",
"|=	c #09070E",
"1=	c #2B1010",
"2=	c #32261E",
"3=	c #07080F",
"4=	c #0F111B",
"5=	c #0B0F19",
"6=	c #05070D",
"7=	c #2D1111",
"8=	c #612D2C",
"9=	c #30241D",
"0=	c #05080F",
"a=	c #0C101A",
"b=	c #070F19",
"c=	c #03060D",
"d=	c #502323",
"e=	c #5F2C2B",
"f=	c #622D2D",
"g=	c #3E3027",
"h=	c #1F1818",
"i=	c #13131B",
"j=	c #070E17",
"k=	c #03060B",
"l=	c #2A1011",
"m=	c #4B2122",
"n=	c #5A292B",
"o=	c #5C2B2C",
"p=	c #5C2A2C",
"q=	c #5D2B2C",
"r=	c #582829",
"s=	c #411C1D",
"t=	c #5D483C",
"u=	c #47372E",
"v=	c #261E1D",
"w=	c #03070E",
"x=	c #020306",
"y=	c #200C10",
"z=	c #3B1B21",
"A=	c #482229",
"B=	c #49222A",
"C=	c #49232A",
"D=	c #452028",
"E=	c #33161C",
"F=	c #211312",
"G=	c #19120E",
"H=	c #070504",
"I=	c #12070F",
"J=	c #24121F",
"K=	c #2D1827",
"L=	c #2E1828",
"M=	c #2B1725",
"N=	c #22121C",
"O=	c #2D211C",
"P=	c #6F5648",
"Q=	c #5C483B",
"R=	c #0B050E",
"S=	c #1A0F1F",
"T=	c #211427",
"U=	c #231528",
"V=	c #211426",
"W=	c #1C1021",
"X=	c #1D121D",
"Y=	c #392B27",
"Z=	c #513F34",
"`=	c #624C3F",
" -	c #403128",
".-	c #1E1316",
"+-	c #1C101E",
"@-	c #221425",
"#-	c #231527",
"$-	c #221424",
"%-	c #1B0F1B",
"&-	c #2D211E",
"*-	c #523F35",
"=-	c #45352D",
"--	c #2E2123",
";-	c #1A0E1D",
">-	c #1B0E1D",
",-	c #22161E",
"'-	c #392A27",
")-	c #503D33",
"!-	c #664F41",
"~-	c #43332B",
"{-	c #1C1314",
"]-	c #0A040C",
"^-	c #2E211E",
"/-	c #544136",
"                                                                                                                                ",
"                                                          . + @ @ @ @ @ @ @ @ # $ %                                             ",
"                                                          & * = = - - - - = ; > , '                                             ",
"                                                      ) ! ~ { ] ^ / / ( _ : < [ } | 1 %                                         ",
"                                                    2 @ 3 4 5 6 6 6 6 7 8 9 0 a b c , .                                         ",
"                                            % . d d + e f g h i j i i k l m n o p q r | . %                                     ",
"                                            s t u v w x y z A B C D D E F G H I J K b L , 1                                     ",
"                                            $ M N O P Q P R S T U V V W X Y H I Z `  .q ..| s %                                 ",
"                                            $ +.@.#.$.%.&.*.=.-.;.V B >.,.'.).!.~.{.].^./.w , d                                 ",
"                                            $ * (._.:.<.[.}.|.1.2.3.V 4.5.6.7.8.9.9.9.0.a.b.c.@                                 ",
"                                            $ * d.e.f.g.h.i.j.k.l.m.n.o.p.q.r.s.t.t.u.v.w.x.y.|                                 ",
"                                            $ * z.A.B.C.D.E.F.G.H.I.I.I.J.K.L.L.L.L.K.M.N.O.P.|                                 ",
"                                            $ * Q.R.S.T.U.V.W.X.Y.Z.`. +.+.+.+.+.+.+++@+#+$+P.|                                 ",
"                                            $ * %+&+*+=+-+;+>+,+'+'+)+!+~+~+~+{+{+{+]+^+/+(+P.|                                 ",
"                                            $ _+:+<+[+}+|+1+2+3+4+5+6+7+8+9+0+Z Z Z a+b+c+d+e+|                                 ",
"                                            $ * f+g+h+i+j+k+l+m+n+o+p+q+r+s+t+u+Z Z Z v+w+x+y+|                                 ",
"                                            1 z+A+B+C+D+E+F+G+H+I+J+K+L+M+N+O+P+Q+Q+R+S+T+U+_+V+                                ",
"                                            W+X+Y+Z+`+ @.@+@F+@@#@$@%@L+&@*@=@-@;@s+>@,@'@)@# .                                 ",
"                                                !@~@{@]@^@/@(@_@:@<@K+[@}@|@1@2@3@4@5@6@7@8@                                    ",
"                                                ' 9@0@a@]@b@c@d@e@<@K+f@g@h@i@j@k@g+l@m@n@V+                                    ",
"                                                . e o@p@q@r@s@t@u@<@v@w@x@y@z@A@B@C@D@E@F@G@                                    ",
"                                                s 9@H@I@J@K@L@#@M@N@O@P@Q@R@S@T@U@V@W@X@F@G@                                    ",
"                                            2 Y@Z@`@ #.#+#@###$#M@%#&#*#=#-#;#>#,#'#)#!#F@G@                                    ",
"                                            s ~#{#]#^#/#(#_#:#<#:#[#}#|#1#2#3#4#5#6#7#8#n@V+                                    ",
"                                            $ ~@9#0#a#b#c#d#d#d#d#e#f#g#h#i#j#d#k#l#m#n#o#p#) 2                                 ",
"                                            $ +.q#r#s#t#u#v#w#v#v#x#y#z#A#;#B#C#v#D#m+E#F#G#H#$                                 ",
"                                            $ * I#r#J#K#L#G+G+v#G+M#N#O#P#Q#R#G+v#S#T#U#V#W#> &                                 ",
"                                            $ * I#r#J#K#L#v#w#v#v#M#N#X#Y#Z#k#G+G+C#B#`# $.$e+p#                                ",
"                              % W+W+%       $ * I#r#J#+$B#G+@$G+4##$$$%$&$l#*$G+G+G+4#Q#=$-$;$>$%                               ",
"                            !@| , , >$2+    $ * I#r#,$:@'$)$!$~$)${$]$^$/$($_$C#v#G+v#:$<$[$}$|$| !@                            ",
"                          % 1$2$3$4$Z+t W+  $ * I#5$6$M@7$8$9$0$9$a$b$c$d$e$f$l#*$G+G+g$h$i$j$k$l$m$%                           ",
"                        n$m$o$p$q$r$s$t$u$  $ * I#5$6$v$0$:@:@9$w$x$y$z$A$B$C$D$_$Z#G+G+F+C#E$F$G$H$%                           ",
"                      % ~#I$J$K$L$M$N$t$u$  $ * I#r#O$P$Q$c#c#<#7$R$S$z$T$U$V$$$W$X$v#G+F+Y$Z$F$`$H$%                           ",
"                  2 n$ %.%+%@%#%$%%%&%*%%   $ * I#r#O$=%!$B#d@-%;%>%,%'%)%!%~%{%]%^%v#G+v#:$E$F$/%H$%                           ",
"                  Y@t (%_%:%<%[%}%|%1%$     $ 2%I#3%6$$##@4%5%6%7%8%9%0%a%a%b%c%d%e%v#G+v#:$E$F$/%H$%                           ",
"                  s f%g%h%i%j%k%l%9@# + + Z@>$m%q#n%o%p%q%r%s%t%u%v%w%!%!%!%x%y%z%^%v#G+v#:$E$F$/%H$%                           ",
"                  ' )@A%B%C%D%E%F%y.m%G%> m%H%I%J%K%L%M%N%O%O%8%P%Q%Q%!%!%!%x%y%R%^%v#G+v#:$E$F$/%H$%                           ",
"                  ' S%T%B%U%D%V%W%X%Y%Z%Y%Z%`% &.&+&@&#&$&%&&&%&*&!%!%!%!%!%=&-&;&>&4#G+F+C#E$F$/%H$%                           ",
"                  ' S%T%B%U%,&'&)&!&~&~&~&{&]&^&/&(&_&:&<&T$[&)%a%!%!%!%!%!%}&|&1&2&3&d#k#G+Z$F$4&H$%                           ",
"                  ' S%T%B%U%5&6&7&8&9&9&9&9&0&a&b&c&d&e&f&g&Q%!%!%!%!%!%!%!%}&h&i&j&'$k&C#l&m&n&;$t %                           ",
"                  ' S%T%B%U%o&'&p&q&r&r&r&r&s&t&u&v&w&x&y&z&w%!%!%!%!%!%!%!%}&A&B&C&D&d#.@E&F&G&H&Z@                            ",
"                  ' S%T%B%U%D%V%W%I&J&K&K&K&L&Y%M&N&O&P&Q&!%!%!%!%!%!%!%!%!%=&c%R&S&T&e%U&V&W&t 1 %                             ",
"                  ' )@A%B%X&D%E%Y&y+w Z&`&`&`&w  *.*+*@*#*0%$*!%!%!%!%!%!%!%g&%*&***=*-*;*>*e+p#                                ",
"                  s ,*'*)*!*~*{*]*)@^*Z@Z@Z@Z@1+& * /*(*_*:*!%!%!%!%!%!%!%!%!%<*[*}*|*1*2*3*= m$                                ",
"                  Y@>$4*5*6*7*8*9*0*a*$         u$t b*c*d*e*f*!%!%!%!%!%!%!%$*f*g*h*i*^&Y&j*9@Z@                                ",
"                  2 . k*l*m*n*o*p*q*r*t %         . # s*t*u*v*!%!%!%!%!%!%!%!%z&w*x*y*z*j*A*1+Y@                                ",
"                      % | B*C*:%D*E*F*t$Y@          Y@z+G*H*I*J*K*!%!%!%!%!%!%z&L*M*N*O*9@1+                                    ",
"                        . & P*Q*R*S*T*t$Y@          Y@z+U*V*W*X*J*!%!%!%!%!%$*f*Y*Z*`* =X+u$                                    ",
"                          % .=+=@=#=> *%W+          ) z+U*$=%=&=*=_*==!%!%!%$*==-=;=l$Z@                                        ",
"                            1 @ H$H$| $ 2           ) z+U*>=,='=)=u*!=:*$*!%$*==~={=w 1+                                        ",
"                              2 % % %               ) z+U*]=^=/=(=_=:=z&$*!%$*==-=;=`&Z@                                        ",
"                                                    ) z+U*<=[=}=|=1=:=z&$*!%$*==-=;=`&Z@                                        ",
"                                                    ) z+2=3=4=5=6=7=:=z&$*!%8===-=;=`&Z@                                        ",
"                                                    ) ,*9=0=a=b=c=7=d=e=f=$*f===-=;=`&Z@                                        ",
"                                                    Y@A*g=h=i=j=k=l=m=n=o=p=q=r=s={=`&Z@                                        ",
"                                                    % V+t=u=v=w=x=y=z=A=B=B=C=D=E=F=G%Z@                                        ",
"                                                      % $ t$x G=H=I=J=K=L=K=K=M=N=O=+.1+                                        ",
"                                                          P=Q=;$F%R=S=T=U=V=W=X=Y=Z=H$n$                                        ",
"                                                          W+$ `= -.-+-@-#-$-%-&-*-& s %                                         ",
"                                                              Z@)@=---;->-,-'-)-!-)                                             ",
"                                                              u$2+, ~-{-]-^-/-& . %                                             ",
"                                                                  1+9@H%y+l$!-Y@                                                ",
"                                                                  Y@X+& .=^*!@2                                                 ",
"                                                                                                                                "};
