/* XPM */
static char * player_left4_xpm[] = {
"64 64 653 2",
"  	c #785E4E",
". 	c #775D4D",
"+ 	c #6F5748",
"@ 	c #6A5344",
"# 	c #6A5244",
"$ 	c #6D5546",
"% 	c #745B4C",
"& 	c #72594A",
"* 	c #564337",
"= 	c #3C2E25",
"- 	c #3A2D24",
"; 	c #3B2E25",
"> 	c #3B2D25",
", 	c #392B23",
"' 	c #4B3A2F",
") 	c #6B5345",
"! 	c #6F5648",
"~ 	c #5D4A3E",
"{ 	c #3E3834",
"] 	c #1F2A2E",
"^ 	c #202A2E",
"/ 	c #192328",
"( 	c #10191F",
"_ 	c #0B1218",
": 	c #292120",
"< 	c #534136",
"[ 	c #755C4C",
"} 	c #775D4E",
"| 	c #765C4D",
"1 	c #765D4D",
"2 	c #584538",
"3 	c #332C28",
"4 	c #303A3E",
"5 	c #35444A",
"6 	c #35454B",
"7 	c #344449",
"8 	c #2B3A41",
"9 	c #1F2B34",
"0 	c #17212B",
"a 	c #181B23",
"b 	c #261F1E",
"c 	c #4B3A30",
"d 	c #705849",
"e 	c #5F4A3D",
"f 	c #594539",
"g 	c #3C2D25",
"h 	c #020116",
"i 	c #26383E",
"j 	c #38494E",
"k 	c #3A4B50",
"l 	c #3A4B51",
"m 	c #394A50",
"n 	c #304047",
"o 	c #223038",
"p 	c #1A252F",
"q 	c #141C26",
"r 	c #0E151E",
"s 	c #2E2623",
"t 	c #513F34",
"u 	c #685143",
"v 	c #3D2F25",
"w 	c #3A2E1A",
"x 	c #524226",
"y 	c #544423",
"z 	c #4E4430",
"A 	c #474C4F",
"B 	c #404F5A",
"C 	c #3B4C54",
"D 	c #38494F",
"E 	c #2F3F46",
"F 	c #212F38",
"G 	c #19242E",
"H 	c #151D28",
"I 	c #141C27",
"J 	c #131821",
"K 	c #221C1B",
"L 	c #4E3D32",
"M 	c #6E5647",
"N 	c #664F42",
"O 	c #3A2D21",
"P 	c #786337",
"Q 	c #AE9052",
"R 	c #BA9A56",
"S 	c #AF9361",
"T 	c #877D7D",
"U 	c #596480",
"V 	c #425262",
"W 	c #384A4F",
"X 	c #2F3F45",
"Y 	c #202E37",
"Z 	c #17232C",
"` 	c #131C26",
" .	c #131B26",
"..	c #111923",
"+.	c #0D141C",
"@.	c #2F2623",
"#.	c #4E3C32",
"$.	c #675143",
"%.	c #665042",
"&.	c #403224",
"*.	c #997E47",
"=.	c #DCB76A",
"-.	c #EAC26F",
";.	c #DAB776",
">.	c #A4938E",
",.	c #636C8E",
"'.	c #47556B",
").	c #3B4A54",
"!.	c #35424E",
"~.	c #2B3644",
"{.	c #272F3E",
"].	c #252B3B",
"^.	c #242B3B",
"/.	c #242A3A",
"(.	c #1A1F2C",
"_.	c #241D1B",
":.	c #5A4639",
"<.	c #765C4C",
"[.	c #413224",
"}.	c #9B8049",
"|.	c #DFBA6B",
"1.	c #EEC672",
"2.	c #DDB973",
"3.	c #9F8C7B",
"4.	c #555B79",
"5.	c #454F6A",
"6.	c #434C62",
"7.	c #414960",
"8.	c #3F465D",
"9.	c #3E445C",
"0.	c #3D435B",
"a.	c #3D435A",
"b.	c #2E3346",
"c.	c #221D20",
"d.	c #3E3023",
"e.	c #846D3E",
"f.	c #BF9F5D",
"g.	c #CBA962",
"h.	c #BB9C60",
"i.	c #82715C",
"j.	c #3C425A",
"k.	c #383F5A",
"l.	c #3C425B",
"m.	c #241E22",
"n.	c #372A21",
"o.	c #463A25",
"p.	c #68583A",
"q.	c #715F3F",
"r.	c #6B5A3F",
"s.	c #4E453D",
"t.	c #312F3C",
"u.	c #322B3B",
"v.	c #302A3B",
"w.	c #272A3B",
"x.	c #242A3B",
"y.	c #201919",
"z.	c #32251F",
"A.	c #000012",
"B.	c #1C1728",
"C.	c #5C4740",
"D.	c #7B5F4F",
"E.	c #806451",
"F.	c #7E604C",
"G.	c #785443",
"H.	c #614237",
"I.	c #34252A",
"J.	c #141524",
"K.	c #1A1825",
"L.	c #161A25",
"M.	c #121B26",
"N.	c #0C131B",
"O.	c #1A1412",
"P.	c #584438",
"Q.	c #0E0914",
"R.	c #3D2C2D",
"S.	c #8B6A56",
"T.	c #B48B6C",
"U.	c #B98F6F",
"V.	c #B48869",
"W.	c #A9785A",
"X.	c #895D47",
"Y.	c #493030",
"Z.	c #180F26",
"`.	c #221727",
" +	c #1C1A28",
".+	c #171C28",
"++	c #161D28",
"@+	c #161C28",
"#+	c #12161D",
"$+	c #2B211C",
"%+	c #5C473B",
"&+	c #44342B",
"*+	c #42302B",
"=+	c #927058",
"-+	c #BE9372",
";+	c #C39775",
">+	c #BE906E",
",+	c #B37F5F",
"'+	c #91634A",
")+	c #4C3231",
"!+	c #0F0624",
"~+	c #180D25",
"{+	c #100C24",
"]+	c #080C24",
"^+	c #090E21",
"/+	c #11131C",
"(+	c #392D29",
"_+	c #574438",
":+	c #6C5445",
"<+	c #755B4C",
"[+	c #413025",
"}+	c #8D6B52",
"|+	c #BA8E6E",
"1+	c #C19473",
"2+	c #BC8E6D",
"3+	c #B17E5E",
"4+	c #91624A",
"5+	c #533432",
"6+	c #3A222B",
"7+	c #513A36",
"8+	c #543E39",
"9+	c #463330",
"0+	c #261B19",
"a+	c #4C3B30",
"b+	c #3F2D22",
"c+	c #855F47",
"d+	c #B28263",
"e+	c #BE906F",
"f+	c #BC8E6E",
"g+	c #B17F5F",
"h+	c #94634A",
"i+	c #683D35",
"j+	c #71473A",
"k+	c #8F624B",
"l+	c #9B7259",
"m+	c #A07A61",
"n+	c #A07B61",
"o+	c #886851",
"p+	c #483529",
"q+	c #4F3D32",
"r+	c #745B4B",
"s+	c #5E493C",
"t+	c #3D2A1F",
"u+	c #80573E",
"v+	c #AC7859",
"w+	c #B88767",
"x+	c #B98968",
"y+	c #B07C5D",
"z+	c #96634A",
"A+	c #734137",
"B+	c #885642",
"C+	c #AB7758",
"D+	c #B98969",
"E+	c #BF9372",
"F+	c #C09473",
"G+	c #A98164",
"H+	c #74543F",
"I+	c #5C4233",
"J+	c #695143",
"K+	c #735A4A",
"L+	c #80573F",
"M+	c #AA7656",
"N+	c #B17D5D",
"O+	c #AE7959",
"P+	c #97644B",
"Q+	c #734237",
"R+	c #895743",
"S+	c #BA8A6A",
"T+	c #C19574",
"U+	c #B78A6A",
"V+	c #A17255",
"W+	c #7C553E",
"X+	c #513B2E",
"Y+	c #624C3F",
"Z+	c #866047",
"`+	c #B07F60",
" @	c #B58362",
".@	c #B48262",
"+@	c #B38261",
"@@	c #9C6D53",
"#@	c #75463A",
"$@	c #8D5E49",
"%@	c #B18061",
"&@	c #B58565",
"*@	c #8D654B",
"=@	c #433023",
"-@	c #423025",
";@	c #BA8E6D",
">@	c #BF9170",
",@	c #BE9170",
"'@	c #BD906F",
")@	c #A4785E",
"!@	c #784C3F",
"~@	c #936853",
"{@	c #B98D6D",
"]@	c #C09472",
"^@	c #BC906F",
"/@	c #947056",
"(@	c #473528",
"_@	c #433226",
":@	c #8F6E55",
"<@	c #BD9271",
"[@	c #C29674",
"}@	c #A67B61",
"|@	c #794D40",
"1@	c #956B55",
"2@	c #BC9070",
"3@	c #977459",
"4@	c #483629",
"5@	c #423126",
"6@	c #8F6D54",
"7@	c #BC9171",
"8@	c #C19573",
"9@	c #A57B61",
"0@	c #BB9070",
"a@	c #BE9272",
"b@	c #967359",
"c@	c #624D3F",
"d@	c #4D3B31",
"e@	c #5D493C",
"f@	c #6A5347",
"g@	c #51454A",
"h@	c #313244",
"i@	c #191C28",
"j@	c #45352B",
"k@	c #6C5446",
"l@	c #413125",
"m@	c #8C6A51",
"n@	c #B98C6C",
"o@	c #BC8F6E",
"p@	c #A3775D",
"q@	c #977359",
"r@	c #644E40",
"s@	c #4A3D3E",
"t@	c #555773",
"u@	c #565D7F",
"v@	c #34394F",
"w@	c #423229",
"x@	c #855E46",
"y@	c #AF7D5E",
"z@	c #B48161",
"A@	c #B38160",
"B@	c #B28060",
"C@	c #9B6B51",
"D@	c #76473B",
"E@	c #685145",
"F@	c #55494E",
"G@	c #454861",
"H@	c #555C7D",
"I@	c #5B6081",
"J@	c #4D4857",
"K@	c #AF7E5E",
"L@	c #B27F5F",
"M@	c #734338",
"N@	c #A98265",
"O@	c #866750",
"P@	c #574335",
"Q@	c #634D40",
"R@	c #675042",
"S@	c #453835",
"T@	c #50536E",
"U@	c #60678D",
"V@	c #4D5473",
"W@	c #423E4D",
"X@	c #5F4C45",
"Y@	c #5D483C",
"Z@	c #413024",
"`@	c #8C6950",
" #	c #B98A69",
".#	c #AF7C5C",
"+#	c #96624A",
"@#	c #976D56",
"##	c #AA8265",
"$#	c #755944",
"%#	c #5E4839",
"&#	c #30292C",
"*#	c #505676",
"=#	c #687199",
"-#	c #4A506E",
";#	c #29201C",
">#	c #513E33",
",#	c #49382E",
"'#	c #3C2B20",
")#	c #8B664D",
"!#	c #B68868",
"~#	c #BC8C6B",
"{#	c #9E6D52",
"]#	c #91614B",
"^#	c #946953",
"/#	c #A97F63",
"(#	c #BD9171",
"_#	c #C29574",
":#	c #A47E62",
"<#	c #554030",
"[#	c #4E3C31",
"}#	c #735A4B",
"|#	c #332B2D",
"1#	c #4F5676",
"2#	c #687098",
"3#	c #4B516F",
"4#	c #18151A",
"5#	c #1E1610",
"6#	c #271D17",
"7#	c #251B15",
"8#	c #1B130E",
"9#	c #332117",
"0#	c #805841",
"a#	c #A87556",
"b#	c #AD7959",
"c#	c #9F6C51",
"d#	c #7E4E3E",
"e#	c #8C604D",
"f#	c #B18669",
"g#	c #BE9271",
"h#	c #BF9373",
"i#	c #A07B5F",
"j#	c #5B4535",
"k#	c #523F34",
"l#	c #4F5470",
"m#	c #241D1F",
"n#	c #1D1103",
"o#	c #19110C",
"p#	c #0A0504",
"q#	c #09020B",
"r#	c #331C1E",
"s#	c #6A4235",
"t#	c #8C5944",
"u#	c #814F3E",
"v#	c #6B3932",
"w#	c #8B614E",
"x#	c #B98D6E",
"y#	c #C49775",
"z#	c #C39675",
"A#	c #B98E6F",
"B#	c #9C775C",
"C#	c #7C5F4A",
"D#	c #644D3E",
"E#	c #515571",
"F#	c #2C2222",
"G#	c #26190B",
"H#	c #211611",
"I#	c #0F0806",
"J#	c #1B0D15",
"K#	c #351C25",
"L#	c #52292B",
"M#	c #63312E",
"N#	c #66322F",
"O#	c #632F2D",
"P#	c #622F2D",
"Q#	c #865C4A",
"R#	c #AE8366",
"S#	c #B68C6D",
"T#	c #B48A6B",
"U#	c #B58B6C",
"V#	c #6B513E",
"W#	c #48372C",
"X#	c #4E5370",
"Y#	c #1E191C",
"Z#	c #150A00",
"`#	c #120C07",
" $	c #080404",
".$	c #1D0E16",
"+$	c #361C25",
"@$	c #4F242A",
"#$	c #5D292B",
"$$	c #5F2A2B",
"%$	c #5E292B",
"&$	c #602C2C",
"*$	c #72443A",
"=$	c #855B4A",
"-$	c #835E4A",
";$	c #785A45",
">$	c #775B45",
",$	c #6A513E",
"'$	c #3C2D21",
")$	c #423329",
"!$	c #322A2D",
"~$	c #1C1718",
"{$	c #32261E",
"]$	c #18110D",
"^$	c #351B25",
"/$	c #4A242A",
"($	c #58292B",
"_$	c #5E2B2C",
":$	c #612D2D",
"<$	c #5F2D2C",
"[$	c #4F2423",
"}$	c #361816",
"|$	c #301513",
"1$	c #2C1211",
"2$	c #160706",
"3$	c #342B2E",
"4$	c #677097",
"5$	c #4A516F",
"6$	c #312827",
"7$	c #2E221B",
"8$	c #1F0F16",
"9$	c #321B25",
"0$	c #3B1E28",
"a$	c #462229",
"b$	c #57282B",
"c$	c #602B2C",
"d$	c #5E2A2B",
"e$	c #592728",
"f$	c #532325",
"g$	c #532324",
"h$	c #4A1F20",
"i$	c #2C0F10",
"j$	c #52413A",
"k$	c #514F65",
"l$	c #585F81",
"m$	c #505777",
"n$	c #4D4C62",
"o$	c #5C4D4D",
"p$	c #564237",
"q$	c #342421",
"r$	c #28141D",
"s$	c #321B26",
"t$	c #321C27",
"u$	c #3C1F28",
"v$	c #54272B",
"w$	c #612C2C",
"x$	c #5B2929",
"y$	c #471F1F",
"z$	c #472D27",
"A$	c #5C463A",
"B$	c #6F5749",
"C$	c #584743",
"D$	c #3F3E51",
"E$	c #5F6589",
"F$	c #454559",
"G$	c #2E1E1B",
"H$	c #2F1A20",
"I$	c #341C27",
"J$	c #331C27",
"K$	c #3C1E28",
"L$	c #52262A",
"M$	c #5E2B2B",
"N$	c #5F2B2B",
"O$	c #5F2C2C",
"P$	c #5C2A2A",
"Q$	c #502624",
"R$	c #3D2620",
"S$	c #554136",
"T$	c #715849",
"U$	c #6A5345",
"V$	c #56453F",
"W$	c #545267",
"X$	c #4C5371",
"Y$	c #2D3246",
"Z$	c #19090F",
"`$	c #2F1822",
" %	c #351D28",
".%	c #371D26",
"+%	c #411E22",
"@%	c #451E1E",
"#%	c #461E1E",
"$%	c #502424",
"%%	c #612D2C",
"&%	c #622D2D",
"*%	c #5A2928",
"=%	c #492020",
"-%	c #4B2F29",
";%	c #5A4438",
">%	c #4F3F3B",
",%	c #1E1E29",
"'%	c #0C0E17",
")%	c #180C13",
"!%	c #2D1822",
"~%	c #331B26",
"{%	c #311B23",
"]%	c #2F1D1D",
"^%	c #2D1E18",
"/%	c #2E1E18",
"(%	c #422320",
"_%	c #562828",
":%	c #5B2A2A",
"<%	c #5C2A2B",
"[%	c #5C2A2C",
"}%	c #58282A",
"|%	c #462020",
"1%	c #34221D",
"2%	c #050302",
"3%	c #04060C",
"4%	c #14111B",
"5%	c #211621",
"6%	c #2C1A25",
"7%	c #2B161F",
"8%	c #2F1F1F",
"9%	c #533C32",
"0%	c #41221F",
"a%	c #3D1A19",
"b%	c #3E1B1C",
"c%	c #421E24",
"d%	c #442029",
"e%	c #45212A",
"f%	c #34171E",
"g%	c #221412",
"h%	c #322721",
"i%	c #1A161B",
"j%	c #0E121C",
"k%	c #12141F",
"l%	c #221823",
"m%	c #2C1924",
"n%	c #201018",
"o%	c #2E221C",
"p%	c #614C3E",
"q%	c #433229",
"r%	c #231812",
"s%	c #110709",
"t%	c #1B0D19",
"u%	c #231323",
"v%	c #261526",
"w%	c #271628",
"x%	c #261627",
"y%	c #1C0F1C",
"z%	c #1F1614",
"A%	c #372A24",
"B%	c #080B14",
"C%	c #0E121D",
"D%	c #171621",
"E%	c #1C1520",
"F%	c #120C14",
"G%	c #2D221B",
"H%	c #634D3F",
"I%	c #745A4B",
"J%	c #4A392F",
"K%	c #160F0C",
"L%	c #05030A",
"M%	c #120916",
"N%	c #1E1122",
"O%	c #231527",
"P%	c #221427",
"Q%	c #190E1C",
"R%	c #1A171B",
"S%	c #0C1019",
"T%	c #0F1119",
"U%	c #2D2420",
"V%	c #695244",
"W%	c #47372C",
"X%	c #413128",
"Y%	c #3C2E27",
"Z%	c #2A1D22",
"`%	c #1D1020",
" &	c #2C1F22",
".&	c #45342C",
"+&	c #030408",
"@&	c #211916",
"#&	c #3F3028",
"$&	c #0F080E",
"%&	c #191112",
"&&	c #49382F",
"*&	c #4C3A30",
"                                                                                                                                ",
"                                                                                                                                ",
"                                                                                                                                ",
"                                                                                                                                ",
"                                                                                                                                ",
"                                                                                                                                ",
"                                                                                                                                ",
"                                                                                                                                ",
"                                                                                                                                ",
"                                                                                                                                ",
"                                                                                                                                ",
"                                                                                                                                ",
"                                                                                                                                ",
"                                                                                                                                ",
"                                                                                                                                ",
"                                                          . + @ @ @ @ @ @ # $ %                                                 ",
"                                                          & * = - ; ; > > , ' )                                                 ",
"                                                        ! ~ { ] ] ^ ] / ( _ : < # [                                             ",
"                                                } | 1 & 2 3 4 5 6 6 7 8 9 0 a b c $ }                                           ",
"                                                d e f * g h i j k l m n o p q r s t u 1                                         ",
"                                                u v w x y z A B C m D E F G H I J K L M 1                                       ",
"                                                N O P Q R S T U V W j X Y Z `  ...+.@.#.$..                                     ",
"                                                %.&.*.=.-.;.>.,.'.).).!.~.{.].^.]./.(._.:.<.                                    ",
"                                                %.[.}.|.1.2.3.4.5.6.6.7.8.9.0.0.9.a.b.c.2 <.                                    ",
"                                                %.d.e.f.g.h.i.j.k.l.0.0.0.0.0.0.9.a.b.m.f <.                                    ",
"                                                %.n.o.p.q.r.s.t.u.v.w.x.].^.^.^.]./.(.y.f <.                                    ",
"                                                N z.A.B.C.D.E.F.G.H.I.J.K.L. .M.`  .N.O.P.<.                                    ",
"                                                u = Q.R.S.T.U.V.W.X.Y.Z.`. +.+++@+q #+$+%+<.                                    ",
"                                                d e &+*+=+-+;+>+,+'+)+!+~+{+]+]+^+/+(+_+:+.                                     ",
"                                                  <+%+[+}+|+1+2+3+4+5+6+)+7+8+8+9+0+a+d                                         ",
"                                                    e b+c+d+e+f+g+h+i+j+k+l+m+n+o+p+q+r+                                        ",
"                                                  . s+t+u+v+w+x+y+z+A+B+C+D+E+F+G+H+I+J+K+}                                     ",
"                                                  . s+t+L+M+N+N+O+P+Q+R+v+S+F+T+U+V+W+X+Y+1                                     ",
"                                                  . s+b+Z+`+ @.@+@@@#@$@%@2+F+F+e+&@*@=@2 <.                                    ",
"                                                  . s+-@}+;@>@,@'@)@!@~@{@]@F+F+F+^@/@(@f <.                                    ",
"                                                  . s+_@:@<@[@T+F+}@|@1@2@T+F+F+T+-+3@4@f <.                                    ",
"                                          <+& & <+<.s+5@6@7@T+8@F+9@|@1@0@T+F+F+T+a@b@4@f <.                                    ",
"                                        <.c@q+d@e@d e _@:@<@[@T+F+}@|@1@0@T+F+F+T+a@b@4@f <.                                    ",
"                                      r+f@g@h@i@j@k@e l@m@n@e+'@o@p@!@1@0@T+F+F+T+-+q@4@f <.                                    ",
"                                    1 r@s@t@u@v@w@:+e b+x@y@z@A@B@C@D@1@0@T+F+F+T+-+q@4@f <.                                    ",
"                                  K+E@F@G@H@I@J@P.d e b+x@K@z@L@O+z+M@1@0@T+F+F+U.N@O@P@Q@1                                     ",
"                                  R@S@T@U@V@W@X@d r+Y@Z@`@n@e+ #.#+#D@@#0@T+F+F+##$#%#:+r+                                      ",
"                                  Y+&#*#=#-#;#>#e e@,#'#)#!#~#d+{#]#^#/#(#8@8@_#:#<#[#}#                                        ",
"                                  c@|#1#2#3#4#5#6#7#8#9#0#a#b#c#d#e#f#g#F+F+h#7@i#j#k#K+                                        ",
"                                  c@|#1#2#l#m#n#o#p#q#r#s#B+t#u#v#w#x#y#_#z#A#B#C#D#u [                                         ",
"                                  c@|#1#2#E#F#G#H#I#J#K#L#M#N#O#P#Q#R#S#T#U#:#V#W#k@                                            ",
"                                  c@|#1#2#X#Y#Z#`# $.$+$@$#$$$%$&$*$=$-$;$>$,$'$)$M                                             ",
"                                  Y+!$*#2#3#~${${$]$.$^$/$($_$&$&$:$<$[$}$|$1$2$w@M                                             ",
"                                  c@3$1#4$5$6$:.:.7$8$9$0$a$b$&$&$c$d$e$f$g$h$i$w@$                                             ",
"                                  ) j$k$l$m$n$o$p$q$r$s$t$u$v$w$w$&$&$&$w$:$x$y$z$A$$ .                                         ",
"                                  | B$C$D$u@E$F$G$H$9$I$J$K$L$M$M$N$&$&$&$&$O$P$Q$R$S$T$                                        ",
"                                      U$V$W$X$Y$Z$`$ %I$I$.%+%@%#%$%M$:$w$w$%%&%*%=%-%;%:+.                                     ",
"                                      } B$>%,%'%)%!%J$I$~%{%]%^%/%(%_%P$:%<%<%[%<%}%|%1%%+<.                                    ",
"                                        }#[#2%3%4%5%6%s$7%8%#.s+s+9%0%a%b%c%d%d%e%d%f%g%P.<.                                    ",
"                                        }#P.h%i%j%k%l%m%n%o%p%. . N q%r%s%t%u%v%w%x%y%z%f <.                                    ",
"                                        1 + s+A%B%C%D%E%F%G%H%    I%R@J%K%L%M%N%O%P%Q%z%f <.                                    ",
"                                            T$* A%R%S%T%U%' V%      1 Q@W%X%Y%Z%`%`% &.&Q@1                                     ",
"                                            1 T$s+h%+&@&t $ [         }#M M r@#&$&%&&&V%r+                                      ",
"                                                + P.*&k#u }                 K+Y@d@q+c@<.                                        ",
"                                                1 }#& K+[                   . r+& & <+                                          ",
"                                                                                                                                ",
"                                                                                                                                ",
"                                                                                                                                ",
"                                                                                                                                "};
