/* XPM */
static char * player_right_xpm[] = {
"64 64 942 2",
"  	c #785E4E",
". 	c #775D4D",
"+ 	c #72594A",
"@ 	c #6C5446",
"# 	c #6B5345",
"$ 	c #6E5647",
"% 	c #745B4B",
"& 	c #745B4C",
"* 	c #634D40",
"= 	c #4D3B30",
"- 	c #45352B",
"; 	c #46362C",
"> 	c #47362C",
", 	c #554236",
"' 	c #6B5445",
") 	c #735A4B",
"! 	c #695244",
"~ 	c #4F3D33",
"{ 	c #271F1C",
"] 	c #0D0F11",
"^ 	c #161517",
"/ 	c #191A1C",
"( 	c #1C1F20",
"_ 	c #1D2122",
": 	c #1A2022",
"< 	c #1B2022",
"[ 	c #3B322D",
"} 	c #5C493D",
"| 	c #6E5648",
"1 	c #755C4C",
"2 	c #4C3B31",
"3 	c #342926",
"4 	c #161920",
"5 	c #121B23",
"6 	c #18222A",
"7 	c #212D33",
"8 	c #29363B",
"9 	c #2B393E",
"0 	c #32383B",
"a 	c #423934",
"b 	c #564337",
"c 	c #775D4E",
"d 	c #4D3C32",
"e 	c #261E1C",
"f 	c #11151D",
"g 	c #151D27",
"h 	c #19242E",
"i 	c #202D35",
"j 	c #2B3941",
"k 	c #34444B",
"l 	c #38484E",
"m 	c #38494E",
"n 	c #314045",
"o 	c #232A2D",
"p 	c #352922",
"q 	c #5A463A",
"r 	c #715949",
"s 	c #4E3D32",
"t 	c #13161E",
"u 	c #111822",
"v 	c #161E29",
"w 	c #1A252F",
"x 	c #212F37",
"y 	c #2C3C43",
"z 	c #36474D",
"A 	c #3A4B51",
"B 	c #3A4B50",
"C 	c #384A4F",
"D 	c #2E3F44",
"E 	c #072029",
"F 	c #1C140F",
"G 	c #3F3027",
"H 	c #503E33",
"I 	c #523F34",
"J 	c #574337",
"K 	c #675042",
"L 	c #755B4C",
"M 	c #4B3A30",
"N 	c #15171E",
"O 	c #141C25",
"P 	c #141C27",
"Q 	c #212E37",
"R 	c #2C3B42",
"S 	c #36464C",
"T 	c #394A50",
"U 	c #3B4C54",
"V 	c #3F4E59",
"W 	c #434C53",
"X 	c #49453C",
"Y 	c #4E3F25",
"Z 	c #524223",
"` 	c #3C2F1B",
" .	c #35281E",
"..	c #584438",
"+.	c #322824",
"@.	c #0C1218",
"#.	c #0F1720",
"$.	c #121B25",
"%.	c #131B25",
"&.	c #141D27",
"*.	c #18232D",
"=.	c #1F2D35",
"-.	c #2B3B41",
";.	c #35464C",
">.	c #425262",
",.	c #525F78",
"'.	c #716F7A",
").	c #948065",
"!.	c #A68A51",
"~.	c #A98C4E",
"{.	c #9C8149",
"].	c #735E34",
"^.	c #3A2E1C",
"/.	c #544135",
"(.	c #4C3A2F",
"_.	c #28201E",
":.	c #1B1D25",
"<.	c #1A212C",
"[.	c #1B222F",
"}.	c #1C2330",
"|.	c #1F2934",
"1.	c #24313B",
"2.	c #2E3C45",
"3.	c #37474E",
"4.	c #3B4B53",
"5.	c #48566D",
"6.	c #5F6A8C",
"7.	c #8E8692",
"8.	c #C1A57E",
"9.	c #DBB66C",
"0.	c #E0BA6A",
"a.	c #CFAC63",
"b.	c #997F48",
"c.	c #4B3D24",
"d.	c #423229",
"e.	c #141720",
"f.	c #272C3C",
"g.	c #31374B",
"h.	c #33394D",
"i.	c #32384C",
"j.	c #32394D",
"k.	c #333B4E",
"l.	c #363E51",
"m.	c #3A4456",
"n.	c #3E4A5A",
"o.	c #3F4B5B",
"p.	c #404C5D",
"q.	c #47546E",
"r.	c #5A6385",
"s.	c #91858B",
"t.	c #CCAD7E",
"u.	c #EAC373",
"v.	c #EFC772",
"w.	c #DEB86B",
"x.	c #A4884D",
"y.	c #504126",
"z.	c #43342A",
"A.	c #1E1F2B",
"B.	c #33384C",
"C.	c #40455E",
"D.	c #424861",
"E.	c #414760",
"F.	c #424962",
"G.	c #444B63",
"H.	c #424C68",
"I.	c #4B526F",
"J.	c #847772",
"K.	c #C3A570",
"L.	c #E2BD6F",
"M.	c #E8C16F",
"N.	c #D7B367",
"O.	c #9F844B",
"P.	c #4E3E25",
"Q.	c #1D1D27",
"R.	c #2E3346",
"S.	c #3A4057",
"T.	c #3C4259",
"U.	c #3B4158",
"V.	c #3B4058",
"W.	c #3A3F58",
"X.	c #393E57",
"Y.	c #333B56",
"Z.	c #333C55",
"`.	c #685D56",
" +	c #A0875A",
".+	c #BC9C5D",
"++	c #C1A15E",
"@+	c #B39558",
"#+	c #846D3F",
"$+	c #433521",
"%+	c #15141A",
"&+	c #1C212F",
"*+	c #242B3B",
"=+	c #262C3C",
"-+	c #252C3C",
";+	c #252B3C",
">+	c #262B3C",
",+	c #2B2B3C",
"'+	c #312B3C",
")+	c #2F2E3C",
"!+	c #453E3D",
"~+	c #63543F",
"{+	c #726040",
"]+	c #736140",
"^+	c #6A593A",
"/+	c #4C4028",
"(+	c #30261A",
"_+	c #423329",
":+	c #0A0B0F",
"<+	c #0E151E",
"[+	c #141C26",
"}+	c #141D28",
"|+	c #171B27",
"1+	c #191A27",
"2+	c #161826",
"3+	c #1F1C27",
"4+	c #412D2E",
"5+	c #5D3F36",
"6+	c #6B4B3E",
"7+	c #6F5445",
"8+	c #715849",
"9+	c #705849",
"0+	c #665044",
"a+	c #483937",
"b+	c #1C1A26",
"c+	c #000416",
"d+	c #211815",
"e+	c #554136",
"f+	c #44342A",
"g+	c #100E11",
"h+	c #0E151D",
"i+	c #131B26",
"j+	c #151C27",
"k+	c #1A1A26",
"l+	c #1F1726",
"m+	c #181125",
"n+	c #2A1C28",
"o+	c #5F4036",
"p+	c #8A5E47",
"q+	c #9E7155",
"r+	c #A67D60",
"s+	c #A98366",
"t+	c #A98367",
"u+	c #9B775F",
"v+	c #6F5448",
"w+	c #2C1F29",
"x+	c #000012",
"y+	c #251B17",
"z+	c #6D5547",
"A+	c #392C26",
"B+	c #252022",
"C+	c #151923",
"D+	c #171A26",
"E+	c #191B28",
"F+	c #1A1B28",
"G+	c #1F1927",
"H+	c #231627",
"I+	c #1A0E25",
"J+	c #2F1D29",
"K+	c #6B483B",
"L+	c #9B6B50",
"M+	c #B28060",
"N+	c #BC8D6C",
"O+	c #C09473",
"P+	c #C29574",
"Q+	c #B1886A",
"R+	c #80614E",
"S+	c #3A292A",
"T+	c #2A1F1E",
"U+	c #44342B",
"V+	c #5F4A3D",
"W+	c #5C473B",
"X+	c #3E302A",
"Y+	c #18151A",
"Z+	c #181420",
"`+	c #211828",
" @	c #211727",
".@	c #221627",
"+@	c #241527",
"@@	c #1A0D25",
"#@	c #6C483B",
"$@	c #9D6B50",
"%@	c #B48160",
"&@	c #BD8E6D",
"*@	c #C39675",
"=@	c #B2896A",
"-@	c #7F614C",
";@	c #3D2E27",
">@	c #4B3A2F",
",@	c #644E40",
"'@	c #705748",
")@	c #765D4D",
"!@	c #6C5445",
"~@	c #49382E",
"{@	c #170F10",
"]@	c #120917",
"^@	c #1B0E21",
"/@	c #1E1024",
"(@	c #201226",
"_@	c #211226",
":@	c #211327",
"<@	c #170C25",
"[@	c #2E1D29",
"}@	c #9C6B50",
"|@	c #B38060",
"1@	c #BC8D6D",
"2@	c #BD9171",
"3@	c #B58C6D",
"4@	c #A07B5F",
"5@	c #705541",
"6@	c #3C2C23",
"7@	c #594539",
"8@	c #735A4A",
"9@	c #4A392F",
"0@	c #150E0B",
"a@	c #000008",
"b@	c #0E021C",
"c@	c #180923",
"d@	c #1B0D25",
"e@	c #1C0F26",
"f@	c #120825",
"g@	c #2D1C29",
"h@	c #B38160",
"i@	c #BC8E6D",
"j@	c #B38A6B",
"k@	c #957359",
"l@	c #483628",
"m@	c #33261D",
"n@	c #5B473A",
"o@	c #6C5546",
"p@	c #4A392E",
"q@	c #251B13",
"r@	c #3C2C20",
"s@	c #4E3A2D",
"t@	c #543E35",
"u@	c #553E39",
"v@	c #533B37",
"w@	c #4F3432",
"x@	c #41282D",
"y@	c #3F252C",
"z@	c #6F493C",
"A@	c #B37F5F",
"B@	c #BA8A6A",
"C@	c #AD8364",
"D@	c #83614A",
"E@	c #4F3727",
"F@	c #2A1A10",
"G@	c #2E221B",
"H@	c #403024",
"I@	c #735843",
"J@	c #927056",
"K@	c #98755C",
"L@	c #96725B",
"M@	c #926B54",
"N@	c #895F49",
"O@	c #744B3C",
"P@	c #5F3732",
"Q@	c #774B3C",
"R@	c #9E6B4F",
"S@	c #B07B5B",
"T@	c #AC7C5D",
"U@	c #976A4E",
"V@	c #7A523B",
"W@	c #4F3323",
"X@	c #2F221B",
"Y@	c #503C2E",
"Z@	c #906F55",
"`@	c #B58C6C",
" #	c #BD9271",
".#	c #B98E6E",
"+#	c #B48565",
"@#	c #A87658",
"##	c #8F5D47",
"$#	c #724237",
"%#	c #7F503F",
"&#	c #A16F53",
"*#	c #B17D5C",
"=#	c #B07C5C",
"-#	c #AD7A5A",
";#	c #9E6E51",
">#	c #77523B",
",#	c #4F3729",
"'#	c #5B4538",
")#	c #6F5748",
"!#	c #765C4C",
"~#	c #503D2E",
"{#	c #957258",
"]#	c #BC9171",
"^#	c #C49776",
"/#	c #C09372",
"(#	c #BA8A69",
"_#	c #AE7A5A",
":#	c #946048",
"<#	c #764438",
"[#	c #855746",
"}#	c #A87A5D",
"|#	c #B78767",
"1#	c #B88767",
"2#	c #B98867",
"3#	c #B08162",
"4#	c #9A6E52",
"5#	c #7F5740",
"6#	c #694A38",
"7#	c #5D4739",
"8#	c #695243",
"9#	c #6A5244",
"0#	c #4E3A2E",
"a#	c #5D4534",
"b#	c #987459",
"c#	c #BB9070",
"d#	c #C29675",
"e#	c #BF9271",
"f#	c #B98A69",
"g#	c #AE7B5C",
"h#	c #94614A",
"i#	c #76463A",
"j#	c #885D4B",
"k#	c #AF8366",
"l#	c #BB8D6C",
"m#	c #B18061",
"n#	c #9E6D50",
"o#	c #744F39",
"p#	c #453226",
"q#	c #654E41",
"r#	c #61483A",
"s#	c #6C4A38",
"t#	c #855E46",
"u#	c #BD9170",
"v#	c #C19574",
"w#	c #BF9372",
"x#	c #BD8F6E",
"y#	c #9A6B52",
"z#	c #784A3D",
"A#	c #895F4C",
"B#	c #B08668",
"C#	c #C09574",
"D#	c #BE906F",
"E#	c #B78564",
"F#	c #A57254",
"G#	c #775039",
"H#	c #3C291E",
"I#	c #563C2C",
"J#	c #875C43",
"K#	c #A67658",
"L#	c #B68768",
"M#	c #BE9271",
"N#	c #C09472",
"O#	c #BB8E6E",
"P#	c #A0745B",
"Q#	c #7A4E41",
"R#	c #895E4C",
"S#	c #B08568",
"T#	c #BD906F",
"U#	c #B68464",
"V#	c #A47153",
"W#	c #3E2B20",
"X#	c #523929",
"Y#	c #92694F",
"Z#	c #B48464",
"`#	c #BE9272",
" $	c #A3785F",
".$	c #7C5042",
"+$	c #685143",
"@$	c #46352B",
"#$	c #5E4635",
"$$	c #9A755A",
"%$	c #C19573",
"&$	c #A0765D",
"*$	c #7B4F41",
"=$	c #885E4C",
"-$	c #AF8467",
";$	c #C09373",
">$	c #B68463",
",$	c #674F40",
"'$	c #6E5541",
")$	c #876750",
"!$	c #A98265",
"~$	c #BE9372",
"{$	c #B78C6D",
"]$	c #A97E63",
"^$	c #8F6551",
"/$	c #74473C",
"($	c #865948",
"_$	c #AB7D61",
":$	c #BA8B6B",
"<$	c #BA8C6B",
"[$	c #BA8B6A",
"}$	c #B88867",
"|$	c #A37152",
"1$	c #6A5344",
"2$	c #4F3D32",
"3$	c #654E3C",
"4$	c #947257",
"5$	c #AF8768",
"6$	c #BA8F6F",
"7$	c #BF9473",
"8$	c #A67C61",
"9$	c #875D4B",
"0$	c #704239",
"a$	c #693833",
"b$	c #825341",
"c$	c #A47256",
"d$	c #B27E5E",
"e$	c #B27F5F",
"f$	c #B27F5E",
"g$	c #B17D5D",
"h$	c #A37052",
"i$	c #77513A",
"j$	c #372A23",
"k$	c #3A2C26",
"l$	c #4F3E34",
"m$	c #695245",
"n$	c #654F41",
"o$	c #3D2F26",
"p$	c #654D3A",
"q$	c #A27D60",
"r$	c #AA7F64",
"s$	c #906551",
"t$	c #6D3F37",
"u$	c #5B2529",
"v$	c #632F2D",
"w$	c #804F3E",
"x$	c #A16C50",
"y$	c #AF7A5A",
"z$	c #B17C5B",
"A$	c #765C4D",
"B$	c #614B3E",
"C$	c #352822",
"D$	c #202333",
"E$	c #343950",
"F$	c #494656",
"G$	c #5C4C4B",
"H$	c #745A4B",
"I$	c #3D2E25",
"J$	c #A37D61",
"K$	c #BF9373",
"L$	c #BB8F6F",
"M$	c #A57B60",
"N$	c #73453B",
"O$	c #64322F",
"P$	c #5C2629",
"Q$	c #804E3D",
"R$	c #A06C50",
"S$	c #B98969",
"T$	c #B48161",
"U$	c #A37153",
"V$	c #362A26",
"W$	c #363B52",
"X$	c #545B7C",
"Y$	c #595E7E",
"Z$	c #4C4859",
"`$	c #4F3E35",
" %	c #3E2F26",
".%	c #B98D6E",
"+%	c #996F58",
"@%	c #6F4138",
"#%	c #5E282A",
"$%	c #602C2C",
"%%	c #5E2A2B",
"&%	c #622F2D",
"*%	c #79483A",
"=%	c #95624A",
"-%	c #A87759",
";%	c #B68667",
">%	c #B48261",
",%	c #675143",
"'%	c #4C3C33",
")%	c #4A475A",
"!%	c #5B6181",
"~%	c #5B6286",
"{%	c #484F6C",
"]%	c #464251",
"^%	c #5B4B48",
"/%	c #6C5447",
"(%	c #B88D6E",
"_%	c #986D57",
":%	c #6C3D36",
"<%	c #5B2428",
"[%	c #5F2B2C",
"}%	c #612D2D",
"|%	c #6B3932",
"1%	c #7B4A3B",
"2%	c #91614A",
"3%	c #A8775A",
"4%	c #B48262",
"5%	c #B58363",
"6%	c #77503A",
"7%	c #564236",
"8%	c #685144",
"9%	c #5B4C4D",
"0%	c #4D4B5D",
"a%	c #4B5270",
"b%	c #565D7F",
"c%	c #585D7D",
"d%	c #4F4B5C",
"e%	c #514039",
"f%	c #986E57",
"g%	c #6E3F37",
"h%	c #5D2629",
"i%	c #602B2C",
"j%	c #63302E",
"k%	c #79483B",
"l%	c #95634A",
"m%	c #A36F52",
"n%	c #A47053",
"o%	c #A67153",
"p%	c #AB7556",
"q%	c #A26F51",
"r%	c #78513A",
"s%	c #4D3C31",
"t%	c #392D2B",
"u%	c #3C415A",
"v%	c #5F668B",
"w%	c #646C92",
"x%	c #464C68",
"y%	c #372D2E",
"z%	c #5D493C",
"A%	c #996E58",
"B%	c #5F2A2B",
"C%	c #6A3832",
"D%	c #845240",
"E%	c #8D5A45",
"F%	c #A06B4F",
"G%	c #A06D50",
"H%	c #79523B",
"I%	c #372419",
"J%	c #352820",
"K%	c #48382D",
"L%	c #4E3C31",
"M%	c #261C16",
"N%	c #393E56",
"O%	c #60688D",
"P%	c #656D95",
"Q%	c #464C69",
"R%	c #31292C",
"S%	c #B78A6B",
"T%	c #976C55",
"U%	c #6D3E37",
"V%	c #5D2729",
"W%	c #622E2D",
"X%	c #64312E",
"Y%	c #65322F",
"Z%	c #77473A",
"`%	c #9A684E",
" &	c #A27154",
".&	c #7C563F",
"+&	c #332116",
"@&	c #0E0906",
"#&	c #1B130E",
"$&	c #1E1510",
"%&	c #1D140F",
"&&	c #160D09",
"*&	c #120C0B",
"=&	c #3C4058",
"-&	c #656D94",
";&	c #342B2C",
">&	c #5D483B",
",&	c #3C2E25",
"'&	c #BB8C6B",
")&	c #AF8061",
"!&	c #91634D",
"~&	c #6C3B34",
"{&	c #5D282A",
"]&	c #5C272A",
"^&	c #75473B",
"/&	c #9F7158",
"(&	c #AB7E60",
"_&	c #836149",
":&	c #37261B",
"<&	c #000000",
"[&	c #1E140F",
"}&	c #211611",
"|&	c #201611",
"1&	c #1E1102",
"2&	c #211713",
"3&	c #414359",
"4&	c #62688D",
"5&	c #664D3B",
"6&	c #9D795D",
"7&	c #B88E6E",
"8&	c #BE9170",
"9&	c #AB785A",
"0&	c #8E5D48",
"a&	c #6B3933",
"b&	c #5E292B",
"c&	c #76493D",
"d&	c #9E735B",
"e&	c #A88063",
"f&	c #81624B",
"g&	c #37281D",
"h&	c #030103",
"i&	c #261A14",
"j&	c #291D16",
"k&	c #27190B",
"l&	c #291D18",
"m&	c #45455A",
"n&	c #62698D",
"o&	c #604A3D",
"p&	c #664F3E",
"q&	c #80614B",
"r&	c #9A765B",
"s&	c #BE8F6E",
"t&	c #B28263",
"u&	c #93654E",
"v&	c #6C3C35",
"w&	c #5F2B2B",
"x&	c #6A3E36",
"y&	c #805C49",
"z&	c #84644D",
"A&	c #634C39",
"B&	c #281D14",
"C&	c #040202",
"D&	c #1D130E",
"E&	c #1F1510",
"F&	c #1C1001",
"G&	c #201613",
"H&	c #61688D",
"I&	c #534032",
"J&	c #6A503D",
"K&	c #9C785D",
"L&	c #BC9070",
"M&	c #B28668",
"N&	c #936953",
"O&	c #5C2D2B",
"P&	c #513028",
"Q&	c #423024",
"R&	c #31251B",
"S&	c #211711",
"T&	c #201711",
"U&	c #201712",
"V&	c #1F1711",
"W&	c #170F0B",
"X&	c #403023",
"Y&	c #785B46",
"Z&	c #937157",
"`&	c #98755A",
" *	c #916E55",
".*	c #7E5846",
"+*	c #663732",
"@*	c #612C2C",
"#*	c #582727",
"$*	c #381316",
"%*	c #150E0A",
"&*	c #3A2C23",
"**	c #4C3B30",
"=*	c #503D32",
"-*	c #513E33",
";*	c #271D17",
">*	c #656E95",
",*	c #2A1F16",
"'*	c #3F2E22",
")*	c #4E3A2C",
"!*	c #513D2D",
"~*	c #533B2D",
"{*	c #59352D",
"]*	c #5F2E2C",
"^*	c #5F2C2C",
"/*	c #562727",
"(*	c #3C1919",
"_*	c #31221C",
":*	c #6D5546",
"<*	c #3A2F2E",
"[*	c #3C415B",
"}*	c #5E668B",
"|*	c #636B92",
"1*	c #474C68",
"2*	c #382E2E",
"3*	c #5E493C",
"4*	c #43332A",
"5*	c #220208",
"6*	c #3A1317",
"7*	c #4F2223",
"8*	c #5D2A2A",
"9*	c #542626",
"0*	c #4D2725",
"a*	c #493029",
"b*	c #523E33",
"c*	c #675043",
"d*	c #5B4C4E",
"e*	c #4E4D61",
"f*	c #4D5372",
"g*	c #565D7E",
"h*	c #565B7A",
"i*	c #504B5B",
"j*	c #53423A",
"k*	c #624D3F",
"l*	c #251310",
"m*	c #3F191A",
"n*	c #532425",
"o*	c #5B2929",
"p*	c #572727",
"q*	c #411C1C",
"r*	c #3E2721",
"s*	c #594337",
"t*	c #4A3A32",
"u*	c #48475A",
"v*	c #5C6182",
"w*	c #5B6386",
"x*	c #484E6B",
"y*	c #45404E",
"z*	c #5C4B46",
"A*	c #6D5548",
"B*	c #48342B",
"C*	c #4A2A26",
"D*	c #522625",
"E*	c #5A2929",
"F*	c #5E2B2C",
"G*	c #59292B",
"H*	c #4B2225",
"I*	c #301315",
"J*	c #34261F",
"K*	c #352A25",
"L*	c #353A51",
"M*	c #52597A",
"N*	c #4D4858",
"O*	c #513F35",
"P*	c #644D40",
"Q*	c #4D372E",
"R*	c #3D1F1C",
"S*	c #4D2222",
"T*	c #4C2429",
"U*	c #3A1C23",
"V*	c #220F14",
"W*	c #33261F",
"X*	c #362922",
"Y*	c #1E2130",
"Z*	c #32364C",
"`*	c #494453",
" =	c #5E4D4A",
".=	c #2B1915",
"+=	c #451E1E",
"@=	c #5C2A2A",
"#=	c #4D2326",
"$=	c #3F1F27",
"%=	c #2E1822",
"&=	c #1A0C13",
"*=	c #3B2D25",
"==	c #3D2E26",
"-=	c #513E34",
";=	c #6A5345",
">=	c #2A1915",
",=	c #441D1D",
"'=	c #552626",
")=	c #35171B",
"!=	c #331A23",
"~=	c #2D1721",
"{=	c #1B0C14",
"]=	c #4F2323",
"^=	c #2E1212",
"/=	c #180B11",
"(=	c #27151F",
"_=	c #291620",
":=	c #190C13",
"<=	c #2B1010",
"[=	c #09070E",
"}=	c #19121C",
"|=	c #1D131D",
"1=	c #110A11",
"2=	c #612D2C",
"3=	c #2D1111",
"4=	c #05070D",
"5=	c #0B0F19",
"6=	c #0F111B",
"7=	c #07080F",
"8=	c #32261E",
"9=	c #622D2D",
"0=	c #5F2C2B",
"a=	c #502323",
"b=	c #03060D",
"c=	c #070F19",
"d=	c #0C101A",
"e=	c #05080F",
"f=	c #30241D",
"g=	c #411C1D",
"h=	c #582829",
"i=	c #5D2B2C",
"j=	c #5C2A2C",
"k=	c #5C2B2C",
"l=	c #5A292B",
"m=	c #4B2122",
"n=	c #2A1011",
"o=	c #03060B",
"p=	c #070E17",
"q=	c #13131B",
"r=	c #1F1818",
"s=	c #3E3027",
"t=	c #211312",
"u=	c #33161C",
"v=	c #452028",
"w=	c #49232A",
"x=	c #49222A",
"y=	c #482229",
"z=	c #3B1B21",
"A=	c #200C10",
"B=	c #020306",
"C=	c #03070E",
"D=	c #261E1D",
"E=	c #47372E",
"F=	c #5D483C",
"G=	c #2D211C",
"H=	c #22121C",
"I=	c #2B1725",
"J=	c #2D1827",
"K=	c #2E1828",
"L=	c #24121F",
"M=	c #12070F",
"N=	c #070504",
"O=	c #19120E",
"P=	c #513F34",
"Q=	c #392B27",
"R=	c #1D121D",
"S=	c #1C1021",
"T=	c #211426",
"U=	c #231528",
"V=	c #211427",
"W=	c #1A0F1F",
"X=	c #0B050E",
"Y=	c #5C483B",
"Z=	c #6F5648",
"`=	c #523F35",
" -	c #2D211E",
".-	c #1B0F1B",
"+-	c #221424",
"@-	c #231527",
"#-	c #221425",
"$-	c #1C101E",
"%-	c #1E1316",
"&-	c #403128",
"*-	c #624C3F",
"=-	c #664F41",
"--	c #503D33",
";-	c #392A27",
">-	c #22161E",
",-	c #1B0E1D",
"'-	c #1A0E1D",
")-	c #2E2123",
"!-	c #45352D",
"~-	c #544136",
"{-	c #2E211E",
"]-	c #0A040C",
"^-	c #1C1314",
"/-	c #43332B",
"                                                                                                                                ",
"                                            . + @ # # # # # # # # $ %                                                           ",
"                                            & * = - ; > > > > ; ; , '                                                           ",
"                                        . ) ! ~ { ] ^ / ( _ _ : < [ } | 1                                                       ",
"                                        % * 2 3 4 5 6 7 8 9 9 9 9 0 a b # c                                                     ",
"                                    . % ! d e f g h i j k l l m l n o p q $ r r % .                                             ",
"                                    ) * s 3 t u v w x y z A A B C D E F G H I J K L                                             ",
"                                . L ! M e N O P v w Q R S T T U V W X Y Z Y `  ...+                                             ",
"                                r * H +.@.#.$.%.&.*.=.-.;.C T >.,.'.).!.~.{.].^./.+                                             ",
"                                # (._.:.<.[.[.[.}.|.1.2.3.T 4.5.6.7.8.9.0.a.b.c., +                                             ",
"                                ! d.e.f.g.h.i.i.j.k.l.m.n.o.p.q.r.s.t.u.v.w.x.y., +                                             ",
"                                ! z.A.B.C.D.E.E.E.E.D.F.G.G.G.H.I.J.K.L.M.N.O.P., +                                             ",
"                                ! z.Q.R.S.T.U.U.U.U.U.U.V.W.X.Y.Z.`. +.+++@+#+$+, +                                             ",
"                                ! z.%+&+*+=+-+-+-+;+;+;+>+,+'+'+)+!+~+{+]+^+/+(+, +                                             ",
"                                ! _+:+<+[+}+P P P |+1+2+3+4+5+6+7+8+9+0+a+b+c+d+e++                                             ",
"                                ! f+g+h+i+P P P j+k+l+m+n+o+p+q+r+s+t+u+v+w+x+y+, +                                             ",
"                                z+e+A+B+C+D+E+E+F+G+H+I+J+K+L+M+N+O+P+Q+R+S+T+U+V+)                                             ",
"                                % @ W+X+Y+Z+l+`+ @.@+@@@J+#@$@%@&@P+*@=@-@;@>@,@'@)@                                            ",
"                                    !@~@{@]@^@/@(@_@:@<@[@K+}@|@1@2@3@4@5@6@7@8@                                                ",
"                                    z+9@0@a@x+b@c@d@e@f@g@K+}@h@i@j@k@5@l@m@n@&                                                 ",
"                                    o@p@q@r@s@t@u@v@w@x@y@z@}@A@B@C@D@E@F@G@q %                                                 ",
"                                    o@p@H@I@J@K@L@M@N@O@P@Q@R@S@%@T@U@V@W@X@n@L                                                 ",
"                                    o@p@Y@Z@`@ #.#+#@###$#%#&#S@*#=#-#;#>#,#'#)#!#c                                             ",
"                                    z+9@~#{#]#^#/#(#_#:#<#[#}#|#1#|#2#3#4#5#6#7#8#L                                             ",
"                                c 1 9#0#a#b#c#d#e#f#g#h#i#j#k#e#e#e#e#l#m#n#o#p#7@+                                             ",
"                                + q#r#s#t#r+u#v#w#x#+#y#z#A#B#v#v#C#v#D#E#F#G#H#/.+                                             ",
"                                ' = I#J#K#L#M#v#O+N#O#P#Q#R#S#O+v#O+O+T#U#V#G#W#, +                                             ",
"                                9#_+X#Y#Z#x#w#O+O+d#`# $.$R#S#v#v#C#v#T#U#V#G#W#, +                                             ",
"                              . +$@$#$$$O#/#O+O+O+%$c#&$*$=$-$/#O+;$O+x#>$V#G#W#, +       . )@)@.                               ",
"                            8@! ,$'$)$!$~$v#O+v#w#{$]$^$/$($_$:$<$[$:$}$|@|$G#W#, +     8++$* * ! 8@                            ",
"                          . 1$2$3$4$5$6$7$O+O+%$c#8$9$0$a$b$c$d$e$d$f$g$S@h$i$W#, +   )@K >@j$k$l$m$.                           ",
"                          . n$o$p$q$w#P+O+O+`#{$r$s$t$u$v$w$x$y$d$|@|@e$z$h$i$W#, +   A$B$C$D$E$F$G$1$H$                        ",
"                          . n$I$p$J$K$P+O+v#L$M$=$N$O$P$v$Q$R$g$1#l#l#S$T$U$G#W#, +   A$B$V$W$X$Y$Z$`$8#.                       ",
"                          . n$ %p$q$~$v#O+v#.%+%@%#%$%%%&%*%=%-%;%i@x#[$>%U$G#W#, +   . ,%'%)%!%~%{%]%^%/%H$c                   ",
"                          . n$ %p$q$~$v#O+v#(%_%:%<%[%[%}%|%1%2%3%4%5%%@*#h$6%W#7%+     + 8%9%0%a%b%c%d%e%K !#                  ",
"                          . n$ %p$q$~$v#O+v#.%f%g%h%$%$%$%i%j%k%l%m%n%o%p%q%r%H#s%+$)#$ $ @ n@t%u%v%w%x%y%z%L                   ",
"                          . n$ %p$q$~$v#O+v#.%A%g%h%$%$%$%B%B%C%1%D%D%E%F%G%H%I%J%K%s%= L%s%d.M%N%O%P%Q%R%W+&                   ",
"                          . n$ %p$q$w#P+O+/#S%T%U%V%$%$%$%$%$%W%X%Y%X%Z%`% &.&+&@&#&$&%&$&%&&&*&=&O%-&Q%;&>&&                   ",
"                          . n$,&p$J$O+d#e#'&)&!&~&{&$%$%$%$%$%[%%%]&P$^&/&(&_&:&<&[&}&|&|&|&1&2&3&4&-&Q%;&>&&                   ",
"                          . K @$5&6&7&w#8&}$9&0&a&{&$%$%$%$%$%$%$%B%b&c&d&e&f&g&h&i&j&j&j&j&k&l&m&n&-&Q%;&>&&                   ",
"                            )#o&p&q&r&=@e#s&t&u&v&{&$%$%$%$%$%$%$%i%w&x&y&z&A&B&C&D&E&E&E&E&F&G&3&H&-&Q%;&>&&                   ",
"                            . ) K I&J&K&(%L&M&N&:%V%$%$%$%$%$%$%$%$%$%O&P&Q&R&S&%&T&U&U&U&V&W&*&=&O%-&Q%;&>&&                   ",
"                                9#_+X&Y&Z&`& *.*+*b&$%$%$%$%$%$%$%@*}%#*$*%*&***H =*=*=*-*H f+;*N%O%>*Q%R%W+&                   ",
"                                1$; ,*'*)*!*~*{*]*$%$%$%$%$%$%$%$%$%^*/*(*_*, ' 9+)#)#)#)#:*W+<*[*}*|*1*2*3*L                   ",
"                                )#n@4*;*<&5*6*7*8*@*$%$%$%$%$%$%$%8*9*0*a*b*K A$        + c*d*e*f*g*h*i*j*+$!#                  ",
"                                !#9+k*4*l*m*n*o*w&$%$%$%$%$%$%$%$%p*q*r*s*@ %         . K t*u*v*w*x*y*z*A*% c                   ",
"                                    9+n@B*C*D*E*w&$%$%$%$%$%$%F*G*H*I*J*V+!#          !#B$K*L*M*c%N*O*! .                       ",
"                                    A$'@P*Q*R*S*8*@*$%$%$%$%$%G*T*U*V*W*V+!#          !#B$X*Y*Z*`* =' %                         ",
"                                        )#2$.=+=@=@*$%$%$%@=/*#=$=%=&=W*V+1           )@,%= *===-=;=.                           ",
"                                        9+H >=,=@=@*$%@*^*'=q*)=!=~={=W*V+1           c + ! n$n$# )                             ",
"                                        )#=*.=+=@=@*$%@*w&]=^=/=(=_=:=W*V+1               . . . c                               ",
"                                        )#=*.=+=@=@*$%@*w&]=<=[=}=|=1=W*V+1                                                     ",
"                                        )#=*.=+=@=2=$%@*w&]=3=4=5=6=7=8=V+1                                                     ",
"                                        )#=*.=+=@=9=@*9=0=a=3=b=c=d=e=f=3*1                                                     ",
"                                        )#=*>=g=h=i=j=k=l=m=n=o=p=q=r=s=k*!#                                                    ",
"                                        )#L%t=u=v=w=x=x=y=z=A=B=C=D=E=F=z+.                                                     ",
"                                        9+/.G=H=I=J=J=K=J=L=M=N=O=G B$+ .                                                       ",
"                                        H$n$P=Q=R=S=T=U=V=W=X=M%@$Y=Z=                                                          ",
"                                        . L ' `= -.-+-@-#-$-%-&-*-+ )@                                                          ",
"                                            1 =---;->-,-'-)-!-W+)#                                                              ",
"                                            . % ' ~-{-]-^-/-* 8+A$                                                              ",
"                                                !#=-2$f+K%n@9+                                                                  ",
"                                                c 8@:*;=' '@!#                                                                  ",
"                                                                                                                                "};
