/* XPM */
static char * player_left3_xpm[] = {
"64 64 679 2",
"  	c #785E4E",
". 	c #765C4C",
"+ 	c #745B4B",
"@ 	c #755B4C",
"# 	c #775D4D",
"$ 	c #634D3F",
"% 	c #544135",
"& 	c #534035",
"* 	c #534034",
"= 	c #5C473B",
"- 	c #705849",
"; 	c #695345",
"> 	c #483A32",
", 	c #202020",
"' 	c #1D1E1F",
") 	c #1F2020",
"! 	c #1D1C1C",
"~ 	c #1A1717",
"{ 	c #131112",
"] 	c #362A23",
"^ 	c #604B3E",
"/ 	c #735A4A",
"( 	c #765D4D",
"_ 	c #634D40",
": 	c #35383A",
"< 	c #2D3B40",
"[ 	c #2D3C40",
"} 	c #2C3A3F",
"| 	c #253238",
"1 	c #19252C",
"2 	c #131C24",
"3 	c #1E1C21",
"4 	c #3D2F29",
"5 	c #5A4639",
"6 	c #72594A",
"7 	c #6D5546",
"8 	c #6B5345",
"9 	c #665042",
"0 	c #4A392E",
"a 	c #15191D",
"b 	c #2A3A3F",
"c 	c #38494F",
"d 	c #394A50",
"e 	c #2F3F46",
"f 	c #212F38",
"g 	c #19242E",
"h 	c #131B25",
"i 	c #0B1119",
"j 	c #3B2E27",
"k 	c #614B3E",
"l 	c #715849",
"m 	c #4B3A2F",
"n 	c #3B2D24",
"o 	c #3C2E24",
"p 	c #2B1F16",
"q 	c #1B1F1D",
"r 	c #303D42",
"s 	c #3A4A51",
"t 	c #3A4B51",
"u 	c #222F38",
"v 	c #151D28",
"w 	c #121A24",
"x 	c #1F1D21",
"y 	c #382C26",
"z 	c #5A463A",
"A 	c #735A4B",
"B 	c #372A20",
"C 	c #5D4C29",
"D 	c #89713F",
"E 	c #927842",
"F 	c #8A744D",
"G 	c #6D686A",
"H 	c #4E5B70",
"I 	c #3F4F5B",
"J 	c #394A4F",
"K 	c #2F3F45",
"L 	c #202F37",
"M 	c #18232C",
"N 	c #141C27",
"O 	c #131B26",
"P 	c #101821",
"Q 	c #0B1016",
"R 	c #3E3029",
"S 	c #5F4A3D",
"T 	c #6F5748",
"U 	c #3F3123",
"V 	c #907743",
"W 	c #CFAC63",
"X 	c #DDB768",
"Y 	c #CEAD71",
"Z 	c #9D8F8C",
"` 	c #626C8D",
" .	c #465569",
"..	c #394950",
"+.	c #304048",
"@.	c #24313B",
"#.	c #1D2732",
"$.	c #1A212D",
"%.	c #19202D",
"&.	c #19202C",
"*.	c #171E2A",
"=.	c #1E1D23",
"-.	c #352922",
";.	c #5E493C",
">.	c #765C4D",
",.	c #413324",
"'.	c #9D8249",
").	c #E1BB6C",
"!.	c #F0C872",
"~.	c #DFBB77",
"{.	c #A49286",
"].	c #5D6485",
"^.	c #47526C",
"/.	c #404C5C",
"(.	c #404C5D",
"_.	c #3C4759",
":.	c #384054",
"<.	c #353C51",
"[.	c #343A4F",
"}.	c #353B50",
"|.	c #343A4E",
"1.	c #272C3C",
"2.	c #1E191D",
"3.	c #584438",
"4.	c #3F3124",
"5.	c #937945",
"6.	c #D3B066",
"7.	c #D1AE6B",
"8.	c #93806A",
"9.	c #494E68",
"0.	c #414964",
"a.	c #434962",
"b.	c #424962",
"c.	c #424861",
"d.	c #424761",
"e.	c #414761",
"f.	c #414760",
"g.	c #31364A",
"h.	c #241F23",
"i.	c #594539",
"j.	c #3A2C22",
"k.	c #665432",
"l.	c #957C4B",
"m.	c #9E844F",
"n.	c #917A4D",
"o.	c #635749",
"p.	c #2A3247",
"q.	c #2B3049",
"r.	c #30334A",
"s.	c #31364B",
"t.	c #31374B",
"u.	c #32384C",
"v.	c #252939",
"w.	c #221B1D",
"x.	c #342720",
"y.	c #181618",
"z.	c #312B2B",
"A.	c #4F4038",
"B.	c #5F4C40",
"C.	c #5E4B41",
"D.	c #5A453E",
"E.	c #563D38",
"F.	c #473132",
"G.	c #29232C",
"H.	c #181D2A",
"I.	c #1A1E2B",
"J.	c #191E2B",
"K.	c #171F2B",
"L.	c #171F2A",
"M.	c #10161F",
"N.	c #1E1714",
"O.	c #000011",
"P.	c #30222B",
"Q.	c #7B5E4E",
"R.	c #A07C62",
"S.	c #A68065",
"T.	c #A27A5F",
"U.	c #996C52",
"V.	c #7C5441",
"W.	c #422C2D",
"X.	c #161124",
"Y.	c #1E1726",
"Z.	c #191A26",
"`.	c #141C26",
" +	c #131C26",
".+	c #0D131C",
"++	c #1D1614",
"@+	c #6C5446",
"#+	c #4F3D32",
"$+	c #302420",
"%+	c #402E2C",
"&+	c #927058",
"*+	c #BD9271",
"=+	c #C29674",
"-+	c #BD8F6E",
";+	c #B27F5E",
">+	c #90624A",
",+	c #4C3231",
"'+	c #130925",
")+	c #1D1126",
"!+	c #151326",
"~+	c #0E1526",
"{+	c #0D1526",
"]+	c #0E1624",
"^+	c #131822",
"/+	c #292323",
"(+	c #45352C",
"_+	c #6E5647",
":+	c #554236",
"<+	c #423128",
"[+	c #906E55",
"}+	c #BC9171",
"|+	c #B27E5E",
"1+	c #4E3231",
"2+	c #201126",
"3+	c #2D1C29",
"4+	c #2E1F2A",
"5+	c #2E202B",
"6+	c #2E212B",
"7+	c #261B24",
"8+	c #191417",
"9+	c #47372E",
"0+	c #695244",
"a+	c #412F23",
"b+	c #89654C",
"c+	c #B68868",
"d+	c #BF9271",
"e+	c #B17E5F",
"f+	c #93624A",
"g+	c #5E3933",
"h+	c #5C3933",
"i+	c #755040",
"j+	c #7E5C4B",
"k+	c #836351",
"l+	c #6E5343",
"m+	c #382921",
"n+	c #503D32",
"o+	c #3E2C20",
"p+	c #815941",
"q+	c #AE7C5C",
"r+	c #BB8C6B",
"s+	c #BB8D6C",
"t+	c #B17E5E",
"u+	c #96634A",
"v+	c #704036",
"w+	c #835240",
"x+	c #A47255",
"y+	c #B18465",
"z+	c #B78D6E",
"A+	c #B88E6F",
"B+	c #9E795E",
"C+	c #5F4635",
"D+	c #503C30",
"E+	c #705748",
"F+	c #775D4E",
"G+	c #3D2A1F",
"H+	c #80563D",
"I+	c #AA7656",
"J+	c #B48161",
"K+	c #B48262",
"L+	c #AF7A5A",
"M+	c #97634A",
"N+	c #734237",
"O+	c #8A5742",
"P+	c #AC7858",
"Q+	c #BB8B6A",
"R+	c #C29574",
"S+	c #B28768",
"T+	c #8F664C",
"U+	c #6F4D39",
"V+	c #5D4638",
"W+	c #6A5244",
"X+	c #835B42",
"Y+	c #AC795A",
"Z+	c #B27D5D",
"`+	c #B17D5D",
" @	c #B07C5C",
".@	c #99674E",
"+@	c #744338",
"@@	c #8B5A45",
"#@	c #AE7B5C",
"$@	c #C09473",
"%@	c #BB8D6D",
"&@	c #AF7E5E",
"*@	c #875E45",
"=@	c #463125",
"-@	c #5B463A",
";@	c #402F24",
">@	c #8A664E",
",@	c #BA8B6A",
"'@	c #B98A6A",
")@	c #A1745A",
"!@	c #77493D",
"~@	c #91644F",
"{@	c #BF9170",
"]@	c #C09271",
"^@	c #BA8C6B",
"/@	c #926C52",
"(@	c #453225",
"_@	c #423126",
":@	c #8F6D54",
"<@	c #C19574",
"[@	c #C19573",
"}@	c #A57B61",
"|@	c #794D40",
"1@	c #956B55",
"2@	c #BB9070",
"3@	c #BE9272",
"4@	c #967359",
"5@	c #483629",
"6@	c #BE9372",
"7@	c #977359",
"8@	c #644E40",
"9@	c #614C3E",
"0@	c #675042",
"a@	c #8A664D",
"b@	c #BB8B6B",
"c@	c #A07359",
"d@	c #76483D",
"e@	c #946A55",
"f@	c #745B4C",
"g@	c #5E4A40",
"h@	c #3A2F2F",
"i@	c #2A2120",
"j@	c #43332A",
"k@	c #3E2C21",
"l@	c #835C43",
"m@	c #AD7A5B",
"n@	c #9A684F",
"o@	c #794B3E",
"p@	c #986E57",
"q@	c #BC9070",
"r@	c #5D483C",
"s@	c #534D5C",
"t@	c #4B506E",
"u@	c #32374D",
"v@	c #312622",
"w@	c #402E23",
"x@	c #87624A",
"y@	c #B38363",
"z@	c #B88766",
"A@	c #AE7A5A",
"B@	c #9C7058",
"C@	c #AB8165",
"D@	c #BE9271",
"E@	c #BF9473",
"F@	c #977459",
"G@	c #473528",
"H@	c #614C42",
"I@	c #413B44",
"J@	c #505575",
"K@	c #60688C",
"L@	c #494D67",
"M@	c #3E312C",
"N@	c #715949",
"O@	c #403024",
"P@	c #8D6A51",
"Q@	c #B98D6D",
"R@	c #B28060",
"S@	c #B38262",
"T@	c #BA8D6D",
"U@	c #B78D6D",
"V@	c #917056",
"W@	c #4E3B2E",
"X@	c #5D483B",
"Y@	c #504A58",
"Z@	c #555A7A",
"`@	c #535A7A",
" #	c #4E526D",
".#	c #584D55",
"+#	c #5C483D",
"@#	c #4D3B31",
"##	c #3C2E25",
"$#	c #38271C",
"%#	c #88634A",
"&#	c #B38263",
"*#	c #B88665",
"=#	c #B78665",
"-#	c #B88868",
";#	c #BC8E6D",
">#	c #C09472",
",#	c #C19473",
"'#	c #B2896A",
")#	c #8E6D54",
"!#	c #715644",
"~#	c #644D3F",
"{#	c #6D5547",
"]#	c #6A5345",
"^#	c #3E3028",
"/#	c #444A66",
"(#	c #666E95",
"_#	c #545B7D",
":#	c #2F2C37",
"<#	c #403127",
"[#	c #170F0B",
"}#	c #070403",
"|#	c #2D1C13",
"1#	c #7A523C",
"2#	c #A06C50",
"3#	c #A46F52",
"4#	c #AA795B",
"5#	c #BA8C6C",
"6#	c #BE906F",
"7#	c #BF9372",
"8#	c #B58B6C",
"9#	c #554031",
"0#	c #6A5344",
"a#	c #3B2D26",
"b#	c #454B67",
"c#	c #677097",
"d#	c #555C7D",
"e#	c #21202C",
"f#	c #34271F",
"g#	c #3E2F26",
"h#	c #2F231C",
"i#	c #251A14",
"j#	c #150F0B",
"k#	c #22110C",
"l#	c #5C362A",
"m#	c #7A493A",
"n#	c #7C4A3B",
"o#	c #90624D",
"p#	c #B4886A",
"q#	c #C19674",
"r#	c #BA8B6B",
"s#	c #B58464",
"t#	c #BC8D6C",
"u#	c #8C6B53",
"v#	c #5A4433",
"w#	c #2C2017",
"x#	c #3C2E27",
"y#	c #676F97",
"z#	c #575D7E",
"A#	c #25242F",
"B#	c #0F0200",
"C#	c #19110C",
"D#	c #211711",
"E#	c #261A14",
"F#	c #17110C",
"G#	c #190907",
"H#	c #461E1E",
"I#	c #5D2A2A",
"J#	c #5F292B",
"K#	c #774B3F",
"L#	c #9E735B",
"M#	c #AA8165",
"N#	c #A57E61",
"O#	c #9C7357",
"P#	c #976A4E",
"Q#	c #9F7659",
"R#	c #654939",
"S#	c #270A0C",
"T#	c #170908",
"U#	c #4E3C31",
"V#	c #454A67",
"W#	c #595E7F",
"X#	c #312B33",
"Y#	c #251603",
"Z#	c #241913",
"`#	c #1D140F",
" $	c #160E0A",
".$	c #110A07",
"+$	c #040403",
"@$	c #180707",
"#$	c #5D2A2B",
"$$	c #5F2B2C",
"%$	c #663632",
"&$	c #74473C",
"*$	c #704A3C",
"=$	c #5E4334",
"-$	c #533B2B",
";$	c #513627",
">$	c #553D2D",
",$	c #583E30",
"'$	c #57302A",
")$	c #481E1F",
"!$	c #281210",
"~$	c #585E7F",
"{$	c #2D2831",
"]$	c #1E1000",
"^$	c #2C2019",
"/$	c #45352B",
"($	c #44342A",
"_$	c #201712",
":$	c #0D050A",
"<$	c #241017",
"[$	c #3F1E22",
"}$	c #52272A",
"|$	c #5C2B2C",
"1$	c #602B2C",
"2$	c #5E282A",
"3$	c #522023",
"4$	c #3E1418",
"5$	c #361115",
"6$	c #381316",
"7$	c #361015",
"8$	c #41171B",
"9$	c #572627",
"0$	c #522525",
"a$	c #2E1513",
"b$	c #565C7E",
"c$	c #21212E",
"d$	c #100A07",
"e$	c #3A2C23",
"f$	c #604A3D",
"g$	c #31241D",
"h$	c #1D0D15",
"i$	c #2F1923",
"j$	c #361C27",
"k$	c #402028",
"l$	c #54272A",
"m$	c #5E2B2C",
"n$	c #602C2C",
"o$	c #5E2B2B",
"p$	c #5C2A2A",
"q$	c #5B2929",
"r$	c #5F2B2B",
"s$	c #512424",
"t$	c #2D1513",
"u$	c #3A2D26",
"v$	c #687098",
"w$	c #25222B",
"x$	c #46362C",
"y$	c #48382D",
"z$	c #241A14",
"A$	c #200F16",
"B$	c #321B25",
"C$	c #341C28",
"D$	c #371D27",
"E$	c #452229",
"F$	c #5D2B2C",
"G$	c #612D2D",
"H$	c #612D2C",
"I$	c #612C2C",
"J$	c #48372E",
"K$	c #494A62",
"L$	c #61698D",
"M$	c #545B7C",
"N$	c #3C3B4C",
"O$	c #5A4842",
"P$	c #403128",
"Q$	c #0E0A07",
"R$	c #060407",
"S$	c #1E1018",
"T$	c #2E1924",
"U$	c #331C27",
"V$	c #341C27",
"W$	c #331B25",
"X$	c #3E1E25",
"Y$	c #522627",
"Z$	c #5F2C2C",
"`$	c #685143",
" %	c #584A4D",
".%	c #494B62",
"+%	c #515878",
"@%	c #5A6082",
"#%	c #545062",
"$%	c #43342E",
"%%	c #221913",
"&%	c #030408",
"*%	c #0A0D15",
"=%	c #16131D",
"-%	c #211722",
";%	c #2D1A25",
">%	c #311A25",
",%	c #25131C",
"'%	c #230F15",
")%	c #331516",
"!%	c #492020",
"~%	c #2B1412",
"{%	c #4A3B38",
"]%	c #50526C",
"^%	c #5B6386",
"/%	c #414661",
"(%	c #1B1619",
"_%	c #32251E",
":%	c #322722",
"<%	c #19161C",
"[%	c #0D121C",
"}%	c #14141F",
"|%	c #241823",
"1%	c #2A1822",
"2%	c #190C13",
"3%	c #19110D",
"4%	c #452B25",
"5%	c #512726",
"6%	c #552626",
"7%	c #3D1C1B",
"8%	c #4C362D",
"9%	c #57494D",
"0%	c #3C3C50",
"a%	c #232637",
"b%	c #2E231E",
"c%	c #5B473A",
"d%	c #302520",
"e%	c #090C15",
"f%	c #10131E",
"g%	c #181621",
"h%	c #19141E",
"i%	c #0D0910",
"j%	c #352820",
"k%	c #5B4539",
"l%	c #3E2520",
"m%	c #4A2020",
"n%	c #5D2B2B",
"o%	c #562727",
"p%	c #4A2724",
"q%	c #443229",
"r%	c #624C3F",
"s%	c #664F41",
"t%	c #4D3B30",
"u%	c #46352B",
"v%	c #362A24",
"w%	c #131218",
"x%	c #0B0F18",
"y%	c #17151A",
"z%	c #392C26",
"A%	c #574337",
"B%	c #513E33",
"C%	c #482C26",
"D%	c #4F2323",
"E%	c #5A2929",
"F%	c #291814",
"G%	c #2B211B",
"H%	c #070609",
"I%	c #30251F",
"J%	c #574236",
"K%	c #3A221E",
"L%	c #4D2222",
"M%	c #4A2121",
"N%	c #2B1916",
"O%	c #745A4B",
"P%	c #584538",
"Q%	c #523F34",
"R%	c #554135",
"S%	c #4A2E28",
"T%	c #4D2325",
"U%	c #2C181E",
"V%	c #41322C",
"W%	c #5C483B",
"X%	c #4D3A30",
"Y%	c #321615",
"Z%	c #5C2A2C",
"`%	c #4B2329",
" &	c #2C1725",
".&	c #180F1A",
"+&	c #372922",
"@&	c #2C1412",
"#&	c #5A292B",
"$&	c #4A232A",
"%&	c #391C29",
"&&	c #281626",
"*&	c #150B19",
"=&	c #281D18",
"-&	c #291211",
";&	c #4B2123",
">&	c #4E252A",
",&	c #341A28",
"'&	c #231426",
")&	c #221423",
"!&	c #281C1F",
"~&	c #42332A",
"{&	c #1D0E11",
"]&	c #331821",
"^&	c #371B28",
"/&	c #291627",
"(&	c #1B1020",
"_&	c #1F1519",
":&	c #4C3A31",
"<&	c #3E2F28",
"[&	c #281B21",
"}&	c #1D1020",
"|&	c #2C1F22",
"1&	c #45342B",
"2&	c #644E41",
"3&	c #0E070E",
"4&	c #191112",
"5&	c #49382F",
"6&	c #624D3F",
"                                                                                                                                ",
"                                                                                                                                ",
"                                                                                                                                ",
"                                                                                                                                ",
"                                                                                                                                ",
"                                                                                                                                ",
"                                                                                                                                ",
"                                                                                                                                ",
"                                                                                                                                ",
"                                                                                                                                ",
"                                                                                                                                ",
"                                                            . + + + + + + + @ #                                                 ",
"                                                          @ $ % & % % % % * = -                                                 ",
"                                                        @ ; > , ' ) ) ! ~ { ] ^ / #                                             ",
"                                                      ( _ > : < < [ } | 1 2 3 4 5 6                                             ",
"                                                + 7 8 9 0 a b c d d c e f g h i j k l #                                         ",
"                                                8 m n o p q r s t t c e u g v w x y z A                                         ",
"                                                9 B C D E F G H I J c K L M N O P Q R S T #                                     ",
"                                                9 U V W X Y Z `  .d ..+.@.#.$.%.&.*.=.-.;.>.                                    ",
"                                                9 ,.'.).!.~.{.].^./.(._.:.<.[.[.}.|.1.2.3..                                     ",
"                                                9 4.5.6.).7.8.9.0.a.a.b.c.c.d.e.c.f.g.h.i..                                     ",
"                                                9 j.k.l.m.n.o.p.q.r.s.t.t.t.t.t.u.t.v.w.i..                                     ",
"                                                9 x.y.z.A.B.C.D.E.F.G.H.I.J.K.K.K.L.M.N.i..                                     ",
"                                                9 x.O.P.Q.R.S.T.U.V.W.X.Y.Z.`. +N  +.+++i..                                     ",
"                                                @+#+$+%+&+*+=+-+;+>+,+'+)+!+~+{+]+^+/+(+_ (                                     ",
"                                                . _+:+<+[+}+=+-+|+>+1+2+3+4+5+6+7+8+9+0++                                       ",
"                                                    S a+b+c+d+-+e+f+g+h+i+j+k+k+l+m+n++                                         ",
"                                                  # ;.o+p+q+r+s+t+u+v+w+x+y+z+A+B+C+D+E+F+                                      ",
"                                                  # ;.G+H+I+J+K+L+M+N+O+P+Q+R+=+S+T+U+V+W+#                                     ",
"                                                  # ;.o+X+Y+Z+`+ @.@+@@@#@r+$@$@%@&@*@=@-@.                                     ",
"                                                  # ;.;@>@c+r+,@'@)@!@~@c+{@$@$@]@^@/@(@3..                                     ",
"                                                  # ;._@:@}+<@[@$@}@|@1@2@<@$@$@<@3@4@5@i..                                     ",
"                                                  # ;._@:@}+<@[@$@}@|@1@2@<@$@$@<@6@7@5@i..                                     ",
"                                      T 8@9@0@6   # ;.;@a@c+b@,@'@c@d@e@2@<@$@$@<@3@4@5@i..                                     ",
"                                    f@g@h@i@j@0+  # ;.k@l@m@|+`+ @n@o@p@q@<@$@$@<@3@4@5@i..                                     ",
"                                  E+r@s@t@u@v@9     S w@x@y@z@K+A@x+B@C@D@[@$@$@R+E@F@G@3..                                     ",
"                              # A H@I@J@K@L@M@_ A N@i.O@P@Q@{@,@R@S@T@3@$@$@$@$@6@U@V@W@X@.                                     ",
"                              - z Y@Z@`@ #.#+#% #+@###$#%#&#*#=#-#;#>#<@$@$@,#<@'#)#!#~#{##                                     ",
"                              ]#^#/#(#_#:#:+9@<#[#[#}#|#1#2#3#4#5#,#$@d+6#7#D@8#4@9#@#6                                         ",
"                              0#a#b#c#d#e#f#g#h#i#i#j#k#l#m#n#o#p#q#$@r#s#t#8#u#v#w##+/                                         ",
"                              0#x#b#y#z#A#B#C#D#E#i#F#G#H#I#J#K#L#M#N#O#P#Q#7@R#S#T#U#6                                         ",
"                              0#x#V#y#W#X#Y#Z#`# $.$+$@$H##$$$%$&$*$=$-$;$>$,$'$)$!$U#6                                         ",
"                              0#x#b#y#~${$]$^$/$($_$:$<$[$}$|$1$2$3$4$5$6$7$8$9$0$a$U#6                                         ",
"                              0#x#b#y#b$c$d$e$f$;.g$h$i$j$k$l$m$n$o$p$q$q$q$p$r$s$t$U#6                                         ",
"                              W+u$b#v$d#w$x$i.3.y$z$A$B$C$D$E$}$F$G$H$I$I$G$G$I$s$t$U#6                                         ",
"                              @+J$K$L$M$N$O$_ P$Q$R$S$T$U$V$W$X$Y$p$Z$n$n$n$n$n$s$t$U#6                                         ",
"                              + `$ %.%+%@%#%$%%%&%*%=%-%;%>%,%'%)%!%p$G$n$n$n$n$s$~%#+/                                         ",
"                                  `${%]%^%/%(%_%:%<%[%}%|%1%2%3%f#4%5%q$n$n$n$n$6%7%8%0@/ F+                                    ",
"                                  f@]#9%0%a%b%z c%d%e%f%g%h%i%j%r@k%l%m%n%I$n$n$n%o%p%q%r%(                                     ",
"                                    # s%t%u%% _+_+& v%w%x%y%z%A%E+@+B%C%D%E%n$n$I$Z$m%F%i.(                                     ",
"                                      f@- E+N@. ( - i.G%H%I%r@6 # ( T J%K%L%o$n$I$Z$M%N%A%O%                                    ",
"                                                    @+P%Q%5 _+        ]#R%S%L%E%I$n$T%U%V%W%T                                   ",
"                                                    ( f@+ @ #         F+T X%Y%0$n$Z%`% &.&+&8@                                  ",
"                                                                        A #+@&s$#&$&%&&&*&=&9@                                  ",
"                                                                        6 U#-&;&>&,&'&)&!&~&0@                                  ",
"                                                                        6 U#{&]&^&/&(&_&:&0@/                                   ",
"                                                                        + r@<&[&}&}&|&1&8@(                                     ",
"                                                                        # / 2&<&3&4&5&0++                                       ",
"                                                                            / r@@##+6&.                                         ",
"                                                                            # + 6 6 @                                           ",
"                                                                                                                                ",
"                                                                                                                                ",
"                                                                                                                                ",
"                                                                                                                                "};
