/* XPM */
static char * player_down_xpm[] = {
"64 64 556 2",
"  	c #785E4E",
". 	c #735A4B",
"+ 	c #6D5547",
"@ 	c #6B5345",
"# 	c #775D4D",
"$ 	c #695243",
"% 	c #523F34",
"& 	c #46352B",
"* 	c #46362C",
"= 	c #47362C",
"- 	c #755B4C",
"; 	c #58463B",
"> 	c #362F2B",
", 	c #191F21",
"' 	c #1A2022",
") 	c #1D2122",
"! 	c #765D4D",
"~ 	c #685143",
"{ 	c #524035",
"] 	c #3F3934",
"^ 	c #30383B",
"/ 	c #2B393E",
"( 	c #775D4E",
"_ 	c #755C4C",
": 	c #6D5647",
"< 	c #574439",
"[ 	c #352E2B",
"} 	c #283336",
"| 	c #334348",
"1 	c #38494E",
"2 	c #38484E",
"3 	c #765C4C",
"4 	c #544236",
"5 	c #403934",
"6 	c #2E373A",
"7 	c #303F44",
"8 	c #37484D",
"9 	c #3A4B51",
"0 	c #765C4D",
"a 	c #6E5648",
"b 	c #56433A",
"c 	c #352D2E",
"d 	c #2C343B",
"e 	c #354349",
"f 	c #38494F",
"g 	c #394A50",
"h 	c #745B4B",
"i 	c #675143",
"j 	c #57443C",
"k 	c #443B40",
"l 	c #343848",
"m 	c #35404D",
"n 	c #384850",
"o 	c #705849",
"p 	c #554236",
"q 	c #342B2C",
"r 	c #363749",
"s 	c #40465D",
"t 	c #3F4A5C",
"u 	c #3A4A53",
"v 	c #6F5748",
"w 	c #4F3D32",
"x 	c #221F25",
"y 	c #33374C",
"z 	c #444A63",
"A 	c #424D5F",
"B 	c #3A4A52",
"C 	c #38494D",
"D 	c #384A4F",
"E 	c #35484F",
"F 	c #30464F",
"G 	c #2D454F",
"H 	c #242025",
"I 	c #31364A",
"J 	c #424861",
"K 	c #434D60",
"L 	c #3E4C58",
"M 	c #3B4B53",
"N 	c #3B4B52",
"O 	c #404D51",
"P 	c #475151",
"Q 	c #4B5351",
"R 	c #503D32",
"S 	c #221E21",
"T 	c #272C3D",
"U 	c #3A4157",
"V 	c #48526A",
"W 	c #505C75",
"X 	c #4A586F",
"Y 	c #475160",
"Z 	c #68635A",
"` 	c #8B7B5C",
" .	c #9A865D",
"..	c #1F1918",
"+.	c #141823",
"@.	c #2D3345",
"#.	c #4D5573",
"$.	c #616A8E",
"%.	c #586387",
"&.	c #54596F",
"*.	c #8B7A65",
"=.	c #C0A269",
"-.	c #D5B26B",
";.	c #1E1614",
">.	c #0A0910",
",.	c #242636",
"'.	c #464B67",
").	c #5A6184",
"!.	c #525D82",
"~.	c #565971",
"{.	c #98846B",
"].	c #D4B16F",
"^.	c #EBC471",
"/.	c #1F1614",
"(.	c #130A16",
"_.	c #221B2B",
":.	c #303146",
"<.	c #3B415A",
"[.	c #394462",
"}.	c #505267",
"|.	c #97836B",
"1.	c #D2B06E",
"2.	c #EAC370",
"3.	c #1D1413",
"4.	c #180C1A",
"5.	c #211525",
"6.	c #1E1827",
"7.	c #1B202D",
"8.	c #1D2B43",
"9.	c #424557",
"0.	c #847360",
"a.	c #B99B62",
"b.	c #CDAB64",
"c.	c #211425",
"d.	c #1D1725",
"e.	c #151A26",
"f.	c #142132",
"g.	c #2B303F",
"h.	c #574E45",
"i.	c #7B6846",
"j.	c #897347",
"k.	c #715949",
"l.	c #5A4639",
"m.	c #3B2D26",
"n.	c #291D20",
"o.	c #221523",
"p.	c #181525",
"q.	c #1D1C28",
"r.	c #372B2E",
"s.	c #4D3934",
"t.	c #563F37",
"u.	c #594137",
"v.	c #5A4237",
"w.	c #372C2E",
"x.	c #1C1C28",
"y.	c #161324",
"z.	c #1F1322",
"A.	c #281C20",
"B.	c #6D5546",
"C.	c #5F4A3D",
"D.	c #46352E",
"E.	c #21181C",
"F.	c #03061C",
"G.	c #271C27",
"H.	c #5D4037",
"I.	c #825A44",
"J.	c #8D6149",
"K.	c #8B5F49",
"L.	c #8A5E48",
"M.	c #261B27",
"N.	c #00001A",
"O.	c #1B1319",
"P.	c #44342C",
"Q.	c #735A4A",
"R.	c #503C32",
"S.	c #34201C",
"T.	c #372021",
"U.	c #523631",
"V.	c #7D5543",
"W.	c #9F6D51",
"X.	c #AC7758",
"Y.	c #AD795A",
"Z.	c #AD7A5B",
"`.	c #7D5542",
" +	c #563A33",
".+	c #4C362E",
"++	c #533E30",
"@+	c #5F493B",
"#+	c #654F41",
"$+	c #503E33",
"%+	c #472C26",
"&+	c #502B26",
"*+	c #6A4235",
"=+	c #855944",
"-+	c #99684E",
";+	c #A97456",
">+	c #B37F5E",
",+	c #B88766",
"'+	c #BA8A6A",
")+	c #A97455",
"!+	c #98674D",
"~+	c #8C614A",
"{+	c #906A51",
"]+	c #906D55",
"^+	c #795D48",
"/+	c #5B4639",
"(+	c #5D483A",
"_+	c #50392D",
":+	c #512D28",
"<+	c #643630",
"[+	c #885844",
"}+	c #A37154",
"|+	c #AC7858",
"1+	c #AD7858",
"2+	c #B38060",
"3+	c #BA8B6A",
"4+	c #BD906F",
"5+	c #AB7657",
"6+	c #AD7B5C",
"7+	c #B58767",
"8+	c #B3896A",
"9+	c #927057",
"0+	c #624A39",
"a+	c #5A4538",
"b+	c #654E41",
"c+	c #5E493B",
"d+	c #795C48",
"e+	c #87654E",
"f+	c #785242",
"g+	c #704238",
"h+	c #92644E",
"i+	c #B18162",
"j+	c #B68362",
"k+	c #B07B5A",
"l+	c #B07C5C",
"m+	c #B48362",
"n+	c #B78666",
"o+	c #AF7A5A",
"p+	c #B48160",
"q+	c #B98968",
"r+	c #BF916F",
"s+	c #BD9171",
"t+	c #AB8466",
"u+	c #927056",
"v+	c #765A46",
"w+	c #5E483A",
"x+	c #6C5445",
"y+	c #564235",
"z+	c #634C3A",
"A+	c #967459",
"B+	c #AC8366",
"C+	c #936A54",
"D+	c #75483D",
"E+	c #906551",
"F+	c #B08467",
"G+	c #B68767",
"H+	c #B17D5E",
"I+	c #B17E5E",
"J+	c #B88968",
"K+	c #BE9170",
"L+	c #C09473",
"M+	c #BF9372",
"N+	c #BE9271",
"O+	c #B58B6C",
"P+	c #947258",
"Q+	c #634B3A",
"R+	c #72594A",
"S+	c #644D3E",
"T+	c #765B46",
"U+	c #8F6E55",
"V+	c #AD8567",
"W+	c #B78C6D",
"X+	c #996E58",
"Y+	c #71443A",
"Z+	c #7D5243",
"`+	c #996F58",
" @	c #A97C60",
".@	c #B28364",
"+@	c #B68565",
"@@	c #B68564",
"#@	c #B88868",
"$@	c #BC8F6E",
"%@	c #C29574",
"&@	c #BE9372",
"*@	c #8F6E54",
"=@	c #6B5445",
"-@	c #4D3B30",
";@	c #5E4837",
">@	c #947158",
",@	c #B48A6B",
"'@	c #BE9272",
")@	c #B88D6E",
"!@	c #9B7159",
"~@	c #74473D",
"{@	c #673732",
"]@	c #764A3E",
"^@	c #966B55",
"/@	c #B48769",
"(@	c #BF9473",
"_@	c #695244",
":@	c #423229",
"<@	c #5B4534",
"[@	c #9D785D",
"}@	c #C39775",
"|@	c #BC9070",
"1@	c #AA7F64",
"2@	c #926853",
"3@	c #784C40",
"4@	c #6C3E36",
"5@	c #8E6450",
"6@	c #B4896B",
"7@	c #C19574",
"8@	c #C29674",
"9@	c #43332A",
"0@	c #5C4535",
"a@	c #9C785C",
"b@	c #BD9271",
"c@	c #BB9070",
"d@	c #B18668",
"e@	c #936954",
"f@	c #75493D",
"g@	c #C19573",
"h@	c #43342A",
"i@	c #5C4635",
"j@	c #9C775C",
"k@	c #9D725A",
"l@	c #794D40",
"m@	c #C19473",
"n@	c #9C725A",
"o@	c #8E6350",
"p@	c #B4886A",
"q@	c #BF9373",
"r@	c #BB8F70",
"s@	c #997159",
"t@	c #70493B",
"u@	c #865D49",
"v@	c #AE8164",
"w@	c #BC8D6D",
"x@	c #BC8D6C",
"y@	c #BB8D6C",
"z@	c #B78A6A",
"A@	c #AE8566",
"B@	c #AB8366",
"C@	c #BA8F6F",
"D@	c #947057",
"E@	c #604233",
"F@	c #77513D",
"G@	c #A57558",
"H@	c #B28060",
"I@	c #A8795B",
"J@	c #8B654C",
"K@	c #7E5F49",
"L@	c #9F7A5F",
"M@	c #C09372",
"N@	c #C09271",
"O@	c #B68A6A",
"P@	c #8D6A51",
"Q@	c #533C2C",
"R@	c #714F3A",
"S@	c #A37456",
"T@	c #B17D5D",
"U@	c #AF7959",
"V@	c #AD7757",
"W@	c #72503B",
"X@	c #553D2D",
"Y@	c #423329",
"Z@	c #9C785D",
"`@	c #C29675",
" #	c #BF9271",
".#	c #BB8C6B",
"+#	c #AE7E5F",
"@#	c #855F46",
"##	c #503929",
"$#	c #775843",
"%#	c #AA7F61",
"&#	c #B78665",
"*#	c #AC7656",
"=#	c #765742",
"-#	c #4E3627",
";#	c #845E45",
">#	c #6C5446",
",#	c #5F4838",
"'#	c #B18869",
")#	c #BE9171",
"!#	c #BB8B6A",
"~#	c #AD7C5D",
"{#	c #845C43",
"]#	c #503829",
"^#	c #795B46",
"/#	c #AD8264",
"(#	c #B98868",
"_#	c #B17E5D",
":#	c #664E40",
"<#	c #725744",
"[#	c #8A6951",
"}#	c #A98265",
"|#	c #C19270",
"1#	c #B48767",
"2#	c #8B664D",
"3#	c #523B2B",
"4#	c #74533E",
"5#	c #A7795B",
"6#	c #B48161",
"7#	c #B07B5B",
"8#	c #AE7857",
"9#	c #574232",
"0#	c #8E6D54",
"a#	c #B08769",
"b#	c #B78D6D",
"c#	c #AE8567",
"d#	c #886750",
"e#	c #543B2D",
"f#	c #6D4834",
"g#	c #99684D",
"h#	c #A77255",
"i#	c #A67154",
"j#	c #A67153",
"k#	c #4A392F",
"l#	c #33261C",
"m#	c #654C3A",
"n#	c #82634C",
"o#	c #886950",
"p#	c #83644D",
"q#	c #6E4F3E",
"r#	c #57332B",
"s#	c #663B2F",
"t#	c #81503E",
"u#	c #8A5843",
"v#	c #8A5844",
"w#	c #6C5546",
"x#	c #4A392E",
"y#	c #201510",
"z#	c #2F1F17",
"A#	c #3E2A20",
"B#	c #3F2C21",
"C#	c #422B22",
"D#	c #4E2B25",
"E#	c #5A2B29",
"F#	c #622F2D",
"G#	c #673430",
"H#	c #693631",
"I#	c #683631",
"J#	c #1F0F0D",
"K#	c #2D0B0F",
"L#	c #3A1116",
"M#	c #3C1117",
"N#	c #401519",
"O#	c #502123",
"P#	c #5D2A2A",
"Q#	c #602B2C",
"R#	c #5E292B",
"S#	c #5D292B",
"T#	c #291412",
"U#	c #451E1E",
"V#	c #582828",
"W#	c #5C2A2A",
"X#	c #5B2929",
"Y#	c #5F2C2C",
"Z#	c #602C2C",
"`#	c #2B1613",
" $	c #4A2020",
".$	c #5E2B2B",
"+$	c #622D2D",
"@$	c #612C2C",
"#$	c #492020",
"$$	c #5D2B2B",
"%$	c #612D2D",
"&$	c #542626",
"*$	c #502424",
"=$	c #5F2B2B",
"-$	c #542525",
";$	c #3E1B1A",
">$	c #2F1313",
",$	c #552726",
"'$	c #4D2925",
")$	c #432C25",
"!$	c #3D2F26",
"~$	c #522525",
"{$	c #411D1C",
"]$	c #483129",
"^$	c #5D473A",
"/$	c #664F42",
"($	c #612D2C",
"_$	c #4B2121",
":$	c #2D1513",
"<$	c #6A5344",
"[$	c #2B1412",
"}$	c #47372C",
"|$	c #5D2B2A",
"1$	c #5A292A",
"2$	c #471F20",
"3$	c #2A1413",
"4$	c #58292B",
"5$	c #4C2428",
"6$	c #391A1E",
"7$	c #231212",
"8$	c #2A1512",
"9$	c #451E1F",
"0$	c #59292A",
"a$	c #5D2B2C",
"b$	c #59292B",
"c$	c #4E252A",
"d$	c #3C1E27",
"e$	c #28141D",
"f$	c #1C1011",
"g$	c #231312",
"h$	c #36181E",
"i$	c #462128",
"j$	c #4A232A",
"k$	c #472129",
"l$	c #3E1E29",
"m$	c #2F1927",
"n$	c #1F111D",
"o$	c #12090E",
"p$	c #45352B",
"q$	c #1A1112",
"r$	c #21101C",
"s$	c #2C1726",
"t$	c #2E1828",
"u$	c #2D1827",
"v$	c #2A1727",
"w$	c #261525",
"x$	c #1E111D",
"y$	c #261B19",
"z$	c #4C3A30",
"A$	c #48382D",
"B$	c #120B0E",
"C$	c #180D1C",
"D$	c #211426",
"E$	c #231528",
"F$	c #211427",
"G$	c #1E1122",
"H$	c #1A0F1C",
"I$	c #342625",
"J$	c #4D3B32",
"K$	c #614C3E",
"L$	c #241917",
"M$	c #1A0E1B",
"N$	c #231425",
"O$	c #241527",
"P$	c #1B0F1C",
"Q$	c #261B1B",
"R$	c #4B3A30",
"S$	c #4A382F",
"T$	c #332525",
"U$	c #1C101D",
"V$	c #1B0F1D",
"W$	c #1D111D",
"X$	c #614C3F",
"Y$	c #675042",
"Z$	c #4B3930",
"`$	c #231918",
" %	c #0A040C",
".%	c #604A3D",
"+%	c #4B3A2F",
"@%	c #715849",
"                                                                                                                                ",
"                                                      . + @ @ @ @ @ @ + .                                                       ",
"                                                    # $ % & * = = * & % $ #                                                     ",
"                                                  - + ; > , ' ) ) ' , > ; + -                                                   ",
"                                                ! ~ { ] ^ / / / / / / ^ ] { ~ !                                                 ",
"                                            ( _ : < [ } | 1 2 2 2 2 1 | } [ < : _ (                                             ",
"                                            3 ~ 4 5 6 7 8 9 9 9 9 9 9 8 7 6 5 4 ~ 3                                             ",
"                                        ( 0 a b c d e f g g g g g g g g f e d c b a 0 (                                         ",
"                                        h i j k l m n 9 g g g g g g g g 9 n m l k j i h                                         ",
"                                        o p q r s t u g g g g g g g g g g u t s r q p o                                         ",
"                                        v w x y z A B C D E F G G F E D C B A z y x w v                                         ",
"                                        v w H I J K L M N O P Q Q P O N M L K J I H w v                                         ",
"                                        v R S T U V W X Y Z `  . .` Z Y X W V U T S R v                                         ",
"                                        v R ..+.@.#.$.%.&.*.=.-.-.=.*.&.%.$.#.@.+...R v                                         ",
"                                        v R ;.>.,.'.).!.~.{.].^.^.].{.~.!.).'.,.>.;.R v                                         ",
"                                        v R /.(._.:.<.[.}.|.1.2.2.1.|.}.[.<.:._.(./.R v                                         ",
"                                        v w 3.4.5.6.7.8.9.0.a.b.b.a.0.9.8.7.6.5.4.3.w v                                         ",
"                                        v w 3.4.c.d.e.f.g.h.i.j.j.i.h.g.f.e.d.c.4.3.w v                                         ",
"                                        k.l.m.n.o.p.q.r.s.t.u.v.v.u.t.s.w.x.y.z.A.m.l.k.                                        ",
"                                        _ B.C.D.E.F.G.H.I.J.K.L.L.K.J.I.H.M.N.O.P.C.B._                                         ",
"                                        # Q.~ R.S.T.U.V.W.X.Y.Z.Z.Y.X.W.`. +.+++@+@ Q.#                                         ",
"                                        h #+$+%+&+*+=+-+;+>+,+'+'+,+>+)+!+~+{+]+^+/+#+h                                         ",
"                                    # - B.(+_+:+<+[+}+|+1+2+3+4+4+3+2+1+5+6+7+8+9+0+a+B.- #                                     ",
"                                    . b+c+d+e+f+g+h+i+j+k+l+m+n+n+m+l+o+p+q+r+s+t+u+v+w+b+.                                     ",
"                                ( _ x+y+z+A+B+C+D+E+F+G+H+o+l+l+l+l+o+I+J+K+L+M+N+O+P+Q+y+x+_ (                                 ",
"                                R+#+S+T+U+V+W+X+Y+Z+`+ @.@+@+@@@@@@@+@#@$@L+L+L+%@&@t+*@T+S+#+R+                                ",
"                                =@-@;@>@,@'@)@!@~@{@]@^@/@K+K+K+K+K+K+K+M+L+L+L+L+(@s+,@>@;@-@=@                                ",
"                                _@:@<@[@'@}@|@1@2@3@4@5@6@7@7@L+L+L+L+L+L+L+L+L+L+L+8@'@[@<@:@_@                                ",
"                                _@9@0@a@b@8@M+c@d@e@f@5@6@7@g@L+L+L+L+L+L+L+L+L+L+L+%@b@a@0@9@_@                                ",
"                                _@h@i@j@s+%@L+8@|@k@l@5@6@7@7@L+L+L+L+L+7@7@m@L+L+L+%@s+j@i@h@_@                                ",
"                                _@h@i@j@s+%@L+8@c@n@3@o@p@m@L+L+L+L+L+L+q@q@L+L+L+L+%@s+j@i@h@_@                                ",
"                                _@h@i@j@s+%@L+%@r@s@t@u@v@w@x@y@y@y@y@z@A@B@O+&@g@L+%@s+j@i@h@_@                                ",
"                                _@h@i@j@s+%@L+%@C@D@E@F@G@2+2+H@H@2+2+I@J@K@L@c@7@L+%@s+j@i@h@_@                                ",
"                                _@9@<@a@b@8@M@N@O@P@Q@R@S@T@U@V@V@U@T@S@W@X@P@O@N@M@8@b@a@<@9@_@                                ",
"                                _@Y@<@Z@'@`@ #.#+#@###$#%#&#l+*#*#l+&#%#=#-#;#+#.# #`@'@Z@<@Y@_@                                ",
"                                >#R ,#9+'#c@)#!#~#{#]#^#/#(#_#V@V@_#(#/#^#]#{#~#!#)#c@'#9+,#R >#                                ",
"                                Q.~ :#<#[#}#s+|#1#2#3#4#5#6#7#8#8#7#6#5#4#3#2#1#|#s+}#[#<#:#~ Q.                                ",
"                                  ! @ -@9#0#a#b#c#d#e#f#g#h#i#j#j#i#h#g#f#e#d#c#b#a#0#9#-@@ !                                   ",
"                                    + k#l#m#n#o#p#q#r#s#t#u#u#v#v#u#u#t#s#r#q#p#o#n#m#l#k#+                                     ",
"                                    w#x#y#z#A#B#C#D#E#F#G#H#H#I#I#H#H#G#F#E#D#C#B#A#z#y#x#w#                                    ",
"                                    w#x#J#K#L#M#N#O#P#Q#R#S#S#R#R#S#S#R#Q#P#O#N#M#L#K#J#x#w#                                    ",
"                                    w#x#T#U#V#W#X#P#Y#Z#Z#Z#Z#Z#Z#Z#Z#Z#Z#Y#P#X#W#V#U#T#x#w#                                    ",
"                                    w#x#`# $.$+$@$Z#Z#Z#Z#Z#Z#Z#Z#Z#Z#Z#Z#Z#Z#@$+$.$ $`#x#w#                                    ",
"                                    w#x#`##$$$%$Z#Z#Z#Z#Z#Z#Z#Z#Z#Z#Z#Z#Z#Z#Z#Z#%$$$#$`#x#w#                                    ",
"                                    w#x#`##$P#@$Z#Z#Z#Z#Z#Z#@$@$@$@$Z#Z#Z#Z#Z#Z#@$P##$`#x#w#                                    ",
"                                    w#x#`##$P#@$Z#Z#Z#Z#Z#Z#Y#Y#Y#Y#Z#Z#Z#Z#Z#Z#@$P##$`#x#w#                                    ",
"                                    w#x#`##$P#@$Z#Z#Z#@$Z#W#&$*$*$&$W#Z#@$Z#Z#Z#@$P##$`#x#w#                                    ",
"                                    w#x#`##$P#@$Z#Z#Z#@$=$-$;$>$>$;$-$=$@$Z#Z#Z#@$P##$`#x#w#                                    ",
"                                    w#x#`##$P#@$Z#Z#Y#W#,$'$)$!$!$)$'$,$W#Y#Z#Z#@$P##$`#x#w#                                    ",
"                                    w#x#`##$P#@$Z#@$.$~${$]$^$/$/$^$]${$~$.$@$Z#@$P##$`#x#w#                                    ",
"                                    w#x#`##$P#@$Z#($.$_$:$* <$    <$* :$_$.$($Z#@$P##$`#x#w#                                    ",
"                                    w#x#`##$P#@$Z#%$.$_$[$}$x+    x+}$[$_$.$%$Z#@$P##$`#x#w#                                    ",
"                                    w#x#`##$|$%$Z#Y#1$2$3$= @     @ = 3$2$1$Y#Z#%$|$#$`#x#w#                                    ",
"                                    w#x#`##$.$+$Y#4$5$6$7$= @     @ = 7$6$5$4$Y#+$.$#$`#x#w#                                    ",
"                                    w#x#8$9$0$a$b$c$d$e$f$* @     @ * f$e$d$c$b$a$0$9$8$x#w#                                    ",
"                                    w#x#g$h$i$j$k$l$m$n$o$p$@     @ p$o$n$m$l$k$j$i$h$g$x#w#                                    ",
"                                    w#x#q$r$s$t$u$v$w$x$y$z$>#    >#z$y$x$w$v$u$t$s$r$q$x#w#                                    ",
"                                    >#A$B$C$D$E$F$G$H$I$J$K$k.    k.K$J$I$H$G$F$E$D$C$B$A$>#                                    ",
"                                    + -@L$M$N$O$N$P$Q$R$~ h #     # h ~ R$Q$P$N$O$N$M$L$-@+                                     ",
"                                    k.C.S$T$U$V$W$I$R$X$Q.            Q.X$R$I$W$V$U$T$S$C.k.                                    ",
"                                    ! R+Y$Z$`$ %y$J$~ Q.#             # Q.~ J$y$ %`$Z$Y$R+!                                     ",
"                                        Q..%+%h@z$K$h                     h K$z$h@+%.%Q.                                        ",
"                                        ! @%x+<$>#k.#                     # k.>#<$x+@%!                                         ",
"                                                                                                                                "};
