/* XPM */
static char * player_up1_xpm[] = {
"64 64 614 2",
"  	c #785E4E",
". 	c #765C4C",
"+ 	c #745B4B",
"@ 	c #765C4D",
"# 	c #755B4C",
"$ 	c #644E40",
"% 	c #554136",
"& 	c #534035",
"* 	c #544135",
"= 	c #534034",
"- 	c #564337",
"; 	c #675042",
"> 	c #775D4D",
", 	c #6A5345",
"' 	c #493B33",
") 	c #222121",
"! 	c #1C1E1F",
"~ 	c #1F2020",
"{ 	c #1B1D1F",
"] 	c #272423",
"^ 	c #504037",
"/ 	c #6D5547",
"( 	c #634D40",
"_ 	c #483A31",
": 	c #363839",
"< 	c #2D3B40",
"[ 	c #2D3C41",
"} 	c #2C3A3F",
"| 	c #393837",
"1 	c #4C3C32",
"2 	c #735A4B",
"3 	c #675143",
"4 	c #4B3D35",
"5 	c #272D30",
"6 	c #303E43",
"7 	c #38494F",
"8 	c #394A50",
"9 	c #38484E",
"0 	c #2C2D2E",
"a 	c #514137",
"b 	c #745B4C",
"c 	c #634D3F",
"d 	c #43362E",
"e 	c #333739",
"f 	c #334146",
"g 	c #37474D",
"h 	c #36464C",
"i 	c #323F44",
"j 	c #343535",
"k 	c #48382F",
"l 	c #72594A",
"m 	c #644E41",
"n 	c #4E3F3E",
"o 	c #313340",
"p 	c #323F49",
"q 	c #394B50",
"r 	c #38484F",
"s 	c #313C47",
"t 	c #35333F",
"u 	c #52423E",
"v 	c #675043",
"w 	c #3F312A",
"x 	c #343343",
"y 	c #3E445A",
"z 	c #3E4959",
"A 	c #3A4A52",
"B 	c #3A4A51",
"C 	c #3A4A53",
"D 	c #3E485A",
"E 	c #3E4258",
"F 	c #33303D",
"G 	c #46362D",
"H 	c #614B3E",
"I 	c #46362C",
"J 	c #1D1514",
"K 	c #232736",
"L 	c #353C50",
"M 	c #3D4659",
"N 	c #404B5D",
"O 	c #414C5D",
"P 	c #404B5C",
"Q 	c #3C4558",
"R 	c #33394D",
"S 	c #1E2230",
"T 	c #372A22",
"U 	c #665147",
"V 	c #443A3E",
"W 	c #23222E",
"X 	c #0D0E14",
"Y 	c #0C121A",
"Z 	c #1F2634",
"` 	c #353B50",
" .	c #424861",
"..	c #444B63",
"+.	c #434A63",
"@.	c #41475F",
"#.	c #32384C",
"$.	c #1C222F",
"%.	c #0B0F17",
"&.	c #392B23",
"*.	c #685143",
"=.	c #5D483C",
"-.	c #514852",
";.	c #545775",
">.	c #474D6A",
",.	c #202333",
"'.	c #010709",
").	c #151D28",
"!.	c #262C3D",
"~.	c #30364A",
"{.	c #333B4F",
"].	c #343D50",
"^.	c #333A4E",
"/.	c #2F3549",
"(.	c #232939",
"_.	c #131A24",
":.	c #060B11",
"<.	c #44342A",
"[.	c #3E435B",
"}.	c #636B91",
"|.	c #5C6387",
"1.	c #2B2F42",
"2.	c #020A0B",
"3.	c #161F29",
"4.	c #19222D",
"5.	c #1A242F",
"6.	c #1E2933",
"7.	c #202C36",
"8.	c #1F2C36",
"9.	c #1D2833",
"0.	c #1A232E",
"a.	c #18222D",
"b.	c #151E28",
"c.	c #0A1017",
"d.	c #6D5546",
"e.	c #423229",
"f.	c #3D425B",
"g.	c #646C93",
"h.	c #5D6589",
"i.	c #2C3043",
"j.	c #071315",
"k.	c #1C2831",
"l.	c #1D2A33",
"m.	c #19252E",
"n.	c #18222C",
"o.	c #17222C",
"p.	c #17222B",
"q.	c #1A252F",
"r.	c #1C2932",
"s.	c #1A262F",
"t.	c #0E161C",
"u.	c #423329",
"v.	c #3C425B",
"w.	c #646C92",
"x.	c #5D6488",
"y.	c #0C1114",
"z.	c #202731",
"A.	c #212C36",
"B.	c #1F2D36",
"C.	c #1B2831",
"D.	c #19232D",
"E.	c #18232D",
"F.	c #19242E",
"G.	c #202D36",
"H.	c #1E252F",
"I.	c #11151C",
"J.	c #2C2F43",
"K.	c #0D0208",
"L.	c #211C29",
"M.	c #222732",
"N.	c #1F2C35",
"O.	c #1E2B34",
"P.	c #222531",
"Q.	c #201A27",
"R.	c #120C16",
"S.	c #3B2D24",
"T.	c #3D425C",
"U.	c #656D94",
"V.	c #5E658A",
"W.	c #2B2F43",
"X.	c #000000",
"Y.	c #040018",
"Z.	c #0F1627",
"`.	c #16212F",
" +	c #172230",
".+	c #162230",
"++	c #171826",
"@+	c #251A20",
"#+	c #41312B",
"$+	c #5A463A",
"%+	c #705849",
"&+	c #3A3F58",
"*+	c #60688E",
"=+	c #596184",
"-+	c #2B2E40",
";+	c #1F1100",
">+	c #35261F",
",+	c #3A2928",
"'+	c #3B282D",
")+	c #3C282E",
"!+	c #3C292E",
"~+	c #3A272C",
"{+	c #2C1B1F",
"]+	c #32221E",
"^+	c #5B463A",
"/+	c #6F5748",
"(+	c #755C4C",
"_+	c #775D4E",
":+	c #252B3E",
"<+	c #404866",
"[+	c #35405E",
"}+	c #1D1F2D",
"|+	c #604935",
"1+	c #896850",
"2+	c #8B654D",
"3+	c #845A45",
"4+	c #835844",
"5+	c #835944",
"6+	c #845945",
"7+	c #7F5542",
"8+	c #674033",
"9+	c #4C2924",
"0+	c #4C352D",
"a+	c #271E1A",
"b+	c #473731",
"c+	c #4C3B32",
"d+	c #554032",
"e+	c #8D6C53",
"f+	c #B58A6B",
"g+	c #B68666",
"h+	c #AD7B5B",
"i+	c #AC795A",
"j+	c #AC7859",
"k+	c #AB7657",
"l+	c #AA7555",
"m+	c #AA7556",
"n+	c #AE7B5B",
"o+	c #A87557",
"p+	c #895945",
"q+	c #61342E",
"r+	c #53352B",
"s+	c #503C2E",
"t+	c #503D2E",
"u+	c #5B4637",
"v+	c #6B5344",
"w+	c #43332A",
"x+	c #533E2D",
"y+	c #8D6B51",
"z+	c #9F795D",
"A+	c #A07B5F",
"B+	c #AF8769",
"C+	c #BE9271",
"D+	c #BF916F",
"E+	c #BB8C6B",
"F+	c #B88867",
"G+	c #B27E5D",
"H+	c #AE7757",
"I+	c #AE7858",
"J+	c #B3805F",
"K+	c #B98968",
"L+	c #BD8D6C",
"M+	c #B68768",
"N+	c #91644F",
"O+	c #71453A",
"P+	c #8A654F",
"Q+	c #9D785D",
"R+	c #9E795E",
"S+	c #8B6B53",
"T+	c #614A3B",
"U+	c #5F4A3D",
"V+	c #745A4B",
"W+	c #765D4D",
"X+	c #685142",
"Y+	c #644C3C",
"Z+	c #84654D",
"`+	c #B08869",
" @	c #C09473",
".@	c #BC8F6E",
"+@	c #B38060",
"@@	c #AD7656",
"#@	c #AD7757",
"$@	c #B58363",
"%@	c #BD906F",
"&@	c #BA8F6F",
"*@	c #AC8165",
"=@	c #885E4B",
"-@	c #784C40",
";@	c #A57A60",
">@	c #BF9372",
",@	c #A37D61",
"'@	c #5B4534",
")@	c #4C3B30",
"!@	c #715849",
"~@	c #735A4A",
"{@	c #594539",
"]@	c #5F4838",
"^@	c #937157",
"/@	c #B18869",
"(@	c #BD9171",
"_@	c #C19574",
":@	c #C19573",
"<@	c #C09574",
"[@	c #B58463",
"}@	c #BB8F6E",
"|@	c #A77D62",
"1@	c #845949",
"2@	c #6A3B35",
"3@	c #76493E",
"4@	c #A67C61",
"5@	c #C19473",
"6@	c #C29574",
"7@	c #A47E61",
"8@	c #5A4433",
"9@	c #4C3A2F",
"0@	c #4B3A2F",
"a@	c #BB8C6C",
"b@	c #B68463",
"c@	c #BA8E6E",
"d@	c #9D735B",
"e@	c #581D25",
"f@	c #74483D",
"g@	c #584232",
"h@	c #4D3B30",
"i@	c #4C3A30",
"j@	c #BF9271",
"k@	c #B88968",
"l@	c #B88969",
"m@	c #9E745B",
"n@	c #6C3D36",
"o@	c #591F26",
"p@	c #A57E62",
"q@	c #624939",
"r@	c #705748",
"s@	c #A37E61",
"t@	c #BD9070",
"u@	c #B27F5F",
"v@	c #AF7B5B",
"w@	c #B78767",
"x@	c #592026",
"y@	c #B2896A",
"z@	c #957258",
"A@	c #775B47",
"B@	c #624C3D",
"C@	c #6A5344",
"D@	c #5A4333",
"E@	c #A27B5F",
"F@	c #B98A69",
"G@	c #B17D5D",
"H@	c #AF7A5A",
"I@	c #BF9373",
"J@	c #967359",
"K@	c #513D2F",
"L@	c #584438",
"M@	c #543B2B",
"N@	c #9A7054",
"O@	c #B78564",
"P@	c #AF7959",
"Q@	c #AD7756",
"R@	c #B07A5A",
"S@	c #B88868",
"T@	c #C09372",
"U@	c #BD8F6E",
"V@	c #B68464",
"W@	c #9F755C",
"X@	c #C29674",
"Y@	c #9A765B",
"Z@	c #4C392B",
"`@	c #574337",
" #	c #573D2E",
".#	c #895E44",
"+#	c #9E6D50",
"@#	c #9E6D4F",
"##	c #9E6C4F",
"$#	c #9F6C4F",
"%#	c #A47154",
"&#	c #B18162",
"*#	c #BC8E6E",
"=#	c #BE906F",
"-#	c #BA8B6A",
";#	c #B27F5E",
">#	c #B17F60",
",#	c #B08366",
"'#	c #946B55",
")#	c #6A3A34",
"!#	c #5A2227",
"~#	c #73463B",
"{#	c #A4785D",
"]#	c #99765B",
"^#	c #4D3A2C",
"/#	c #6E5647",
"(#	c #664D3F",
"_#	c #624534",
":#	c #61402D",
"<#	c #60402D",
"[#	c #63412F",
"}#	c #6D4434",
"|#	c #80503F",
"1#	c #9D6C52",
"2#	c #B17F5F",
"3#	c #B48161",
"4#	c #AE7857",
"5#	c #A06E53",
"6#	c #8A5D4A",
"7#	c #75483D",
"8#	c #64322F",
"9#	c #5C2629",
"0#	c #714137",
"a#	c #9C6C52",
"b#	c #B38160",
"c#	c #B88767",
"d#	c #BC8F6F",
"e#	c #413128",
"f#	c #34271F",
"g#	c #1A0F0D",
"h#	c #3C1619",
"i#	c #62312D",
"j#	c #855341",
"k#	c #99664C",
"l#	c #9C694E",
"m#	c #9C684D",
"n#	c #9B674D",
"o#	c #895743",
"p#	c #6A3831",
"q#	c #5E292B",
"r#	c #602C2C",
"s#	c #5D282A",
"t#	c #9D6C53",
"u#	c #B48261",
"v#	c #B08161",
"w#	c #A67E61",
"x#	c #886851",
"y#	c #594436",
"z#	c #6C5546",
"A#	c #2C1E19",
"B#	c #3E191A",
"C#	c #5D2B2B",
"D#	c #6B3932",
"E#	c #724136",
"F#	c #734237",
"G#	c #6C3B33",
"H#	c #622F2D",
"I#	c #5F2B2B",
"J#	c #5D2729",
"K#	c #73453B",
"L#	c #A2765C",
"M#	c #BA8D6D",
"N#	c #BB8E6E",
"O#	c #A57D60",
"P#	c #745843",
"Q#	c #5F493A",
"R#	c #6B5445",
"S#	c #32241D",
"T#	c #401B1B",
"U#	c #5C2A2A",
"V#	c #602B2C",
"W#	c #5F2A2B",
"X#	c #5E292A",
"Y#	c #6A3D36",
"Z#	c #88634E",
"`#	c #98745A",
" $	c #98755A",
".$	c #866750",
"+$	c #5F493B",
"@$	c #624C3F",
"#$	c #612C2C",
"$$	c #5C2D2B",
"%$	c #4E2F27",
"&$	c #433125",
"*$	c #463427",
"=$	c #574335",
"-$	c #6C5445",
";$	c #32231C",
">$	c #612C2D",
",$	c #612D2D",
"'$	c #592828",
")$	c #340F13",
"!$	c #281E17",
"~$	c #4E3C31",
"{$	c #654F41",
"]$	c #715949",
"^$	c #32221D",
"/$	c #421D1D",
"($	c #5E2B2C",
"_$	c #552728",
":$	c #38181A",
"<$	c #362822",
"[$	c #5E493D",
"}$	c #554236",
"|$	c #3D2D28",
"1$	c #321D21",
"2$	c #482125",
"3$	c #5F2B2C",
"4$	c #54272A",
"5$	c #452128",
"6$	c #351A22",
"7$	c #322023",
"8$	c #42322A",
"9$	c #3A2C23",
"0$	c #1B0D14",
"a$	c #321A24",
"b$	c #472229",
"c$	c #56282B",
"d$	c #5D2B2C",
"e$	c #5A2A2B",
"f$	c #58292B",
"g$	c #59292B",
"h$	c #361D27",
"i$	c #341C27",
"j$	c #2D1822",
"k$	c #190B12",
"l$	c #382A22",
"m$	c #1C0D14",
"n$	c #311A24",
"o$	c #3A1E28",
"p$	c #442128",
"q$	c #492329",
"r$	c #412028",
"s$	c #422128",
"t$	c #402028",
"u$	c #2E1822",
"v$	c #180A11",
"w$	c #1D0D14",
"x$	c #301924",
"y$	c #331C27",
"z$	c #371D27",
"A$	c #522629",
"B$	c #512526",
"C$	c #4E2323",
"D$	c #4E2222",
"E$	c #451F21",
"F$	c #33181F",
"G$	c #2C1722",
"H$	c #321B26",
"I$	c #351C28",
"J$	c #413228",
"K$	c #351C27",
"L$	c #391E28",
"M$	c #391D25",
"N$	c #2E1419",
"O$	c #250E0E",
"P$	c #281411",
"Q$	c #251310",
"R$	c #180A0D",
"S$	c #211018",
"T$	c #2E1821",
"U$	c #201315",
"V$	c #2F1924",
"W$	c #1A0D14",
"X$	c #251B15",
"Y$	c #47372C",
"Z$	c #301A24",
"`$	c #321B25",
" %	c #2B1620",
".%	c #332222",
"+%	c #4A382F",
"@%	c #604B3E",
"#%	c #331B27",
"$%	c #1C0D15",
"%%	c #362921",
"&%	c #1D0E15",
"*%	c #1F0E16",
"=%	c #382A23",
"-%	c #372921",
";%	c #170B14",
">%	c #281624",
",%	c #2C1928",
"'%	c #2C1827",
")%	c #180B15",
"!%	c #392B22",
"~%	c #695243",
"{%	c #49382E",
"]%	c #2C1F1F",
"^%	c #231522",
"/%	c #211323",
"(%	c #201223",
"_%	c #2B1F1F",
":%	c #6B5345",
"<%	c #534036",
"[%	c #2A1E1D",
"}%	c #0F0712",
"|%	c #0F0711",
"1%	c #281D1D",
"2%	c #523F35",
"3%	c #695244",
"4%	c #403128",
"5%	c #1D0D15",
"6%	c #665042",
"7%	c #352820",
"8%	c #190C15",
"9%	c #2B1724",
"0%	c #2F1A28",
"a%	c #2F1A27",
"b%	c #190B14",
"c%	c #3E2F26",
"d%	c #1D1118",
"e%	c #241524",
"f%	c #251526",
"g%	c #251525",
"h%	c #241523",
"i%	c #1D1218",
"j%	c #3F3027",
"k%	c #604A3D",
"l%	c #47362F",
"m%	c #23171D",
"n%	c #160B18",
"o%	c #24191D",
"p%	c #48372F",
"q%	c #624D3F",
"r%	c #3D2F26",
"s%	c #2A1F1A",
"t%	c #2D221B",
"u%	c #3E2F27",
"v%	c #664F41",
"w%	c #664F42",
"                                                                                                                                ",
"                                                                                                                                ",
"                                                                                                                                ",
"                                                                                                                                ",
"                                                                                                                                ",
"                                                                                                                                ",
"                                                                                                                                ",
"                                                                                                                                ",
"                                                                                                                                ",
"                                                                                                                                ",
"                                                                                                                                ",
"                                                          . + + + + + + @                                                       ",
"                                                        # $ % & * * = - ; >                                                     ",
"                                                      # , ' ) ! ~ ~ { ] ^ / .                                                   ",
"                                                    . ( _ : < < < < [ } | 1 ; >                                                 ",
"                                                  2 3 4 5 6 7 8 8 8 8 9 < 0 a , b                                               ",
"                                                @ c d e f g 8 8 8 8 8 8 h i j k 3 >                                             ",
"                                              l m n o p 7 q 8 8 8 8 8 8 q r s t u v 2                                           ",
"                                            . ( w x y z A B B B B B B B B C D E F G ,                                           ",
"                                          l H I J K L M N O O O O O O O O P Q R S T ;                                           ",
"                                      > + U V W X Y Z `  ...+.+.+.+.+.+...@.#.$.%.&.*.                                          ",
"                                      l =.-.;.>.,.'.).!.~.{.].].].].].].^./.(._.:.&.*.                                          ",
"                                      / <.[.}.|.1.2.3.4.5.6.7.7.7.7.7.8.9.0.a.b.c.&.*.                                          ",
"                                      d.e.f.g.h.i.j.k.l.k.m.n.o.n.n.p.n.q.r.l.s.t.&.*.                                          ",
"                                      d.u.v.w.x.i.y.z.A.B.C.D.E.E.E.E.F.r.G.A.H.I.T 3                                           ",
"                                      d.u.v.w.x.J.K.L.M.G.N.O.O.O.O.O.O.B.7.P.Q.R.S.*.                                          ",
"                                      d.u.T.U.V.W.X.Y.Z.`. + + + + + + +.+`.++@+#+$+%+                                          ",
"                                      d.u.&+*+=+-+;+>+,+'+)+)+)+)+)+)+)+!+~+{+]+^+/+2 (+_+                                      ",
"                                      d.u.:+<+[+}+|+1+2+3+4+5+6+3+3+6+5+6+7+8+9+0+* % H 2                                       ",
"                                      d.u.a+b+c+d+e+f+g+h+i+j+k+l+m+k+i+n+o+p+q+r+s+t+u+v++ >                                   ",
"                                      / w+x+y+z+A+B+C+D+E+E+F+G+H+I+J+K+L+M+N+O+P+Q+R+S+T+U+V+                                  ",
"                                  W+%+X+Y+Z+`+ @ @ @ @ @ @ @.@+@@@#@$@%@&@*@=@-@;@>@ @,@'@)@!@                                  ",
"                                  ~@{@]@^@/@(@_@:@ @ @ @ @<@.@+@@@#@[@}@|@1@2@3@4@5@6@7@8@9@!@                                  ",
"                                  !@0@8@7@_@_@ @ @%@a@%@ @<@.@+@@@#@b@c@d@2@e@f@4@ @_@,@g@h@l                                   ",
"                                  !@i@'@,@ @5@ @j@k@+@l@>@_@.@+@@@#@b@c@m@n@o@f@4@ @_@p@q@h@r@                                  ",
"                                  !@i@'@s@_@_@t@k@u@v@w@>@_@.@+@@@#@b@c@m@n@x@f@4@ @_@y@z@A@B@C@@                               ",
"                                  !@i@D@E@j@j@F@G@#@H@F+>@_@.@+@@@#@b@c@m@n@x@f@4@>@_@I@&@J@K@L@+                               ",
"                                  !@0@M@N@O@O@+@P@Q@R@S@T@_@U@+@@@#@V@.@W@n@x@f@4@ @_@X@ @Y@Z@* +                               ",
"                                  l `@ #.#+#+#@###$#%#&#*#=#-#;##@#@>#,#'#)#!#~#{#*#%@j@C+]#^#* +                               ",
"                                  @ /#(#_#:#:#<#[#}#|#1#2#3#u@H@4##@5#6#7#8#9#0#a#u@b#c#d#Y@^#* +                               ",
"                                      %+`@e.e#f#g#h#i#j#k#l#m#m#l#n#o#p#q#r#s#0#t#+@u#v#w#x#y#H (+                              ",
"                                      W+%+/#z#{@A#B#C#D#E#F#F#F#F#F#G#H#I#r#J#K#L#M#N#O#P#Q#R#V+_+                              ",
"                                              c S#T#U#V#q#q#q#q#q#q#W#r#r#r#X#Y#Z#`# $.$+$@$#                                   ",
"                                            _+@$S#T#U##$r#r#r#r#r#r#r#r#r#r##$$$%$&$*$=$-$(+_+                                  ",
"                                              c ;$T#U#>$r#r#r#r#r#r#r#r#r#r#,$'$)$!$~${$+                                       ",
"                                          W+]$^+^$/$U##$r#r#r#r#r#r#r#r#r#r#($_$:$<$[$!@W+                                      ",
"                                          /#}$|$1$2$C##$r#r#r#r#r#r#r#r##$3$4$5$6$7$8$^+]$                                      ",
"                                          *.9$0$a$b$c$d$r#r#r#r#($e$f$f$g$c$b$h$i$j$k$w+d.                                      ",
"                                          3 l$m$n$o$p$4$3$r#r#r#f$q$r$r$s$t$o$i$i$u$v$e.d.                                      ",
"                                          *.&.w$x$y$z$b$A$B$C$D$E$F$G$H$y$y$i$i$I$u$v$J$d.                                      ",
"                                          *.&.w$x$i$K$L$M$N$O$P$Q$R$S$n$i$i$i$i$i$T$U$I /                                       ",
"                                          *.&.w$x$K$i$i$V$W$X$Y$Y$X$w$Z$K$i$i$`$ %.%+%@%l                                       ",
"                                          *.&.m$V$y$#%y$V$$%%%$ $ %%&%Z$K$i$K$Z$*%=%m .                                         ",
"                                          3 -%;%>%,%'%,%>%)%%%3 *.!%&%Z$K$i$K$x$m$&.~%                                          ",
"                                          R#{%]%^%/%(%/%^%_%{%:%; l$&%Z$K$i$K$x$w$&.*.                                          ",
"                                          + C@<%[%}%|%}%1%2%C@+ ; T &%Z$K$i$K$x$w$&.*.                                          ",
"                                              3%h@4%e.4%i@*.    ; -%&%Z$K$i$K$x$w$&.*.                                          ",
"                                              b /+d./ d./+b     ; -%5%x$i$i$i$x$m$&.*.                                          ",
"                                                                6%7%8%9%0%a%0%9%b%-%3                                           ",
"                                                                *.c%d%e%f%g%f%h%i%j%3%                                          ",
"                                                                !@k%l%m%n%n%n%o%p%@%]$                                          ",
"                                                                  (+q%r%s%t%s%u%( .                                             ",
"                                                                    ]$v%@$q%@$w%]$                                              ",
"                                                                                                                                "};
