/* XPM */
static char * player_up6_xpm[] = {
"64 64 557 2",
"  	c #785E4E",
". 	c #6F5748",
"+ 	c #675042",
"@ 	c #664F42",
"# 	c #665042",
"$ 	c #745B4B",
"% 	c #5B473B",
"& 	c #392C25",
"* 	c #332821",
"= 	c #352922",
"- 	c #705748",
"; 	c #5E493D",
"> 	c #443B35",
", 	c #242F32",
"' 	c #232E32",
") 	c #222E32",
"! 	c #372E2A",
"~ 	c #2D373B",
"{ 	c #35454B",
"] 	c #36474C",
"^ 	c #36464C",
"/ 	c #705849",
"( 	c #5B473A",
"_ 	c #433A34",
": 	c #324247",
"< 	c #394A50",
"[ 	c #3A4B51",
"} 	c #775D4D",
"| 	c #735A4A",
"1 	c #614C41",
"2 	c #3B3232",
"3 	c #2A343B",
"4 	c #72594A",
"5 	c #5A4639",
"6 	c #44393C",
"7 	c #3A3C4F",
"8 	c #3A4454",
"9 	c #394951",
"0 	c #594539",
"a 	c #715949",
"b 	c #715849",
"c 	c #614B3E",
"d 	c #3A2C23",
"e 	c #202332",
"f 	c #393E54",
"g 	c #3F485C",
"h 	c #3D4A57",
"i 	c #3D4B57",
"j 	c #423329",
"k 	c #6D5547",
"l 	c #735A4B",
"m 	c #382B24",
"n 	c #19120E",
"o 	c #11151E",
"p 	c #242A3A",
"q 	c #353D50",
"r 	c #424A60",
"s 	c #444D63",
"t 	c #444C63",
"u 	c #413228",
"v 	c #614E45",
"w 	c #514A59",
"x 	c #3C425B",
"y 	c #232737",
"z 	c #04080D",
"A 	c #121923",
"B 	c #292F40",
"C 	c #393E55",
"D 	c #3D435A",
"E 	c #3D445B",
"F 	c #121A24",
"G 	c #05090F",
"H 	c #423229",
"I 	c #765C4D",
"J 	c #5E493C",
"K 	c #3F363D",
"L 	c #575C7C",
"M 	c #5E668B",
"N 	c #3A3F58",
"O 	c #04090E",
"P 	c #111923",
"Q 	c #1B222F",
"R 	c #212836",
"S 	c #252F3C",
"T 	c #273340",
"U 	c #283340",
"V 	c #131A24",
"W 	c #070C12",
"X 	c #765C4C",
"Y 	c #584438",
"Z 	c #2D2D3A",
"` 	c #596083",
" .	c #666F96",
"..	c #40455F",
"+.	c #070F13",
"@.	c #162129",
"#.	c #1A262F",
"$.	c #19252E",
"%.	c #1A262E",
"&.	c #17222B",
"*.	c #0A1117",
"=.	c #2F2E3B",
"-.	c #656E95",
";.	c #3F445E",
">.	c #0B1216",
",.	c #1B262E",
"'.	c #202D36",
").	c #1F2C35",
"!.	c #1B2731",
"~.	c #18212B",
"{.	c #17202B",
"].	c #1C262F",
"^.	c #0D141A",
"/.	c #302E3B",
"(.	c #596184",
"_.	c #666E96",
":.	c #3F455F",
"<.	c #0D0B12",
"[.	c #1E1D28",
"}.	c #222833",
"|.	c #1E2B35",
"1.	c #1C2832",
"2.	c #1C2831",
"3.	c #1F1E2A",
"4.	c #0F0E16",
"5.	c #403128",
"6.	c #6D5546",
"7.	c #2D2A35",
"8.	c #505777",
"9.	c #5C6487",
"0.	c #393E56",
"a.	c #090109",
"b.	c #180C1D",
"c.	c #1D1D2B",
"d.	c #1E2833",
"e.	c #1E2A34",
"f.	c #1E2934",
"g.	c #1F1E2B",
"h.	c #231822",
"i.	c #2F2220",
"j.	c #503D32",
"k.	c #241E22",
"l.	c #2F3348",
"m.	c #373C53",
"n.	c #202333",
"o.	c #010002",
"p.	c #06010C",
"q.	c #15101E",
"r.	c #1F1B2A",
"s.	c #211D2C",
"t.	c #201D2C",
"u.	c #17121F",
"v.	c #6C5546",
"w.	c #1D1510",
"x.	c #000000",
"y.	c #38291E",
"z.	c #624A38",
"A.	c #6B4E3D",
"B.	c #66453A",
"C.	c #654339",
"D.	c #664439",
"E.	c #66443A",
"F.	c #624036",
"G.	c #4D2E28",
"H.	c #422822",
"I.	c #594438",
"J.	c #6E5647",
"K.	c #120A05",
"L.	c #664E3B",
"M.	c #A07B5F",
"N.	c #AA7F61",
"O.	c #A17054",
"P.	c #9F6D51",
"Q.	c #A06E52",
"R.	c #9A694E",
"S.	c #7B4D3D",
"T.	c #562C28",
"U.	c #442B25",
"V.	c #3B2D24",
"W.	c #3F3026",
"X.	c #765D4D",
"Y.	c #1E1610",
"Z.	c #302319",
"`.	c #6B513E",
" +	c #977459",
".+	c #B88D6E",
"++	c #BE906E",
"@+	c #B88666",
"#+	c #B68564",
"$+	c #B58362",
"%+	c #B17D5C",
"&+	c #AE7858",
"*+	c #B58363",
"=+	c #B88766",
"-+	c #B18061",
";+	c #8C5D49",
">+	c #6A3E35",
",+	c #765442",
"'+	c #7F614A",
")+	c #7E604A",
"!+	c #735744",
"~+	c #644D3F",
"{+	c #5D483B",
"]+	c #3C2D22",
"^+	c #2F2218",
"/+	c #604837",
"(+	c #9F7A5E",
"_+	c #BA8F6F",
":+	c #BF9372",
"<+	c #BE9271",
"[+	c #BF9271",
"}+	c #BC8E6D",
"|+	c #B38161",
"1+	c #AD7757",
"2+	c #BE9170",
"3+	c #B38769",
"4+	c #8C614D",
"5+	c #794D40",
"6+	c #A37A5F",
"7+	c #B88E6E",
"8+	c #B68C6D",
"9+	c #917056",
"0+	c #4E3B2E",
"a+	c #745946",
"b+	c #8D6C54",
"c+	c #906E55",
"d+	c #9B775C",
"e+	c #B58C6C",
"f+	c #C29574",
"g+	c #C19574",
"h+	c #C09573",
"i+	c #B48262",
"j+	c #BC8F6F",
"k+	c #B08568",
"l+	c #966C56",
"m+	c #774B3F",
"n+	c #7B4F42",
"o+	c #AC8165",
"p+	c #C39775",
"q+	c #C09473",
"r+	c #473528",
"s+	c #634D40",
"t+	c #423127",
"u+	c #86664E",
"v+	c #B78D6D",
"w+	c #BE9272",
"x+	c #BD9271",
"y+	c #C09574",
"z+	c #BE9070",
"A+	c #BB8E6E",
"B+	c #9F755C",
"C+	c #6F4139",
"D+	c #5D2729",
"E+	c #794D41",
"F+	c #AB8165",
"G+	c #BE9372",
"H+	c #967359",
"I+	c #483629",
"J+	c #624C3F",
"K+	c #3D2D23",
"L+	c #876750",
"M+	c #BB9070",
"N+	c #C39675",
"O+	c #BC8F6E",
"P+	c #B68666",
"Q+	c #B98969",
"R+	c #9C725A",
"S+	c #683833",
"T+	c #591E25",
"U+	c #3E2E24",
"V+	c #87674F",
"W+	c #C29674",
"X+	c #BB8C6C",
"Y+	c #B17E5E",
"Z+	c #BE9171",
"`+	c #9D735B",
" @	c #6A3B35",
".@	c #5A2126",
"+@	c #624D3F",
"@@	c #3F2F25",
"#@	c #BB8C6B",
"$@	c #B17D5D",
"%@	c #4A372A",
"&@	c #755C4C",
"*@	c #6B5345",
"=@	c #564336",
"-@	c #785B47",
";@	c #9E7A5E",
">@	c #B48B6C",
",@	c #BC8D6C",
"'@	c #B27E5E",
")@	c #B58463",
"!@	c #BB8F6E",
"~@	c #9E745B",
"{@	c #A78063",
"]@	c #80614B",
"^@	c #6A5140",
"/@	c #705848",
"(@	c #5F493C",
"_@	c #644C3A",
":@	c #9C775C",
"<@	c #B78969",
"[@	c #AE7B5C",
"}@	c #B38262",
"|@	c #BD9070",
"1@	c #BD8F6F",
"2@	c #B48261",
"3@	c #B88B6C",
"4@	c #9B7159",
"5@	c #6A3A34",
"6@	c #5A2127",
"7@	c #C19473",
"8@	c #BC9171",
"9@	c #B08769",
"0@	c #81634C",
"a@	c #49382C",
"b@	c #664F41",
"c@	c #6A5345",
"d@	c #5B4639",
"e@	c #7A5D48",
"f@	c #8E6D54",
"g@	c #906F55",
"h@	c #8F6951",
"i@	c #91624A",
"j@	c #A27156",
"k@	c #B58565",
"l@	c #B98968",
"m@	c #B78666",
"n@	c #A97759",
"o@	c #9D7158",
"p@	c #845A49",
"q@	c #663531",
"r@	c #5B2428",
"s@	c #794E41",
"t@	c #886850",
"u@	c #3C2D23",
"v@	c #413226",
"w@	c #382A1F",
"x@	c #462A22",
"y@	c #63362F",
"z@	c #885643",
"A@	c #A47053",
"B@	c #AA7557",
"C@	c #A97456",
"D@	c #A87355",
"E@	c #A87254",
"F@	c #A77254",
"G@	c #96634B",
"H@	c #75453A",
"I@	c #643230",
"J@	c #612D2D",
"K@	c #794C40",
"L@	c #AA7E63",
"M@	c #BF9272",
"N@	c #564337",
"O@	c #31251D",
"P@	c #2A050D",
"Q@	c #552526",
"R@	c #713F35",
"S@	c #82513F",
"T@	c #865441",
"U@	c #875542",
"V@	c #7A483A",
"W@	c #64302E",
"X@	c #5D282A",
"Y@	c #602C2C",
"Z@	c #5E282A",
"`@	c #76463B",
" #	c #A27257",
".#	c #B88968",
"+#	c #331414",
"@#	c #572727",
"##	c #622E2D",
"$#	c #622F2D",
"%#	c #632F2E",
"&#	c #632F2D",
"*#	c #5E292A",
"=#	c #754439",
"-#	c #9F6E53",
";#	c #B78565",
">#	c #AC8567",
",#	c #7F624B",
"'#	c #4C3A2F",
")#	c #5F2A2B",
"!#	c #5E2A2B",
"~#	c #5F2B2B",
"{#	c #784A3E",
"]#	c #A77A5F",
"^#	c #BE906F",
"/#	c #A57E62",
"(#	c #785B46",
"_#	c #664E3F",
":#	c #695244",
"<#	c #3B2B26",
"[#	c #39191C",
"}#	c #582828",
"|#	c #612C2C",
"1#	c #71453A",
"2#	c #956F57",
"3#	c #A67F63",
"4#	c #A47E61",
"5#	c #866750",
"6#	c #564235",
"7#	c #644E40",
"8#	c #362722",
"9#	c #2E1C21",
"0#	c #421F26",
"a#	c #59292B",
"b#	c #602B2C",
"c#	c #5F312D",
"d#	c #5A3D31",
"e#	c #584232",
"f#	c #584333",
"g#	c #614A3B",
"h#	c #6B5445",
"i#	c #4D3B31",
"j#	c #150A0E",
"k#	c #2B1620",
"l#	c #452229",
"m#	c #5A2A2B",
"n#	c #612D2C",
"o#	c #582728",
"p#	c #36141B",
"q#	c #000008",
"r#	c #0E0906",
"s#	c #4F3D32",
"t#	c #4E3C31",
"u#	c #1A0F10",
"v#	c #442129",
"w#	c #5F2C2C",
"x#	c #58292B",
"y#	c #422027",
"z#	c #28141E",
"A#	c #190E10",
"B#	c #56282B",
"C#	c #492329",
"D#	c #3C1F28",
"E#	c #2B1720",
"F#	c #1B0F11",
"G#	c #422128",
"H#	c #5E2B2C",
"I#	c #5B2929",
"J#	c #5A2929",
"K#	c #5B2A2B",
"L#	c #5C2A2C",
"M#	c #482329",
"N#	c #381D27",
"O#	c #341C27",
"P#	c #1B0F10",
"Q#	c #3A1E28",
"R#	c #53272A",
"S#	c #592828",
"T#	c #441D1D",
"U#	c #3D1B1E",
"V#	c #452127",
"W#	c #4D3C31",
"X#	c #170C0F",
"Y#	c #281520",
"Z#	c #301B27",
"`#	c #331B27",
" $	c #432129",
".$	c #562728",
"+$	c #542626",
"@$	c #4F2725",
"#$	c #422B24",
"$$	c #372723",
"%$	c #301B22",
"&$	c #311A24",
"*$	c #180E11",
"=$	c #211220",
"-$	c #281727",
";$	c #301928",
">$	c #371B27",
",$	c #34181E",
"'$	c #301314",
")$	c #2E1211",
"!$	c #432D26",
"~$	c #2E201E",
"{$	c #26131C",
"]$	c #321B26",
"^$	c #604A3D",
"/$	c #44342C",
"($	c #291D21",
"_$	c #1B0F1E",
":$	c #1B101E",
"<$	c #362926",
"[$	c #46362C",
"}$	c #48372D",
"|$	c #574437",
"1$	c #2E221B",
"2$	c #211018",
"3$	c #321B25",
"4$	c #351C27",
"5$	c #775D4E",
"6$	c #42322A",
"7$	c #191112",
"8$	c #150E10",
"9$	c #271C1A",
"0$	c #554237",
"a$	c #221018",
"b$	c #604B3E",
"c$	c #544135",
"d$	c #534034",
"e$	c #574337",
"f$	c #6A5244",
"g$	c #160A0E",
"h$	c #745B4C",
"i$	c #2E211D",
"j$	c #24121A",
"k$	c #2C1920",
"l$	c #2C1E1B",
"m$	c #43312B",
"n$	c #2F1D21",
"o$	c #2E1822",
"p$	c #331C26",
"q$	c #311A25",
"r$	c #27131C",
"s$	c #392925",
"t$	c #574338",
"u$	c #6A5344",
"v$	c #3D2F26",
"w$	c #1C0D14",
"x$	c #301923",
"y$	c #2F1923",
"z$	c #1A0C12",
"A$	c #413229",
"B$	c #6C5446",
"C$	c #3A2C24",
"D$	c #301A24",
"E$	c #351D28",
"F$	c #190B11",
"G$	c #1A0C14",
"H$	c #2C1824",
"I$	c #311B28",
"J$	c #301A27",
"K$	c #2B1723",
"L$	c #170A12",
"M$	c #413128",
"N$	c #140914",
"O$	c #241423",
"P$	c #271627",
"Q$	c #231322",
"R$	c #160C13",
"S$	c #44342A",
"T$	c #40302A",
"U$	c #22161F",
"V$	c #1A0E1D",
"W$	c #190E1C",
"X$	c #1A0E1C",
"Y$	c #25191F",
"Z$	c #43332C",
"`$	c #5F4A3D",
" %	c #352822",
".%	c #1C1312",
"+%	c #201714",
"@%	c #1D1412",
"#%	c #3A2C25",
"                                                                                                                                ",
"                                                                                                                                ",
"                                                                                                                                ",
"                                                                                                                                ",
"                                                                                                                                ",
"                                                                                                                                ",
"                                                                                                                                ",
"                                                                                                                                ",
"                                                        . + @ # # @ + .                                                         ",
"                                                      $ % & * = = * & % $                                                       ",
"                                                    - ; > , ' ) ) ' , > ; -                                                     ",
"                                                  $ ; ! ~ { ] ^ ^ ] { ~ ! ; $                                                   ",
"                                                / ( _ ~ : < [ [ [ [ < : ~ _ ( /                                                 ",
"                                            } | 1 2 3 ^ < < < < < < < < ^ 3 2 1 | }                                             ",
"                                            4 5 6 7 8 9 < < < < < < < < 9 8 7 6 0 a                                             ",
"                                        } b c d e f g h i i i i i i i i h g f e j k                                             ",
"                                        l % m n o p q r s t t t t t t s r q p o u k                                             ",
"                                    } . v w x y z A B C D E E E E E E D C B F G H k                                             ",
"                                    I J K L M N O P Q R S T U U U U T S R Q V W H k                                             ",
"                                    X Y Z `  ...+.@.#.$.$.%.%.%.%.%.%.$.$.#.&.*.H k                                             ",
"                                    X 0 =.` -.;.>.,.'.).!.~.{.{.{.{.~.!.).'.].^.H k                                             ",
"                                    X 0 /.(._.:.<.[.}.'.|.1.2.1.1.2.1.|.'.}.3.4.5.6.                                            ",
"                                    X 0 7.8.9.0.a.b.c.d.e.f.f.f.f.f.f.e.d.g.h.i.j.-                                             ",
"                                    X 0 k.l.m.n.o.p.q.r.s.t.t.t.t.t.t.t.r.u.i.Y v.X                                             ",
"                                    X 0 w.x.x.x.y.z.A.B.C.D.D.E.E.D.D.D.F.G.H.I.+ + J.}                                         ",
"                                    X 0 w.x.x.K.L.M.N.O.P.P.P.P.P.P.P.Q.R.S.T.U.V.W.5 |                                         ",
"                                    X.5 Y.x.Z.`. +.+++@+#+$+%+&+&+%+*+=+-+;+>+,+'+)+!+~+J.}                                     ",
"                                    | {+]+^+/+(+_+:+:+<+[+}+|+1+1+|+}+2+3+4+5+6+7+8+9+0+{+X                                     ",
"                                  J.{+a+b+c+d+e+f+g+h+h+g+2+i+1+1+*+j+k+l+m+n+o+p+q+ +r+Y X                                     ",
"                                  s+t+u+v+w+x+:+:+2+<+q+y+z+i+1+1+*+A+B+C+D+E+F+g+G+H+I+0 X                                     ",
"                                  J+K+L+M+N+g+q+O+P+Q+[+g+z+i+1+1+*+A+R+S+T+5+F+g+G+H+I+0 X                                     ",
"                                  J+U+V+M+W+q+q+X+Y+*+Z+g+z+i+1+1+*+A+`+ @.@5+F+g+G+H+r+0 I                                     ",
"                                  +@@@V+_+g+q+q+#@$@*+Z+g+z+i+1+1+*+A+`+ @.@5+F+g+G+ +%@0 &@                                    ",
"                                  *@=@-@;@>@g+W+,@'@)@[+g+2+i+1+1+)@!@~@ @.@5+F+g+:+{@]@^@+ 4                                   ",
"                                  I /@(@_@:@M+x+<@[@}@|@q+1@2@1+1+i+3@4@5@6@5+F+7@q+8@9@0@a@b@                                  ",
"                                      c@d@e@f@g@h@i@j@k@l@m@'@&+&+n@o@p@q@r@s@o+g+q+W+M+t@u@J+                                  ",
"                                      } b d@v@w@x@y@z@A@B@C@D@E@F@G@H@I@J@D+K@L@M@q+f+_+V+U++@                                  ",
"                                        } *@N@O@P@Q@R@S@T@T@T@U@T@V@W@X@Y@Z@`@ #.#2+N+M+t@u@J+                                  ",
"                                            v.u +#@###$#%#&#&#&#&###Y@Y@Y@*#=#-#;#z+M+>#,#'#+                                   ",
"                                            J.j +#@#Y@)#!#)#)#)#)#~#Y@Y@Y@X@{#]#^#<+/#(#_#:#|                                   ",
"                                        X.. J <#[#}#|#Y@Y@Y@Y@Y@Y@Y@Y@Y@Y@*#1#2#3#4#5#6#7#X.                                    ",
"                                        l Y 8#9#0#a#|#Y@Y@Y@Y@Y@Y@Y@Y@Y@Y@b#c#d#e#f#g#h#$                                       ",
"                                        4 i#j#k#l#m#|#Y@Y@Y@Y@Y@Y@Y@Y@Y@Y@n#o#p#q#r#s#l                                         ",
"                                        4 t#u#k#v#m#|#Y@Y@Y@Y@Y@Y@Y@Y@Y@Y@w#x#y#z#A#t#4                                         ",
"                                        4 t#u#k#l#m#|#Y@Y@Y@Y@Y@|#|#|#|#w#B#C#D#E#F#t#4                                         ",
"                                        4 t#u#k#G#B#H#Y@Y@Y@Y@~#I#J#K#L#a#M#N#O#k#P#t#4                                         ",
"                                        4 t#P#k#Q#l#R#H#|#|#J@S#T#U#V#M#l#D#O#O#k#P#t#4                                         ",
"                                        4 W#X#Y#Z#`# $R#.$+$+$@$#$$$%$&$O#O#O#O#k#P#t#4                                         ",
"                                        4 s#*$=$-$-$;$>$,$'$)$!$(@Y ~${$]$O#O#O#k#P#t#4                                         ",
"                                        $ ^$/$($_$_$_$:$<$[$}$|$. s+1$2$3$4$O#O#k#P#t#4                                         ",
"                                        5$$ + 6$7$7$8$9$0$J.b 4 I +@1$a$3$4$O#O#k#P#t#4                                         ",
"                                            l b$c$c$d$e$f$        s+1$2$3$4$O#4$k#g$i#4                                         ",
"                                            5$&@$ $ $ h$X.    } l J i$j$]$4$O#3$k$l$c$|                                         ",
"                                                              / 5 m$n$o$p$4$q$r$s$t$u$X                                         ",
"                                                              c@v$w$x$O#O#4$y$z$A$B$                                            ",
"                                                              u$C$w$D$E$O#4$y$F$H J.                                            ",
"                                                              u$C$G$H$I$J$I$K$L$M$k                                             ",
"                                                              c@v$N$O$P$P$P$Q$R$S$k                                             ",
"                                                              / 5 T$U$V$W$X$Y$Z${+4                                             ",
"                                                              } l `$ %.%+%@%#%s+$ }                                             ",
"                                                                  . J Y 0 Y ^$b                                                 ",
"                                                                  } I X X X I 5$                                                ",
"                                                                                                                                ",
"                                                                                                                                "};
