/* XPM */
static char * player_down4_xpm[] = {
"64 64 671 2",
"  	c #785E4E",
". 	c #755B4C",
"+ 	c #715849",
"@ 	c #705748",
"# 	c #705849",
"$ 	c #735A4A",
"% 	c #775D4D",
"& 	c #685143",
"* 	c #4F3D32",
"= 	c #47362C",
"- 	c #48372D",
"; 	c #48382D",
"> 	c #5D483B",
", 	c #745A4B",
"' 	c #755C4C",
") 	c #6C5445",
"! 	c #544339",
"~ 	c #2B2B2A",
"{ 	c #192226",
"] 	c #1B2326",
"^ 	c #192225",
"/ 	c #1C2326",
"( 	c #433832",
"_ 	c #644E41",
": 	c #72594A",
"< 	c #6B5345",
"[ 	c #4B3A30",
"} 	c #353434",
"| 	c #313F43",
"1 	c #324146",
"2 	c #314046",
"3 	c #314146",
"4 	c #33393C",
"5 	c #3E332D",
"6 	c #5E493C",
"7 	c #6A5244",
"8 	c #323232",
"9 	c #2C3A3F",
"0 	c #37484E",
"a 	c #3A4B51",
"b 	c #394A51",
"c 	c #394A50",
"d 	c #324147",
"e 	c #273135",
"f 	c #463B34",
"g 	c #624C3F",
"h 	c #715949",
"i 	c #775D4E",
"j 	c #6D5547",
"k 	c #4C3B32",
"l 	c #303031",
"m 	c #334045",
"n 	c #37474D",
"o 	c #38494F",
"p 	c #34444A",
"q 	c #30373A",
"r 	c #3C312D",
"s 	c #614B3F",
"t 	c #54433C",
"u 	c #3D3843",
"v 	c #333B4A",
"w 	c #38474F",
"x 	c #394B50",
"y 	c #35414D",
"z 	c #343746",
"A 	c #4A3D3E",
"B 	c #5F4A3E",
"C 	c #523F34",
"D 	c #2C2831",
"E 	c #3B3F56",
"F 	c #424A5F",
"G 	c #3B4A54",
"H 	c #3A4A51",
"I 	c #3F4B5B",
"J 	c #41475F",
"K 	c #303142",
"L 	c #3A2D26",
"M 	c #634D3F",
"N 	c #745B4B",
"O 	c #4D3B31",
"P 	c #1F212D",
"Q 	c #3C4259",
"R 	c #444D63",
"S 	c #38494E",
"T 	c #384A4F",
"U 	c #33484F",
"V 	c #2E454F",
"W 	c #2D454F",
"X 	c #30464F",
"Y 	c #36494F",
"Z 	c #384A4E",
"` 	c #414C5D",
" .	c #434A63",
"..	c #2D3144",
"+.	c #1B1512",
"@.	c #413228",
"#.	c #5D483C",
"$.	c #4E3C31",
"%.	c #1F1F2A",
"&.	c #363B51",
"*.	c #434C63",
"=.	c #465366",
"-.	c #425160",
";.	c #434E57",
">.	c #605F55",
",.	c #746C57",
"'.	c #776E57",
").	c #6C6656",
"!.	c #4E5456",
"~.	c #3F4E5C",
"{.	c #465465",
"].	c #465065",
"^.	c #3E445C",
"/.	c #272B3D",
"(.	c #141621",
"_.	c #2A2D3E",
":.	c #4A424A",
"<.	c #665148",
"[.	c #17151B",
"}.	c #222736",
"|.	c #424A63",
"1.	c #5D6688",
"2.	c #566183",
"3.	c #595A68",
"4.	c #9D8764",
"5.	c #C6A768",
"6.	c #CCAB68",
"7.	c #B59A66",
"8.	c #766C64",
"9.	c #4E5977",
"0.	c #5F698B",
"a.	c #515A77",
"b.	c #2F3549",
"c.	c #10151E",
"d.	c #292D40",
"e.	c #515878",
"f.	c #585C7B",
"g.	c #4A414A",
"h.	c #110C0D",
"i.	c #13131E",
"j.	c #3A3F57",
"k.	c #596083",
"l.	c #58638A",
"m.	c #6B6A80",
"n.	c #B89D77",
"o.	c #E6C071",
"p.	c #ECC571",
"q.	c #D2B06F",
"r.	c #87776B",
"s.	c #4D5779",
"t.	c #5C6488",
"u.	c #4B516F",
"v.	c #232535",
"w.	c #000000",
"x.	c #32364C",
"y.	c #61698E",
"z.	c #60688D",
"A.	c #34374C",
"B.	c #140C10",
"C.	c #1B111F",
"D.	c #272436",
"E.	c #353A50",
"F.	c #4A5578",
"G.	c #757693",
"H.	c #BAA287",
"I.	c #E3BD71",
"J.	c #E9C16E",
"K.	c #CFAD6D",
"L.	c #847569",
"M.	c #3B4461",
"N.	c #373E55",
"O.	c #2D2F43",
"P.	c #211929",
"Q.	c #090000",
"R.	c #6E5647",
"S.	c #5C473B",
"T.	c #3B2D24",
"U.	c #070407",
"V.	c #1A0C1F",
"W.	c #1E1322",
"X.	c #181B28",
"Y.	c #343F5C",
"Z.	c #5E627D",
"`.	c #948372",
" +	c #B4975D",
".+	c #B99A5A",
"++	c #A48A59",
"@+	c #675D56",
"#+	c #233047",
"$+	c #161F2C",
"%+	c #1B1522",
"&+	c #211425",
"*+	c #0E0005",
"=+	c #61698F",
"-+	c #35384D",
";+	c #735A4B",
">+	c #614B3D",
",+	c #463529",
"'+	c #3A2A1F",
")+	c #33241E",
"!+	c #291B23",
"~+	c #1F1626",
"{+	c #1A1C28",
"]+	c #2B2B37",
"^+	c #403943",
"/+	c #534640",
"(+	c #5E4D39",
"_+	c #604F38",
":+	c #584838",
"<+	c #443937",
"[+	c #2F2A32",
"}+	c #1E202A",
"|+	c #1C1827",
"1+	c #201323",
"2+	c #0D0004",
"3+	c #303449",
"4+	c #5D6589",
"5+	c #5D6489",
"6+	c #333549",
"7+	c #745946",
"8+	c #8D6C53",
"9+	c #926F56",
"0+	c #84654E",
"a+	c #523E33",
"b+	c #04061B",
"c+	c #171424",
"d+	c #563C33",
"e+	c #7B553F",
"f+	c #815843",
"g+	c #7E5543",
"h+	c #7D5543",
"i+	c #7F5743",
"j+	c #815944",
"k+	c #6C4A3C",
"l+	c #34262B",
"m+	c #00001D",
"n+	c #000012",
"o+	c #0D1B30",
"p+	c #3C4562",
"q+	c #3D4562",
"r+	c #232634",
"s+	c #634D40",
"t+	c #423127",
"u+	c #86664E",
"v+	c #B78D6D",
"w+	c #BF9373",
"x+	c #AC8467",
"y+	c #6E523F",
"z+	c #2D171A",
"A+	c #492F2D",
"B+	c #A37153",
"C+	c #AD7859",
"D+	c #AC795A",
"E+	c #AD7A5A",
"F+	c #AC7959",
"G+	c #AA7657",
"H+	c #92644B",
"I+	c #604137",
"J+	c #49332D",
"K+	c #4D392C",
"L+	c #4C392B",
"M+	c #4D3A2E",
"N+	c #4F3D35",
"O+	c #43342F",
"P+	c #251B18",
"Q+	c #3D2D23",
"R+	c #876750",
"S+	c #BB9070",
"T+	c #C49876",
"U+	c #B3896A",
"V+	c #7E5846",
"W+	c #653B30",
"X+	c #875A44",
"Y+	c #9E6C50",
"Z+	c #AC7758",
"`+	c #B68363",
" @	c #BB8B6A",
".@	c #BB8C6C",
"+@	c #B88867",
"@@	c #B17D5C",
"#@	c #A47052",
"$@	c #95664D",
"%@	c #966D54",
"&@	c #9E785D",
"*@	c #9F7A5E",
"=@	c #9F795D",
"-@	c #86664D",
";@	c #463426",
">@	c #3C2D23",
",@	c #86674F",
"'@	c #BA8F6F",
")@	c #C39675",
"!@	c #B3886A",
"~@	c #845949",
"{@	c #7D4E3F",
"]@	c #A67457",
"^@	c #B17C5C",
"/@	c #AE7959",
"(@	c #B58363",
"_@	c #BB8D6C",
":@	c #BC8E6D",
"<@	c #B88968",
"[@	c #B07D5D",
"}@	c #B17E5E",
"|@	c #B88969",
"1@	c #BF9272",
"2@	c #C09473",
"3@	c #AB8366",
"4@	c #7B5E48",
"5@	c #634B3C",
"6@	c #6A5344",
"7@	c #403025",
"8@	c #876850",
"9@	c #855A49",
"0@	c #845847",
"a@	c #AF8264",
"b@	c #B78666",
"c@	c #AF7A5A",
"d@	c #AF7B5B",
"e@	c #B27F5F",
"f@	c #B17D5D",
"g@	c #B2805F",
"h@	c #BB8C6B",
"i@	c #BF9271",
"j@	c #C19573",
"k@	c #C19574",
"l@	c #AE8567",
"m@	c #8A6952",
"n@	c #544033",
"o@	c #765D4D",
"p@	c #685040",
"q@	c #785C47",
"r@	c #9E795E",
"s@	c #BC9171",
"t@	c #C29674",
"u@	c #B88C6D",
"v@	c #9D725A",
"w@	c #946954",
"x@	c #A3785F",
"y@	c #AD8062",
"z@	c #B38262",
"A@	c #B48262",
"B@	c #B98969",
"C@	c #BD9070",
"D@	c #BE9070",
"E@	c #BF9372",
"F@	c #977459",
"G@	c #473629",
"H@	c #584538",
"I@	c #765C4C",
"J@	c #6C5446",
"K@	c #49382D",
"L@	c #725843",
"M@	c #A98365",
"N@	c #BA8E6F",
"O@	c #A67B61",
"P@	c #845A49",
"Q@	c #956A54",
"R@	c #B78A6B",
"S@	c #BE906F",
"T@	c #BD8F6F",
"U@	c #BE9170",
"V@	c #BE9271",
"W@	c #B88868",
"X@	c #B38060",
"Y@	c #B98A69",
"Z@	c #BE9372",
"`@	c #977359",
" #	c #483629",
".#	c #594539",
"+#	c #3C2D24",
"@#	c #765A45",
"##	c #B58B6C",
"$#	c #C09573",
"%#	c #A88063",
"&#	c #6D493B",
"*#	c #805844",
"=#	c #B08162",
"-#	c #B98968",
";#	c #B78767",
">#	c #967359",
",#	c #3E2F26",
"'#	c #B38A6B",
")#	c #C19473",
"!#	c #A47E62",
"~#	c #5E4535",
"{#	c #734F3A",
"]#	c #A87658",
"^#	c #B07C5C",
"/#	c #AD7858",
"(#	c #B48A6B",
"_#	c #BD8E6D",
":#	c #BB8D6D",
"<#	c #C29574",
"[#	c #A57F62",
"}#	c #5B4534",
"|#	c #775842",
"1#	c #AF8162",
"2#	c #B48161",
"3#	c #AD7757",
"4#	c #AC7656",
"5#	c #B07B5B",
"6#	c #B68565",
"7#	c #AF7959",
"8#	c #AD7756",
"9#	c #B27E5D",
"0#	c #BC8D6D",
"a#	c #473628",
"b#	c #584438",
"c#	c #6D5546",
"d#	c #4C3B30",
"e#	c #735843",
"f#	c #A57E62",
"g#	c #B18364",
"h#	c #B38161",
"i#	c #BD9271",
"j#	c #967259",
"k#	c #5C4233",
"l#	c #7F5E48",
"m#	c #B38767",
"n#	c #B68464",
"o#	c #AE7858",
"p#	c #AD7656",
"q#	c #BD906F",
"r#	c #B18162",
"s#	c #A47053",
"t#	c #9F6C4F",
"u#	c #A17254",
"v#	c #AA8062",
"w#	c #B08769",
"x#	c #AE8668",
"y#	c #8D6C54",
"z#	c #523E31",
"A#	c #604A3D",
"B#	c #765C4D",
"C#	c #745B4C",
"D#	c #664F3F",
"E#	c #715541",
"F#	c #977257",
"G#	c #B88A6A",
"H#	c #C09372",
"I#	c #8C6B52",
"J#	c #634737",
"K#	c #5A332C",
"L#	c #855945",
"M#	c #AC7B5C",
"N#	c #B27D5D",
"O#	c #AF7A59",
"P#	c #B48261",
"Q#	c #B17F5F",
"R#	c #9D6C52",
"S#	c #7F503E",
"T#	c #6C4433",
"U#	c #644532",
"V#	c #694E3A",
"W#	c #6D523F",
"X#	c #6C523F",
"Y#	c #695140",
"Z#	c #685142",
"`#	c #523F33",
" $	c #7B5F49",
".$	c #A07B5F",
"+$	c #A78063",
"@$	c #654838",
"#$	c #40171A",
"$$	c #5B2A29",
"%$	c #7D4C3C",
"&$	c #97644B",
"*$	c #9D694E",
"=$	c #9C684D",
"-$	c #9C684E",
";$	c #9A664C",
">$	c #845240",
",$	c #61302C",
"'$	c #391417",
")$	c #19110D",
"!$	c #372A21",
"~$	c #44342A",
"{$	c #644D3E",
"]$	c #5B4535",
"^$	c #584332",
"/$	c #573E30",
"($	c #56302A",
"_$	c #592728",
":$	c #5F2B2B",
"<$	c #693631",
"[$	c #714036",
"}$	c #734237",
"|$	c #724136",
"1$	c #6B3932",
"2$	c #5C2B2A",
"3$	c #3B1719",
"4$	c #2F231C",
"5$	c #695244",
"6$	c #503D32",
"7$	c #31241D",
"8$	c #210308",
"9$	c #512323",
"0$	c #612D2C",
"a$	c #602C2C",
"b$	c #5E292B",
"c$	c #602B2C",
"d$	c #5B2929",
"e$	c #3C1919",
"f$	c #362921",
"g$	c #47362D",
"h$	c #2E1514",
"i$	c #512425",
"j$	c #612C2C",
"k$	c #5C2A2A",
"l$	c #401B1B",
"m$	c #392821",
"n$	c #6A5345",
"o$	c #554236",
"p$	c #3B2B27",
"q$	c #371B1F",
"r$	c #542628",
"s$	c #5E2B2B",
"t$	c #522525",
"u$	c #492724",
"v$	c #50392F",
"w$	c #604B3E",
"x$	c #5B463A",
"y$	c #2A1E19",
"z$	c #24131C",
"A$	c #3E1F27",
"B$	c #56282B",
"C$	c #5F2C2C",
"D$	c #552626",
"E$	c #361917",
"F$	c #45352B",
"G$	c #1F1512",
"H$	c #25131C",
"I$	c #3F1F28",
"J$	c #612D2D",
"K$	c #492020",
"L$	c #441D1D",
"M$	c #592828",
"N$	c #572727",
"O$	c #331515",
"P$	c #413128",
"Q$	c #211614",
"R$	c #522726",
"S$	c #452B25",
"T$	c #422B24",
"U$	c #4F2725",
"V$	c #562728",
"W$	c #58292A",
"X$	c #5C2A2C",
"Y$	c #341514",
"Z$	c #423229",
"`$	c #241915",
" %	c #4A2121",
".%	c #3D241F",
"+%	c #5A4439",
"@%	c #5F493C",
"#%	c #422C25",
"$%	c #35171B",
"%%	c #411F26",
"&%	c #52262A",
"*%	c #5E2B2C",
"=%	c #331414",
"-%	c #664F41",
";%	c #4A392F",
">%	c #352524",
",%	c #391C22",
"'%	c #552729",
")%	c #5D2A2A",
"!%	c #411C1C",
"~%	c #31231C",
"{%	c #644E40",
"]%	c #3D2E25",
"^%	c #190C13",
"/%	c #311A24",
"(%	c #452229",
"_%	c #52272A",
":%	c #55282B",
"<%	c #4C2326",
"[%	c #2C1213",
"}%	c #6B5445",
"|%	c #49382E",
"1%	c #2F1617",
"2%	c #32231C",
"3%	c #3C2E25",
"4%	c #1B0C14",
"5%	c #301924",
"6%	c #381D28",
"7%	c #3B1E28",
"8%	c #3D1F28",
"9%	c #361B23",
"0%	c #1E0C12",
"a%	c #241211",
"b%	c #421E22",
"c%	c #622D2D",
"d%	c #5D2B2A",
"e%	c #421C1C",
"f%	c #3A2C24",
"g%	c #180B14",
"h%	c #2A1724",
"i%	c #2D1928",
"j%	c #2C1927",
"k%	c #2C1928",
"l%	c #271523",
"m%	c #140911",
"n%	c #403128",
"o%	c #1B1010",
"p%	c #2E1720",
"q%	c #57292B",
"r%	c #5A292A",
"s%	c #3F1B1C",
"t%	c #22171A",
"u%	c #241523",
"v%	c #241425",
"w%	c #231425",
"x%	c #231522",
"y%	c #24191A",
"z%	c #4A392E",
"A%	c #1A0F10",
"B%	c #2A1620",
"C%	c #462229",
"D%	c #4B242A",
"E%	c #472228",
"F%	c #31161A",
"G%	c #30231C",
"H%	c #654F41",
"I%	c #25191D",
"J%	c #140A16",
"K%	c #130A16",
"L%	c #291D1F",
"M%	c #503E34",
"N%	c #665042",
"O%	c #1B0F10",
"P%	c #2B1620",
"Q%	c #351C27",
"R%	c #361D28",
"S%	c #341B26",
"T%	c #231118",
"U%	c #2E221B",
"V%	c #624D3F",
"W%	c #43332A",
"X%	c #32261F",
"Y%	c #352820",
"Z%	c #341C27",
"`%	c #311B25",
" &	c #211018",
".&	c #664F42",
"+&	c #4D3C31",
"@&	c #150A0E",
"#&	c #281520",
"$&	c #301A27",
"%&	c #311B28",
"&&	c #2E1926",
"*&	c #1F0F18",
"=&	c #2C211B",
"-&	c #1B1213",
";&	c #20111F",
">&	c #271627",
",&	c #261525",
"'&	c #190C18",
")&	c #31241E",
"!&	c #49382F",
"~&	c #2C1F22",
"{&	c #190E1C",
"]&	c #1A0E1C",
"^&	c #1C101D",
"/&	c #3A2B27",
"(&	c #544136",
"_&	c #45342C",
":&	c #1F1614",
"<&	c #1C1312",
"[&	c #2C211C",
"                                                                                                                                ",
"                                                                                                                                ",
"                                                                                                                                ",
"                                                                                                                                ",
"                                                                                                                                ",
"                                                                                                                                ",
"                                                                                                                                ",
"                                                                                                                                ",
"                                                                                                                                ",
"                                                                                                                                ",
"                                                                                                                                ",
"                                                                                                                                ",
"                                                                                                                                ",
"                                                    . + @ # # @ # $ %                                                           ",
"                                                    & * = - - - ; > ,                                                           ",
"                                                ' ) ! ~ { ] ] ^ / ( _ :                                                         ",
"                                                < [ } | 1 2 2 3 2 4 5 6 .                                                       ",
"                                            ' 7 ! 8 9 0 a b b a c d e f g h                                                     ",
"                                          i j k l m n c c c c c c o p q r s '                                                   ",
"                                        ' & t u v w a c c c c c c x c y z A B h                                                 ",
"                                        $ C D E F G c c c c c c c c H I J K L M N %                                             ",
"                                        : O P Q R G S T U V W X Y Z o `  ...+.@.#.$                                             ",
"                                        : $.%.&.*.=.-.;.>.,.'.).!.~.{.].^./.(._.:.<.$ %                                         ",
"                                        : $.[.}.|.1.2.3.4.5.6.7.8.9.0.a.b.c.d.e.f.g.#.N                                         ",
"                                        $ * h.i.j.k.l.m.n.o.p.q.r.s.t.u.v.w.x.y.z.A.$.:                                         ",
"                                        h O B.C.D.E.F.G.H.I.J.K.L.M.N.O.P.Q.x.y.z.A.$.:                                         ",
"                                      R.S.T.U.V.W.X.Y.Z.`. +.+++@+#+$+%+&+*+x.=+y.-+$.:                                         ",
"                                  i ;+>+,+'+)+!+~+{+]+^+/+(+_+:+<+[+}+|+1+2+3+4+5+6+$.:                                         ",
"                                  R.> 7+8+9+0+a+b+c+d+e+f+g+h+i+j+k+l+m+n+w.o+p+q+r+$.:                                         ",
"                                  s+t+u+v+w+x+y+z+A+h+B+C+D+E+F+G+H+I+J+K+L+M+N+O+P+$.:                                         ",
"                                  g Q+R+S+T+U+V+W+X+Y+Z+`+ @.@+@@@#@$@%@&@*@*@=@-@;@* $                                         ",
"                                  M >@,@'@)@!@~@{@]@^@/@(@_@:@<@[@/@}@|@1@2@2@2@3@4@5@6@$ i                                     ",
"                                i g 7@8@'@)@!@9@0@a@b@c@d@e@e@f@/@g@h@i@2@j@k@k@S+l@m@n@g o@                                    ",
"                              N & p@q@r@s@t@u@v@w@x@y@z@A@A@A@A@A@B@i@C@_@D@2@2@k@E@F@G@H@I@                                    ",
"                              J@K@L@M@S+E@2@E@N@O@P@Q@R@S@T@T@T@T@U@V@W@X@Y@E@2@k@Z@`@ #.#I@                                    ",
"                              7 +#@###)@$#2@j@k@%#&#*#=#-#W@W@+@+@;#b@e@/@X@B@U@k@Z@># #.#I@                                    ",
"                              6@,#@#'#)#i@E@2@2@!#~#{#]#^@/@/@c@^#[@^#c@/#/#e@_@k@Z@># #.#I@                                    ",
"                              7 +#@#(#_#b@:#2@<#[#}#|#1#2#3#4#5#6#Y@W@2#7#8#9#0#)@2@F@a#b#I@                                    ",
"                              c#d#e#f#g#h#h@i###j#k#l#m#n#o#p#f@Y@q#:@r#s#t#u#v#w#x#y#z#A#B#                                    ",
"                              C#< D#E#F#G#H###I#J#K#L#M#N#o#3#O#e@P#Q#R#S#T#U#V#W#X#Y#Z#+ i                                     ",
"                                  7 `# $.$+$F@@$#$$$%$&$*$=$=$=$=$-$;$>$,$'$)$!$@.~$> N                                         ",
"                                  ' j {$]$^$/$($_$:$<$[$}$}$}$}$}$}$|$1$2$3$4$> j R.: %                                         ",
"                                      5$6$7$8$9$0$a$:$b$b$b$b$b$b$b$b$c$d$e$f$&                                                 ",
"                                      C#7 g$h$i$a$a$a$a$a$a$a$a$a$a$a$j$k$l$m$s+I@                                              ",
"                                    % n$o$p$q$r$a$a$a$a$a$a$j$j$a$a$a$a$s$t$u$v$w$$                                             ",
"                                    I@x$y$z$A$B$a$a$a$a$a$C$k$d$s$a$a$a$a$a$D$E$F$R.                                            ",
"                                    I@b#G$H$I$B$a$a$a$a$J$k$K$L$M$j$j$a$a$J$N$O$P$c#                                            ",
"                                    I@H@Q$H$I$B$a$a$a$C$d$R$S$T$U$V$W$X$a$J$N$Y$Z$j                                             ",
"                                    I@.#`$H$A$B$a$a$j$s$ %.%+%@%#%$%%%&%*%0$N$=%Z$j                                             ",
"                                    o@-%;%>%,%'%j$a$j$)%!%~%{%6@]%^%/%(%_%:%<%[%Z$j                                             ",
"                                      ' }%|%1%i$C$a$j$)%!%2%s+7 3%4%5%6%7%8%9%0%Z$j                                             ",
"                                        ;+* a%b%:%*%c%d%e%2%s+5$f%g%h%i%j%k%l%m%n%c#                                            ",
"                                        : $.o%p%(%q%*%r%s%2%s+}%F$t%u%v%w%v%x%y%z%R.                                            ",
"                                        : $.A%B%7%C%D%E%F%G%M : H%k I%J%K%J%L%M%N%N                                             ",
"                                        : $.O%P%Q%Q%R%S%T%U%V%  i -%W%X%Y%X%= 5$i                                               ",
"                                        : $.O%P%Z%Z%Z%`% &U%V%    $ 5$.&N%.&6@N                                                 ",
"                                        : +&@&#&$&$&%&&&*&=&g                                                                   ",
"                                        : * -&;&>&>&>&,&'&)&s+                                                                  ",
"                                        . V%!&~&{&{&]&^&/&(&J@                                                                  ",
"                                          I@5$_&:&:&<&[&b#+ %                                                                   ",
"                                            N s+.#.#b#S.)                                                                       ",
"                                              o@I@I@I@I@%                                                                       ",
"                                                                                                                                ",
"                                                                                                                                "};
