/* XPM */
static char * player_up4_xpm[] = {
"64 64 598 2",
"  	c #785E4E",
". 	c #775D4D",
"+ 	c #735A4B",
"@ 	c #705849",
"# 	c #705748",
"$ 	c #745B4B",
"% 	c #5E493C",
"& 	c #49382E",
"* 	c #47372C",
"= 	c #48372D",
"- 	c #47362C",
"; 	c #4B3A2F",
"> 	c #624D3F",
", 	c #765C4C",
"' 	c #775D4E",
") 	c #72594A",
"! 	c #644F41",
"~ 	c #453933",
"{ 	c #1E2426",
"] 	c #192225",
"^ 	c #1B2326",
"/ 	c #192226",
"( 	c #232628",
"_ 	c #4B3E36",
": 	c #675143",
"< 	c #5D493C",
"[ 	c #3E342D",
"} 	c #32393C",
"| 	c #314045",
"1 	c #324146",
"2 	c #314046",
"3 	c #313F45",
"4 	c #333739",
"5 	c #43362E",
"6 	c #634D3F",
"7 	c #765C4D",
"8 	c #614C3E",
"9 	c #453B34",
"0 	c #283135",
"a 	c #314146",
"b 	c #394A50",
"c 	c #3A4B51",
"d 	c #394A51",
"e 	c #38494F",
"f 	c #2F3E43",
"g 	c #2B3133",
"h 	c #644E40",
"i 	c #5E493D",
"j 	c #3A302C",
"k 	c #30373B",
"l 	c #34444A",
"m 	c #38494E",
"n 	c #37484E",
"o 	c #344348",
"p 	c #2F3437",
"q 	c #40332E",
"r 	c #644E41",
"s 	c #6F5748",
"t 	c #5D493D",
"u 	c #483D40",
"v 	c #343848",
"w 	c #36424D",
"x 	c #394B50",
"y 	c #394A4F",
"z 	c #394950",
"A 	c #35404C",
"B 	c #373847",
"C 	c #4C3F3F",
"D 	c #604B3E",
"E 	c #715949",
"F 	c #634D40",
"G 	c #382C27",
"H 	c #2E3042",
"I 	c #3F445B",
"J 	c #3E495A",
"K 	c #3B4A53",
"L 	c #3A4A53",
"M 	c #3A4A52",
"N 	c #3B4A54",
"O 	c #3F495B",
"P 	c #3D4259",
"Q 	c #2B2D3C",
"R 	c #403128",
"S 	c #695244",
"T 	c #624C3F",
"U 	c #2C221E",
"V 	c #1E2230",
"W 	c #31374A",
"X 	c #3C4458",
"Y 	c #424C5F",
"Z 	c #434D60",
"` 	c #424C60",
" .	c #414B5E",
"..	c #3A4256",
"+.	c #2E3447",
"@.	c #1A1E2B",
"#.	c #372A22",
"$.	c #584538",
"%.	c #291F19",
"&.	c #0A1017",
"*.	c #1C222F",
"=.	c #32394D",
"-.	c #40465E",
";.	c #424861",
">.	c #414861",
",.	c #3E445C",
"'.	c #2F3548",
").	c #181F2B",
"!.	c #080D14",
"~.	c #392B23",
"{.	c #685143",
"].	c #6D5547",
"^.	c #513F33",
"/.	c #33261F",
"(.	c #150F0C",
"_.	c #090F16",
":.	c #151C28",
"<.	c #222838",
"[.	c #2A3143",
"}.	c #2E3648",
"|.	c #2F394A",
"1.	c #2F3949",
"2.	c #2E3647",
"3.	c #293041",
"4.	c #202635",
"5.	c #131A25",
"6.	c #070C13",
"7.	c #755C4C",
"8.	c #6C5446",
"9.	c #5E4D4B",
"0.	c #494658",
"a.	c #32374D",
"b.	c #151824",
"c.	c #0B1319",
"d.	c #17212B",
"e.	c #19232D",
"f.	c #1B2730",
"g.	c #1D2932",
"h.	c #1D2933",
"i.	c #1B2630",
"j.	c #162029",
"k.	c #0B1218",
"l.	c #503E33",
"m.	c #464456",
"n.	c #5C6285",
"o.	c #535A7A",
"p.	c #262A3C",
"q.	c #0B1519",
"r.	c #1F2C35",
"s.	c #1D2A33",
"t.	c #1A252F",
"u.	c #18212C",
"v.	c #1A262F",
"w.	c #1D2A34",
"x.	c #1C2730",
"y.	c #0F171D",
"z.	c #6D5546",
"A.	c #413228",
"B.	c #2C3147",
"C.	c #4B5374",
"D.	c #434C6B",
"E.	c #111D32",
"F.	c #000212",
"G.	c #0F1E2D",
"H.	c #142734",
"I.	c #132A35",
"J.	c #0D2531",
"K.	c #09212E",
"L.	c #08212D",
"M.	c #0E2632",
"N.	c #142A35",
"O.	c #1B2934",
"P.	c #1C232E",
"Q.	c #10131B",
"R.	c #392C23",
"S.	c #695243",
"T.	c #423329",
"U.	c #201B1F",
"V.	c #393137",
"W.	c #3D3336",
"X.	c #382A25",
"Y.	c #3B2B27",
"Z.	c #3F3032",
"`.	c #3D3437",
" +	c #3A3639",
".+	c #393639",
"++	c #3A3739",
"@+	c #393539",
"#+	c #332A32",
"$+	c #281A27",
"%+	c #160B15",
"&+	c #372921",
"*+	c #4D3929",
"=+	c #806148",
"-+	c #916E53",
";+	c #906E55",
">+	c #916F57",
",+	c #916E58",
"'+	c #8A6651",
")+	c #845E4A",
"!+	c #835C49",
"~+	c #835D4A",
"{+	c #835D49",
"]+	c #845D4A",
"^+	c #7F5947",
"/+	c #69443A",
"(+	c #482327",
"_+	c #21010F",
":+	c #251B15",
"<+	c #614B3E",
"[+	c #674E3B",
"}+	c #A88164",
"|+	c #BD9271",
"1+	c #BC9171",
"2+	c #BB8F6F",
"3+	c #B48566",
"4+	c #AD7B5C",
"5+	c #AC795A",
"6+	c #AB7657",
"7+	c #AA7556",
"8+	c #AB7758",
"9+	c #AE7B5B",
"0+	c #A87558",
"a+	c #895945",
"b+	c #61332F",
"c+	c #51322A",
"d+	c #4D392B",
"e+	c #4F3C2D",
"f+	c #5B4537",
"g+	c #6B5344",
"h+	c #6A503D",
"i+	c #AD8567",
"j+	c #C39675",
"k+	c #C29574",
"l+	c #C19574",
"m+	c #C19473",
"n+	c #BE906F",
"o+	c #BB8C6B",
"p+	c #B88867",
"q+	c #B27E5D",
"r+	c #AE7757",
"s+	c #AE7858",
"t+	c #B37F5F",
"u+	c #B98968",
"v+	c #BD8D6C",
"w+	c #B68768",
"x+	c #91644F",
"y+	c #71453A",
"z+	c #8B6550",
"A+	c #9E795E",
"B+	c #9E7A5E",
"C+	c #8A6A52",
"D+	c #5F4839",
"E+	c #5F4A3D",
"F+	c #43332A",
"G+	c #684F3C",
"H+	c #AC8466",
"I+	c #C09473",
"J+	c #BC8F6E",
"K+	c #B38060",
"L+	c #AD7656",
"M+	c #AD7757",
"N+	c #B58363",
"O+	c #BD906F",
"P+	c #BA8F6F",
"Q+	c #AC8165",
"R+	c #885E4B",
"S+	c #784C40",
"T+	c #A57A60",
"U+	c #BF9372",
"V+	c #AA8365",
"W+	c #7C5E48",
"X+	c #634C3C",
"Y+	c #6A5244",
"Z+	c #6C5546",
"`+	c #C09574",
" @	c #B58463",
".@	c #BB8F6E",
"+@	c #A77D62",
"@@	c #845949",
"#@	c #6A3B35",
"$@	c #76493E",
"%@	c #A67C61",
"&@	c #BB9070",
"*@	c #8C6B53",
"=@	c #574234",
"-@	c #755B4C",
";@	c #664F40",
">@	c #705543",
",@	c #8F6D54",
"'@	c #B38A6B",
")@	c #BB8C6C",
"!@	c #B68463",
"~@	c #BA8E6E",
"{@	c #9D735B",
"]@	c #581D25",
"^@	c #74483D",
"/@	c #BF9473",
"(@	c #9A765B",
"_@	c #4C392B",
":@	c #544135",
"<@	c #5D4637",
"[@	c #9A765C",
"}@	c #B78D6D",
"|@	c #BE9272",
"1@	c #B98969",
"2@	c #B88969",
"3@	c #9E745B",
"4@	c #6C3D36",
"5@	c #592026",
"6@	c #74473C",
"7@	c #A67B60",
"8@	c #BF9272",
"9@	c #BE9372",
"0@	c #99755B",
"a@	c #4D3A2C",
"b@	c #715849",
"c@	c #5A4433",
"d@	c #A47E62",
"e@	c #C09372",
"f@	c #B07C5C",
"g@	c #B78766",
"h@	c #5A2127",
"i@	c #724339",
"j@	c #9F7157",
"k@	c #B98A69",
"l@	c #BF9271",
"m@	c #99765B",
"n@	c #554136",
"o@	c #4C3A30",
"p@	c #5B4534",
"q@	c #A37D61",
"r@	c #BE9271",
"s@	c #BE9070",
"t@	c #B68666",
"u@	c #B78767",
"v@	c #5A2227",
"w@	c #703F35",
"x@	c #98664C",
"y@	c #B17E5F",
"z@	c #BD9070",
"A@	c #987359",
"B@	c #BE9170",
"C@	c #B48363",
"D@	c #B17E5E",
"E@	c #B07B5B",
"F@	c #B88868",
"G@	c #BD8F6E",
"H@	c #B68464",
"I@	c #9F755C",
"J@	c #5A2328",
"K@	c #703E35",
"L@	c #98644B",
"M@	c #AF7A5A",
"N@	c #B58261",
"O@	c #B88665",
"P@	c #91694E",
"Q@	c #483225",
"R@	c #574337",
"S@	c #5E4838",
"T@	c #97745A",
"U@	c #B08466",
"V@	c #B18061",
"W@	c #B27E5E",
"X@	c #B17D5D",
"Y@	c #AA7658",
"Z@	c #A67255",
"`@	c #B18162",
" #	c #BC8E6E",
".#	c #BA8B6A",
"+#	c #B27F5E",
"@#	c #B17F60",
"##	c #B08366",
"$#	c #946B55",
"%#	c #6A3A34",
"&#	c #5B2529",
"*#	c #6C3B33",
"=#	c #8C5C45",
"-#	c #9D6C4F",
";#	c #9E6D50",
">#	c #9F6D50",
",#	c #825941",
"'#	c #503A2C",
")#	c #5D483B",
"!#	c #6E5647",
"~#	c #675041",
"{#	c #69513F",
"]#	c #87664E",
"^#	c #AE8264",
"/#	c #BD8E6D",
"(#	c #B98B6A",
"_#	c #A2745A",
":#	c #9C6B51",
"<#	c #B17F5F",
"[#	c #B48161",
"}#	c #B27F5F",
"|#	c #AE7857",
"1#	c #A06E53",
"2#	c #8A5D4A",
"3#	c #75483D",
"4#	c #64322F",
"5#	c #5F2A2B",
"6#	c #60302C",
"7#	c #613B2D",
"8#	c #61412E",
"9#	c #61412D",
"0#	c #61402D",
"a#	c #60402D",
"b#	c #624636",
"c#	c #674F40",
"d#	c #684F3E",
"e#	c #967359",
"f#	c #A68063",
"g#	c #8A634F",
"h#	c #6E3F36",
"i#	c #83513F",
"j#	c #99664C",
"k#	c #9C694E",
"l#	c #9C684D",
"m#	c #9B674D",
"n#	c #895743",
"o#	c #6A3831",
"p#	c #5E292B",
"q#	c #602C2C",
"r#	c #612D2D",
"s#	c #592828",
"t#	c #381617",
"u#	c #1C140F",
"v#	c #382B22",
"w#	c #44342A",
"x#	c #5C473B",
"y#	c #765D4D",
"z#	c #685042",
"A#	c #584332",
"B#	c #584232",
"C#	c #5B392F",
"D#	c #61302D",
"E#	c #6B3832",
"F#	c #724136",
"G#	c #734237",
"H#	c #622F2D",
"I#	c #5F2B2B",
"J#	c #5A463A",
"K#	c #3F3027",
"L#	c #1B130E",
"M#	c #3D1618",
"N#	c #5C2929",
"O#	c #602B2C",
"P#	c #612C2C",
"Q#	c #391717",
"R#	c #3A2C23",
"S#	c #594539",
"T#	c #2F201B",
"U#	c #3F1B1C",
"V#	c #5A292A",
"W#	c #592829",
"X#	c #3A1819",
"Y#	c #392A23",
"Z#	c #47362E",
"`#	c #311F21",
" $	c #3A1C22",
".$	c #4C2429",
"+$	c #59292B",
"@$	c #612D2C",
"#$	c #5B2A2A",
"$$	c #421E22",
"%$	c #332222",
"&$	c #4A382F",
"*$	c #3D2F26",
"=$	c #201116",
"-$	c #301A23",
";$	c #341C27",
">$	c #3A1E27",
",$	c #4D252A",
"'$	c #5A2A2B",
")$	c #5C2A2B",
"!$	c #5B2A2B",
"~$	c #5D2B2C",
"{$	c #5F2C2C",
"]$	c #5E2B2C",
"^$	c #57282B",
"/$	c #452128",
"($	c #2E1921",
"_$	c #1F1315",
":$	c #46362C",
"<$	c #1D0D14",
"[$	c #301A24",
"}$	c #341C28",
"|$	c #351C27",
"1$	c #3F1F28",
"2$	c #462229",
"3$	c #472229",
"4$	c #4F262A",
"5$	c #5C2B2C",
"6$	c #5F2B2C",
"7$	c #54272A",
"8$	c #3B1F28",
"9$	c #2E1822",
"0$	c #180A11",
"a$	c #382A22",
"b$	c #301924",
"c$	c #351C28",
"d$	c #331B26",
"e$	c #2F1923",
"f$	c #3B1C23",
"g$	c #4E2325",
"h$	c #552626",
"i$	c #572828",
"j$	c #55282A",
"k$	c #361D27",
"l$	c #331C27",
"m$	c #201018",
"n$	c #1E0B0F",
"o$	c #2B1112",
"p$	c #2F1212",
"q$	c #2F1313",
"r$	c #381A1E",
"s$	c #3F1F27",
"t$	c #3B1E28",
"u$	c #554236",
"v$	c #3E2D28",
"w$	c #2F1C21",
"x$	c #261C16",
"y$	c #403127",
"z$	c #17110D",
"A$	c #311A25",
"B$	c #5B473A",
"C$	c #2F211D",
"D$	c #24121A",
"E$	c #321B25",
"F$	c #190B11",
"G$	c #2A1F19",
"H$	c #211018",
"I$	c #2D1822",
"J$	c #2F231C",
"K$	c #200F17",
"L$	c #2B201A",
"M$	c #1D0E18",
"N$	c #2C1826",
"O$	c #2E1A28",
"P$	c #2E1928",
"Q$	c #281522",
"R$	c #140911",
"S$	c #321A25",
"T$	c #423229",
"U$	c #6B5445",
"V$	c #654E41",
"W$	c #392B24",
"X$	c #20141B",
"Y$	c #241524",
"Z$	c #241425",
"`$	c #231425",
" %	c #231521",
".%	c #24191A",
"+%	c #4A392E",
"@%	c #6C5445",
"#%	c #45352E",
"$%	c #1D121A",
"%%	c #140A16",
"&%	c #130A16",
"*%	c #2D2021",
"=%	c #513E34",
"-%	c #675042",
";%	c #32261F",
">%	c #342720",
",%	c #6A5344",
"'%	c #664F42",
")%	c #665042",
"!%	c #6B5345",
"~%	c #614C3F",
"{%	c #2D211B",
"]%	c #1E0E18",
"^%	c #2E1925",
"/%	c #311B28",
"(%	c #301A27",
"_%	c #2A1722",
":%	c #160A11",
"<%	c #31251E",
"[%	c #180C17",
"}%	c #251525",
"|%	c #271627",
"1%	c #221322",
"2%	c #150C13",
"3%	c #544136",
"4%	c #3A2C27",
"5%	c #1E121D",
"6%	c #1A0E1D",
"7%	c #190E1C",
"8%	c #1A0E1C",
"9%	c #261A20",
"0%	c #43332C",
"a%	c #2F231D",
"b%	c #1C1312",
"c%	c #201714",
"d%	c #1D1412",
"e%	c #3C2E26",
"f%	c #5C483B",
"g%	c #584438",
"                                                                                                                                ",
"                                                                                                                                ",
"                                                                                                                                ",
"                                                                                                                                ",
"                                                                                                                                ",
"                                                                                                                                ",
"                                                                                                                                ",
"                                                                                                                                ",
"                                                                                                                                ",
"                                                                                                                                ",
"                                                                                                                                ",
"                                                                                                                                ",
"                                                                                                                                ",
"                                                        . + @ # @ @ # @ $                                                       ",
"                                                        $ % & * = = - ; > ,                                                     ",
"                                                    ' ) ! ~ { ] ^ ^ / ( _ : +                                                   ",
"                                                    $ < [ } | 1 2 2 1 3 4 5 6 7                                                 ",
"                                                  @ 8 9 0 a b c d d c e f g _ h )                                               ",
"                                                $ i j k l m b b b b b b n o p q r ,                                             ",
"                                              s t u v w b x y y y y y y x z A B C D E                                           ",
"                                            ' F G H I J K L K K K K K K M N O P Q R S                                           ",
"                                              T U V W X Y Z ` ` ` ` ` ` Z  ...+.@.#.:                                           ",
"                                          7 s $.%.&.*.=.-.;.>.>.>.>.;.>.;.,.'.).!.~.{.                                          ",
"                                          ].^./.(._.:.<.[.}.|.|.|.|.|.1.2.3.4.5.6.~.{.                                          ",
"                                      7.8.9.0.a.b.c.d.e.e.f.g.h.h.h.h.g.i.e.e.j.k.~.{.                                          ",
"                                      s l.m.n.o.p.q.g.r.s.t.d.d.d.d.d.u.v.w.r.x.y.~.{.                                          ",
"                                      z.A.B.C.D.E.F.G.H.I.J.K.L.L.L.L.K.M.N.O.P.Q.R.S.                                          ",
"                                      z.T.U.V.W.X.Y.Z.`. +.+.+.+.+.+.+.+++@+#+$+%+&+h ,                                         ",
"                                      z.T.*+=+-+;+>+,+'+)+!+~+~+)+)+~+{+]+^+/+(+_+:+= <++                                       ",
"                                      z.T.[+}+|+1+|+2+3+4+5+5+6+7+7+8+5+9+0+a+b+c+d+e+f+g+$ .                                   ",
"                                      z.T.h+i+j+k+l+m+n+o+o+p+q+r+s+t+u+v+w+x+y+z+A+B+C+D+E+$                                   ",
"                                      ].F+G+H+l+I+I+I+I+I+I+J+K+L+M+N+O+P+Q+R+S+T+U+I+V+W+X+Y+) .                               ",
"                                      Z+T.h+H+l+I+I+I+I+I+`+J+K+L+M+ @.@+@@@#@$@%@I+l+&@i+*@=@E+-@                              ",
"                                  , 8.;@>@,@'@l+I+O+)@O+I+`+J+K+L+M+!@~@{@#@]@^@%@/@l+l+U+(@_@:@$                               ",
"                                  ) :@<@[@}@|@I+U+1@K+2@U+l+J+K+L+M+!@~@3@4@5@6@7@8@m+l+9@0@a@:@$                               ",
"                                  b@; c@d@k+l+l+e@p+f@g@U+l+J+K+L+M+!@~@3@4@h@i@j@k@l@k+U+m@a@n@$                               ",
"                                  b@o@p@q@e@l@r@s@t@f@u@U+l+J+K+L+M+!@~@3@4@v@w@x@y@o+l@z@A@_@:@$                               ",
"                                  b@; c@d@B@p+N+C@D@E@F@e@l+G@K+L+M+H@J+I@4@J@K@L@M@N@O@N+P@Q@:@$                               ",
"                                  ) R@S@T@U@V@W@X@Y@Z@`@ #n+.#+#M+M+@###$#%#&#*#=#-#;#>#-#,#'#)#-@                              ",
"                                  7 !#~#{#]#^#/#(#_#a+:#<#[#}#M@|#M+1#2#3#4#5#6#7#8#9#0#a#b#c#@ .                               ",
"                                      @ R@d#e#f#q@g#h#i#j#k#l#l#k#m#n#o#p#q#r#s#t#u#v#A.w#x#+                                   ",
"                                      y#b@z#S@A#B#C#D#E#F#G#G#G#G#G#*#H#I#q#r#s#t#/.% ].!#) .                                   ",
"                                          @ J#K#L#M#N#O#p#p#p#p#p#p#5#q#q#q#P#s#Q#R#Y+                                          ",
"                                          7 # S#T#U#V#q#q#q#q#q#q#q#q#q#q#q#P#W#X#Y#r ,                                         ",
"                                          @ % Z#`# $.$+$q#P#P#P#q#q#q#q#q#q#@$#$$$%$&$D )                                       ",
"                                          S.*$=$-$;$>$,$'$)$!$!$~${$q#q#q#q#]$^$/$($_$:$].                                      ",
"                                          : &+<$[$}$|$1$2$3$3$3$4$5$P#P#P#6$7$2$8$9$0$A.z.                                      ",
"                                          : a$<$b$c$;$;$;$|$d$e$f$g$h$h$i$j$3$k$;$9$0$T.z.                                      ",
"                                          {.R#<$b$;$;$;$l$;$e$m$n$o$p$q$r$s$t$;$;$9$0$T.z.                                      ",
"                                          !#u$v$w$e$d$;$;$;$9$0$x$y$R#z$m$A$;$;$|$9$0$T.z.                                      ",
"                                          y#E B$C$D$E$;$;$;$9$F$*$h B$G$H$A$;$l$;$I$0$T.z.                                      ",
"                                              6 J$K$A$|$;$;$9$F$F+8.T L$M$N$O$P$P$Q$R$A.z.                                      ",
"                                            ' T J$H$S$|$;$;$9$F$T$U$V$W$X$Y$Z$`$Z$ %.%+%!#                                      ",
"                                            ' T J$H$S$|$;$;$9$F$T$@%b@D #%$%%%&%%%*%=%-%$                                       ",
"                                            ' T J$H$S$|$;$;$9$F$A.8.  -@E+*$;%>%/.& ,%'                                         ",
"                                            ' T J$H$S$|$;$|$9$F$A.8.    b@{.'%)%'%!%$                                           ",
"                                            ' ~%{%]%^%/%(%/%_%:%y$8.                                                            ",
"                                            ' > <%[%}%|%|%|%1%2%F+Z+                                                            ",
"                                              8.3%4%5%6%7%8%9%0%)#E                                                             ",
"                                              . E S#a%b%c%d%e%F $ .                                                             ",
"                                                  Z+f%g%S#$.<+E                                                                 ",
"                                                  . , , , , 7 '                                                                 ",
"                                                                                                                                ",
"                                                                                                                                "};
