/* XPM */
static char * player_left2_xpm[] = {
"64 64 665 2",
"  	c #785E4E",
". 	c #765C4C",
"+ 	c #745B4B",
"@ 	c #755B4C",
"# 	c #775D4D",
"$ 	c #634D3F",
"% 	c #544135",
"& 	c #534035",
"* 	c #534034",
"= 	c #5C473B",
"- 	c #705849",
"; 	c #695345",
"> 	c #483A32",
", 	c #202020",
"' 	c #1D1E1F",
") 	c #1F2020",
"! 	c #1D1C1C",
"~ 	c #1A1717",
"{ 	c #131112",
"] 	c #362A23",
"^ 	c #604B3E",
"/ 	c #735A4A",
"( 	c #765D4D",
"_ 	c #634D40",
": 	c #35383A",
"< 	c #2D3B40",
"[ 	c #2D3C40",
"} 	c #2C3A3F",
"| 	c #253238",
"1 	c #19252C",
"2 	c #131C24",
"3 	c #1E1C21",
"4 	c #3D2F29",
"5 	c #5A4639",
"6 	c #72594A",
"7 	c #6D5546",
"8 	c #6B5345",
"9 	c #665042",
"0 	c #4A392E",
"a 	c #15191D",
"b 	c #2A3A3F",
"c 	c #38494F",
"d 	c #394A50",
"e 	c #2F3F46",
"f 	c #212F38",
"g 	c #19242E",
"h 	c #131B25",
"i 	c #0B1119",
"j 	c #3B2E27",
"k 	c #614B3E",
"l 	c #715849",
"m 	c #4B3A2F",
"n 	c #3B2D24",
"o 	c #3C2E24",
"p 	c #2B1F16",
"q 	c #1B1F1D",
"r 	c #303D42",
"s 	c #3A4A51",
"t 	c #3A4B51",
"u 	c #222F38",
"v 	c #151D28",
"w 	c #121A24",
"x 	c #1F1D21",
"y 	c #382C26",
"z 	c #5A463A",
"A 	c #735A4B",
"B 	c #372A20",
"C 	c #5D4C29",
"D 	c #89713F",
"E 	c #927842",
"F 	c #8A744D",
"G 	c #6D686A",
"H 	c #4E5B70",
"I 	c #3F4F5B",
"J 	c #394A4F",
"K 	c #2F3F45",
"L 	c #202F37",
"M 	c #18232C",
"N 	c #141C27",
"O 	c #131B26",
"P 	c #101821",
"Q 	c #0B1016",
"R 	c #3E3029",
"S 	c #5F4A3D",
"T 	c #6F5748",
"U 	c #3F3123",
"V 	c #907743",
"W 	c #CFAC63",
"X 	c #DDB768",
"Y 	c #CEAD71",
"Z 	c #9D8F8C",
"` 	c #626C8D",
" .	c #465569",
"..	c #394950",
"+.	c #304048",
"@.	c #24313B",
"#.	c #1D2732",
"$.	c #1A212D",
"%.	c #19202D",
"&.	c #19202C",
"*.	c #171E2A",
"=.	c #1E1D23",
"-.	c #352922",
";.	c #5E493C",
">.	c #765C4D",
",.	c #413324",
"'.	c #9D8249",
").	c #E1BB6C",
"!.	c #F0C872",
"~.	c #DFBB77",
"{.	c #A49286",
"].	c #5D6485",
"^.	c #47526C",
"/.	c #404C5C",
"(.	c #404C5D",
"_.	c #3C4759",
":.	c #384054",
"<.	c #353C51",
"[.	c #343A4F",
"}.	c #353B50",
"|.	c #343A4E",
"1.	c #272C3C",
"2.	c #1E191D",
"3.	c #584438",
"4.	c #3F3124",
"5.	c #937945",
"6.	c #D3B066",
"7.	c #D1AE6B",
"8.	c #93806A",
"9.	c #494E68",
"0.	c #414964",
"a.	c #434962",
"b.	c #424962",
"c.	c #424861",
"d.	c #424761",
"e.	c #414761",
"f.	c #414760",
"g.	c #31364A",
"h.	c #241F23",
"i.	c #594539",
"j.	c #3A2C22",
"k.	c #665432",
"l.	c #957C4B",
"m.	c #9E844F",
"n.	c #917A4D",
"o.	c #635749",
"p.	c #2A3247",
"q.	c #2B3049",
"r.	c #30334A",
"s.	c #31364B",
"t.	c #31374B",
"u.	c #32384C",
"v.	c #252939",
"w.	c #221B1D",
"x.	c #342720",
"y.	c #181618",
"z.	c #312B2B",
"A.	c #4F4038",
"B.	c #5F4C40",
"C.	c #5E4B41",
"D.	c #5A453E",
"E.	c #563D38",
"F.	c #473132",
"G.	c #29232C",
"H.	c #181D2A",
"I.	c #1A1E2B",
"J.	c #191E2B",
"K.	c #171F2B",
"L.	c #171F2A",
"M.	c #10161F",
"N.	c #1E1714",
"O.	c #000011",
"P.	c #30222B",
"Q.	c #7B5E4E",
"R.	c #A07C62",
"S.	c #A68065",
"T.	c #A27A5F",
"U.	c #996C52",
"V.	c #7C5441",
"W.	c #422C2D",
"X.	c #161124",
"Y.	c #1E1726",
"Z.	c #191A26",
"`.	c #141C26",
" +	c #131C26",
".+	c #0D131C",
"++	c #1D1614",
"@+	c #6C5446",
"#+	c #4F3D32",
"$+	c #302420",
"%+	c #402F2C",
"&+	c #927059",
"*+	c #BE9272",
"=+	c #C29675",
"-+	c #BD8F6E",
";+	c #B27F5E",
">+	c #90624A",
",+	c #4C3231",
"'+	c #190C25",
")+	c #231627",
"!+	c #1F1927",
"~+	c #1B1B28",
"{+	c #1A1B28",
"]+	c #181A26",
"^+	c #151923",
"/+	c #292323",
"(+	c #45352C",
"_+	c #6E5647",
":+	c #554236",
"<+	c #413128",
"[+	c #8E6D54",
"}+	c #BB9070",
"|+	c #C19574",
"1+	c #241527",
"2+	c #221727",
"3+	c #211727",
"4+	c #1B1321",
"5+	c #151117",
"6+	c #47372E",
"7+	c #695244",
"8+	c #382A20",
"9+	c #6D533F",
"0+	c #9A765C",
"a+	c #B48B6C",
"b+	c #BC8E6E",
"c+	c #B27F5F",
"d+	c #4B3231",
"e+	c #0F0724",
"f+	c #1A0D25",
"g+	c #180925",
"h+	c #140522",
"i+	c #09001C",
"j+	c #010012",
"k+	c #0E090A",
"l+	c #2B1F18",
"m+	c #332319",
"n+	c #684D3A",
"o+	c #A47D60",
"p+	c #BB8C6C",
"q+	c #B27E5E",
"r+	c #503331",
"s+	c #2D1A28",
"t+	c #3B262C",
"u+	c #3F2B2F",
"v+	c #3F2D2E",
"w+	c #3A2A25",
"x+	c #2D2019",
"y+	c #1B130D",
"z+	c #4E3C31",
"A+	c #33241A",
"B+	c #5B3B29",
"C+	c #855C42",
"D+	c #A6785A",
"E+	c #B48262",
"F+	c #AF7A5A",
"G+	c #93624A",
"H+	c #633B34",
"I+	c #684037",
"J+	c #835A46",
"K+	c #8D6852",
"L+	c #926F58",
"M+	c #916F57",
"N+	c #7A5D47",
"O+	c #3E2F23",
"P+	c #3D2B20",
"Q+	c #805941",
"R+	c #AA7758",
"S+	c #B07D5D",
"T+	c #B17D5D",
"U+	c #B07C5C",
"V+	c #99674E",
"W+	c #724238",
"X+	c #865541",
"Y+	c #A87557",
"Z+	c #B68767",
"`+	c #BC9171",
" @	c #BD9271",
".@	c #A47E61",
"+@	c #694D39",
"@@	c #553F32",
"#@	c #755C4C",
"$@	c #775D4E",
"%@	c #3E2E23",
"&@	c #8A674E",
"*@	c #B78969",
"=@	c #BB8C6B",
"-@	c #BA8B6A",
";@	c #B98A6A",
">@	c #A1745A",
",@	c #77483C",
"'@	c #895642",
")@	c #AC7858",
"!@	c #BB8B6A",
"~@	c #C19573",
"{@	c #C29674",
"]@	c #B58969",
"^@	c #996C50",
"/@	c #75513B",
"(@	c #574033",
"_@	c #664F41",
":@	c #604739",
"<@	c #664836",
"[@	c #9A7459",
"}@	c #BD9171",
"|@	c #C09473",
"1@	c #BF9373",
"2@	c #A67B61",
"3@	c #784B3F",
"4@	c #8B5B47",
"5@	c #AF7D5E",
"6@	c #BB8D6C",
"7@	c #B28161",
"8@	c #8A6148",
"9@	c #442F23",
"0@	c #4E3C30",
"a@	c #6C4A36",
"b@	c #96694D",
"c@	c #B08364",
"d@	c #BF9372",
"e@	c #794D40",
"f@	c #926651",
"g@	c #B88A6B",
"h@	c #BF9371",
"i@	c #C09372",
"j@	c #BB8E6D",
"k@	c #936E54",
"l@	c #473327",
"m@	c #584538",
"n@	c #614C3E",
"o@	c #654F41",
"p@	c #705748",
"q@	c #664F42",
"r@	c #3A2A21",
"s@	c #714C36",
"t@	c #A77456",
"u@	c #BA8968",
"v@	c #966C56",
"w@	c #BE9372",
"x@	c #977459",
"y@	c #483629",
"z@	c #654F44",
"A@	c #413432",
"B@	c #2A2223",
"C@	c #3A2C25",
"D@	c #624C3F",
"E@	c #3B2B22",
"F@	c #A67455",
"G@	c #B98867",
"H@	c #BF9271",
"I@	c #A57A60",
"J@	c #794C40",
"K@	c #936954",
"L@	c #B98D6E",
"M@	c #967359",
"N@	c #614C3F",
"O@	c #554B53",
"P@	c #4E526D",
"Q@	c #3A3F57",
"R@	c #241F24",
"S@	c #5D483B",
"T@	c #3B2C22",
"U@	c #A67354",
"V@	c #B48160",
"W@	c #B78666",
"X@	c #B78767",
"Y@	c #B88767",
"Z@	c #9F7157",
"`@	c #74463B",
" #	c #7E5344",
".#	c #9D735B",
"+#	c #B3886A",
"@#	c #675145",
"##	c #473C3F",
"$#	c #494E69",
"%#	c #60678C",
"&#	c #505574",
"*#	c #3B3235",
"=#	c #714D37",
"-#	c #A57253",
";#	c #B07B5B",
">#	c #99664D",
",#	c #703F35",
"'#	c #602C2C",
")#	c #764A3E",
"!#	c #A47A60",
"~#	c #604A3D",
"{#	c #50464E",
"]#	c #545875",
"^#	c #545B7C",
"/#	c #4D5370",
"(#	c #544D5B",
"_#	c #614D44",
":#	c #675042",
"<#	c #3C2C23",
"[#	c #B58262",
"}#	c #B88868",
"|#	c #B98A69",
"1#	c #B78665",
"2#	c #98654B",
"3#	c #6F3D34",
"4#	c #581F26",
"5#	c #6D3E36",
"6#	c #A1775E",
"7#	c #3B3E55",
"8#	c #626A90",
"9#	c #5C6488",
"0#	c #323346",
"a#	c #685144",
"b#	c #6D5547",
"c#	c #36271F",
"d#	c #B78565",
"e#	c #BC8E6D",
"f#	c #BD906F",
"g#	c #B78868",
"h#	c #A97659",
"i#	c #8F5D46",
"j#	c #6C3A33",
"k#	c #5B2328",
"l#	c #6F4138",
"m#	c #A2785E",
"n#	c #47372C",
"o#	c #393E56",
"p#	c #636B92",
"q#	c #5D6589",
"r#	c #2B2E3F",
"s#	c #2D221B",
"t#	c #43332A",
"u#	c #423229",
"v#	c #372A21",
"w#	c #251912",
"x#	c #724D37",
"y#	c #B27D5D",
"z#	c #B38060",
"A#	c #B48261",
"B#	c #A9775A",
"C#	c #8C5B47",
"D#	c #734136",
"E#	c #64312E",
"F#	c #5C2529",
"G#	c #48372D",
"H#	c #393D55",
"I#	c #636B91",
"J#	c #5E6589",
"K#	c #303143",
"L#	c #0F0100",
"M#	c #160E0A",
"N#	c #000102",
"O#	c #1C110A",
"P#	c #78553F",
"Q#	c #AA795B",
"R#	c #A97658",
"S#	c #9D694E",
"T#	c #9C684D",
"U#	c #905E47",
"V#	c #714036",
"W#	c #5E2A2B",
"X#	c #5D2729",
"Y#	c #6E3E36",
"Z#	c #9E7158",
"`#	c #BA8C6C",
" $	c #473629",
".$	c #60668A",
"+$	c #393645",
"@$	c #241500",
"#$	c #281C15",
"$$	c #271C15",
"%$	c #170F0C",
"&$	c #21160F",
"*$	c #7E5F48",
"=$	c #AE8365",
"-$	c #9C6F57",
";$	c #77473A",
">$	c #724035",
",$	c #5F2B2C",
"'$	c #5D282A",
")$	c #6C3B34",
"!$	c #96664D",
"~$	c #B38161",
"{$	c #C19473",
"]$	c #957358",
"^$	c #49372A",
"/$	c #363444",
"($	c #1E0F00",
"_$	c #221712",
":$	c #150D0A",
"<$	c #19110B",
"[$	c #654D3A",
"}$	c #8E6C53",
"|$	c #7F5947",
"1$	c #612F2E",
"2$	c #5C2629",
"3$	c #6D3D35",
"4$	c #9A6B52",
"5$	c #BF9270",
"6$	c #B78D6D",
"7$	c #A07B5F",
"8$	c #7F614B",
"9$	c #5C4739",
"0$	c #675143",
"a$	c #2D2F42",
"b$	c #120C08",
"c$	c #201711",
"d$	c #221812",
"e$	c #211812",
"f$	c #201712",
"g$	c #2E2219",
"h$	c #422E23",
"i$	c #542E29",
"j$	c #5F2C2C",
"k$	c #6D3F37",
"l$	c #9C7259",
"m$	c #B78C6C",
"n$	c #BB906F",
"o$	c #A27C60",
"p$	c #674E3B",
"q$	c #554235",
"r$	c #6F5747",
"s$	c #47362C",
"t$	c #646C92",
"u$	c #2C2E3E",
"v$	c #3E2F26",
"w$	c #45352B",
"x$	c #1A120D",
"y$	c #441A1C",
"z$	c #5E2B2B",
"A$	c #612D2C",
"B$	c #5F2A2B",
"C$	c #653631",
"D$	c #7A5644",
"E$	c #886850",
"F$	c #896951",
"G$	c #725742",
"H$	c #37281E",
"I$	c #715949",
"J$	c #513F33",
"K$	c #424153",
"L$	c #5F6589",
"M$	c #5A6184",
"N$	c #3D3F55",
"O$	c #514240",
"P$	c #6B5447",
"Q$	c #745B4C",
"R$	c #2C1D17",
"S$	c #421D1E",
"T$	c #5A292A",
"U$	c #612C2C",
"V$	c #5D2B2B",
"W$	c #4B2723",
"X$	c #37221A",
"Y$	c #2D1F16",
"Z$	c #281D14",
"`$	c #30241C",
" %	c #564236",
".%	c #6B5445",
"+%	c #5C4B4A",
"@%	c #4B4A5E",
"#%	c #4E5574",
"$%	c #596083",
"%%	c #54536C",
"&%	c #51423E",
"*%	c #2A1D18",
"=%	c #32171C",
"-%	c #4A2328",
";%	c #59292B",
">%	c #552425",
",%	c #43181B",
"'%	c #1E0006",
")%	c #32261E",
"!%	c #4F3E34",
"~%	c #4C4B5F",
"{%	c #5C6385",
"]%	c #494F6D",
"^%	c #2E282D",
"/%	c #5D493C",
"(%	c #271C17",
"_%	c #23121A",
":%	c #3A1E27",
"<%	c #4E252A",
"[%	c #5A2A2B",
"}%	c #5E2B2C",
"|%	c #5F2B2B",
"1%	c #5A2929",
"2%	c #502726",
"3%	c #432A24",
"4%	c #5C4C4A",
"5%	c #414052",
"6%	c #282C3E",
"7%	c #28201F",
"8%	c #291E18",
"9%	c #341C26",
"0%	c #3D1F28",
"a%	c #4A2329",
"b%	c #5C2A2A",
"c%	c #481F1F",
"d%	c #402822",
"e%	c #5D473B",
"f%	c #6F5648",
"g%	c #685143",
"h%	c #4D3B31",
"i%	c #372724",
"j%	c #2A161F",
"k%	c #2F1A24",
"l%	c #412028",
"m%	c #58292B",
"n%	c #612D2D",
"o%	c #5B2929",
"p%	c #3C1919",
"q%	c #352820",
"r%	c #513E33",
"s%	c #291B1A",
"t%	c #29151F",
"u%	c #412027",
"v%	c #3D1A1A",
"w%	c #362820",
"x%	c #382825",
"y%	c #391B20",
"z%	c #562729",
"A%	c #5B2A2A",
"B%	c #6C5546",
"C%	c #46352C",
"D%	c #311515",
"E%	c #542626",
"F%	c #49382E",
"G%	c #2F1312",
"H%	c #622D2D",
"I%	c #3E1A1A",
"J%	c #2F1413",
"K%	c #5A292B",
"L%	c #59292C",
"M%	c #542629",
"N%	c #381719",
"O%	c #301413",
"P%	c #57282B",
"Q%	c #432029",
"R%	c #3C1D29",
"S%	c #3A1C26",
"T%	c #251017",
"U%	c #280F11",
"V%	c #492125",
"W%	c #48222A",
"X%	c #2E1828",
"Y%	c #221528",
"Z%	c #211325",
"`%	c #140A16",
" &	c #33261F",
".&	c #1E1013",
"+&	c #2E1622",
"@&	c #301927",
"#&	c #261527",
"$&	c #231527",
"%&	c #221424",
"&&	c #372922",
"*&	c #45352D",
"=&	c #271C20",
"-&	c #180D1C",
";&	c #1A0E1C",
">&	c #1A0E1D",
",&	c #1F131D",
"'&	c #3D2E29",
")&	c #574337",
"!&	c #403028",
"~&	c #1E1513",
"{&	c #201714",
"]&	c #1C1312",
"^&	c #31241F",
"                                                                                                                                ",
"                                                                                                                                ",
"                                                                                                                                ",
"                                                                                                                                ",
"                                                                                                                                ",
"                                                                                                                                ",
"                                                                                                                                ",
"                                                                                                                                ",
"                                                                                                                                ",
"                                                                                                                                ",
"                                                                                                                                ",
"                                                            . + + + + + + + @ #                                                 ",
"                                                          @ $ % & % % % % * = -                                                 ",
"                                                        @ ; > , ' ) ) ! ~ { ] ^ / #                                             ",
"                                                      ( _ > : < < [ } | 1 2 3 4 5 6                                             ",
"                                                + 7 8 9 0 a b c d d c e f g h i j k l #                                         ",
"                                                8 m n o p q r s t t c e u g v w x y z A                                         ",
"                                                9 B C D E F G H I J c K L M N O P Q R S T #                                     ",
"                                                9 U V W X Y Z `  .d ..+.@.#.$.%.&.*.=.-.;.>.                                    ",
"                                                9 ,.'.).!.~.{.].^./.(._.:.<.[.[.}.|.1.2.3..                                     ",
"                                                9 4.5.6.).7.8.9.0.a.a.b.c.c.d.e.c.f.g.h.i..                                     ",
"                                                9 j.k.l.m.n.o.p.q.r.s.t.t.t.t.t.u.t.v.w.i..                                     ",
"                                                9 x.y.z.A.B.C.D.E.F.G.H.I.J.K.K.K.L.M.N.i..                                     ",
"                                                9 x.O.P.Q.R.S.T.U.V.W.X.Y.Z.`. +N  +.+++i..                                     ",
"                                                @+#+$+%+&+*+=+-+;+>+,+'+)+!+~+{+]+^+/+(+_ (                                     ",
"                                                . _+:+<+[+}+|+-+;+>+,+'+1+)+2+3+4+5+6+7++                                       ",
"                                                    S 8+9+0+a+b+c+>+d+e+f+g+h+i+j+k+#+A                                         ",
"                                                  # ;.l+m+n+o+p+q+>+r+s+t+u+v+w+x+y+z+6                                         ",
"                                                  # ;.A+B+C+D+E+F+G+H+I+J+K+L+M+N+O+#+A                                         ",
"                                                  # ;.P+Q+R+S+T+U+V+W+X+Y+Z+`+ @.@+@@@7 #@                                      ",
"                                                  $@;.%@&@*@=@-@;@>@,@'@)@!@~@{@]@^@/@(@_@(                                     ",
"                                                @ @+:@<@[@}@|+|@1@2@3@4@5@6@|@|@-+7@8@9@i..                                     ",
"                                                8 0@a@b@c@d@|+|+|@2@e@f@g@h@|@|@i@j@k@l@m@.                                     ",
"                                  6 _@n@o@p@    q@r@s@t@u@i@|+|+|@2@e@v@`+{@|@|@|+w@x@y@i..                                     ",
"                                >.z@A@B@C@D@#   9 E@s@F@G@H@i@i@d@I@J@K@L@|@|@|@|+w@M@y@i..                                     ",
"                              / N@O@P@Q@R@S@#   9 T@s@U@V@W@X@Y@X@Z@`@ #.#+#1@|@|+*+M@y@i..                                     ",
"                          $@@ @###$#%#&#*#k #   9 T@=#-#;#U+S+U+F+>#,#'#)#!#d@|+|+*+M@y@i..                                     ",
"                          A ~#{#]#^#/#(#_#-     :#<#s@U@[#}#|#1#;#2#3#4#5#6#w@|+|+*+M@y@i..                                     ",
"                          - 0 7#8#9#0#m a#_+b#b#S@c#s@U@d#e#f#g#h#i#j#k#l#m#d@|+|+*+M@y@i..                                     ",
"                          p@n#o#p#q#r#s#<+t#u#u#v#w#x#-#y#z#A#B#C#D#E#F#l#m#d@|+|+*+M@y@i..                                     ",
"                          - G#H#I#J#K#L#M#M#M#M#N#O#P#Q#R#S#T#U#V#W#'#X#Y#Z#`#H@|+d@x@ $m@.                                     ",
"                          - G#H#I#.$+$@$#$$$#$#$%$&$*$=$-$;$>$3#E#,$'#'$)$!$~$-+{$}@]$^$5 .                                     ",
"                          - G#H#I#.$/$($_$_$_$_$:$<$[$}$|$1$2$W#,$'#'#'$3$4$X@5$6$7$8$9$0$#                                     ",
"                          - G#H#I#J#a$b$c$d$e$e$f$c$g$h$i$j$'#'#'#'#'#X#k$l$m$n$o$p$q$r$(                                       ",
"                          p@s$o#t$q#u$v$3.z i.i.i.3.w$x$y$z$A$'#'#'#'#B$C$D$E$F$G$H$z+A                                         ",
"                          I$J$K$L$M$N$O$P$A #@. ( Q$= R$S$T$j$'#'#'#'#U$V$W$X$Y$Z$`$ %A                                         ",
"                          #@.%+%@%#%$%%%&%7+        S *%=%-%;%'#'#'#'#'#z$>%,%'%)%i.7 >.                                        ",
"                              b#!%~%{%]%^%;.#     # /%(%_%:%<%[%}%'#'#'#|%1%2%3%* p@                                            ",
"                              . b#4%5%6%7%;.#     # ;.8%_%9%0%a%[%'#'#U$b%c%d%e%f%(                                             ",
"                                  .%J$w$#+g%#     # g%h%i%j%k%l%m%'#'#n%o%p%q%:#                                                ",
"                                  #@I$p@l @         . b#r%s%t%u%m%'#'#U$o%v%w%9                                                 ",
"                                                      # g%r%x%y%z%U$'#U$A%v%w%9                                                 ",
"                                                        # B%C%D%E%U$'#U$A%v%w%9                                                 ",
"                                                          l F%G%E%U$U$H%b%I%w%9                                                 ",
"                                                          - G#J%E%}%K%L%M%N%w%9                                                 ",
"                                                          - G#O%E%P%Q%R%S%T%q%9                                                 ",
"                                                          p@n#U%V%W%X%Y%Z%`% &9                                                 ",
"                                                          - 0 .&+&@&#&$&%&`%&&:#                                                ",
"                                                          A ~#*&=&-&;&>&,&'&)&_+                                                ",
"                                                          $@@ q@!&~&{&]&^&= 6 #                                                 ",
"                                                              / D@m@i.3.S@_+                                                    ",
"                                                              $@( . . . . #                                                     ",
"                                                                                                                                ",
"                                                                                                                                "};
