/* XPM */
static char * player_down2_xpm[] = {
"64 64 535 2",
"  	c #785E4E",
". 	c #765C4D",
"+ 	c #745B4B",
"@ 	c #775D4D",
"# 	c #675143",
"$ 	c #564337",
"% 	c #534034",
"& 	c #544135",
"* 	c #765C4C",
"= 	c #6D5647",
"- 	c #514137",
"; 	c #272423",
"> 	c #1C1E1F",
", 	c #1F2020",
"' 	c #695244",
") 	c #4D3C32",
"! 	c #393837",
"~ 	c #2C3A3F",
"{ 	c #2D3C41",
"] 	c #2D3B40",
"^ 	c #755C4C",
"/ 	c #6C5445",
"( 	c #544338",
"_ 	c #2D2E2E",
": 	c #38494E",
"< 	c #394A50",
"[ 	c #6B5345",
"} 	c #4B3A31",
"| 	c #353434",
"1 	c #324044",
"2 	c #36464C",
"3 	c #755B4C",
"4 	c #56443E",
"5 	c #37333E",
"6 	c #303B46",
"7 	c #38484F",
"8 	c #394B51",
"9 	c #6F5748",
"0 	c #4C3B30",
"a 	c #332F3A",
"b 	c #3E4258",
"c 	c #3F495B",
"d 	c #3A4A52",
"e 	c #6D5546",
"f 	c #403128",
"g 	c #252939",
"h 	c #41465F",
"i 	c #434D60",
"j 	c #394951",
"k 	c #37494F",
"l 	c #31474F",
"m 	c #2C454F",
"n 	c #6D5547",
"o 	c #423229",
"p 	c #232636",
"q 	c #3D435A",
"r 	c #444D62",
"s 	c #414F5D",
"t 	c #3D4D58",
"u 	c #424E53",
"v 	c #555953",
"w 	c #605F54",
"x 	c #151924",
"y 	c #2D3345",
"z 	c #49526D",
"A 	c #5B6585",
"B 	c #4E5A77",
"C 	c #605E61",
"D 	c #9E8861",
"E 	c #BB9F64",
"F 	c #BB9F65",
"G 	c #9E8962",
"H 	c #605E62",
"I 	c #4E5B78",
"J 	c #05060B",
"K 	c #1C1F2C",
"L 	c #464D69",
"M 	c #60688D",
"N 	c #566188",
"O 	c #766F77",
"P 	c #C3A571",
"Q 	c #E7C070",
"R 	c #E6C070",
"S 	c #C2A36C",
"T 	c #72696B",
"U 	c #525C81",
"V 	c #0C050D",
"W 	c #1D1624",
"X 	c #303145",
"Y 	c #434965",
"Z 	c #525D84",
"` 	c #837E91",
" .	c #C9AC80",
"..	c #EAC371",
"+.	c #EAC270",
"@.	c #C5A66E",
"#.	c #726869",
"$.	c #3C4767",
"%.	c #404660",
"&.	c #313247",
"*.	c #413128",
"=.	c #100712",
"-.	c #201223",
";.	c #1C1421",
">.	c #212636",
",.	c #424D6F",
"'.	c #747287",
").	c #AC9575",
"!.	c #C7A662",
"~.	c #C7A661",
"{.	c #A78E60",
"].	c #5F585A",
"^.	c #202E47",
"/.	c #1A1F2C",
"(.	c #1E1725",
"_.	c #1F1122",
":.	c #0C0109",
"<.	c #372921",
"[.	c #5D493C",
"}.	c #765D4D",
"|.	c #44342A",
"1.	c #150B13",
"2.	c #1F1222",
"3.	c #1B1F2B",
"4.	c #2C3144",
"5.	c #464450",
"6.	c #625547",
"7.	c #715E3F",
"8.	c #705E3E",
"9.	c #60513E",
"0.	c #3C373B",
"a.	c #202533",
"b.	c #181D28",
"c.	c #1E1726",
"d.	c #201424",
"e.	c #15101C",
"f.	c #1B1618",
"g.	c #322620",
"h.	c #584438",
"i.	c #735A4B",
"j.	c #5E493C",
"k.	c #44342D",
"l.	c #271C21",
"m.	c #0B0D20",
"n.	c #221C27",
"o.	c #563C33",
"p.	c #704D3B",
"q.	c #714D3D",
"r.	c #6F4B3D",
"s.	c #714E3E",
"t.	c #573D35",
"u.	c #211B27",
"v.	c #000019",
"w.	c #1F2137",
"x.	c #404560",
"y.	c #3F445E",
"z.	c #202331",
"A.	c #4D3B31",
"B.	c #72594A",
"C.	c #705849",
"D.	c #5F493D",
"E.	c #362621",
"F.	c #24141C",
"G.	c #472F2E",
"H.	c #825845",
"I.	c #A27053",
"J.	c #A77456",
"K.	c #815845",
"L.	c #49312F",
"M.	c #32211C",
"N.	c #433E4B",
"O.	c #5D6283",
"P.	c #585F82",
"Q.	c #303345",
"R.	c #4E3C31",
"S.	c #654F41",
"T.	c #554236",
"U.	c #554136",
"V.	c #4D382E",
"W.	c #4B2924",
"X.	c #633D31",
"Y.	c #835843",
"Z.	c #9D6B4F",
"`.	c #AF7959",
" +	c #B68463",
".+	c #B98968",
"++	c #9C6A4F",
"@+	c #885E48",
"#+	c #8B664E",
"$+	c #876A5C",
"%+	c #655D6E",
"&+	c #3C4664",
"*+	c #151F33",
"=+	c #4F3D32",
"-+	c #6E5647",
";+	c #5E483A",
">+	c #513D2F",
",+	c #503C2E",
"'+	c #53372C",
")+	c #5E322D",
"!+	c #855643",
"~+	c #A77457",
"{+	c #AE7959",
"]+	c #AF7B5B",
"^+	c #B78767",
"/+	c #BD8F6F",
"(+	c #AC7757",
"_+	c #AE7C5D",
":+	c #B78969",
"<+	c #AE8669",
"[+	c #7D604E",
"}+	c #4E3C34",
"|+	c #4D3A2E",
"1+	c #5D4739",
"2+	c #6E5646",
"3+	c #664F41",
"4+	c #594437",
"5+	c #83644E",
"6+	c #9D785D",
"7+	c #9E7A5E",
"8+	c #8E6952",
"9+	c #72463B",
"0+	c #8E614D",
"a+	c #B38465",
"b+	c #B58261",
"c+	c #B17E5E",
"d+	c #B48262",
"e+	c #B38060",
"f+	c #BB8B6A",
"g+	c #C09271",
"h+	c #BB9070",
"i+	c #A98263",
"j+	c #9F795D",
"k+	c #9D795D",
"l+	c #83654E",
"m+	c #594537",
"n+	c #594539",
"o+	c #473528",
"p+	c #967359",
"q+	c #BE9272",
"r+	c #C19574",
"s+	c #AA7F64",
"t+	c #7C5042",
"u+	c #906651",
"v+	c #B88C6D",
"w+	c #BA8A6A",
"x+	c #B2805F",
"y+	c #B27E5E",
"z+	c #B27F5F",
"A+	c #B98969",
"B+	c #BF9372",
"C+	c #C09473",
"D+	c #C19473",
"E+	c #BE9271",
"F+	c #584538",
"G+	c #4A372A",
"H+	c #977459",
"I+	c #C29674",
"J+	c #AB8064",
"K+	c #7C5143",
"L+	c #906551",
"M+	c #B98D6E",
"N+	c #BF9271",
"O+	c #BC8E6D",
"P+	c #BE9170",
"Q+	c #C29574",
"R+	c #675042",
"S+	c #6A5140",
"T+	c #80614B",
"U+	c #A78063",
"V+	c #AA8064",
"W+	c #8F6551",
"X+	c #B98E6E",
"Y+	c #BC8E6E",
"Z+	c #BB8D6C",
"`+	c #C19573",
" @	c #49382C",
".@	c #81634C",
"+@	c #B08769",
"@@	c #BC9171",
"#@	c #B68665",
"$@	c #B38161",
"%@	c #BB8D6D",
"&@	c #624C3F",
"*@	c #3C2D23",
"=@	c #886850",
"-@	c #B98E6F",
";@	c #C09573",
">@	c #B58363",
",@	c #B17D5D",
"'@	c #BA8C6B",
")@	c #624D3F",
"!@	c #3E2E24",
"~@	c #87674F",
"{@	c #BA8F6F",
"]@	c #A97E62",
"^@	c #7B4F41",
"/@	c #8E634F",
"(@	c #B78B6C",
"_@	c #C09371",
":@	c #BE9171",
"<@	c #BD8F6E",
"[@	c #BB8C6C",
"}@	c #BA8A69",
"|@	c #A27358",
"1@	c #78493D",
"2@	c #895B47",
"3@	c #AE7E5F",
"4@	c #B68464",
"5@	c #B58463",
"6@	c #B58464",
"7@	c #B07C5C",
"8@	c #C29675",
"9@	c #BB8E6E",
"0@	c #A97A5C",
"a@	c #8F5F47",
"b@	c #714036",
"c@	c #885845",
"d@	c #AB795A",
"e@	c #B37F5F",
"f@	c #AF7A5A",
"g@	c #AD7858",
"h@	c #BA906F",
"i@	c #C39675",
"j@	c #B3896A",
"k@	c #86624A",
"l@	c #5E382B",
"m@	c #63342E",
"n@	c #8E624E",
"o@	c #B48667",
"p@	c #AD7757",
"q@	c #B98A6A",
"r@	c #BA9070",
"s@	c #3D2E24",
"t@	c #C49776",
"u@	c #B08869",
"v@	c #6D533F",
"w@	c #2C080F",
"x@	c #592A29",
"y@	c #855B4A",
"z@	c #A77C61",
"A@	c #B6896A",
"B@	c #B98A69",
"C@	c #B3805F",
"D@	c #AE7857",
"E@	c #A9785B",
"F@	c #9E6E52",
"G@	c #A2785C",
"H@	c #A57F62",
"I@	c #A07B5F",
"J@	c #7B5F4A",
"K@	c #634D40",
"L@	c #403026",
"M@	c #86674F",
"N@	c #B88E6E",
"O@	c #AD8567",
"P@	c #6B513E",
"Q@	c #2F0E11",
"R@	c #572727",
"S@	c #6A3B35",
"T@	c #7C4F41",
"U@	c #9A6A51",
"V@	c #AD7A5B",
"W@	c #AC7656",
"X@	c #AF7B5C",
"Y@	c #AB785A",
"Z@	c #905F49",
"`@	c #714437",
" #	c #604133",
".#	c #584232",
"+#	c #5B4535",
"@#	c #644D3E",
"##	c #6C5446",
"$#	c #5A4538",
"%#	c #765B47",
"&#	c #947157",
"*#	c #99755B",
"=#	c #8A6A51",
"-#	c #543F2F",
";#	c #311213",
">#	c #562627",
",#	c #5E292B",
"'#	c #622E2C",
")#	c #7E4C3C",
"!#	c #925F47",
"~#	c #946149",
"{#	c #936048",
"]#	c #8F5C46",
"^#	c #784639",
"/#	c #5A2829",
"(#	c #44171C",
"_#	c #2B060D",
":#	c #050302",
"<#	c #2F231C",
"[#	c #685143",
"}#	c #775D4E",
"|#	c #614B3D",
"1#	c #4C392C",
"2#	c #433225",
"3#	c #3B2B20",
"4#	c #271912",
"5#	c #381717",
"6#	c #582728",
"7#	c #612C2C",
"8#	c #612D2C",
"9#	c #66332F",
"0#	c #6B3932",
"a#	c #6A3832",
"b#	c #65322F",
"c#	c #602C2C",
"d#	c #5D2A2A",
"e#	c #4D2222",
"f#	c #2A1211",
"g#	c #4A392E",
"h#	c #6C5546",
"i#	c #574437",
"j#	c #382A22",
"k#	c #0F0403",
"l#	c #391517",
"m#	c #4F2323",
"n#	c #5C2A2A",
"o#	c #5F2A2B",
"p#	c #5D292B",
"q#	c #5F2B2B",
"r#	c #612D2D",
"s#	c #522525",
"t#	c #2D1513",
"u#	c #2B1311",
"v#	c #512424",
"w#	c #522424",
"x#	c #5D2B2C",
"y#	c #59292B",
"z#	c #58292B",
"A#	c #58292A",
"B#	c #562728",
"C#	c #542626",
"D#	c #552728",
"E#	c #5C2B2C",
"F#	c #55282B",
"G#	c #452229",
"H#	c #412028",
"I#	c #3F1F26",
"J#	c #36191B",
"K#	c #2F1413",
"L#	c #35181B",
"M#	c #411F26",
"N#	c #52262A",
"O#	c #5E2B2C",
"P#	c #5F2C2C",
"Q#	c #51262A",
"R#	c #391D27",
"S#	c #2C1823",
"T#	c #2E1C21",
"U#	c #3E2E28",
"V#	c #48372D",
"W#	c #301C21",
"X#	c #411F25",
"Y#	c #53272A",
"Z#	c #5C2A2C",
"`#	c #52272A",
" $	c #391D26",
".$	c #23121B",
"+$	c #2E211D",
"@$	c #5C473B",
"#$	c #29141B",
"$$	c #3F1F27",
"%$	c #53272B",
"&$	c #502424",
"*$	c #2C1513",
"=$	c #381D26",
"-$	c #1F0F18",
";$	c #2E221B",
">$	c #351C26",
",$	c #462229",
"'$	c #4F252A",
")$	c #50262A",
"!$	c #421E22",
"~$	c #251212",
"{$	c #201018",
"]$	c #211018",
"^$	c #311A25",
"/$	c #361D28",
"($	c #371D27",
"_$	c #2E1720",
":$	c #1B0F11",
"<$	c #2B1F1A",
"[$	c #1C0E18",
"}$	c #2A1726",
"|$	c #2B1828",
"1$	c #2A1827",
"2$	c #221320",
"3$	c #12090E",
"4$	c #42332A",
"5$	c #281C1F",
"6$	c #211422",
"7$	c #211323",
"8$	c #241820",
"9$	c #342722",
"0$	c #735A4A",
"a$	c #4C3A31",
"b$	c #1E1417",
"c$	c #0F0712",
"d$	c #0F0711",
"e$	c #392A26",
"f$	c #5E493D",
"g$	c #4D3C31",
"h$	c #250F10",
"i$	c #462023",
"j$	c #55272B",
"k$	c #54272B",
"l$	c #48232A",
"m$	c #331B26",
"n$	c #1D0F18",
"o$	c #2C211B",
"p$	c #47372C",
"q$	c #715849",
"r$	c #201314",
"s$	c #2C1520",
"t$	c #351B28",
"u$	c #351A28",
"v$	c #301927",
"w$	c #271625",
"x$	c #180C18",
"y$	c #31241E",
"z$	c #48382F",
"A$	c #2C1F22",
"B$	c #170D1C",
"C$	c #180D1C",
"D$	c #1B101D",
"E$	c #3A2B27",
"F$	c #544136",
"G$	c #45342C",
"H$	c #1F1614",
"I$	c #1C1312",
"J$	c #2C211C",
"                                                                                                                                ",
"                                                                                                                                ",
"                                                                                                                                ",
"                                                                                                                                ",
"                                                                                                                                ",
"                                                                                                                                ",
"                                                                                                                                ",
"                                                                                                                                ",
"                                                                                                                                ",
"                                                                                                                                ",
"                                                                                                                                ",
"                                                        . + + + + + + .                                                         ",
"                                                      @ # $ % & & % $ # @                                                       ",
"                                                    * = - ; > , , > ; - = *                                                     ",
"                                                    ' ) ! ~ { ] ] { ~ ! ) '                                                     ",
"                                                ^ / ( _ ] : < < < < : ] _ ( / ^                                                 ",
"                                                [ } | 1 2 < < < < < < 2 1 | } [                                                 ",
"                                            3 ' 4 5 6 7 8 < < < < < < 8 7 6 5 4 ' 3                                             ",
"                                            9 0 a b c d < < < < < < < < d c b a 0 9                                             ",
"                                            e f g h i j : k l m m l k : j i h g f e                                             ",
"                                            n o p q r s t u v w w v u t s r q p o n                                             ",
"                                            n o x y z A B C D E F G H I A z y x o n                                             ",
"                                            n o J K L M N O P Q R S T U M L K J o n                                             ",
"                                            n o V W X Y Z `  ...+.@.#.$.%.&.W V o n                                             ",
"                                            n *.=.-.;.>.,.'.).!.~.{.].^./.(._.:.<.[.9 }.                                        ",
"                                            n |.1.2.(.3.4.5.6.7.8.9.0.a.b.c.d.e.f.g.h.i.                                        ",
"                                            i.j.k.l.m.n.o.p.q.r.r.s.s.t.u.v.w.x.y.z.A.B.                                        ",
"                                          * i.C.D.E.F.G.H.I.J.J.J.J.I.K.L.M.N.O.P.Q.R.B.                                        ",
"                                        . S.T.U.V.W.X.Y.Z.`. +.+.+ +`.++@+#+$+%+&+*+=+i.                                        ",
"                                      ^ -+;+>+,+'+)+!+~+{+]+^+/+/+^+]+(+_+:+<+[+}+|+1+2+^                                       ",
"                                    }.3+4+5+6+7+8+9+0+a+b+{+c+d+d+c+{+e+f+g+h+i+j+k+l+m+3+}.                                    ",
"                                    . n+o+p+q+r+s+t+u+v+w+x+y+z+z+y+x+A+B+C+C+C+D+E+p+o+n+.                                     ",
"                                    ^ F+G+H+B+I+J+K+L+M+N+O+O+O+O+O+O+P+C+C+C+C+Q+B+H+G+F+^                                     ",
"                                  B.R+S+T+U+B+r+V+t+W+X+r+C+C+C+C+C+C+C+B+Y+Z+P+`+B+U+T+S+R+B.                                  ",
"                                  3+ @.@+@@@C+D+V+t+W+X+r+C+C+C+C+C+C+C+E+#@$@%@C+C+@@+@.@ @3+                                  ",
"                                  &@*@=@h+I+C+r+J+K+L+-@I+;@;@;@;@;@;@r+N+>@,@'@C+C+I+h+=@*@&@                                  ",
"                                  )@!@~@{@Q+C+B+]@^@/@(@_@:@:@:@:@:@:@N+<@d+c+[@C+C+Q+{@~@!@)@                                  ",
"                                  )@!@~@{@I+N+}@|@1@2@3@4@>@5@6@6@5@>@>@d+7@,@[@C+C+Q+{@~@!@)@                                  ",
"                                  )@!@~@{@8@9@0@a@b@c@d@e@,@f@g@g@f@,@c+,@`.,@Z+D+D+I+h@~@!@&@                                  ",
"                                  )@!@~@{@i@j@k@l@m@n@o@O+A+z+p@p@z+A+Z+q@e+c+Z+`+D+I+r@~@!@&@                                  ",
"                                  &@s@~@h+t@u@v@w@x@y@z@A@B@C@D@D@C@w+O+q@E@F@G@H@H@H@I@J@% '                                   ",
"                                  K@L@M@N@r+O@P@Q@R@S@T@U@V@{+W@W@g@X@,@Y@Z@`@ #.#.#.#+#@#-+^                                   ",
"                                  ##$#%#&#*#=#-#;#>#,#'#)#!#~#~#~#~#{#~#]#^#/#(#_#:#<#R.[#}#                                    ",
"                                  @ B.|#1#2#3#4#5#6#7#8#9#0#0#0#0#0#0#0#a#b#c#d#e#f#g#n }.                                      ",
"                                      h#i#j#k#l#m#n#c#c#o#,#p#,#,#,#,#p#,#q#c#r#s#t#=+i.                                        ",
"                                        C.0 u#m#q#c#c#c#c#c#c#c#c#c#c#c#c#c#c#c#v#t#R.B.                                        ",
"                                        i.=+t#w#7#c#c#c#c#c#7#7#7#7#c#c#c#c#c#c#v#t#R.B.                                        ",
"                                        B.R.t#v#c#c#x#y#z#A#B#C#C#D#A#E#c#c#c#c#v#t#R.B.                                        ",
"                                        B.R.t#v#7#c#F#G#H#I#J#K#K#L#M#N#O#c#c#c#v#t#R.B.                                        ",
"                                        B.R.t#v#7#P#Q#R#S#T#U#V#V#U#W#X#Y#Z#c#7#v#t#R.B.                                        ",
"                                        B.R.t#v#7#P#`# $.$+$@$C.C.@$+$#$$$%$O#P#&$*$R.B.                                        ",
"                                        B.R.t#v#7#P#`#=$-$;$K@    K@;$-$>$,$'$)$!$~$R.B.                                        ",
"                                        B.R.t#v#7#P#`# ${$;$)@    )@;$]$^$/$($($_$:$R.B.                                        ",
"                                        B.R.t#v#7#P#`# ${$;$)@    &@<$[$}$|$1$1$2$3$A.B.                                        ",
"                                        B.R.t#v#7#c#`# ${$;$)@    R+4$5$6$7$-.-.8$9$h.i.                                        ",
"                                        B.R.t#v#7#c#`# ${$;$)@    0$R+a$b$c$d$c$e$f$9 }.                                        ",
"                                        B.g$h$i$j$k$l$m$n$o$&@      }.K@p$f o o $ q$                                            ",
"                                        B.=+r$s$t$u$v$w$x$y$K@        i.-+e n n C.}.                                            ",
"                                        3 )@z$A$B$B$C$D$E$F$##                                                                  ",
"                                          * ' G$H$H$I$J$h.q$@                                                                   ",
"                                            + K@n+n+h.@$/                                                                       ",
"                                              }.* * * * @                                                                       ",
"                                                                                                                                ",
"                                                                                                                                "};
