/* XPM */
static char * player_right2_xpm[] = {
"64 64 665 2",
"  	c #785E4E",
". 	c #775D4D",
"+ 	c #755B4C",
"@ 	c #745B4B",
"# 	c #765C4C",
"$ 	c #705849",
"% 	c #5C473B",
"& 	c #534034",
"* 	c #544135",
"= 	c #534035",
"- 	c #634D3F",
"; 	c #735A4A",
"> 	c #604B3E",
", 	c #362A23",
"' 	c #131112",
") 	c #1A1717",
"! 	c #1D1C1C",
"~ 	c #1F2020",
"{ 	c #1D1E1F",
"] 	c #202020",
"^ 	c #483A32",
"/ 	c #695345",
"( 	c #72594A",
"_ 	c #5A4639",
": 	c #3D2F29",
"< 	c #1E1C21",
"[ 	c #131C24",
"} 	c #19252C",
"| 	c #253238",
"1 	c #2C3A3F",
"2 	c #2D3C40",
"3 	c #2D3B40",
"4 	c #35383A",
"5 	c #634D40",
"6 	c #765D4D",
"7 	c #715849",
"8 	c #614B3E",
"9 	c #3B2E27",
"0 	c #0B1119",
"a 	c #131B25",
"b 	c #19242E",
"c 	c #212F38",
"d 	c #2F3F46",
"e 	c #38494F",
"f 	c #394A50",
"g 	c #2A3A3F",
"h 	c #15191D",
"i 	c #4A392E",
"j 	c #665042",
"k 	c #6B5345",
"l 	c #6D5546",
"m 	c #735A4B",
"n 	c #5A463A",
"o 	c #382C26",
"p 	c #1F1D21",
"q 	c #121A24",
"r 	c #151D28",
"s 	c #222F38",
"t 	c #3A4B51",
"u 	c #3A4A51",
"v 	c #303D42",
"w 	c #1B1F1D",
"x 	c #2B1F16",
"y 	c #3C2E24",
"z 	c #3B2D24",
"A 	c #4B3A2F",
"B 	c #6F5748",
"C 	c #5F4A3D",
"D 	c #3E3029",
"E 	c #0B1016",
"F 	c #101821",
"G 	c #131B26",
"H 	c #141C27",
"I 	c #18232C",
"J 	c #202F37",
"K 	c #2F3F45",
"L 	c #394A4F",
"M 	c #3F4F5B",
"N 	c #4E5B70",
"O 	c #6D686A",
"P 	c #8A744D",
"Q 	c #927842",
"R 	c #89713F",
"S 	c #5D4C29",
"T 	c #372A20",
"U 	c #765C4D",
"V 	c #5E493C",
"W 	c #352922",
"X 	c #1E1D23",
"Y 	c #171E2A",
"Z 	c #19202C",
"` 	c #19202D",
" .	c #1A212D",
"..	c #1D2732",
"+.	c #24313B",
"@.	c #304048",
"#.	c #394950",
"$.	c #465569",
"%.	c #626C8D",
"&.	c #9D8F8C",
"*.	c #CEAD71",
"=.	c #DDB768",
"-.	c #CFAC63",
";.	c #907743",
">.	c #3F3123",
",.	c #584438",
"'.	c #1E191D",
").	c #272C3C",
"!.	c #343A4E",
"~.	c #353B50",
"{.	c #343A4F",
"].	c #353C51",
"^.	c #384054",
"/.	c #3C4759",
"(.	c #404C5D",
"_.	c #404C5C",
":.	c #47526C",
"<.	c #5D6485",
"[.	c #A49286",
"}.	c #DFBB77",
"|.	c #F0C872",
"1.	c #E1BB6C",
"2.	c #9D8249",
"3.	c #413324",
"4.	c #594539",
"5.	c #241F23",
"6.	c #31364A",
"7.	c #414760",
"8.	c #424861",
"9.	c #414761",
"0.	c #424761",
"a.	c #424962",
"b.	c #434962",
"c.	c #414964",
"d.	c #494E68",
"e.	c #93806A",
"f.	c #D1AE6B",
"g.	c #D3B066",
"h.	c #937945",
"i.	c #3F3124",
"j.	c #221B1D",
"k.	c #252939",
"l.	c #31374B",
"m.	c #32384C",
"n.	c #31364B",
"o.	c #30334A",
"p.	c #2B3049",
"q.	c #2A3247",
"r.	c #635749",
"s.	c #917A4D",
"t.	c #9E844F",
"u.	c #957C4B",
"v.	c #665432",
"w.	c #3A2C22",
"x.	c #1E1714",
"y.	c #10161F",
"z.	c #171F2A",
"A.	c #171F2B",
"B.	c #191E2B",
"C.	c #1A1E2B",
"D.	c #181D2A",
"E.	c #29232C",
"F.	c #473132",
"G.	c #563D38",
"H.	c #5A453E",
"I.	c #5E4B41",
"J.	c #5F4C40",
"K.	c #4F4038",
"L.	c #312B2B",
"M.	c #181618",
"N.	c #342720",
"O.	c #1D1614",
"P.	c #0D131C",
"Q.	c #131C26",
"R.	c #141C26",
"S.	c #191A26",
"T.	c #1E1726",
"U.	c #161124",
"V.	c #422C2D",
"W.	c #7C5441",
"X.	c #996C52",
"Y.	c #A27A5F",
"Z.	c #A68065",
"`.	c #A07C62",
" +	c #7B5E4E",
".+	c #30222B",
"++	c #000011",
"@+	c #45352C",
"#+	c #292323",
"$+	c #151923",
"%+	c #181A26",
"&+	c #1A1B28",
"*+	c #1B1B28",
"=+	c #1F1927",
"-+	c #231627",
";+	c #190C25",
">+	c #4C3231",
",+	c #90624A",
"'+	c #B27F5E",
")+	c #BD8F6E",
"!+	c #C29675",
"~+	c #BE9272",
"{+	c #927059",
"]+	c #402F2C",
"^+	c #302420",
"/+	c #4F3D32",
"(+	c #6C5446",
"_+	c #695244",
":+	c #47372E",
"<+	c #151117",
"[+	c #1B1321",
"}+	c #211727",
"|+	c #221727",
"1+	c #241527",
"2+	c #C19574",
"3+	c #BB9070",
"4+	c #8E6D54",
"5+	c #413128",
"6+	c #554236",
"7+	c #6E5647",
"8+	c #0E090A",
"9+	c #010012",
"0+	c #09001C",
"a+	c #140522",
"b+	c #180925",
"c+	c #1A0D25",
"d+	c #0F0724",
"e+	c #4B3231",
"f+	c #B27F5F",
"g+	c #BC8E6E",
"h+	c #B48B6C",
"i+	c #9A765C",
"j+	c #6D533F",
"k+	c #382A20",
"l+	c #4E3C31",
"m+	c #1B130D",
"n+	c #2D2019",
"o+	c #3A2A25",
"p+	c #3F2D2E",
"q+	c #3F2B2F",
"r+	c #3B262C",
"s+	c #2D1A28",
"t+	c #503331",
"u+	c #B27E5E",
"v+	c #BB8C6C",
"w+	c #A47D60",
"x+	c #684D3A",
"y+	c #332319",
"z+	c #2B1F18",
"A+	c #3E2F23",
"B+	c #7A5D47",
"C+	c #916F57",
"D+	c #926F58",
"E+	c #8D6852",
"F+	c #835A46",
"G+	c #684037",
"H+	c #633B34",
"I+	c #93624A",
"J+	c #AF7A5A",
"K+	c #B48262",
"L+	c #A6785A",
"M+	c #855C42",
"N+	c #5B3B29",
"O+	c #33241A",
"P+	c #755C4C",
"Q+	c #553F32",
"R+	c #694D39",
"S+	c #A47E61",
"T+	c #BD9271",
"U+	c #BC9171",
"V+	c #B68767",
"W+	c #A87557",
"X+	c #865541",
"Y+	c #724238",
"Z+	c #99674E",
"`+	c #B07C5C",
" @	c #B17D5D",
".@	c #B07D5D",
"+@	c #AA7758",
"@@	c #805941",
"#@	c #3D2B20",
"$@	c #664F41",
"%@	c #574033",
"&@	c #75513B",
"*@	c #996C50",
"=@	c #B58969",
"-@	c #C29674",
";@	c #C19573",
">@	c #BB8B6A",
",@	c #AC7858",
"'@	c #895642",
")@	c #77483C",
"!@	c #A1745A",
"~@	c #B98A6A",
"{@	c #BA8B6A",
"]@	c #BB8C6B",
"^@	c #B78969",
"/@	c #8A674E",
"(@	c #3E2E23",
"_@	c #775D4E",
":@	c #442F23",
"<@	c #8A6148",
"[@	c #B28161",
"}@	c #C09473",
"|@	c #BB8D6C",
"1@	c #AF7D5E",
"2@	c #8B5B47",
"3@	c #784B3F",
"4@	c #A67B61",
"5@	c #BF9373",
"6@	c #BD9171",
"7@	c #9A7459",
"8@	c #664836",
"9@	c #604739",
"0@	c #584538",
"a@	c #473327",
"b@	c #936E54",
"c@	c #BB8E6D",
"d@	c #C09372",
"e@	c #BF9371",
"f@	c #B88A6B",
"g@	c #926651",
"h@	c #794D40",
"i@	c #BF9372",
"j@	c #B08364",
"k@	c #96694D",
"l@	c #6C4A36",
"m@	c #4E3C30",
"n@	c #483629",
"o@	c #977459",
"p@	c #BE9372",
"q@	c #966C56",
"r@	c #BA8968",
"s@	c #A77456",
"t@	c #714C36",
"u@	c #3A2A21",
"v@	c #664F42",
"w@	c #705748",
"x@	c #654F41",
"y@	c #614C3E",
"z@	c #967359",
"A@	c #B98D6E",
"B@	c #936954",
"C@	c #794C40",
"D@	c #A57A60",
"E@	c #BF9271",
"F@	c #B98867",
"G@	c #A67455",
"H@	c #3B2B22",
"I@	c #624C3F",
"J@	c #3A2C25",
"K@	c #2A2223",
"L@	c #413432",
"M@	c #654F44",
"N@	c #B3886A",
"O@	c #9D735B",
"P@	c #7E5344",
"Q@	c #74463B",
"R@	c #9F7157",
"S@	c #B78767",
"T@	c #B88767",
"U@	c #B78666",
"V@	c #B48160",
"W@	c #A67354",
"X@	c #3B2C22",
"Y@	c #5D483B",
"Z@	c #241F24",
"`@	c #3A3F57",
" #	c #4E526D",
".#	c #554B53",
"+#	c #614C3F",
"@#	c #A47A60",
"##	c #764A3E",
"$#	c #602C2C",
"%#	c #703F35",
"&#	c #99664D",
"*#	c #B07B5B",
"=#	c #A57253",
"-#	c #714D37",
";#	c #3B3235",
">#	c #505574",
",#	c #60678C",
"'#	c #494E69",
")#	c #473C3F",
"!#	c #675145",
"~#	c #A1775E",
"{#	c #6D3E36",
"]#	c #581F26",
"^#	c #6F3D34",
"/#	c #98654B",
"(#	c #B78665",
"_#	c #B98A69",
":#	c #B88868",
"<#	c #B58262",
"[#	c #3C2C23",
"}#	c #675042",
"|#	c #614D44",
"1#	c #544D5B",
"2#	c #4D5370",
"3#	c #545B7C",
"4#	c #545875",
"5#	c #50464E",
"6#	c #604A3D",
"7#	c #A2785E",
"8#	c #6F4138",
"9#	c #5B2328",
"0#	c #6C3A33",
"a#	c #8F5D46",
"b#	c #A97659",
"c#	c #B78868",
"d#	c #BD906F",
"e#	c #BC8E6D",
"f#	c #B78565",
"g#	c #36271F",
"h#	c #6D5547",
"i#	c #685144",
"j#	c #323346",
"k#	c #5C6488",
"l#	c #626A90",
"m#	c #3B3E55",
"n#	c #5C2529",
"o#	c #64312E",
"p#	c #734136",
"q#	c #8C5B47",
"r#	c #A9775A",
"s#	c #B48261",
"t#	c #B38060",
"u#	c #B27D5D",
"v#	c #724D37",
"w#	c #251912",
"x#	c #372A21",
"y#	c #423229",
"z#	c #43332A",
"A#	c #2D221B",
"B#	c #2B2E3F",
"C#	c #5D6589",
"D#	c #636B92",
"E#	c #393E56",
"F#	c #47372C",
"G#	c #473629",
"H#	c #BA8C6C",
"I#	c #9E7158",
"J#	c #6E3E36",
"K#	c #5D2729",
"L#	c #5E2A2B",
"M#	c #714036",
"N#	c #905E47",
"O#	c #9C684D",
"P#	c #9D694E",
"Q#	c #A97658",
"R#	c #AA795B",
"S#	c #78553F",
"T#	c #1C110A",
"U#	c #000102",
"V#	c #160E0A",
"W#	c #0F0100",
"X#	c #303143",
"Y#	c #5E6589",
"Z#	c #636B91",
"`#	c #393D55",
" $	c #48372D",
".$	c #49372A",
"+$	c #957358",
"@$	c #C19473",
"#$	c #B38161",
"$$	c #96664D",
"%$	c #6C3B34",
"&$	c #5D282A",
"*$	c #5F2B2C",
"=$	c #724035",
"-$	c #77473A",
";$	c #9C6F57",
">$	c #AE8365",
",$	c #7E5F48",
"'$	c #21160F",
")$	c #170F0C",
"!$	c #281C15",
"~$	c #271C15",
"{$	c #241500",
"]$	c #393645",
"^$	c #60668A",
"/$	c #675143",
"($	c #5C4739",
"_$	c #7F614B",
":$	c #A07B5F",
"<$	c #B78D6D",
"[$	c #BF9270",
"}$	c #9A6B52",
"|$	c #6D3D35",
"1$	c #5C2629",
"2$	c #612F2E",
"3$	c #7F5947",
"4$	c #8E6C53",
"5$	c #654D3A",
"6$	c #19110B",
"7$	c #150D0A",
"8$	c #221712",
"9$	c #1E0F00",
"0$	c #363444",
"a$	c #6F5747",
"b$	c #554235",
"c$	c #674E3B",
"d$	c #A27C60",
"e$	c #BB906F",
"f$	c #B78C6C",
"g$	c #9C7259",
"h$	c #6D3F37",
"i$	c #5F2C2C",
"j$	c #542E29",
"k$	c #422E23",
"l$	c #2E2219",
"m$	c #201711",
"n$	c #201712",
"o$	c #211812",
"p$	c #221812",
"q$	c #120C08",
"r$	c #2D2F42",
"s$	c #37281E",
"t$	c #725742",
"u$	c #896951",
"v$	c #886850",
"w$	c #7A5644",
"x$	c #653631",
"y$	c #5F2A2B",
"z$	c #612D2C",
"A$	c #5E2B2B",
"B$	c #441A1C",
"C$	c #1A120D",
"D$	c #45352B",
"E$	c #3E2F26",
"F$	c #2C2E3E",
"G$	c #646C92",
"H$	c #47362C",
"I$	c #564236",
"J$	c #30241C",
"K$	c #281D14",
"L$	c #2D1F16",
"M$	c #37221A",
"N$	c #4B2723",
"O$	c #5D2B2B",
"P$	c #612C2C",
"Q$	c #5A292A",
"R$	c #421D1E",
"S$	c #2C1D17",
"T$	c #745B4C",
"U$	c #6B5447",
"V$	c #514240",
"W$	c #3D3F55",
"X$	c #5A6184",
"Y$	c #5F6589",
"Z$	c #424153",
"`$	c #513F33",
" %	c #715949",
".%	c #32261E",
"+%	c #1E0006",
"@%	c #43181B",
"#%	c #552425",
"$%	c #59292B",
"%%	c #4A2328",
"&%	c #32171C",
"*%	c #2A1D18",
"=%	c #51423E",
"-%	c #54536C",
";%	c #596083",
">%	c #4E5574",
",%	c #4B4A5E",
"'%	c #5C4B4A",
")%	c #6B5445",
"!%	c #432A24",
"~%	c #502726",
"{%	c #5A2929",
"]%	c #5F2B2B",
"^%	c #5E2B2C",
"/%	c #5A2A2B",
"(%	c #4E252A",
"_%	c #3A1E27",
":%	c #23121A",
"<%	c #271C17",
"[%	c #5D493C",
"}%	c #2E282D",
"|%	c #494F6D",
"1%	c #5C6385",
"2%	c #4C4B5F",
"3%	c #4F3E34",
"4%	c #6F5648",
"5%	c #5D473B",
"6%	c #402822",
"7%	c #481F1F",
"8%	c #5C2A2A",
"9%	c #4A2329",
"0%	c #3D1F28",
"a%	c #341C26",
"b%	c #291E18",
"c%	c #28201F",
"d%	c #282C3E",
"e%	c #414052",
"f%	c #5C4C4A",
"g%	c #352820",
"h%	c #3C1919",
"i%	c #5B2929",
"j%	c #612D2D",
"k%	c #58292B",
"l%	c #412028",
"m%	c #2F1A24",
"n%	c #2A161F",
"o%	c #372724",
"p%	c #4D3B31",
"q%	c #685143",
"r%	c #362820",
"s%	c #3D1A1A",
"t%	c #412027",
"u%	c #29151F",
"v%	c #291B1A",
"w%	c #513E33",
"x%	c #5B2A2A",
"y%	c #562729",
"z%	c #391B20",
"A%	c #382825",
"B%	c #542626",
"C%	c #311515",
"D%	c #46352C",
"E%	c #6C5546",
"F%	c #3E1A1A",
"G%	c #622D2D",
"H%	c #2F1312",
"I%	c #49382E",
"J%	c #381719",
"K%	c #542629",
"L%	c #59292C",
"M%	c #5A292B",
"N%	c #2F1413",
"O%	c #251017",
"P%	c #3A1C26",
"Q%	c #3C1D29",
"R%	c #432029",
"S%	c #57282B",
"T%	c #301413",
"U%	c #33261F",
"V%	c #140A16",
"W%	c #211325",
"X%	c #221528",
"Y%	c #2E1828",
"Z%	c #48222A",
"`%	c #492125",
" &	c #280F11",
".&	c #372922",
"+&	c #221424",
"@&	c #231527",
"#&	c #261527",
"$&	c #301927",
"%&	c #2E1622",
"&&	c #1E1013",
"*&	c #574337",
"=&	c #3D2E29",
"-&	c #1F131D",
";&	c #1A0E1D",
">&	c #1A0E1C",
",&	c #180D1C",
"'&	c #271C20",
")&	c #45352D",
"!&	c #31241F",
"~&	c #1C1312",
"{&	c #201714",
"]&	c #1E1513",
"^&	c #403028",
"                                                                                                                                ",
"                                                                                                                                ",
"                                                                                                                                ",
"                                                                                                                                ",
"                                                                                                                                ",
"                                                                                                                                ",
"                                                                                                                                ",
"                                                                                                                                ",
"                                                                                                                                ",
"                                                                                                                                ",
"                                                                                                                                ",
"                                                . + @ @ @ @ @ @ @ #                                                             ",
"                                                $ % & * * * * = * - +                                                           ",
"                                            . ; > , ' ) ! ~ ~ { ] ^ / +                                                         ",
"                                            ( _ : < [ } | 1 2 3 3 4 ^ 5 6                                                       ",
"                                        . 7 8 9 0 a b c d e f f e g h i j k l @                                                 ",
"                                        m n o p q r b s d e t t u v w x y z A k                                                 ",
"                                    . B C D E F G H I J K e L M N O P Q R S T j                                                 ",
"                                    U V W X Y Z `  ...+.@.#.f $.%.&.*.=.-.;.>.j                                                 ",
"                                    # ,.'.).!.~.{.{.].^./.(._.:.<.[.}.|.1.2.3.j                                                 ",
"                                    # 4.5.6.7.8.9.0.8.8.a.b.b.c.d.e.f.1.g.h.i.j                                                 ",
"                                    # 4.j.k.l.m.l.l.l.l.l.n.o.p.q.r.s.t.u.v.w.j                                                 ",
"                                    # 4.x.y.z.A.A.A.B.C.D.E.F.G.H.I.J.K.L.M.N.j                                                 ",
"                                    # 4.O.P.Q.H Q.R.S.T.U.V.W.X.Y.Z.`. +.+++N.j                                                 ",
"                                    6 5 @+#+$+%+&+*+=+-+;+>+,+'+)+!+~+{+]+^+/+(+                                                ",
"                                      @ _+:+<+[+}+|+-+1+;+>+,+'+)+2+3+4+5+6+7+#                                                 ",
"                                        m /+8+9+0+a+b+c+d+e+,+f+g+h+i+j+k+C                                                     ",
"                                        ( l+m+n+o+p+q+r+s+t+,+u+v+w+x+y+z+V .                                                   ",
"                                        m /+A+B+C+D+E+F+G+H+I+J+K+L+M+N+O+V .                                                   ",
"                                      P+l Q+R+S+T+U+V+W+X+Y+Z+`+ @.@+@@@#@V .                                                   ",
"                                    6 $@%@&@*@=@-@;@>@,@'@)@!@~@{@]@^@/@(@V _@                                                  ",
"                                    # 4.:@<@[@)+}@}@|@1@2@3@4@5@}@2+6@7@8@9@(++                                                 ",
"                                    # 0@a@b@c@d@}@}@e@f@g@h@4@}@2+2+i@j@k@l@m@k                                                 ",
"                                    # 4.n@o@p@2+}@}@-@U+q@h@4@}@2+2+d@r@s@t@u@v@    w@x@y@$@(                                   ",
"                                    # 4.n@z@p@2+}@}@}@A@B@C@D@i@d@d@E@F@G@t@H@j   . I@J@K@L@M@U                                 ",
"                                    # 4.n@z@~+2+}@5@N@O@P@Q@R@S@T@S@U@V@W@t@X@j   . Y@Z@`@ #.#+#;                               ",
"                                    # 4.n@z@~+2+2+i@@###$#%#&#J+`+.@`+*#=#-#X@j   . 8 ;#>#,#'#)#!#+ _@                          ",
"                                    # 4.n@z@~+2+2+p@~#{#]#^#/#*#(#_#:#<#W@t@[#}#    $ |#1#2#3#4#5#6#m                           ",
"                                    # 4.n@z@~+2+2+i@7#8#9#0#a#b#c#d#e#f#W@t@g#Y@h#h#7+i#A j#k#l#m#i $                           ",
"                                    # 4.n@z@~+2+2+i@7#8#n#o#p#q#r#s#t#u#=#v#w#x#y#y#z#5+A#B#C#D#E#F#w@                          ",
"                                    # 0@G#o@i@2+E@H#I#J#K#$#L#M#N#O#P#Q#R#S#T#U#V#V#V#V#W#X#Y#Z#`# $$                           ",
"                                    # _ .$+$6@@$)+#$$$%$&$$#*$o#^#=$-$;$>$,$'$)$!$!$~$!${$]$^$Z#`# $$                           ",
"                                    . /$($_$:$<$[$S@}$|$&$$#$#*$L#1$2$3$4$5$6$7$8$8$8$8$9$0$^$Z#`# $$                           ",
"                                      6 a$b$c$d$e$f$g$h$K#$#$#$#$#$#i$j$k$l$m$n$o$o$p$m$q$r$Y#Z#`# $$                           ",
"                                        m l+s$t$u$v$w$x$y$$#$#$#$#z$A$B$C$D$,.4.4.4.n ,.E$F$C#G$E#H$w@                          ",
"                                        m I$J$K$L$M$N$O$P$$#$#$#$#i$Q$R$S$% T$6 # P+m U$V$W$X$Y$Z$`$ %                          ",
"                                        U l 4..%+%@%#%A$$#$#$#$#$#$%%%&%*%C         _+=%-%;%>%,%'%)%P+                          ",
"                                            w@& !%~%{%]%$#$#$#^%/%(%_%:%<%[%.     . V }%|%1%2%3%h#                              ",
"                                            6 4%5%6%7%8%P$$#$#/%9%0%a%:%b%V .     . V c%d%e%f%h##                               ",
"                                                }#g%h%i%j%$#$#k%l%m%n%o%p%q%.     . q%/+D$`$)%                                  ",
"                                                j r%s%i%P$$#$#k%t%u%v%w%h##         + 7 w@ %P+                                  ",
"                                                j r%s%x%P$$#P$y%z%A%w%q%.                                                       ",
"                                                j r%s%x%P$$#P$B%C%D%E%.                                                         ",
"                                                j r%F%8%G%P$P$B%H%I%7                                                           ",
"                                                j r%J%K%L%M%^%B%N% $$                                                           ",
"                                                j g%O%P%Q%R%S%B%T% $$                                                           ",
"                                                j U%V%W%X%Y%Z%`% &F#w@                                                          ",
"                                                }#.&V%+&@&#&$&%&&&i $                                                           ",
"                                                7+*&=&-&;&>&,&'&)&6#m                                                           ",
"                                                . ( % !&~&{&]&^&v@+ _@                                                          ",
"                                                    7+Y@,.4.0@I@;                                                               ",
"                                                    . # # # # 6 _@                                                              ",
"                                                                                                                                ",
"                                                                                                                                "};
