/* XPM */
static char * player_left5_xpm[] = {
"64 64 707 2",
"  	c #785E4E",
". 	c #775D4D",
"+ 	c #6F5748",
"@ 	c #6A5344",
"# 	c #6A5244",
"$ 	c #6D5546",
"% 	c #745B4C",
"& 	c #72594A",
"* 	c #564337",
"= 	c #3C2E25",
"- 	c #3A2D24",
"; 	c #3B2E25",
"> 	c #3B2D25",
", 	c #392B23",
"' 	c #4B3A2F",
") 	c #6B5345",
"! 	c #6F5648",
"~ 	c #5D4A3E",
"{ 	c #3E3834",
"] 	c #1F2A2E",
"^ 	c #202A2E",
"/ 	c #192328",
"( 	c #10191F",
"_ 	c #0B1218",
": 	c #292120",
"< 	c #534136",
"[ 	c #755C4C",
"} 	c #775D4E",
"| 	c #765C4D",
"1 	c #765D4D",
"2 	c #584538",
"3 	c #332C28",
"4 	c #303A3E",
"5 	c #35444A",
"6 	c #35454B",
"7 	c #344449",
"8 	c #2B3A41",
"9 	c #1F2B34",
"0 	c #17212B",
"a 	c #181B23",
"b 	c #261F1E",
"c 	c #4B3A30",
"d 	c #705849",
"e 	c #5F4A3D",
"f 	c #594539",
"g 	c #3C2D25",
"h 	c #020116",
"i 	c #26383E",
"j 	c #38494E",
"k 	c #3A4B50",
"l 	c #3A4B51",
"m 	c #394A50",
"n 	c #304047",
"o 	c #223038",
"p 	c #1A252F",
"q 	c #141C26",
"r 	c #0E151E",
"s 	c #2E2623",
"t 	c #513F34",
"u 	c #685143",
"v 	c #3D2F25",
"w 	c #3A2E1A",
"x 	c #524226",
"y 	c #544423",
"z 	c #4E4430",
"A 	c #474C4F",
"B 	c #404F5A",
"C 	c #3B4C54",
"D 	c #38494F",
"E 	c #2F3F46",
"F 	c #212F38",
"G 	c #19242E",
"H 	c #151D28",
"I 	c #141C27",
"J 	c #131821",
"K 	c #221C1B",
"L 	c #4E3D32",
"M 	c #6E5647",
"N 	c #664F42",
"O 	c #3A2D21",
"P 	c #786337",
"Q 	c #AE9052",
"R 	c #BA9A56",
"S 	c #AF9361",
"T 	c #877D7D",
"U 	c #596480",
"V 	c #425262",
"W 	c #384A4F",
"X 	c #2F3F45",
"Y 	c #202E37",
"Z 	c #17232C",
"` 	c #131C26",
" .	c #131B26",
"..	c #111923",
"+.	c #0D141C",
"@.	c #2F2623",
"#.	c #4E3C32",
"$.	c #675143",
"%.	c #665042",
"&.	c #403224",
"*.	c #997E47",
"=.	c #DCB76A",
"-.	c #EAC26F",
";.	c #DAB776",
">.	c #A4938E",
",.	c #636C8E",
"'.	c #47556B",
").	c #3B4A54",
"!.	c #35424E",
"~.	c #2B3644",
"{.	c #272F3E",
"].	c #252B3B",
"^.	c #242B3B",
"/.	c #242A3A",
"(.	c #1A1F2C",
"_.	c #241D1B",
":.	c #5A4639",
"<.	c #765C4C",
"[.	c #413224",
"}.	c #9B8049",
"|.	c #DFBA6B",
"1.	c #EEC672",
"2.	c #DDB973",
"3.	c #9F8C7B",
"4.	c #555B79",
"5.	c #454F6A",
"6.	c #434C62",
"7.	c #414960",
"8.	c #3F465D",
"9.	c #3E445C",
"0.	c #3D435B",
"a.	c #3D435A",
"b.	c #2E3346",
"c.	c #221D20",
"d.	c #3E3023",
"e.	c #846D3E",
"f.	c #BF9F5D",
"g.	c #CBA962",
"h.	c #BB9C60",
"i.	c #82715C",
"j.	c #3C425A",
"k.	c #383F5A",
"l.	c #3C425B",
"m.	c #241E22",
"n.	c #372A21",
"o.	c #463A25",
"p.	c #68583A",
"q.	c #715F3F",
"r.	c #6B5A3F",
"s.	c #4E453D",
"t.	c #312F3C",
"u.	c #322B3B",
"v.	c #302A3B",
"w.	c #272A3B",
"x.	c #242A3B",
"y.	c #201919",
"z.	c #32251F",
"A.	c #000012",
"B.	c #1C1728",
"C.	c #5C4740",
"D.	c #7B5F4F",
"E.	c #806451",
"F.	c #7E604C",
"G.	c #785443",
"H.	c #614237",
"I.	c #34252A",
"J.	c #141524",
"K.	c #1A1825",
"L.	c #161A25",
"M.	c #121B26",
"N.	c #0C131B",
"O.	c #1A1412",
"P.	c #584438",
"Q.	c #0E0914",
"R.	c #3D2C2D",
"S.	c #8B6A56",
"T.	c #B48B6C",
"U.	c #B98F6F",
"V.	c #B48869",
"W.	c #A9785A",
"X.	c #895D47",
"Y.	c #493030",
"Z.	c #180F26",
"`.	c #221727",
" +	c #1C1A28",
".+	c #171C28",
"++	c #161D28",
"@+	c #161C28",
"#+	c #12161D",
"$+	c #2B211C",
"%+	c #5C473B",
"&+	c #44342B",
"*+	c #42302B",
"=+	c #937158",
"-+	c #C09473",
";+	c #C49775",
">+	c #BE906E",
",+	c #B37F5F",
"'+	c #91634A",
")+	c #4D3231",
"!+	c #190C25",
"~+	c #241527",
"{+	c #211727",
"]+	c #1E1928",
"^+	c #1A1724",
"/+	c #15151D",
"(+	c #392D28",
"_+	c #574438",
":+	c #6C5445",
"<+	c #755B4C",
"[+	c #3F2F25",
"}+	c #85664E",
"|+	c #B2896A",
"1+	c #BD9271",
"2+	c #BC8E6D",
"3+	c #B17E5E",
"4+	c #90624A",
"5+	c #4C3231",
"6+	c #180C25",
"7+	c #231427",
"8+	c #221426",
"9+	c #201325",
"0+	c #190E1D",
"a+	c #130C11",
"b+	c #4C3B30",
"c+	c #31251C",
"d+	c #523E2E",
"e+	c #81624C",
"f+	c #AC8467",
"g+	c #B27F5F",
"h+	c #120925",
"i+	c #1D1026",
"j+	c #1C0E25",
"k+	c #170922",
"l+	c #080017",
"m+	c #00000A",
"n+	c #0E0908",
"o+	c #4F3D32",
"p+	c #735A4B",
"q+	c #5E493C",
"r+	c #2A1E17",
"s+	c #3A2417",
"t+	c #6C4D38",
"u+	c #A37A5D",
"v+	c #B88968",
"w+	c #B17D5D",
"x+	c #91624A",
"y+	c #573632",
"z+	c #482C2E",
"A+	c #5D3E37",
"B+	c #64483F",
"C+	c #664D41",
"D+	c #644C3C",
"E+	c #533E2F",
"F+	c #2B1F17",
"G+	c #735A4A",
"H+	c #5D493C",
"I+	c #3A281E",
"J+	c #704C36",
"K+	c #996A4D",
"L+	c #AB7859",
"M+	c #AE7959",
"N+	c #95634B",
"O+	c #6C3F35",
"P+	c #7A4C3D",
"Q+	c #996A50",
"R+	c #A57A5F",
"S+	c #AB8367",
"T+	c #AB8466",
"U+	c #916F56",
"V+	c #503C2D",
"W+	c #4E3C31",
"X+	c #675042",
"Y+	c #634839",
"Z+	c #714E39",
"`+	c #986C50",
" @	c #B28161",
".@	c #B58362",
"+@	c #B48262",
"@@	c #B38261",
"#@	c #9C6D53",
"$@	c #754539",
"%@	c #895642",
"&@	c #AC7758",
"*@	c #BA8B6A",
"=@	c #C19573",
"-@	c #C29674",
";@	c #AD8466",
">@	c #805C44",
",@	c #644635",
"'@	c #654D3F",
")@	c #695244",
"!@	c #47362B",
"~@	c #6E4B36",
"{@	c #9D6D50",
"]@	c #B28363",
"^@	c #BD8F6F",
"/@	c #BE9170",
"(@	c #BD906F",
"_@	c #A4795E",
":@	c #774A3D",
"<@	c #895743",
"[@	c #AC7859",
"}@	c #C19574",
"|@	c #B98B6B",
"1@	c #A77759",
"2@	c #825841",
"3@	c #4C3629",
"4@	c #35271F",
"5@	c #704B35",
"6@	c #A87456",
"7@	c #BA8968",
"8@	c #C09372",
"9@	c #A67C61",
"0@	c #784C3F",
"a@	c #8E604B",
"b@	c #B38364",
"c@	c #BD8F6E",
"d@	c #BF9170",
"e@	c #B78867",
"f@	c #8E674D",
"g@	c #3E2C20",
"h@	c #745B4B",
"i@	c #644D3F",
"j@	c #4D3629",
"k@	c #79513A",
"l@	c #A77455",
"m@	c #B98868",
"n@	c #BF9372",
"o@	c #A57B61",
"p@	c #794D40",
"q@	c #946A54",
"r@	c #BA8E6E",
"s@	c #C19473",
"t@	c #BD9171",
"u@	c #9A765B",
"v@	c #5C4535",
"w@	c #5B4639",
"x@	c #715949",
"y@	c #564236",
"z@	c #4C3A2F",
"A@	c #544135",
"B@	c #6A5345",
"C@	c #715849",
"D@	c #624737",
"E@	c #815841",
"F@	c #99684C",
"G@	c #AB7758",
"H@	c #B88868",
"I@	c #A67B61",
"J@	c #794D41",
"K@	c #966C56",
"L@	c #BF9473",
"M@	c #99755B",
"N@	c #765A46",
"O@	c #5A4538",
"P@	c #6C5446",
"Q@	c #705748",
"R@	c #5E4C48",
"S@	c #403C4A",
"T@	c #232737",
"U@	c #2B211F",
"V@	c #604A3D",
"W@	c #45352B",
"X@	c #61412F",
"Y@	c #9C6B4E",
"Z@	c #AD7757",
"`@	c #B68564",
" #	c #BC8E6E",
".#	c #BC8F6E",
"+#	c #A3775D",
"@#	c #774A3E",
"##	c #8D624F",
"$#	c #B08568",
"%#	c #BC9070",
"&#	c #B88E6E",
"*#	c #86674F",
"=#	c #403026",
"-#	c #634D40",
";#	c #534034",
">#	c #4E4B5D",
",#	c #5A6082",
"'#	c #474D6A",
")#	c #2B262C",
"!#	c #423229",
"~#	c #61412E",
"{#	c #9E6C4F",
"]#	c #AF7858",
"^#	c #AD7858",
"/#	c #B07C5C",
"(#	c #B28060",
"_#	c #B38060",
":#	c #B38160",
"<#	c #9C6C52",
"[#	c #724238",
"}#	c #6F4239",
"|#	c #8B604D",
"1#	c #AC8165",
"2#	c #BB9070",
"3#	c #876750",
"4#	c #3D2E24",
"5#	c #624C3F",
"6#	c #6D5547",
"7#	c #5E4D48",
"8#	c #494657",
"9#	c #4D5372",
"0#	c #5B6386",
"a#	c #54546E",
"b#	c #4D3E3C",
"c#	c #43342A",
"d#	c #654734",
"e#	c #A47558",
"f#	c #B27E5E",
"g#	c #AE7858",
"h#	c #B38161",
"i#	c #98654B",
"j#	c #6F3D34",
"k#	c #5B2328",
"l#	c #6A3B34",
"m#	c #926853",
"n#	c #AE8367",
"o#	c #BB8F70",
"p#	c #C29574",
"q#	c #BA8F6F",
"r#	c #87674F",
"s#	c #3E2E24",
"t#	c #624D3F",
"u#	c #454252",
"v#	c #5D6386",
"w#	c #596083",
"x#	c #3F435B",
"y#	c #524446",
"z#	c #6A5347",
"A#	c #413228",
"B#	c #6A4F3C",
"C#	c #AA8063",
"D#	c #B78666",
"E#	c #B58464",
"F#	c #B98A69",
"G#	c #AF7C5C",
"H#	c #97634A",
"I#	c #6E3D34",
"J#	c #5D272A",
"K#	c #62302E",
"L#	c #6E3F37",
"M#	c #895F4D",
"N#	c #47362C",
"O#	c #393E56",
"P#	c #646C92",
"Q#	c #5D6589",
"R#	c #2D2E3F",
"S#	c #604B3E",
"T#	c #554236",
"U#	c #32261E",
"V#	c #543F30",
"W#	c #8B6B52",
"X#	c #A77D5F",
"Y#	c #B48464",
"Z#	c #BA8A6A",
"`#	c #B28263",
" $	c #9E6C52",
".$	c #845240",
"+$	c #693731",
"@$	c #5F2A2B",
"#$	c #602C2C",
"$$	c #5C2428",
"%$	c #784C40",
"&$	c #AB8165",
"*$	c #48372D",
"=$	c #393D55",
"-$	c #636B91",
";$	c #2D2F41",
">$	c #17100C",
",$	c #261C15",
"'$	c #281D17",
")$	c #231A14",
"!$	c #130D09",
"~$	c #1C130D",
"{$	c #423124",
"]$	c #84644D",
"^$	c #B08567",
"/$	c #9F6C51",
"($	c #7E4D3E",
"_$	c #66332F",
":$	c #612E2D",
"<$	c #5B2628",
"[$	c #774C3F",
"}$	c #AA7F63",
"|$	c #5F668A",
"1$	c #353444",
"2$	c #1B0D00",
"3$	c #201610",
"4$	c #170E0B",
"5$	c #1B120E",
"6$	c #5A4534",
"7$	c #83634C",
"8$	c #8B624B",
"9$	c #8A5944",
"0$	c #8B5843",
"a$	c #82503E",
"b$	c #6A3832",
"c$	c #5E292B",
"d$	c #602B2C",
"e$	c #612C2C",
"f$	c #5D2B2B",
"g$	c #4C1E21",
"h$	c #654133",
"i$	c #9F7257",
"j$	c #BF9271",
"k$	c #C39675",
"l$	c #886850",
"m$	c #3C2D23",
"n$	c #60668A",
"o$	c #3A3645",
"p$	c #251601",
"q$	c #281C16",
"r$	c #271C15",
"s$	c #301F17",
"t$	c #502A25",
"u$	c #63312E",
"v$	c #66322F",
"w$	c #64312E",
"x$	c #5B2A2A",
"y$	c #3A1418",
"z$	c #533728",
"A$	c #986B4F",
"B$	c #BE906F",
"C$	c #B08769",
"D$	c #81634C",
"E$	c #49382C",
"F$	c #664F41",
"G$	c #323243",
"H$	c #120400",
"I$	c #18100B",
"J$	c #19100C",
"K$	c #180F0B",
"L$	c #000201",
"M$	c #060000",
"N$	c #43191C",
"O$	c #5C292A",
"P$	c #612D2D",
"Q$	c #5B2929",
"R$	c #361015",
"S$	c #553E2E",
"T$	c #A0775B",
"U$	c #BE8F6E",
"V$	c #BF9272",
"W$	c #A78164",
"X$	c #7F614A",
"Y$	c #695140",
"Z$	c #393E55",
"`$	c #636B92",
" %	c #2B2E40",
".%	c #281E17",
"+%	c #3A2C23",
"@%	c #3B2D24",
"#%	c #3D2C24",
"$%	c #4A2925",
"%%	c #562727",
"&%	c #5D2A2A",
"*%	c #381216",
"=%	c #4E3A2B",
"-%	c #AB8366",
";%	c #A98264",
">%	c #8B6A52",
",%	c #564234",
"'%	c #614C3F",
")%	c #48382D",
"!%	c #5D6488",
"~%	c #303243",
"{%	c #49382E",
"]%	c #503B31",
"^%	c #3B1C1B",
"/%	c #522525",
"(%	c #5B292A",
"_%	c #3C1819",
":%	c #2C1F16",
"<%	c #533F2F",
"[%	c #634B39",
"}%	c #644C3A",
"|%	c #644D3D",
"1%	c #695243",
"2%	c #5D483B",
"3%	c #4E454F",
"4%	c #575B7A",
"5%	c #555C7E",
"6%	c #4B4F6B",
"7%	c #544B57",
"8%	c #644F45",
"9%	c #2A1613",
"0%	c #4E2222",
"a%	c #3D1919",
"b%	c #1D1510",
"c%	c #3E2F26",
"d%	c #4A392E",
"e%	c #745A4B",
"f%	c #655046",
"g%	c #463E45",
"h%	c #494E6C",
"i%	c #5F678B",
"j%	c #525574",
"k%	c #3F3437",
"l%	c #2A1714",
"m%	c #4C2222",
"n%	c #5F2B2C",
"o%	c #3F1B1B",
"p%	c #34241E",
"q%	c #5D483C",
"r%	c #534A56",
"s%	c #3E435C",
"t%	c #242026",
"u%	c #251513",
"v%	c #3F1D20",
"w%	c #53272A",
"x%	c #5D2B2C",
"y%	c #5E2B2B",
"z%	c #502424",
"A%	c #482824",
"B%	c #543D33",
"C%	c #654F41",
"D%	c #634E44",
"E%	c #352922",
"F%	c #614B3E",
"G%	c #1F1312",
"H%	c #2C161E",
"I%	c #442128",
"J%	c #59292B",
"K%	c #5F2B2B",
"L%	c #552726",
"M%	c #391D1C",
"N%	c #1D1312",
"O%	c #27141E",
"P%	c #412028",
"Q%	c #622D2D",
"R%	c #59292A",
"S%	c #3A1A22",
"T%	c #2C1F22",
"U%	c #48382F",
"V%	c #1E1312",
"W%	c #28151E",
"X%	c #3E1F28",
"Y%	c #512629",
"Z%	c #5B2A2B",
"`%	c #5F2C2C",
" &	c #5C2A2C",
".&	c #52262A",
"+&	c #391C28",
"@&	c #1C101F",
"#&	c #1A1113",
"$&	c #29151E",
"%&	c #341C26",
"&&	c #361D24",
"*&	c #482326",
"=&	c #5C2A2B",
"-&	c #612D2C",
";&	c #4E242A",
">&	c #3A1D28",
",&	c #2C1828",
"'&	c #1D1020",
")&	c #10090E",
"!&	c #4D3C31",
"~&	c #534035",
"{&	c #191010",
"]&	c #23131D",
"^&	c #271824",
"/&	c #1A1621",
"(&	c #321C23",
"_&	c #4D2527",
":&	c #532627",
"<&	c #4E2325",
"[&	c #3B1C26",
"}&	c #261627",
"|&	c #231527",
"1&	c #11090E",
"2&	c #1E1614",
"3&	c #141019",
"4&	c #171520",
"5&	c #12141F",
"6&	c #1C1620",
"7&	c #291920",
"8&	c #2B151A",
"9&	c #281014",
"0&	c #25121F",
"a&	c #231426",
"b&	c #1D101F",
"c&	c #1A1213",
"d&	c #2B2220",
"e&	c #090D16",
"f&	c #0A0D16",
"g&	c #080D16",
"h&	c #040C15",
"i&	c #00060C",
"j&	c #000104",
"k&	c #100813",
"l&	c #1A0E1C",
"m&	c #1A0E1D",
"n&	c #49382F",
"o&	c #6B5445",
"p&	c #201814",
"q&	c #1D1512",
"r&	c #1E1713",
"s&	c #1E1613",
"t&	c #1E1511",
"u&	c #1E1510",
"v&	c #1F1612",
"w&	c #1F1614",
"x&	c #45342C",
"                                                                                                                                ",
"                                                                                                                                ",
"                                                                                                                                ",
"                                                                                                                                ",
"                                                                                                                                ",
"                                                                                                                                ",
"                                                                                                                                ",
"                                                                                                                                ",
"                                                                                                                                ",
"                                                                                                                                ",
"                                                                                                                                ",
"                                                                                                                                ",
"                                                                                                                                ",
"                                                                                                                                ",
"                                                                                                                                ",
"                                                          . + @ @ @ @ @ @ # $ %                                                 ",
"                                                          & * = - ; ; > > , ' )                                                 ",
"                                                        ! ~ { ] ] ^ ] / ( _ : < # [                                             ",
"                                                } | 1 & 2 3 4 5 6 6 7 8 9 0 a b c $ }                                           ",
"                                                d e f * g h i j k l m n o p q r s t u 1                                         ",
"                                                u v w x y z A B C m D E F G H I J K L M 1                                       ",
"                                                N O P Q R S T U V W j X Y Z `  ...+.@.#.$..                                     ",
"                                                %.&.*.=.-.;.>.,.'.).).!.~.{.].^.]./.(._.:.<.                                    ",
"                                                %.[.}.|.1.2.3.4.5.6.6.7.8.9.0.0.9.a.b.c.2 <.                                    ",
"                                                %.d.e.f.g.h.i.j.k.l.0.0.0.0.0.0.9.a.b.m.f <.                                    ",
"                                                %.n.o.p.q.r.s.t.u.v.w.x.].^.^.^.]./.(.y.f <.                                    ",
"                                                N z.A.B.C.D.E.F.G.H.I.J.K.L. .M.`  .N.O.P.<.                                    ",
"                                                u = Q.R.S.T.U.V.W.X.Y.Z.`. +.+++@+q #+$+%+<.                                    ",
"                                                d e &+*+=+-+;+>+,+'+)+!+~+{+]+]+^+/+(+_+:+.                                     ",
"                                                  <+%+[+}+|+1+2+3+4+5+6+7+7+8+9+0+a+b+d                                         ",
"                                                    e c+d+e+f+2+g+4+5+h+i+j+k+l+m+n+o+p+                                        ",
"                                                  . q+r+s+t+u+v+w+x+y+z+A+B+C+D+E+F+o+G+                                        ",
"                                                  1 H+I+J+K+L+w+M+N+O+P+Q+R+S+T+U+V+W+&                                         ",
"                                                G+X+Y+Z+`+ @.@+@@@#@$@%@&@*@=@-@;@>@,@'@+ .                                     ",
"                                                )@!@~@{@]@^@/@/@(@_@:@<@[@*@-+}@|@1@2@3@q+|                                     ",
"                                                X+4@5@6@7@8@}@}@-+9@0@a@b@c@-+-+d@e@f@g@f 1                                     ",
"                                  | p+& G+<.. h@i@j@k@l@m@n@-+=@-+o@p@q@r@s@-+-+s@t@u@v@w@x@.                                   ",
"                                  $ y@z@A@B@C@H+D@E@F@G@H@8@}@}@-+I@J@K@t@-@-+-+s@L@|+M@N@O@P@                                  ",
"                              1 Q@R@S@T@U@V@P@W@X@Y@Z@M+`@ #^@(@.#+#@###$#%#-+-+-+-+=@&#*#=#-#                                  ",
"                              ! ;#>#,#'#)#e :+!#~#{#]#^#/#(#_#:#(#<#[#}#|#1#n@=@-+-+-@2#3#4#5#                                  ",
"                          <.6#7#8#9#0#a#b#)@$ c#d#e#f#g#/#_#h#g+M+i#j#k#l#m#n#o#-+-+p#q#r#s#t#                                  ",
"                          x@A@u#v#w#x#y#z#% P@A#B#C#D#/#E#2+c@F#G#H#I#J#K#L#M#$#-+-+p#q#r#s#t#                                  ",
"                          Q@N#O#P#Q#R#!#%+S#T#U#V#W#X#Y#m@Z#*@`# $.$+$@$#$$$%$&$}@-+p#q#r#s#t#                                  ",
"                          d *$=$-$Q#;$>$,$'$)$!$~${$]$^$b@[@&@/$($_$:$#$#$<$[$}$n@-+p#q#r#s#t#                                  ",
"                          d *$=$-$|$1$2$3$3$3$3$4$5$6$7$8$9$0$a$b$c$d$e$f$g$h$i$F#j$k$2#l$m$5#                                  ",
"                          d *$=$-$n$o$p$q$q$q$q$q$q$r$s$t$u$v$w$:$#$#$e$x$y$z$A$`@B$1+C$D$E$F$                                  ",
"                          d *$=$-$|$G$H$I$I$I$I$J$K$L$M$N$O$@$@$d$#$#$P$Q$R$S$T$U$V$W$X$Y$X+&                                   ",
"                          Q@*$Z$`$Q# %.%+%= @%@%@%@%g #%$%%%&%#$#$#$#$e$Q$*%=%U+-%;%>%,%'%|                                     ",
"                          d )%Z$-$!%~%{%%.) @ @ @ @ ) X+]%^%/%#$#$#$#$e$(%_%:%<%[%}%|%1%G+                                      ",
"                          G+2%3%4%5%6%7%8%x@          <+A@9%0%#$e$#$#$P$Q$a%b%c%{%d%V@<+                                        ",
"                          . e%f%g%h%i%j%k%t#.         h@A@l%m%n%#$#$#$e$x$o%p%q%M d p+}                                         ",
"                              & q+r%j%s%t%2%.         h@A@u%v%w%x%#$#$e$y%z%A%B%C%[                                             ",
"                                <+D%k%t%E%F%.         h@A@G%H%I%J%#$#$#$#$K%L%M%&+)@<.                                          ",
"                                  d 5#2%F%M           h@A@N%O%P%J%e$#$#$#$Q%R%S%T%U%t#<+                                        ",
"                                    . . .             h@A@V%W%X%Y%Z%`%e$`% &.&+&@&#&o+&                                         ",
"                                                      h@A@V%$&%&&&*&=&-&x%;&>&,&'&)&!&&                                         ",
"                                                      h@~&{&]&^&/&(&_&:&<&[&}&|&'&1&!&&                                         ",
"                                                      h@T#2&3&4&5&6&7&8&9&0&a&|&b&c&o+&                                         ",
"                                                      <.C%c d&e&f&g&h&i&j&k&l&m&T%n&t#<+                                        ",
"                                                        | o&n&p&q&r&s&t&u&v&w&w&x&)@<.                                          ",
"                                                          [ F$f 2 f f f f f f f -#h@                                            ",
"                                                            1 <.<.<.<.<.<.<.<.<.1                                               ",
"                                                                                                                                ",
"                                                                                                                                "};
