/* XPM */
static char * player_up_xpm[] = {
"64 64 538 2",
"  	c #785E4E",
". 	c #735A4B",
"+ 	c #6D5547",
"@ 	c #6B5345",
"# 	c #775D4D",
"$ 	c #695243",
"% 	c #523F34",
"& 	c #46352B",
"* 	c #46362C",
"= 	c #47362C",
"- 	c #755B4C",
"; 	c #58463B",
"> 	c #362F2B",
", 	c #191F21",
"' 	c #1A2022",
") 	c #1D2122",
"! 	c #765D4D",
"~ 	c #685143",
"{ 	c #524035",
"] 	c #3F3934",
"^ 	c #30383B",
"/ 	c #2B393E",
"( 	c #775D4E",
"_ 	c #755C4C",
": 	c #6D5647",
"< 	c #574439",
"[ 	c #352E2B",
"} 	c #283336",
"| 	c #334348",
"1 	c #38494E",
"2 	c #38484E",
"3 	c #765C4C",
"4 	c #544236",
"5 	c #403934",
"6 	c #2E373A",
"7 	c #303F44",
"8 	c #37484D",
"9 	c #3A4B51",
"0 	c #765C4D",
"a 	c #6E5648",
"b 	c #56433A",
"c 	c #352D2E",
"d 	c #2C343B",
"e 	c #354349",
"f 	c #38494F",
"g 	c #394A50",
"h 	c #745B4B",
"i 	c #675143",
"j 	c #57443C",
"k 	c #453B41",
"l 	c #353849",
"m 	c #35404D",
"n 	c #38484F",
"o 	c #394B50",
"p 	c #394A4F",
"q 	c #705849",
"r 	c #554236",
"s 	c #342B2B",
"t 	c #343547",
"u 	c #3F445B",
"v 	c #3F495B",
"w 	c #3B4A54",
"x 	c #3A4A51",
"y 	c #3A4A52",
"z 	c #6F5748",
"A 	c #4F3D32",
"B 	c #1F1A1F",
"C 	c #272B3C",
"D 	c #373D52",
"E 	c #3D4659",
"F 	c #3F4A5B",
"G 	c #404C5C",
"H 	c #1E1817",
"I 	c #141924",
"J 	c #242A3A",
"K 	c #353C4F",
"L 	c #41485F",
"M 	c #444C64",
"N 	c #444C63",
"O 	c #503D32",
"P 	c #1D1614",
"Q 	c #080F16",
"R 	c #171E2A",
"S 	c #2A3042",
"T 	c #373D53",
"U 	c #3C4259",
"V 	c #3C435A",
"W 	c #3D445B",
"X 	c #3C445A",
"Y 	c #1E1714",
"Z 	c #0B121A",
"` 	c #151D28",
" .	c #1D2432",
"..	c #242B3A",
"+.	c #28303F",
"@.	c #2A3443",
"#.	c #2B3644",
"$.	c #1E1815",
"%.	c #0F171F",
"&.	c #17212B",
"*.	c #19232D",
"=.	c #18232D",
"-.	c #1A252F",
";.	c #1C2831",
">.	c #1C2932",
",.	c #1E1917",
"'.	c #131C23",
").	c #1E2B34",
"!.	c #1D2A33",
"~.	c #1B2730",
"{.	c #17222B",
"].	c #1F1917",
"^.	c #161B23",
"/.	c #1F2831",
"(.	c #212C36",
"_.	c #202D36",
":.	c #1A252E",
"<.	c #18222C",
"[.	c #151B23",
"}.	c #1D1716",
"|.	c #1F1715",
"1.	c #17131E",
"2.	c #211F2B",
"3.	c #222732",
"4.	c #202C36",
"5.	c #1F2D36",
"6.	c #1D2A34",
"7.	c #1D1514",
"8.	c #1E1513",
"9.	c #110715",
"0.	c #1A1122",
"a.	c #1D1E2B",
"b.	c #1D2732",
"c.	c #1E2934",
"d.	c #1E2732",
"e.	c #1F1F2C",
"f.	c #221824",
"g.	c #291D20",
"h.	c #3B2D26",
"i.	c #5A4639",
"j.	c #715949",
"k.	c #1C1410",
"l.	c #000006",
"m.	c #000011",
"n.	c #0D0E20",
"o.	c #181A2A",
"p.	c #1B1D2D",
"q.	c #1A1D2D",
"r.	c #191B2A",
"s.	c #151321",
"t.	c #22181D",
"u.	c #46352D",
"v.	c #5F4A3D",
"w.	c #6D5546",
"x.	c #705748",
"y.	c #261B15",
"z.	c #38291E",
"A.	c #4C382B",
"B.	c #503930",
"C.	c #4F3531",
"D.	c #4E3432",
"E.	c #4F3432",
"F.	c #4A312F",
"G.	c #3B2423",
"H.	c #34201C",
"I.	c #503C32",
"J.	c #735A4A",
"K.	c #503E33",
"L.	c #36281E",
"M.	c #6C523F",
"N.	c #8E6C53",
"O.	c #916B52",
"P.	c #8A5F49",
"Q.	c #885C46",
"R.	c #885C47",
"S.	c #895D47",
"T.	c #825743",
"U.	c #6C4335",
"V.	c #502B26",
"W.	c #472C27",
"X.	c #654F41",
"Y.	c #6C5445",
"Z.	c #574336",
"`.	c #5E4736",
" +	c #906F56",
".+	c #B2896A",
"++	c #B58767",
"@+	c #AD7B5C",
"#+	c #AA7758",
"$+	c #AA7657",
"%+	c #A97556",
"&+	c #A87455",
"*+	c #AB7759",
"=+	c #AC7859",
"-+	c #A37154",
";+	c #885844",
">+	c #643630",
",+	c #512D28",
"'+	c #50392D",
")+	c #5D483A",
"!+	c #654E41",
"~+	c #5E493A",
"{+	c #765B47",
"]+	c #927057",
"^+	c #AC8467",
"/+	c #BD9171",
"(+	c #BF906F",
"_+	c #BA8A69",
":+	c #B98867",
"<+	c #B88767",
"[+	c #B58362",
"}+	c #B17C5B",
"|+	c #AE7857",
"1+	c #BB8A69",
"2+	c #B28263",
"3+	c #91634E",
"4+	c #704238",
"5+	c #785242",
"6+	c #87654E",
"7+	c #795C48",
"8+	c #5E493B",
"9+	c #564235",
"0+	c #634B3A",
"a+	c #947258",
"b+	c #B58B6C",
"c+	c #BE9271",
"d+	c #BF9372",
"e+	c #BF9271",
"f+	c #BE9170",
"g+	c #B98A69",
"h+	c #B17E5D",
"i+	c #AD7757",
"j+	c #BD9070",
"k+	c #B18568",
"l+	c #8F6450",
"m+	c #75483D",
"n+	c #936A54",
"o+	c #AC8366",
"p+	c #967459",
"q+	c #634C3A",
"r+	c #72594A",
"s+	c #644D3E",
"t+	c #765B46",
"u+	c #8F6E54",
"v+	c #AB8466",
"w+	c #BE9372",
"x+	c #C29674",
"y+	c #C09574",
"z+	c #C09473",
"A+	c #C09573",
"B+	c #C19574",
"C+	c #BA8C6B",
"D+	c #B27E5E",
"E+	c #B27F5E",
"F+	c #BB8C6B",
"G+	c #BB8F6F",
"H+	c #AE8367",
"I+	c #9A7059",
"J+	c #7E5244",
"K+	c #73463C",
"L+	c #9A6F58",
"M+	c #B78C6D",
"N+	c #AD8567",
"O+	c #8F6E55",
"P+	c #6B5445",
"Q+	c #4D3B30",
"R+	c #5E4837",
"S+	c #947158",
"T+	c #B48A6B",
"U+	c #BF9373",
"V+	c #C09372",
"W+	c #BA8B6B",
"X+	c #B17E5E",
"Y+	c #B58A6B",
"Z+	c #986E57",
"`+	c #76493E",
" @	c #63312F",
".@	c #6F4138",
"+@	c #996E57",
"@@	c #B88D6D",
"#@	c #695244",
"$@	c #423229",
"%@	c #5B4534",
"&@	c #9D785D",
"*@	c #BE9272",
"=@	c #C29675",
"-@	c #BC8E6E",
";@	c #B27F5F",
">@	c #B3886A",
",@	c #8F6551",
"'@	c #653430",
")@	c #581D24",
"!@	c #6D3F37",
"~@	c #B98D6E",
"{@	c #C49775",
"]@	c #43332A",
"^@	c #5C4535",
"/@	c #9C785C",
"(@	c #BD9271",
"_@	c #B88868",
":@	c #B38161",
"<@	c #B78767",
"[@	c #906652",
"}@	c #673632",
"|@	c #591F26",
"1@	c #C39775",
"2@	c #43342A",
"3@	c #5C4635",
"4@	c #9C775C",
"5@	c #B68565",
"6@	c #B07C5C",
"7@	c #B58464",
"8@	c #B4886A",
"9@	c #673732",
"0@	c #592026",
"a@	c #6E3F37",
"b@	c #C39675",
"c@	c #B68665",
"d@	c #B17D5D",
"e@	c #BB8D6C",
"f@	c #B4896B",
"g@	c #916752",
"h@	c #B07D5C",
"i@	c #B68564",
"j@	c #C09373",
"k@	c #B08162",
"l@	c #A67356",
"m@	c #AD7C5E",
"n@	c #B98B6A",
"o@	c #BD8F6F",
"p@	c #BC8E6D",
"q@	c #AF7B5C",
"r@	c #B08264",
"s@	c #A67B61",
"t@	c #875D4B",
"u@	c #663531",
"v@	c #5A2127",
"w@	c #423329",
"x@	c #9C785D",
"y@	c #BA8E6F",
"z@	c #A2765C",
"A@	c #8C5D48",
"B@	c #99684F",
"C@	c #AF7D5E",
"D@	c #B48262",
"E@	c #AF7A5A",
"F@	c #AE7757",
"G@	c #A77355",
"H@	c #976851",
"I@	c #855A49",
"J@	c #72453B",
"K@	c #62302E",
"L@	c #5C2428",
"M@	c #6C5446",
"N@	c #5F4838",
"O@	c #B18869",
"P@	c #BC9171",
"Q@	c #B88D6E",
"R@	c #996F58",
"S@	c #76473C",
"T@	c #835140",
"U@	c #9D6A4F",
"V@	c #A47053",
"W@	c #A36F52",
"X@	c #A46F52",
"Y@	c #98654C",
"Z@	c #7E4D3D",
"`@	c #663430",
" #	c #602D2D",
".#	c #602C2C",
"+#	c #5D2629",
"@#	c #664E40",
"##	c #725744",
"$#	c #8A6A51",
"%#	c #AA8366",
"&#	c #B68B6C",
"*#	c #6F3C33",
"=#	c #804E3E",
"-#	c #855340",
";#	c #855341",
">#	c #855441",
",#	c #7E4C3D",
"'#	c #6C3A32",
")#	c #5F2A2B",
"!#	c #5E292A",
"~#	c #602B2C",
"{#	c #9B7059",
"]#	c #B68B6D",
"^#	c #574232",
"/#	c #906E55",
"(#	c #A98164",
"_#	c #6C3D36",
":#	c #602B2B",
"<#	c #65322F",
"[#	c #66332F",
"}#	c #64312E",
"|#	c #622E2D",
"1#	c #5D272A",
"2#	c #6B3D36",
"3#	c #4A392F",
"4#	c #34261C",
"5#	c #664D3B",
"6#	c #7E5F49",
"7#	c #765041",
"8#	c #643430",
"9#	c #5E282A",
"0#	c #5E292B",
"a#	c #5E2A2B",
"b#	c #5F2B2C",
"c#	c #643530",
"d#	c #765040",
"e#	c #6C5546",
"f#	c #4A392E",
"g#	c #1F1510",
"h#	c #2E1F17",
"i#	c #422A21",
"j#	c #532C27",
"k#	c #5E2C2B",
"l#	c #612C2C",
"m#	c #1F0F0D",
"n#	c #2C0B0F",
"o#	c #411619",
"p#	c #522224",
"q#	c #5D2A2B",
"r#	c #281412",
"s#	c #431D1D",
"t#	c #572728",
"u#	c #5D2B2B",
"v#	c #5F2C2C",
"w#	c #261412",
"x#	c #3D1B1F",
"y#	c #512629",
"z#	c #5B2A2C",
"A#	c #1F1212",
"B#	c #2C151C",
"C#	c #401F27",
"D#	c #51262A",
"E#	c #5C2B2B",
"F#	c #1C1111",
"G#	c #24131C",
"H#	c #361C26",
"I#	c #462229",
"J#	c #52272A",
"K#	c #5A2A2B",
"L#	c #25131C",
"M#	c #331B26",
"N#	c #3A1E28",
"O#	c #422128",
"P#	c #50262A",
"Q#	c #5C2A2B",
"R#	c #26131C",
"S#	c #321B26",
"T#	c #331C27",
"U#	c #371D27",
"V#	c #452229",
"W#	c #56282B",
"X#	c #542729",
"Y#	c #512525",
"Z#	c #502424",
"`#	c #341C27",
" $	c #351C27",
".$	c #3B1E28",
"+$	c #402028",
"@$	c #432129",
"#$	c #422028",
"$$	c #3D1D23",
"%$	c #341719",
"&$	c #301313",
"*$	c #321B25",
"=$	c #2F1923",
"-$	c #332122",
";$	c #3A2A24",
">$	c #3D2F26",
",$	c #2B1620",
"'$	c #231419",
")$	c #3E2F28",
"!$	c #5A463A",
"~$	c #664F42",
"{$	c #28141D",
"]$	c #1C1012",
"^$	c #6A5344",
"/$	c #27141D",
"($	c #1A0F10",
"_$	c #47372C",
":$	c #1B1011",
"<$	c #311A26",
"[$	c #331B27",
"}$	c #26131D",
"|$	c #1A0F11",
"1$	c #1A1111",
"2$	c #20101C",
"3$	c #2B1826",
"4$	c #2D1927",
"5$	c #2D1928",
"6$	c #2C1826",
"7$	c #21111D",
"8$	c #130A0E",
"9$	c #45352B",
"0$	c #191011",
"a$	c #1B0E1C",
"b$	c #241526",
"c$	c #261627",
"d$	c #251527",
"e$	c #241525",
"f$	c #1E111D",
"g$	c #261B19",
"h$	c #4C3A30",
"i$	c #48382D",
"j$	c #130B0E",
"k$	c #190E1C",
"l$	c #231426",
"m$	c #251628",
"n$	c #231527",
"o$	c #1F1222",
"p$	c #1A0F1C",
"q$	c #342625",
"r$	c #4D3B32",
"s$	c #614C3E",
"t$	c #241917",
"u$	c #1A0E1B",
"v$	c #231425",
"w$	c #241527",
"x$	c #1B0F1C",
"y$	c #261B1B",
"z$	c #4B3A30",
"A$	c #4A382F",
"B$	c #332525",
"C$	c #1C101D",
"D$	c #1B0F1D",
"E$	c #1D111D",
"F$	c #614C3F",
"G$	c #675042",
"H$	c #4B3930",
"I$	c #231918",
"J$	c #0A040C",
"K$	c #604A3D",
"L$	c #4B3A2F",
"M$	c #715849",
"                                                                                                                                ",
"                                                      . + @ @ @ @ @ @ + .                                                       ",
"                                                    # $ % & * = = * & % $ #                                                     ",
"                                                  - + ; > , ' ) ) ' , > ; + -                                                   ",
"                                                ! ~ { ] ^ / / / / / / ^ ] { ~ !                                                 ",
"                                            ( _ : < [ } | 1 2 2 2 2 1 | } [ < : _ (                                             ",
"                                            3 ~ 4 5 6 7 8 9 9 9 9 9 9 8 7 6 5 4 ~ 3                                             ",
"                                        ( 0 a b c d e f g g g g g g g g f e d c b a 0 (                                         ",
"                                        h i j k l m n o g p p p p p p g o n m l k j i h                                         ",
"                                        q r s t u v w x y y y y y y y y x w v u t s r q                                         ",
"                                        z A B C D E F G G G G G G G G G G F E D C B A z                                         ",
"                                        z A H I J K L M M N N N N N N M M L K J I H A z                                         ",
"                                        z O P Q R S T U V W W X X W W V U T S R Q P O z                                         ",
"                                        z O Y Z `  ...+.@.#.#.#.#.#.#.@.+... .` Z Y O z                                         ",
"                                        z O $.%.&.*.=.-.;.>.>.>.>.>.>.;.-.=.*.&.%.$.O z                                         ",
"                                        z O ,.'.;.).!.~.=.&.&.{.{.&.&.=.~.!.).;.'.,.O z                                         ",
"                                        z O ].^./.(._.!.:.<.<.<.<.<.<.:.!._.(./.[.}.A z                                         ",
"                                        z O |.1.2.3.4.5.6.!.!.!.!.!.!.6.5.4.3.2.1.7.A z                                         ",
"                                        z O 8.9.0.a.b.c.c.c.c.c.c.c.c.c.c.d.e.f.g.h.i.j.                                        ",
"                                        z O k.l.m.n.o.p.p.q.q.q.q.q.q.q.p.r.s.t.u.v.w._                                         ",
"                                        x.O y.z.A.B.C.D.D.D.D.E.E.D.D.D.E.F.G.H.I.~ J.#                                         ",
"                                        q K.L.M.N.O.P.Q.Q.R.S.S.S.S.R.Q.S.T.U.V.W.K.X.h                                         ",
"                                    # - Y.Z.`. +.+++@+#+#+$+%+&+&+%+$+*+=+-+;+>+,+'+)+w.- #                                     ",
"                                    . !+~+{+]+^+/+(+_+:+<+[+}+|+|+}+[+:+1+2+3+4+5+6+7+8+!+.                                     ",
"                                ( _ Y.9+0+a+b+c+d+d+e+e+f+g+h+i+i+h+g+j+j+k+l+m+n+o+p+q+9+Y._ (                                 ",
"                                r+X.s+t+u+v+w+x+y+z+A+B+z+C+D+i+i+E+F+G+H+I+J+K+L+M+N+O+t+s+X.r+                                ",
"                                P+Q+R+S+T+/+U+z+d+V+z+A+V+W+X+i+i+E+F+Y+Z+`+ @.@+@@@w+T+S+R+Q+P+                                ",
"                                #@$@%@&@*@=@d+-@W+-@d+y+V+W+X+i+i+;@F+>@,@'@)@!@Z+~@{@w+&@%@$@#@                                ",
"                                #@]@^@/@(@=@c+_@:@<@f+B+V+W+X+i+i+;@F+>@[@}@|@!@Z+~@1@(@/@^@]@#@                                ",
"                                #@2@3@4@(@x+f+5@6@7@f+B+V+W+X+i+i+;@F+8@[@9@0@a@Z+~@b@(@4@3@2@#@                                ",
"                                #@2@3@4@(@x+f+5@6@7@f+B+V+W+X+i+i+;@F+8@[@9@0@a@Z+~@b@(@4@3@2@#@                                ",
"                                #@2@3@4@(@x+f+c@d@5@f+B+z+W+X+i+i+;@e@f@g@9@0@a@Z+~@b@(@4@3@2@#@                                ",
"                                #@2@3@4@(@x+f+c@h@i@f+B+j@W+X+i+i+;@F+8@[@9@0@a@Z+~@b@(@4@3@2@#@                                ",
"                                #@]@%@/@(@=@j+k@l@m@n@o@p@<+d@i+i+q@r@s@t@u@v@a@Z+~@1@(@/@%@]@#@                                ",
"                                #@w@%@x@*@1@y@z@A@B@C@[+D@E+E@|+F@G@H@I@J@K@L@a@Z+~@1@*@x@%@w@#@                                ",
"                                M@O N@]+O@P@Q@R@S@T@U@V@V@W@W@X@W@Y@Z@`@ #.#+#a@R@@@P@O@]+N@O M@                                ",
"                                J.~ @###$#%#&#L+.@*#=#-#-#-#;#>#>#,#'#)#!#~#+#a@{#]#%#$###@#~ J.                                ",
"                                  ! @ Q+^#/#(#n+_#:#<#[#[#[#[#[#[#}#|#.#.#.#1#2#n+(#/#^#Q+@ !                                   ",
"                                    + 3#4#5#6#7#8#9#0#0#0#0#0#0#0#a#b#.#.#.#)#c#d#6#5#4#3#+                                     ",
"                                    e#f#g#h#i#j#k#l#.#.#.#.#.#.#.#.#.#.#.#.#l#k#j#i#h#g#f#e#                                    ",
"                                    e#f#m#n#o#p#q#l#.#.#.#.#.#.#.#.#.#.#.#.#l#q#p#o#n#m#f#e#                                    ",
"                                    e#f#r#s#t#u#v#.#.#.#.#.#.#.#.#.#.#.#.#.#.#v#u#t#s#r#f#e#                                    ",
"                                    e#f#w#x#y#z#v#l#.#.#.#.#.#.#.#.#.#.#.#.#l#v#z#y#x#w#f#e#                                    ",
"                                    e#f#A#B#C#D#E#.#.#.#.#.#.#.#.#.#.#.#.#.#.#E#D#C#B#A#f#e#                                    ",
"                                    e#f#F#G#H#I#J#K#v#l#l#l#l#l#l#l#l#l#l#v#K#J#I#H#G#F#f#e#                                    ",
"                                    e#f#F#L#M#N#O#P#Q#.#.#v#v#v#v#v#v#.#.#Q#P#O#N#M#L#F#f#e#                                    ",
"                                    e#f#F#R#S#T#U#V#J#W#W#X#Y#Z#Z#Y#X#W#W#J#V#U#T#S#R#F#f#e#                                    ",
"                                    e#f#F#R#S#`# $.$+$@$#$$$%$&$&$%$$$#$@$+$.$ $`#S#R#F#f#e#                                    ",
"                                    e#f#F#R#S# $`#`#`#*$=$-$;$>$>$;$-$=$*$`#`#`# $S#R#F#f#e#                                    ",
"                                    e#f#F#R#S# $`#`#S#,$'$)$!$~$~$!$)$'$,$S#`#`# $S#R#F#f#e#                                    ",
"                                    e#f#F#R#S# $`# $M#{$]$* ^$    ^$* ]${$M# $`# $S#R#F#f#e#                                    ",
"                                    e#f#F#R#S# $`# $M#/$($_$Y.    Y._$($/$M# $`# $S#R#F#f#e#                                    ",
"                                    e#f#F#R#S# $`# $M#/$:$= @     @ = :$/$M# $`# $S#R#F#f#e#                                    ",
"                                    e#f#F#R#M# $`# $M#/$:$= @     @ = :$/$M# $`# $M#R#F#f#e#                                    ",
"                                    e#f#F#L#<$T#[$T#<$}$|$* @     @ * |$}$<$T#[$T#<$L#F#f#e#                                    ",
"                                    e#f#1$2$3$4$4$5$6$7$8$9$@     @ 9$8$7$6$5$4$4$3$2$1$f#e#                                    ",
"                                    e#f#0$a$b$c$c$d$e$f$g$h$M@    M@h$g$f$e$d$c$c$b$a$0$f#e#                                    ",
"                                    M@i$j$k$l$m$n$o$p$q$r$s$j.    j.s$r$q$p$o$n$m$l$k$j$i$M@                                    ",
"                                    + Q+t$u$v$w$v$x$y$z$~ h #     # h ~ z$y$x$v$w$v$u$t$Q++                                     ",
"                                    j.v.A$B$C$D$E$q$z$F$J.            J.F$z$q$E$D$C$B$A$v.j.                                    ",
"                                    ! r+G$H$I$J$g$r$~ J.#             # J.~ r$g$J$I$H$G$r+!                                     ",
"                                        J.K$L$2@h$s$h                     h s$h$2@L$K$J.                                        ",
"                                        ! M$Y.^$M@j.#                     # j.M@^$Y.M$!                                         ",
"                                                                                                                                "};
