/* XPM */
static char * player_up5_xpm[] = {
"64 64 607 2",
"  	c #785E4E",
". 	c #765C4C",
"+ 	c #745B4B",
"@ 	c #765C4D",
"# 	c #755B4C",
"$ 	c #644E40",
"% 	c #554136",
"& 	c #534035",
"* 	c #544135",
"= 	c #534034",
"- 	c #564337",
"; 	c #675042",
"> 	c #775D4D",
", 	c #6A5345",
"' 	c #493B33",
") 	c #222121",
"! 	c #1C1E1F",
"~ 	c #1F2020",
"{ 	c #1B1D1F",
"] 	c #272423",
"^ 	c #504037",
"/ 	c #6D5547",
"( 	c #634D40",
"_ 	c #483A31",
": 	c #363839",
"< 	c #2D3B40",
"[ 	c #2D3C41",
"} 	c #2C3A3F",
"| 	c #393837",
"1 	c #4C3C32",
"2 	c #735A4B",
"3 	c #675143",
"4 	c #4B3D35",
"5 	c #272D30",
"6 	c #303E43",
"7 	c #38494F",
"8 	c #394A50",
"9 	c #38484E",
"0 	c #2C2D2E",
"a 	c #514137",
"b 	c #745B4C",
"c 	c #634D3F",
"d 	c #43362E",
"e 	c #333739",
"f 	c #334146",
"g 	c #37474D",
"h 	c #36464C",
"i 	c #323F44",
"j 	c #343535",
"k 	c #48382F",
"l 	c #72594A",
"m 	c #644E41",
"n 	c #4E3F3E",
"o 	c #313340",
"p 	c #323F49",
"q 	c #394B50",
"r 	c #38484F",
"s 	c #313C47",
"t 	c #35333F",
"u 	c #52423E",
"v 	c #675043",
"w 	c #775D4E",
"x 	c #654F41",
"y 	c #3F312B",
"z 	c #343343",
"A 	c #3E445A",
"B 	c #3E4959",
"C 	c #3A4A52",
"D 	c #3A4A51",
"E 	c #3A4A53",
"F 	c #3E485A",
"G 	c #3E4258",
"H 	c #33303D",
"I 	c #46362D",
"J 	c #624C3F",
"K 	c #2D221F",
"L 	c #222636",
"M 	c #353C50",
"N 	c #3D4659",
"O 	c #404B5D",
"P 	c #414C5D",
"Q 	c #404B5C",
"R 	c #3C4558",
"S 	c #33394D",
"T 	c #1E2230",
"U 	c #372A22",
"V 	c #735A4A",
"W 	c #5D483B",
"X 	c #2C211B",
"Y 	c #0D121B",
"Z 	c #1F2634",
"` 	c #353B50",
" .	c #424861",
"..	c #444B63",
"+.	c #434A63",
"@.	c #41475F",
"#.	c #32384C",
"$.	c #1C222F",
"%.	c #0B0F17",
"&.	c #392B23",
"*.	c #685143",
"=.	c #705748",
"-.	c #594539",
";.	c #3E2F26",
">.	c #1B130E",
",.	c #080E15",
"'.	c #151D28",
").	c #262C3D",
"!.	c #30364A",
"~.	c #333B4F",
"{.	c #343D50",
"].	c #333A4E",
"^.	c #2F3549",
"/.	c #232939",
"(.	c #131A24",
"_.	c #060B11",
":.	c #765D4D",
"<.	c #715849",
"[.	c #624F48",
"}.	c #453F4A",
"|.	c #282A3C",
"1.	c #0F111B",
"2.	c #0B1219",
"3.	c #161F29",
"4.	c #19222D",
"5.	c #1A242F",
"6.	c #1E2933",
"7.	c #202C36",
"8.	c #1F2C36",
"9.	c #1D2833",
"0.	c #1A232E",
"a.	c #18222D",
"b.	c #151E28",
"c.	c #0A1017",
"d.	c #705849",
"e.	c #574337",
"f.	c #4C4654",
"g.	c #595E7E",
"h.	c #4E5574",
"i.	c #242839",
"j.	c #0B1519",
"k.	c #1C2831",
"l.	c #1D2A33",
"m.	c #19252E",
"n.	c #18222C",
"o.	c #17222C",
"p.	c #17222B",
"q.	c #1A252F",
"r.	c #1C2932",
"s.	c #1A262F",
"t.	c #0E161C",
"u.	c #6D5546",
"v.	c #423229",
"w.	c #3D425C",
"x.	c #656D94",
"y.	c #5E658A",
"z.	c #2C3044",
"A.	c #0C1114",
"B.	c #202731",
"C.	c #212C36",
"D.	c #1F2D36",
"E.	c #1B2831",
"F.	c #19232D",
"G.	c #18232D",
"H.	c #19242E",
"I.	c #202D36",
"J.	c #1E252F",
"K.	c #11151C",
"L.	c #3C415A",
"M.	c #636B91",
"N.	c #5C6487",
"O.	c #2B2F42",
"P.	c #0E0309",
"Q.	c #211C29",
"R.	c #222732",
"S.	c #1F2C35",
"T.	c #1E2B34",
"U.	c #222531",
"V.	c #201A27",
"W.	c #120C16",
"X.	c #3B2D24",
"Y.	c #423329",
"Z.	c #2B3146",
"`.	c #495272",
" +	c #424B6A",
".+	c #0F1C30",
"++	c #000000",
"@+	c #010018",
"#+	c #0F1627",
"$+	c #16212F",
"%+	c #172230",
"&+	c #162230",
"*+	c #171826",
"=+	c #251A20",
"-+	c #41312B",
";+	c #5A463A",
">+	c #201B1F",
",+	c #393137",
"'+	c #3E3336",
")+	c #372A24",
"!+	c #36271C",
"~+	c #372820",
"{+	c #392828",
"]+	c #3B282D",
"^+	c #3C282E",
"/+	c #3C292E",
"(+	c #3A272C",
"_+	c #2C1B1F",
":+	c #32221E",
"<+	c #5B463A",
"[+	c #6F5748",
"}+	c #755C4C",
"|+	c #4D3929",
"1+	c #806148",
"2+	c #916E53",
"3+	c #906E55",
"4+	c #906F55",
"5+	c #8F6D54",
"6+	c #89634C",
"7+	c #845A45",
"8+	c #835844",
"9+	c #835944",
"0+	c #845945",
"a+	c #7F5542",
"b+	c #674033",
"c+	c #4C2924",
"d+	c #4C352D",
"e+	c #614B3E",
"f+	c #664E3B",
"g+	c #A88164",
"h+	c #BD9271",
"i+	c #BC9171",
"j+	c #BB8F6F",
"k+	c #B48565",
"l+	c #AD7B5B",
"m+	c #AC795A",
"n+	c #AC7859",
"o+	c #AB7657",
"p+	c #AA7555",
"q+	c #AA7556",
"r+	c #AE7B5B",
"s+	c #A87557",
"t+	c #895945",
"u+	c #61342E",
"v+	c #53352B",
"w+	c #503C2E",
"x+	c #503D2E",
"y+	c #5B4637",
"z+	c #6B5344",
"A+	c #43332A",
"B+	c #684F3C",
"C+	c #AD8567",
"D+	c #C39675",
"E+	c #C29574",
"F+	c #C19574",
"G+	c #C19473",
"H+	c #BE906F",
"I+	c #BB8C6B",
"J+	c #B88867",
"K+	c #B27E5D",
"L+	c #AE7757",
"M+	c #AE7858",
"N+	c #B3805F",
"O+	c #B98968",
"P+	c #BD8D6C",
"Q+	c #B68768",
"R+	c #91644F",
"S+	c #71453A",
"T+	c #8A654F",
"U+	c #9D785D",
"V+	c #9E795E",
"W+	c #8B6B53",
"X+	c #614A3B",
"Y+	c #5F4A3D",
"Z+	c #745A4B",
"`+	c #685142",
" @	c #644C3C",
".@	c #84654D",
"+@	c #B1886A",
"@@	c #C09473",
"#@	c #BC8F6E",
"$@	c #B38060",
"%@	c #AD7656",
"&@	c #AD7757",
"*@	c #B58363",
"=@	c #BD906F",
"-@	c #BA8F6F",
";@	c #AC8165",
">@	c #885E4B",
",@	c #784C40",
"'@	c #A57A60",
")@	c #BF9372",
"!@	c #A27D61",
"~@	c #594333",
"{@	c #4D3B30",
"]@	c #715949",
"^@	c #5F4838",
"/@	c #937157",
"(@	c #B18869",
"_@	c #BC9170",
":@	c #C09574",
"<@	c #B58463",
"[@	c #BB8F6E",
"}@	c #A77D62",
"|@	c #845949",
"1@	c #6A3B35",
"2@	c #76493E",
"3@	c #A67C61",
"4@	c #A47E61",
"5@	c #5B4534",
"6@	c #4B3A2F",
"7@	c #5A4433",
"8@	c #BB8C6C",
"9@	c #B68463",
"0@	c #BA8E6E",
"a@	c #9D735B",
"b@	c #581D25",
"c@	c #74483D",
"d@	c #AE8668",
"e@	c #886850",
"f@	c #6D5442",
"g@	c #664F41",
"h@	c #6E5647",
"i@	c #4C3A30",
"j@	c #A37D61",
"k@	c #BF9271",
"l@	c #B88968",
"m@	c #B88969",
"n@	c #9E745B",
"o@	c #6C3D36",
"p@	c #591F26",
"q@	c #BF9373",
"r@	c #B58B6C",
"s@	c #916F56",
"t@	c #533F31",
"u@	c #BE9170",
"v@	c #BA8A6A",
"w@	c #B88767",
"x@	c #AF7B5B",
"y@	c #B78767",
"z@	c #592026",
"A@	c #BF9473",
"B@	c #9A765B",
"C@	c #4C392B",
"D@	c #BC8E6E",
"E@	c #B48262",
"F@	c #AD795A",
"G@	c #A87556",
"H@	c #A97455",
"I@	c #AE7959",
"J@	c #74473C",
"K@	c #A57A5F",
"L@	c #BE9171",
"M@	c #BE9372",
"N@	c #99755B",
"O@	c #4D3A2C",
"P@	c #A47E62",
"Q@	c #C09372",
"R@	c #BC8C6C",
"S@	c #A4785B",
"T@	c #825B42",
"U@	c #8F6045",
"V@	c #AB7858",
"W@	c #BD8F6E",
"X@	c #B68464",
"Y@	c #9F755C",
"Z@	c #5A2127",
"`@	c #724238",
" #	c #9E6F55",
".#	c #5E4838",
"+#	c #97745A",
"@#	c #B08769",
"##	c #523B2C",
"$#	c #6E4833",
"%#	c #9E6D51",
"&#	c #B38263",
"*#	c #BA8B6A",
"=#	c #B27F5E",
"-#	c #B17F60",
";#	c #B08366",
">#	c #946B55",
",#	c #6A3A34",
"'#	c #5B2528",
")#	c #6C3B33",
"!#	c #8C5C45",
"~#	c #A57557",
"{#	c #B68767",
"]#	c #BE9271",
"^#	c #99765B",
"/#	c #685041",
"(#	c #6B523F",
"_#	c #6D533F",
":#	c #6C523F",
"<#	c #564231",
"[#	c #2D1F16",
"}#	c #502C23",
"|#	c #7D4E3D",
"1#	c #9E6D52",
"2#	c #B17F5F",
"3#	c #B48161",
"4#	c #B27F5F",
"5#	c #AF7A5A",
"6#	c #AE7857",
"7#	c #A06E53",
"8#	c #8A5D4A",
"9#	c #75483D",
"0#	c #64322F",
"a#	c #5F2A2B",
"b#	c #602F2C",
"c#	c #5F382C",
"d#	c #78533C",
"e#	c #A27356",
"f#	c #BC8F6F",
"g#	c #362921",
"h#	c #1D110D",
"i#	c #3D1719",
"j#	c #62312D",
"k#	c #855341",
"l#	c #99664C",
"m#	c #9C694E",
"n#	c #9C684D",
"o#	c #9B674D",
"p#	c #895743",
"q#	c #6A3831",
"r#	c #5E292B",
"s#	c #602C2C",
"t#	c #612D2D",
"u#	c #592828",
"v#	c #331014",
"w#	c #583D2C",
"x#	c #9C6F53",
"y#	c #BA8968",
"z#	c #4D392B",
"A#	c #6B5445",
"B#	c #584438",
"C#	c #2D1F19",
"D#	c #3F1A1B",
"E#	c #5D2B2B",
"F#	c #6B3932",
"G#	c #724136",
"H#	c #734237",
"I#	c #622F2D",
"J#	c #5F2B2B",
"K#	c #330E13",
"L#	c #5B4433",
"M#	c #A27A5E",
"N#	c #BD9070",
"O#	c #98755A",
"P#	c #4E3B2D",
"Q#	c #564236",
"R#	c #4E3C32",
"S#	c #322020",
"T#	c #451F22",
"U#	c #5C2A2A",
"V#	c #602B2C",
"W#	c #612C2C",
"X#	c #361214",
"Y#	c #4A3729",
"Z#	c #967359",
"`#	c #81624C",
" $	c #5E483A",
".$	c #6A5244",
"+$	c #26181A",
"@$	c #331B23",
"#$	c #4B2328",
"$$	c #592829",
"%$	c #3A1819",
"&$	c #201510",
"*$	c #37281E",
"=$	c #433225",
"-$	c #483729",
";$	c #5B4638",
">$	c #6F5647",
",$	c #372921",
"'$	c #1B0D14",
")$	c #331A24",
"!$	c #4C252A",
"~$	c #5E2B2C",
"{$	c #612D2C",
"]$	c #5B2A2A",
"^$	c #421E22",
"/$	c #1E0C16",
"($	c #2F231C",
"_$	c #513F33",
":$	c #321A24",
"<$	c #492329",
"[$	c #59292B",
"}$	c #5F2B2C",
"|$	c #57282B",
"1$	c #452128",
"2$	c #2D1721",
"3$	c #160910",
"4$	c #413228",
"5$	c #6B5345",
"6$	c #1C0D14",
"7$	c #311A24",
"8$	c #3D1F28",
"9$	c #482329",
"0$	c #56282B",
"a$	c #5F2C2C",
"b$	c #54272A",
"c$	c #462229",
"d$	c #3B1F28",
"e$	c #2E1822",
"f$	c #180A11",
"g$	c #43342A",
"h$	c #1D0D14",
"i$	c #301924",
"j$	c #341C27",
"k$	c #381D27",
"l$	c #4A2429",
"m$	c #57282A",
"n$	c #552727",
"o$	c #542626",
"p$	c #562728",
"q$	c #58292A",
"r$	c #472229",
"s$	c #361D27",
"t$	c #351C27",
"u$	c #3B1E28",
"v$	c #412028",
"w$	c #422128",
"x$	c #3E1E25",
"y$	c #34181A",
"z$	c #2F1312",
"A$	c #2F1413",
"B$	c #36191C",
"C$	c #3F1F26",
"D$	c #422129",
"E$	c #402028",
"F$	c #3A1E28",
"G$	c #321B26",
"H$	c #2D1822",
"I$	c #311F22",
"J$	c #403029",
"K$	c #49382E",
"L$	c #48372D",
"M$	c #3E2E28",
"N$	c #2E1C21",
"O$	c #2E1823",
"P$	c #211018",
"Q$	c #362822",
"R$	c #604B3E",
"S$	c #2D201C",
"T$	c #24121B",
"U$	c #321B25",
"V$	c #301A24",
"W$	c #372A21",
"X$	c #614C3F",
"Y$	c #2E221B",
"Z$	c #2F1924",
"`$	c #331C27",
" %	c #331B27",
".%	c #1C0D15",
"+%	c #2D211B",
"@%	c #170B14",
"#%	c #281624",
"$%	c #2C1928",
"%%	c #2C1827",
"&%	c #180B15",
"*%	c #352820",
"=%	c #665042",
"-%	c #2C1F1F",
";%	c #231522",
">%	c #211323",
",%	c #201223",
"'%	c #2B1F1F",
")%	c #6A5344",
"!%	c #534036",
"~%	c #2A1E1D",
"{%	c #0F0712",
"]%	c #0F0711",
"^%	c #281D1D",
"/%	c #523F35",
"(%	c #695244",
"_%	c #403128",
":%	c #2B201A",
"<%	c #1F0F18",
"[%	c #2E1925",
"}%	c #311B28",
"|%	c #301A27",
"1%	c #2A1622",
"2%	c #160911",
"3%	c #614C3E",
"4%	c #30241E",
"5%	c #180C18",
"6%	c #251525",
"7%	c #271627",
"8%	c #221321",
"9%	c #170C13",
"0%	c #44342A",
"a%	c #3A2B28",
"b%	c #1D111D",
"c%	c #1A0E1D",
"d%	c #190E1C",
"e%	c #1A0E1C",
"f%	c #271B20",
"g%	c #44342C",
"h%	c #5D483C",
"i%	c #2D221D",
"j%	c #1C1312",
"k%	c #201714",
"l%	c #1D1412",
"m%	c #3E2F27",
"n%	c #6C5446",
"o%	c #5C473B",
"p%	c #584538",
"                                                                                                                                ",
"                                                                                                                                ",
"                                                                                                                                ",
"                                                                                                                                ",
"                                                                                                                                ",
"                                                                                                                                ",
"                                                                                                                                ",
"                                                                                                                                ",
"                                                                                                                                ",
"                                                                                                                                ",
"                                                                                                                                ",
"                                                          . + + + + + + @                                                       ",
"                                                        # $ % & * * = - ; >                                                     ",
"                                                      # , ' ) ! ~ ~ { ] ^ / .                                                   ",
"                                                    . ( _ : < < < < [ } | 1 ; >                                                 ",
"                                                  2 3 4 5 6 7 8 8 8 8 9 < 0 a , b                                               ",
"                                                @ c d e f g 8 8 8 8 8 8 h i j k 3 >                                             ",
"                                              l m n o p 7 q 8 8 8 8 8 8 q r s t u v 2                                           ",
"                                            w x y z A B C D D D D D D D D E F G H I ,                                           ",
"                                              J K L M N O P P P P P P P P Q R S T U ;                                           ",
"                                          > V W X Y Z `  ...+.+.+.+.+.+...@.#.$.%.&.*.                                          ",
"                                          =.-.;.>.,.'.).!.~.{.{.{.{.{.{.].^./.(._.&.*.                                          ",
"                                      :.<.[.}.|.1.2.3.4.5.6.7.7.7.7.7.8.9.0.a.b.c.&.*.                                          ",
"                                      d.e.f.g.h.i.j.k.l.k.m.n.o.n.n.p.n.q.r.l.s.t.&.*.                                          ",
"                                      u.v.w.x.y.z.A.B.C.D.E.F.G.G.G.G.H.r.I.C.J.K.U 3                                           ",
"                                      u.v.L.M.N.O.P.Q.R.I.S.T.T.T.T.T.T.D.7.U.V.W.X.*.                                          ",
"                                      u.Y.Z.`. +.+++@+#+$+%+%+%+%+%+%+%+&+$+*+=+-+;+d.                                          ",
"                                      u.Y.>+,+'+)+!+~+{+]+^+^+^+^+^+^+^+/+(+_+:+<+[+2 }+w                                       ",
"                                      u.Y.|+1+2+3+4+5+6+7+8+9+0+7+7+0+9+0+a+b+c+d+* % e+2                                       ",
"                                      u.Y.f+g+h+i+h+j+k+l+m+n+o+p+q+o+m+r+s+t+u+v+w+x+y+z++ >                                   ",
"                                      / A+B+C+D+E+F+G+H+I+I+J+K+L+M+N+O+P+Q+R+S+T+U+V+W+X+Y+Z+                                  ",
"                                  :.d.`+ @.@+@F+@@@@@@@@@@@@#@$@%@&@*@=@-@;@>@,@'@)@@@!@~@{@]@                                  ",
"                                  V -.^@/@(@_@@@@@@@@@@@@@:@#@$@%@&@<@[@}@|@1@2@3@G+E+4@5@6@d.                                  ",
"                                  <.6@7@4@F+F+:@@@=@8@=@@@:@#@$@%@&@9@0@a@1@b@c@3@@@F+d@e@f@g@h@>                               ",
"                                  <.i@5@j@@@@@)@k@l@$@m@)@F+#@$@%@&@9@0@n@o@p@c@3@q@F+h+r@s@t@<+b                               ",
"                                  <.i@5@j@u@v@w@w@$@x@y@)@F+#@$@%@&@9@0@n@o@z@c@3@A@F+E+@@B@C@* +                               ",
"                                  <.i@5@j@D@E@F@G@H@I@J+)@F+#@$@%@&@9@0@n@o@z@J@K@L@@@F+M@N@O@% +                               ",
"                                  <.6@7@P@Q@R@S@T@U@V@O+Q@F+W@$@%@&@X@#@Y@o@Z@`@ #J+u@F+M@N@O@% +                               ",
"                                  l e..#+#@#d@5+##$#%#&#D@H+*#=#&@&@-#;#>#,#'#)#!#~#{#k@]#^#O@% +                               ",
"                                  @ h@/#(#_#:#<#[#}#|#1#2#3#4#5#6#&@7#8#9#0#a#b#c#d#e#J+f#^#O@% +                               ",
"                                      d.e.Y.v.g#h#i#j#k#l#m#n#n#m#o#p#q#r#s#t#u#v#w#x#y#=@B@z#* +                               ",
"                                      :.d./ A#B#C#D#E#F#G#H#H#H#H#H#)#I#J#s#t#u#K#L#M#N#_@O#P#Q#+                               ",
"                                          2 x R#S#T#U#V#r#r#r#r#r#r#a#s#s#s#W#u#X#Y#.@N@Z#`# $x .                               ",
"                                          .$Y.+$@$#$E#W#s#s#s#s#s#s#s#s#s#s#W#$$%$&$*$=$-$;$>$@                                 ",
"                                          ; ,$'$)$!$~$W#s#s#s#s#s#s#s#s#s#s#{$]$^$/$++($_$3 .                                   ",
"                                          *.&.'$:$<$[$}$s#s#s#s#s#s#s#s#s#s#~$|$1$2$3$4$5$w                                     ",
"                                          *.&.6$7$8$9$0$a$W#s#W#W#W#W#s#W#}$b$c$d$e$f$g$h@                                      ",
"                                          *.&.h$i$j$k$l$|$[$m$n$o$o$p$q$[$0$r$s$j$e$f$Y.u.                                      ",
"                                          *.&.h$i$j$t$u$v$w$x$y$z$A$B$C$D$E$F$j$j$e$f$Y.u.                                      ",
"                                          *.&.h$i$t$j$j$G$H$I$J$K$L$M$N$O$G$j$j$j$e$f$Y.u.                                      ",
"                                          *.&.h$i$t$j$j$7$P$Q$R$<.=.<+S$T$U$j$j$j$e$f$Y.u.                                      ",
"                                          *.&.h$i$t$j$t$V$h$W$*.    X$Y$P$U$t$j$j$e$f$Y.u.                                      ",
"                                          *.&.6$Z$`$ %`$Z$.%,$;     e++%P$U$t$j$j$e$f$Y.u.                                      ",
"                                          3 ,$@%#%$%%%$%#%&%*%=%    e++%P$U$t$j$j$e$f$Y.u.                                      ",
"                                          A#K$-%;%>%,%>%;%'%L$,   w e++%P$U$t$j$j$e$f$Y.u.                                      ",
"                                          + )%!%~%{%]%{%^%/%(%+   > e++%P$U$t$j$j$e$f$Y.u.                                      ",
"                                              (%{@_%v._%i@*.      > R$:%<%[%}%|%}%1%2%v.u.                                      ",
"                                              b [+u./ u.[+b       > 3%4%5%6%7%7%7%8%9%0%/                                       ",
"                                                                    A#* a%b%c%d%e%f%g%h%l                                       ",
"                                                                    > <.B#i%j%k%l%m%m + >                                       ",
"                                                                        n%o%B#-.p%e+l                                           ",
"                                                                        > . . . . @ w                                           ",
"                                                                                                                                ",
"                                                                                                                                "};
