/* XPM */
static char * player_down3_xpm[] = {
"64 64 607 2",
"  	c #785E4E",
". 	c #765C4D",
"+ 	c #745B4B",
"@ 	c #775D4D",
"# 	c #675143",
"$ 	c #564337",
"% 	c #534034",
"& 	c #544135",
"* 	c #765C4C",
"= 	c #6D5647",
"- 	c #514137",
"; 	c #272423",
"> 	c #1C1E1F",
", 	c #1F2020",
"' 	c #695244",
") 	c #4D3C32",
"! 	c #393837",
"~ 	c #2C3A3F",
"{ 	c #2D3C41",
"] 	c #2D3B40",
"^ 	c #755C4C",
"/ 	c #6C5445",
"( 	c #544338",
"_ 	c #2D2E2E",
": 	c #38494E",
"< 	c #394A50",
"[ 	c #6B5345",
"} 	c #4B3A31",
"| 	c #353434",
"1 	c #324044",
"2 	c #36464C",
"3 	c #755B4C",
"4 	c #56443E",
"5 	c #37333E",
"6 	c #303B46",
"7 	c #38484F",
"8 	c #394B51",
"9 	c #6A5244",
"0 	c #6F5748",
"a 	c #4C3B30",
"b 	c #332F3A",
"c 	c #3E4258",
"d 	c #3F495B",
"e 	c #3A4A52",
"f 	c #4B3A2F",
"g 	c #6D5546",
"h 	c #775D4E",
"i 	c #403128",
"j 	c #252939",
"k 	c #41465F",
"l 	c #434D60",
"m 	c #394951",
"n 	c #37494F",
"o 	c #31474F",
"p 	c #2C454F",
"q 	c #41475F",
"r 	c #2C211A",
"s 	c #513F33",
"t 	c #685143",
"u 	c #765D4D",
"v 	c #6D5547",
"w 	c #423229",
"x 	c #232636",
"y 	c #3D435A",
"z 	c #444D62",
"A 	c #414F5D",
"B 	c #3D4D58",
"C 	c #424E53",
"D 	c #555953",
"E 	c #605F54",
"F 	c #12131C",
"G 	c #2D2A35",
"H 	c #534442",
"I 	c #6E5649",
"J 	c #151924",
"K 	c #2D3345",
"L 	c #49526D",
"M 	c #5B6585",
"N 	c #4E5A77",
"O 	c #605E61",
"P 	c #9E8861",
"Q 	c #BB9F64",
"R 	c #BB9F65",
"S 	c #9E8962",
"T 	c #605E62",
"U 	c #4E5B78",
"V 	c #141822",
"W 	c #2F3449",
"X 	c #4F5574",
"Y 	c #53536B",
"Z 	c #534341",
"` 	c #05060B",
" .	c #1C1F2C",
"..	c #464D69",
"+.	c #60688D",
"@.	c #566188",
"#.	c #766F77",
"$.	c #C3A571",
"%.	c #E7C070",
"&.	c #E6C070",
"*.	c #C2A36C",
"=.	c #72696B",
"-.	c #525C81",
";.	c #1A1E2B",
">.	c #020305",
",.	c #3E445D",
"'.	c #646C93",
").	c #585F82",
"!.	c #32303B",
"~.	c #5A4639",
"{.	c #0C050D",
"].	c #1D1624",
"^.	c #303145",
"/.	c #434965",
"(.	c #525D84",
"_.	c #837E91",
":.	c #C9AC80",
"<.	c #EAC371",
"[.	c #EAC270",
"}.	c #C5A66E",
"|.	c #726869",
"1.	c #3C4767",
"2.	c #404660",
"3.	c #313247",
"4.	c #1C1422",
"5.	c #090207",
"6.	c #3F455F",
"7.	c #666E95",
"8.	c #596083",
"9.	c #2E2D3A",
"0.	c #584538",
"a.	c #6E5647",
"b.	c #100712",
"c.	c #201223",
"d.	c #1C1421",
"e.	c #212636",
"f.	c #424D6F",
"g.	c #747287",
"h.	c #AC9575",
"i.	c #C7A662",
"j.	c #C7A661",
"k.	c #A78E60",
"l.	c #5F585A",
"m.	c #202E47",
"n.	c #1A1F2C",
"o.	c #1E1725",
"p.	c #1F1021",
"q.	c #0E040D",
"r.	c #596183",
"s.	c #2F2E3B",
"t.	c #594539",
"u.	c #6C5446",
"v.	c #413228",
"w.	c #100711",
"x.	c #1F1222",
"y.	c #1B1F2B",
"z.	c #2C3144",
"A.	c #464450",
"B.	c #625547",
"C.	c #715E3F",
"D.	c #705E3E",
"E.	c #60513E",
"F.	c #3C373B",
"G.	c #202533",
"H.	c #181D28",
"I.	c #1E1726",
"J.	c #1E1020",
"K.	c #0E030C",
"L.	c #585F81",
"M.	c #2F2D3A",
"N.	c #31251D",
"O.	c #000003",
"P.	c #0F0818",
"Q.	c #0C0D20",
"R.	c #221C27",
"S.	c #563C33",
"T.	c #704D3B",
"U.	c #714D3D",
"V.	c #6F4B3D",
"W.	c #714E3E",
"X.	c #573D35",
"Y.	c #211B27",
"Z.	c #00031E",
"`.	c #000011",
" +	c #000000",
".+	c #263047",
"++	c #4A5374",
"@+	c #414966",
"#+	c #28252D",
"$+	c #715849",
"%+	c #5B4639",
"&+	c #423226",
"*+	c #382A1F",
"=+	c #2F2118",
"-+	c #211211",
";+	c #23131B",
">+	c #472F2E",
",+	c #825845",
"'+	c #A27053",
")+	c #A77456",
"!+	c #815845",
"~+	c #49312F",
"{+	c #342424",
"]+	c #37281F",
"^+	c #36271D",
"/+	c #392D2A",
"(+	c #3E3539",
"_+	c #312A30",
":+	c #241C19",
"<+	c #5F493B",
"[+	c #7B5E49",
"}+	c #8F6D54",
"|+	c #916F55",
"1+	c #805F4A",
"2+	c #5B392F",
"3+	c #623B30",
"4+	c #835843",
"5+	c #9D6B4F",
"6+	c #AF7959",
"7+	c #B68463",
"8+	c #B98968",
"9+	c #9C6A4F",
"0+	c #885E48",
"a+	c #8A664E",
"b+	c #906E55",
"c+	c #906F55",
"d+	c #8E6C51",
"e+	c #70543E",
"f+	c #5B463A",
"g+	c #4B392B",
"h+	c #957258",
"i+	c #BB9070",
"j+	c #BE9272",
"k+	c #A77D62",
"l+	c #794E40",
"m+	c #835441",
"n+	c #A77457",
"o+	c #AE7959",
"p+	c #AF7B5B",
"q+	c #B78767",
"r+	c #BD8F6F",
"s+	c #AC7757",
"t+	c #AE7C5D",
"u+	c #B68868",
"v+	c #BC9170",
"w+	c #BC9171",
"x+	c #BD9271",
"y+	c #BA906F",
"z+	c #937157",
"A+	c #463528",
"B+	c #584438",
"C+	c #473628",
"D+	c #977459",
"E+	c #C09473",
"F+	c #C39675",
"G+	c #AC8165",
"H+	c #7D5143",
"I+	c #8D604C",
"J+	c #B38465",
"K+	c #B58261",
"L+	c #B17E5E",
"M+	c #B48262",
"N+	c #B38060",
"O+	c #BB8B6A",
"P+	c #BF9271",
"Q+	c #C19574",
"R+	c #C29675",
"S+	c #BF9473",
"T+	c #463428",
"U+	c #483629",
"V+	c #967359",
"W+	c #BE9372",
"X+	c #AA8064",
"Y+	c #7C5042",
"Z+	c #906651",
"`+	c #B88C6D",
" @	c #BA8A6A",
".@	c #B2805F",
"+@	c #B27E5E",
"@@	c #B27F5F",
"#@	c #B98969",
"$@	c #BF9372",
"%@	c #A27C60",
"&@	c #715542",
"*@	c #634C3D",
"=@	c #906551",
"-@	c #B98D6E",
";@	c #BC8E6D",
">@	c #BE9170",
",@	c #B98E6E",
"'@	c #A88264",
")@	c #7D604A",
"!@	c #503D31",
"~@	c #453327",
"{@	c #967358",
"]@	c #B98E6F",
"^@	c #C29674",
"/@	c #BC8F6E",
"(@	c #BB8D6C",
"_@	c #876750",
":@	c #3D2D23",
"<@	c #624C3F",
"[@	c #574337",
"}@	c #523D2F",
"|@	c #99755A",
"1@	c #8F6450",
"2@	c #B88D6D",
"3@	c #C19473",
"4@	c #C09372",
"5@	c #B68565",
"6@	c #B38161",
"7@	c #BB8D6D",
"8@	c #C29574",
"9@	c #BA8F6F",
"0@	c #87674F",
"a@	c #3E2E24",
"b@	c #624D3F",
"c@	c #614B3D",
"d@	c #6F5544",
"e@	c #8C6C53",
"f@	c #AC8467",
"g@	c #AA7F64",
"h@	c #7A4E41",
"i@	c #8A5C49",
"j@	c #B28263",
"k@	c #B17D5D",
"l@	c #BB8C6C",
"m@	c #886850",
"n@	c #3C2D23",
"o@	c #644E40",
"p@	c #443329",
"q@	c #85654E",
"r@	c #B58C6C",
"s@	c #AD8266",
"t@	c #845948",
"u@	c #875844",
"v@	c #A37053",
"w@	c #AD795A",
"x@	c #B07C5C",
"y@	c #AF7A5A",
"z@	c #B38A6B",
"A@	c #84644D",
"B@	c #46352A",
"C@	c #654F41",
"D@	c #B88D6E",
"E@	c #8F674F",
"F@	c #7E5740",
"G@	c #9C7155",
"H@	c #B58565",
"I@	c #AD7656",
"J@	c #B78766",
"K@	c #B98A69",
"L@	c #B88867",
"M@	c #B27F5E",
"N@	c #BC8D6D",
"O@	c #AA8365",
"P@	c #86664F",
"Q@	c #6C5341",
"R@	c #644D40",
"S@	c #705849",
"T@	c #C19573",
"U@	c #967258",
"V@	c #564030",
"W@	c #8C6A51",
"X@	c #B78969",
"Y@	c #B48161",
"Z@	c #AD7757",
"`@	c #BB8C6B",
" #	c #BD906F",
".#	c #BA8C6C",
"+#	c #AD7C5E",
"@#	c #A57457",
"##	c #AB8062",
"$#	c #B08869",
"%#	c #AE8668",
"&#	c #8F6D55",
"*#	c #574234",
"=#	c #5F4A3D",
"-#	c #967459",
";#	c #503B2B",
">#	c #835D45",
",#	c #AF7D5D",
"'#	c #B17C5B",
")#	c #B48261",
"!#	c #AF7D5E",
"~#	c #96654D",
"{#	c #7B4E3E",
"]#	c #71503D",
"^#	c #6D533F",
"/#	c #6C523F",
"(#	c #69503F",
"_#	c #665041",
":#	c #715949",
"<#	c #A47E61",
"[#	c #B78D6D",
"}#	c #A98264",
"|#	c #83634C",
"1#	c #54362A",
"2#	c #774C39",
"3#	c #99664C",
"4#	c #9D694E",
"5#	c #9C684D",
"6#	c #97644B",
"7#	c #7D4B3C",
"8#	c #592A29",
"9#	c #35141A",
"0#	c #0C020A",
"a#	c #0E0906",
"b#	c #4E3C31",
"c#	c #735A4A",
"d#	c #614B3C",
"e#	c #6A513E",
"f#	c #9F7A5E",
"g#	c #BF9373",
"h#	c #745843",
"i#	c #54352B",
"j#	c #592D2A",
"k#	c #673630",
"l#	c #724136",
"m#	c #744237",
"n#	c #734237",
"o#	c #714036",
"p#	c #693631",
"q#	c #59292A",
"r#	c #401D25",
"s#	c #23101B",
"t#	c #130A0D",
"u#	c #594537",
"v#	c #7F614B",
"w#	c #98755A",
"x#	c #84634D",
"y#	c #54362C",
"z#	c #491A1E",
"A#	c #5D2A2B",
"B#	c #602B2C",
"C#	c #5E292B",
"D#	c #5F2A2B",
"E#	c #5A2A2B",
"F#	c #452229",
"G#	c #2B1620",
"H#	c #1A0F11",
"I#	c #72594A",
"J#	c #6F5747",
"K#	c #594437",
"L#	c #443125",
"M#	c #4D2F27",
"N#	c #582B29",
"O#	c #5E2A2B",
"P#	c #602C2C",
"Q#	c #5F2C2C",
"R#	c #5E2B2B",
"S#	c #5D2B2B",
"T#	c #612C2C",
"U#	c #442129",
"V#	c #1A0F10",
"W#	c #735A4B",
"X#	c #4F3D32",
"Y#	c #100906",
"Z#	c #320B11",
"`#	c #4B1E20",
" $	c #5C292A",
".$	c #612D2D",
"+$	c #5B2929",
"@$	c #4A2121",
"#$	c #451F21",
"$$	c #4C2428",
"%$	c #57292B",
"&$	c #622D2C",
"*$	c #2C1412",
"=$	c #4F2323",
"-$	c #5F2B2B",
";$	c #5E2B2C",
">$	c #5B2A2B",
",$	c #5A292A",
"'$	c #522726",
")$	c #3D241F",
"!$	c #30201F",
"~$	c #351C23",
"{$	c #492328",
"]$	c #59292B",
"^$	c #5D2B2C",
"/$	c #56282B",
"($	c #422128",
"_$	c #2D1513",
":$	c #522424",
"<$	c #5F2B2C",
"[$	c #54272B",
"}$	c #472227",
"|$	c #3D1B1E",
"1$	c #442A25",
"2$	c #594438",
"3$	c #513F34",
"4$	c #2F1F1E",
"5$	c #35191F",
"6$	c #452128",
"7$	c #482329",
"8$	c #3A1E28",
"9$	c #1B0F10",
"0$	c #512424",
"a$	c #4B2327",
"b$	c #331C22",
"c$	c #342522",
"d$	c #503D32",
"e$	c #2D211B",
"f$	c #201019",
"g$	c #2F1A26",
"h$	c #321B28",
"i$	c #311B27",
"j$	c #281520",
"k$	c #170C0F",
"l$	c #4D3C31",
"m$	c #441E20",
"n$	c #31211E",
"o$	c #564338",
"p$	c #634D40",
"q$	c #2F231C",
"r$	c #180C18",
"s$	c #261525",
"t$	c #281727",
"u$	c #211220",
"v$	c #180E11",
"w$	c #5C2B2C",
"x$	c #522629",
"y$	c #38181A",
"z$	c #30231C",
"A$	c #362725",
"B$	c #1C101E",
"C$	c #1B0F1E",
"D$	c #291D21",
"E$	c #44342C",
"F$	c #604A3D",
"G$	c #2C1513",
"H$	c #502424",
"I$	c #53272B",
"J$	c #3F1F27",
"K$	c #261219",
"L$	c #2E221B",
"M$	c #554136",
"N$	c #271D1A",
"O$	c #150E10",
"P$	c #191112",
"Q$	c #42322A",
"R$	c #675042",
"S$	c #4D3B31",
"T$	c #220E0F",
"U$	c #421E22",
"V$	c #50262A",
"W$	c #4F252A",
"X$	c #341C26",
"Y$	c #1F0F18",
"Z$	c #604B3E",
"`$	c #2D1F1B",
" %	c #301A21",
".%	c #371C26",
"+%	c #381D27",
"@%	c #371D28",
"#%	c #331B26",
"$%	c #24121A",
"%%	c #2E211D",
"&%	c #5E493C",
"*%	c #745B4C",
"=%	c #6A5344",
"-%	c #574338",
";%	c #382825",
">%	c #25131C",
",%	c #301A24",
"'%	c #341C27",
")%	c #2E1822",
"!%	c #2F1D21",
"~%	c #43312B",
"{%	c #413229",
"]%	c #1A0C12",
"^%	c #2F1923",
"/%	c #351C27",
"(%	c #301923",
"_%	c #1C0D14",
":%	c #3D2F26",
"<%	c #6A5345",
"[%	c #190B11",
"}%	c #351D28",
"|%	c #3A2C24",
"1%	c #413128",
"2%	c #170A12",
"3%	c #2B1723",
"4%	c #311B28",
"5%	c #301A27",
"6%	c #2C1824",
"7%	c #1A0C14",
"8%	c #44342A",
"9%	c #160C13",
"0%	c #231322",
"a%	c #271627",
"b%	c #241423",
"c%	c #140914",
"d%	c #5D483B",
"e%	c #43332C",
"f%	c #25191F",
"g%	c #1A0E1C",
"h%	c #190E1C",
"i%	c #1A0E1D",
"j%	c #22161F",
"k%	c #40302A",
"l%	c #3A2C25",
"m%	c #1D1412",
"n%	c #201714",
"o%	c #1C1312",
"p%	c #352822",
"                                                                                                                                ",
"                                                                                                                                ",
"                                                                                                                                ",
"                                                                                                                                ",
"                                                                                                                                ",
"                                                                                                                                ",
"                                                                                                                                ",
"                                                                                                                                ",
"                                                                                                                                ",
"                                                                                                                                ",
"                                                                                                                                ",
"                                                        . + + + + + + .                                                         ",
"                                                      @ # $ % & & % $ # @                                                       ",
"                                                    * = - ; > , , > ; - = *                                                     ",
"                                                    ' ) ! ~ { ] ] { ~ ! ) '                                                     ",
"                                                ^ / ( _ ] : < < < < : ] _ ( / ^                                                 ",
"                                                [ } | 1 2 < < < < < < 2 1 | } [                                                 ",
"                                            3 ' 4 5 6 7 8 < < < < < < 8 7 6 5 4 9 ^                                             ",
"                                            0 a b c d e < < < < < < < < e d c b f g h                                           ",
"                                            g i j k l m : n o p p o n : m l q j r s t u                                         ",
"                                            v w x y z A B C D E E D C B A z y x F G H I u                                       ",
"                                            v w J K L M N O P Q R S T U M L K V W X Y Z # @                                     ",
"                                            v w `  ...+.@.#.$.%.&.*.=.-.+...;.>.,.'.).!.~.*                                     ",
"                                            v w {.].^./.(._.:.<.[.}.|.1.2.3.4.5.6.7.8.9.0.*                                     ",
"                                            a.w b.c.d.e.f.g.h.i.j.k.l.m.n.o.p.q.6.7.r.s.t.*                                     ",
"                                            u.v.w.x.o.y.z.A.B.C.D.E.F.G.H.I.J.K.,.'.L.M.t.*                                     ",
"                                        @ [ $ N.O.P.Q.R.S.T.U.V.V.W.W.X.Y.Z.`. +.+++@+#+t.*                                     ",
"                                      @ $+%+&+*+=+-+;+>+,+'+)+)+)+)+'+!+~+{+]+^+/+(+_+:+t.*                                     ",
"                                    @ 9 <+[+}+|+1+2+3+4+5+6+7+8+8+7+6+9+0+a+b+c+|+d+e+*+t.*                                     ",
"                                    * f+g+h+i+j+k+l+m+n+o+p+q+r+r+q+p+s+t+u+v+w+x+y+z+A+t.*                                     ",
"                                    * B+C+D+E+F+G+H+I+J+K+o+L+M+M+L+o+N+O+P+Q+Q+R+S+D+T+t.u                                     ",
"                                    * t.U+V+W+Q+X+Y+Z+`+ @.@+@@@@@+@.@#@$@E+E+E+Q+$@%@&@*@/ +                                   ",
"                                    * t.U+V+W+Q+X+Y+=@-@P+;@;@;@;@;@;@>@E+E+E+E+E+E+,@'@)@!@t                                   ",
"                                    u ~.~@{@W+Q+X+Y+=@]@^@Q+Q+Q+Q+Q+Q+Q+E+/@(@>@E+E+^@i+_@:@<@                                  ",
"                                    + [@}@|@W+Q+X+Y+1@2@3@$@$@$@$@$@$@4@>@5@6@7@E+E+8@9@0@a@b@                                  ",
"                                  0 c@d@e@f@S+Q+g@h@i@j@8+q+q+q+q+q+q+q+5@k@k@l@E+E+^@i+m@n@<@                                  ",
"                                  o@p@q@r@$@E+E+s@t@u@v@w@x@p+o+o+y@x@k@x@o+k@l@E+E+j+z@A@B@C@                                  ",
"                                  <@n@m@i+^@E+E+D@k+E@F@G@H@+@I@I@k@J@K@L@M@+@N@R+E+O@P@Q@R@S@                                  ",
"                                  <@a@0@y+8@E+E+T@x+U@V@W@X@Y@Z@Z@N+`@ #.#+#@###$#%#&#*#=#^                                     ",
"                                  <@a@0@y+8@E+E+Q+$@-#;#>#,#'#Z@Z@p+.@)#!#~#{#]#^#/#(#_#:#                                      ",
"                                  ' % [+<#[#3@8@9@}#|#1#2#3#4#5#5#5#5#4#6#7#8#9#0#a#b#c#                                        ",
"                                  ^ a.d#e#f#x+g#}#h#i#j#k#l#m#n#n#n#n#n#o#p#q#r#s#t#b#c#                                        ",
"                                    h t u#v#D+w#x#y#z#A#B#C#C#C#C#D#C#C#C#B#E#F#G#H#b#I#                                        ",
"                                      u J#K#L#L#M#N#O#P#P#P#P#Q#R#S#R#Q#P#T#E#U#G#V#b#I#                                        ",
"                                        W#X#Y#Z#`# $.$P#P#T#.$+$@$#$$$%$Q#&$E#F#G#V#b#I#                                        ",
"                                        I#b#*$=$-$P#P#P#;$>$,$'$)$!$~${$]$^$/$($G#V#b#I#                                        ",
"                                        I#b#_$:$T#P#P#<$[$}$|$1$2$3$4$5$6$7$U#8$G#9$b#I#                                        ",
"                                        I#b#_$0$P#P#T#R#a$b$c$d$g b@e$f$g$h$i$i$j$k$l$I#                                        ",
"                                        I#b#_$0$P#P#T#A#m$n$o$a.^ p$q$r$s$t$t$t$u$v$X#I#                                        ",
"                                        I#b#_$0$T#P#w$x$y$z$p$    [ d$A$B$C$C$C$D$E$F$+                                         ",
"                                        I#b#G$H$Q#;$I$J$K$L$b@    . 0 M$N$O$P$P$Q$R$+ h                                         ",
"                                        I#S$T$U$V$W$F#X$Y$L$p$        9 [@% & & Z$W#                                            ",
"                                        c#& `$ %.%+%@%#%$%%%&%W#@     u *%+ + + ^ h                                             ",
"                                        * =%-%;%>%,%'%#%)%!%~%~.S@                                                              ",
"                                            u.{%]%^%/%'%'%(%_%:%<%                                                              ",
"                                            a.w [%^%/%'%}%,%_%|%=%                                                              ",
"                                            v 1%2%3%4%5%4%6%7%|%=%                                                              ",
"                                            v 8%9%0%a%a%a%b%c%:%<%                                                              ",
"                                            I#d%e%f%g%h%i%j%k%~.S@                                                              ",
"                                            @ + p$l%m%n%o%p%=#W#@                                                               ",
"                                                $+F$B+t.B+&%0                                                                   ",
"                                                h . * * * . @                                                                   ",
"                                                                                                                                ",
"                                                                                                                                "};
