/* XPM */
static char * collectible_xpm[] = {
"128 128 10640 3",
"   	c #221A23",
".  	c #565057",
"+  	c #524F54",
"@  	c #504D52",
"#  	c #514E54",
"$  	c #58575C",
"%  	c #5A535C",
"&  	c #59515B",
"*  	c #58505A",
"=  	c #544D56",
"-  	c #524B54",
";  	c #504A53",
">  	c #4F4951",
",  	c #4C464F",
"'  	c #4A454E",
")  	c #4A4550",
"!  	c #4A454F",
"~  	c #352F3B",
"{  	c #28222F",
"]  	c #27212E",
"^  	c #251E2E",
"/  	c #48444C",
"(  	c #BFBCB9",
"_  	c #BBBBB2",
":  	c #BDBCB2",
"<  	c #BDBDB3",
"[  	c #BEBEB4",
"}  	c #94938F",
"|  	c #5D5C64",
"1  	c #5D5E64",
"2  	c #5E5F66",
"3  	c #54565E",
"4  	c #221C28",
"5  	c #201A27",
"6  	c #201A28",
"7  	c #1F1B25",
"8  	c #7B7C7A",
"9  	c #9C9E96",
"0  	c #97988F",
"a  	c #95978C",
"b  	c #989A8F",
"c  	c #9C9E93",
"d  	c #9D9F92",
"e  	c #A0A295",
"f  	c #A4A499",
"g  	c #A9A89E",
"h  	c #ADAEA3",
"i  	c #AFB4A8",
"j  	c #B2B6AA",
"k  	c #B6B9AE",
"l  	c #B8BBB0",
"m  	c #BBBDB2",
"n  	c #BDBFB4",
"o  	c #BEC0B6",
"p  	c #BFC1B6",
"q  	c #C0C1B7",
"r  	c #C0C2B7",
"s  	c #BEC2B7",
"t  	c #BEC1B8",
"u  	c #BEC2B8",
"v  	c #BFC2B8",
"w  	c #BEBFB6",
"x  	c #BCBDB3",
"y  	c #BABCB2",
"z  	c #BABDB2",
"A  	c #BABEB3",
"B  	c #BDC2B7",
"C  	c #BDC4B8",
"D  	c #BEC5B9",
"E  	c #ACB0A9",
"F  	c #353039",
"G  	c #38313D",
"H  	c #37303C",
"I  	c #37313B",
"J  	c #28222B",
"K  	c #231D25",
"L  	c #211B24",
"M  	c #8E8F8F",
"N  	c #DDE1DA",
"O  	c #DBE1D2",
"P  	c #DADFD2",
"Q  	c #D9DED1",
"R  	c #D8DCCF",
"S  	c #D7DACD",
"T  	c #D6D9CB",
"U  	c #D5D8CB",
"V  	c #D4D7CA",
"W  	c #D4D6CA",
"X  	c #D4D5C9",
"Y  	c #D5D5C9",
"Z  	c #D5D5CB",
"`  	c #D5D6CD",
" . 	c #D5D7CE",
".. 	c #D7D7CF",
"+. 	c #D6D6CE",
"@. 	c #D2D3CA",
"#. 	c #D1D2C9",
"$. 	c #D0D0C7",
"%. 	c #CCCDC4",
"&. 	c #CACAC1",
"*. 	c #C5C8BD",
"=. 	c #C4C7BB",
"-. 	c #C3C6BB",
";. 	c #C1C4BA",
">. 	c #C0C3BA",
",. 	c #C1C3BA",
"'. 	c #C2C3BA",
"). 	c #BFC2B9",
"!. 	c #919392",
"~. 	c #62616A",
"{. 	c #6C6B70",
"]. 	c #727273",
"^. 	c #68656B",
"/. 	c #292531",
"(. 	c #2B2634",
"_. 	c #231B24",
":. 	c #554F56",
"<. 	c #534E54",
"[. 	c #524D54",
"}. 	c #534C53",
"|. 	c #574F59",
"1. 	c #564E58",
"2. 	c #514A55",
"3. 	c #504954",
"4. 	c #4E4651",
"5. 	c #4C4650",
"6. 	c #4B444F",
"7. 	c #49444E",
"8. 	c #49434E",
"9. 	c #47414E",
"0. 	c #453F4C",
"a. 	c #37303E",
"b. 	c #2A2031",
"c. 	c #292030",
"d. 	c #281F2F",
"e. 	c #48434B",
"f. 	c #BDBAB4",
"g. 	c #BBBAAF",
"h. 	c #BCBBB0",
"i. 	c #BDBBB1",
"j. 	c #BFBCB1",
"k. 	c #BFBDB2",
"l. 	c #BEBEB2",
"m. 	c #9A9892",
"n. 	c #5F5C65",
"o. 	c #615D68",
"p. 	c #625F6B",
"q. 	c #5C5965",
"r. 	c #221D2A",
"s. 	c #211B28",
"t. 	c #201B26",
"u. 	c #817D7D",
"v. 	c #A29F95",
"w. 	c #A19F94",
"x. 	c #9F9E94",
"y. 	c #9E9E94",
"z. 	c #9F9E95",
"A. 	c #A09F94",
"B. 	c #A2A296",
"C. 	c #A5A59A",
"D. 	c #AAA99E",
"E. 	c #AEAEA3",
"F. 	c #B0B3A7",
"G. 	c #B2B4A8",
"H. 	c #B6B8AC",
"I. 	c #B8BAAE",
"J. 	c #BBBCB0",
"K. 	c #BDBFB3",
"L. 	c #BFC0B5",
"M. 	c #C0C1B6",
"N. 	c #C1C2B6",
"O. 	c #C1C3B7",
"P. 	c #C0C2B6",
"Q. 	c #C0C2B5",
"R. 	c #BFC1B5",
"S. 	c #BDBFB5",
"T. 	c #BCBEB5",
"U. 	c #BCC0B6",
"V. 	c #BFC3B8",
"W. 	c #C0C5BA",
"X. 	c #C1C6BB",
"Y. 	c #AEAFAC",
"Z. 	c #36313A",
"`. 	c #3A323E",
" + 	c #39313D",
".+ 	c #38303B",
"++ 	c #28222C",
"@+ 	c #231C27",
"#+ 	c #8C8B8C",
"$+ 	c #DFE1D7",
"%+ 	c #DEE1D0",
"&+ 	c #DDDFD1",
"*+ 	c #DCDED0",
"=+ 	c #DADCCE",
"-+ 	c #D8DBCC",
";+ 	c #D7DACB",
">+ 	c #D8D9CB",
",+ 	c #D8D8CA",
"'+ 	c #D7D7CA",
")+ 	c #D6D6CA",
"!+ 	c #D6D6CB",
"~+ 	c #D5D7C9",
"{+ 	c #D5D6CA",
"]+ 	c #D6D5CA",
"^+ 	c #D5D5CA",
"/+ 	c #D3D5C9",
"(+ 	c #D2D4C7",
"_+ 	c #D0D1C6",
":+ 	c #CFD0C4",
"<+ 	c #CDCEC2",
"[+ 	c #CBCDC1",
"}+ 	c #C9CBBF",
"|+ 	c #C7C8BE",
"1+ 	c #C5C7BD",
"2+ 	c #C4C5BC",
"3+ 	c #C2C4BA",
"4+ 	c #C3C4BA",
"5+ 	c #C4C5BB",
"6+ 	c #8F908E",
"7+ 	c #64636A",
"8+ 	c #6B686D",
"9+ 	c #6B696C",
"0+ 	c #636167",
"a+ 	c #2B2431",
"b+ 	c #2B2633",
"c+ 	c #241C26",
"d+ 	c #555056",
"e+ 	c #564E57",
"f+ 	c #5B525B",
"g+ 	c #5C545C",
"h+ 	c #5B535C",
"i+ 	c #585158",
"j+ 	c #544E55",
"k+ 	c #4E464F",
"l+ 	c #4D454E",
"m+ 	c #4C444E",
"n+ 	c #4A444F",
"o+ 	c #47404E",
"p+ 	c #443D4B",
"q+ 	c #3A3341",
"r+ 	c #2C2233",
"s+ 	c #4A454D",
"t+ 	c #BBB7B1",
"u+ 	c #BBB9AF",
"v+ 	c #BEBCAF",
"w+ 	c #C0BDB1",
"x+ 	c #C0BFB2",
"y+ 	c #C1C0B3",
"z+ 	c #C0C0B3",
"A+ 	c #9E9B96",
"B+ 	c #615D66",
"C+ 	c #625E69",
"D+ 	c #66626D",
"E+ 	c #221E2A",
"F+ 	c #231C2A",
"G+ 	c #888384",
"H+ 	c #A4A198",
"I+ 	c #A4A097",
"J+ 	c #A19F96",
"K+ 	c #A09F96",
"L+ 	c #A1A095",
"M+ 	c #A2A297",
"N+ 	c #A6A59B",
"O+ 	c #AAA99F",
"P+ 	c #AEAEA4",
"Q+ 	c #B0B2A8",
"R+ 	c #B3B5AA",
"S+ 	c #B5B6AC",
"T+ 	c #B8BAAF",
"U+ 	c #BFC0B6",
"V+ 	c #C2C4B8",
"W+ 	c #C2C4B9",
"X+ 	c #C1C3B8",
"Y+ 	c #C0C2B8",
"Z+ 	c #BFC1B7",
"`+ 	c #BFC0B7",
" @ 	c #BDBEB5",
".@ 	c #BCBFB5",
"+@ 	c #C1C5BA",
"@@ 	c #C1C5BB",
"#@ 	c #A9AAA7",
"$@ 	c #39343D",
"%@ 	c #3D3440",
"&@ 	c #3B323E",
"*@ 	c #38303C",
"=@ 	c #29222D",
"-@ 	c #231C28",
";@ 	c #231D26",
">@ 	c #888588",
",@ 	c #DFE0D8",
"'@ 	c #DEE1D2",
")@ 	c #E0E0D3",
"!@ 	c #DFDED2",
"~@ 	c #DCDDD0",
"{@ 	c #D9DBCD",
"]@ 	c #DADACC",
"^@ 	c #D9D9CB",
"/@ 	c #D8D8CB",
"(@ 	c #D8D7CC",
"_@ 	c #D7D6CB",
":@ 	c #D3D4CA",
"<@ 	c #D1D3C8",
"[@ 	c #CFD1C6",
"}@ 	c #CED0C5",
"|@ 	c #CDCEC4",
"1@ 	c #C8C9C0",
"2@ 	c #C6C7BE",
"3@ 	c #C5C6BD",
"4@ 	c #C4C6BC",
"5@ 	c #C6C7BF",
"6@ 	c #C4C4BD",
"7@ 	c #8B8B8A",
"8@ 	c #67656C",
"9@ 	c #666469",
"0@ 	c #5D5B62",
"a@ 	c #2D2633",
"b@ 	c #2A242B",
"c@ 	c #605C5F",
"d@ 	c #615D60",
"e@ 	c #625E60",
"f@ 	c #625F61",
"g@ 	c #625D60",
"h@ 	c #605B5E",
"i@ 	c #5E585B",
"j@ 	c #5B5658",
"k@ 	c #595457",
"l@ 	c #575255",
"m@ 	c #575053",
"n@ 	c #554E53",
"o@ 	c #5E5D60",
"p@ 	c #676768",
"q@ 	c #656467",
"r@ 	c #636265",
"s@ 	c #5E5C5F",
"t@ 	c #585458",
"u@ 	c #5A585A",
"v@ 	c #5C595C",
"w@ 	c #646163",
"x@ 	c #B4B3AC",
"y@ 	c #B4B3AA",
"z@ 	c #B3B3A8",
"A@ 	c #B4B3A8",
"B@ 	c #B3B0A6",
"C@ 	c #B2AFA6",
"D@ 	c #B1AFA8",
"E@ 	c #B3B1AA",
"F@ 	c #989492",
"G@ 	c #7E7B7F",
"H@ 	c #7F7D80",
"I@ 	c #7E7C7E",
"J@ 	c #79777A",
"K@ 	c #615E62",
"L@ 	c #565358",
"M@ 	c #4C494D",
"N@ 	c #484549",
"O@ 	c #898686",
"P@ 	c #98968E",
"Q@ 	c #95938B",
"R@ 	c #94928A",
"S@ 	c #96948C",
"T@ 	c #99978E",
"U@ 	c #9A998F",
"V@ 	c #9B9B90",
"W@ 	c #9C9C92",
"X@ 	c #9B9B92",
"Y@ 	c #9D9D94",
"Z@ 	c #A0A198",
"`@ 	c #A3A59B",
" # 	c #A5A69D",
".# 	c #A8A9A0",
"+# 	c #ABACA3",
"@# 	c #AEAEA5",
"## 	c #AFB0A6",
"$# 	c #AFB0A5",
"%# 	c #B1B2A7",
"&# 	c #B2B2A9",
"*# 	c #B2B3AA",
"=# 	c #B0B1A8",
"-# 	c #AFB0A7",
";# 	c #AEAFA5",
"># 	c #AEAFA6",
",# 	c #ACAEA5",
"'# 	c #ACADA4",
")# 	c #ADB0A7",
"!# 	c #AEB1A8",
"~# 	c #9B9C98",
"{# 	c #6B6868",
"]# 	c #676566",
"^# 	c #636262",
"/# 	c #5F5E5E",
"(# 	c #3F3C41",
"_# 	c #2B252E",
":# 	c #29222B",
"<# 	c #7B797A",
"[# 	c #D1D1CB",
"}# 	c #CFD1C5",
"|# 	c #D0D0C5",
"1# 	c #CFCEC3",
"2# 	c #C8C8BC",
"3# 	c #C5C6B9",
"4# 	c #C5C6BA",
"5# 	c #C6C5BA",
"6# 	c #C5C5BA",
"7# 	c #C5C5BB",
"8# 	c #C5C5BC",
"9# 	c #C6C6BD",
"0# 	c #C8CABF",
"a# 	c #C9CBC0",
"b# 	c #CBCBC2",
"c# 	c #C9C9C1",
"d# 	c #C1C2B9",
"e# 	c #C0C1B8",
"f# 	c #BEBFB7",
"g# 	c #BEBFB8",
"h# 	c #BEBEB6",
"i# 	c #BDBDB5",
"j# 	c #BCBDB4",
"k# 	c #BCBCB4",
"l# 	c #BCBCB5",
"m# 	c #B9B9B3",
"n# 	c #B5B4AE",
"o# 	c #8E8F8C",
"p# 	c #888A89",
"q# 	c #8D8E8D",
"r# 	c #929490",
"s# 	c #8E908E",
"t# 	c #38343D",
"u# 	c #2C2634",
"v# 	c #443F45",
"w# 	c #747171",
"x# 	c #737371",
"y# 	c #747472",
"z# 	c #726F6E",
"A# 	c #666364",
"B# 	c #635F60",
"C# 	c #645F60",
"D# 	c #64605F",
"E# 	c #656161",
"F# 	c #665F60",
"G# 	c #676060",
"H# 	c #666062",
"I# 	c #909492",
"J# 	c #AFB4AD",
"K# 	c #B0B3AD",
"L# 	c #AFB2AC",
"M# 	c #A9ACA6",
"N# 	c #9A9A96",
"O# 	c #94948F",
"P# 	c #8E8F8A",
"Q# 	c #8C8C88",
"R# 	c #868684",
"S# 	c #7F7F7D",
"T# 	c #777776",
"U# 	c #646368",
"V# 	c #4E4850",
"W# 	c #49424B",
"X# 	c #47414A",
"Y# 	c #453F48",
"Z# 	c #757374",
"`# 	c #949291",
" $ 	c #91918E",
".$ 	c #90908D",
"+$ 	c #8C8D88",
"@$ 	c #898785",
"#$ 	c #868482",
"$$ 	c #848280",
"%$ 	c #82807E",
"&$ 	c #8B8986",
"*$ 	c #8C8B85",
"=$ 	c #8D8C84",
"-$ 	c #8E8C84",
";$ 	c #928F87",
">$ 	c #95928A",
",$ 	c #94938B",
"'$ 	c #94938A",
")$ 	c #939289",
"!$ 	c #8A8981",
"~$ 	c #85847C",
"{$ 	c #83827A",
"]$ 	c #828178",
"^$ 	c #828179",
"/$ 	c #84837B",
"($ 	c #85847E",
"_$ 	c #86847E",
":$ 	c #86847F",
"<$ 	c #86847D",
"[$ 	c #86857D",
"}$ 	c #87867E",
"|$ 	c #88877E",
"1$ 	c #898880",
"2$ 	c #8D8D84",
"3$ 	c #909087",
"4$ 	c #929189",
"5$ 	c #8E8F88",
"6$ 	c #888982",
"7$ 	c #85867F",
"8$ 	c #868780",
"9$ 	c #878981",
"0$ 	c #94968F",
"a$ 	c #9E9F98",
"b$ 	c #9FA29A",
"c$ 	c #9FA39A",
"d$ 	c #A2A49E",
"e$ 	c #656364",
"f$ 	c #322A32",
"g$ 	c #322A33",
"h$ 	c #312933",
"i$ 	c #504B4E",
"j$ 	c #8F8D88",
"k$ 	c #908F86",
"l$ 	c #919086",
"m$ 	c #8E8E83",
"n$ 	c #89887F",
"o$ 	c #8A8980",
"p$ 	c #8A8982",
"q$ 	c #8A8984",
"r$ 	c #8A8985",
"s$ 	c #898A85",
"t$ 	c #888984",
"u$ 	c #898987",
"v$ 	c #898A87",
"w$ 	c #898881",
"x$ 	c #8A8880",
"y$ 	c #8A8881",
"z$ 	c #898882",
"A$ 	c #898986",
"B$ 	c #8F8F89",
"C$ 	c #93928B",
"D$ 	c #95948E",
"E$ 	c #96958F",
"F$ 	c #97958F",
"G$ 	c #96948E",
"H$ 	c #93928C",
"I$ 	c #84827C",
"J$ 	c #7F7E78",
"K$ 	c #7D7B76",
"L$ 	c #7B7973",
"M$ 	c #A7A8A3",
"N$ 	c #BBC0BA",
"O$ 	c #BFC5BC",
"P$ 	c #BFC5B9",
"Q$ 	c #BEC1BA",
"R$ 	c #48464B",
"S$ 	c #2F2733",
"T$ 	c #4F4B51",
"U$ 	c #737171",
"V$ 	c #727270",
"W$ 	c #737270",
"X$ 	c #757371",
"Y$ 	c #6D6B69",
"Z$ 	c #636161",
"`$ 	c #646061",
" % 	c #656160",
".% 	c #666262",
"+% 	c #686161",
"@% 	c #696262",
"#% 	c #686263",
"$% 	c #949795",
"%% 	c #B9BDB7",
"&% 	c #B8BBB5",
"*% 	c #B3B6B1",
"=% 	c #B0B2AD",
"-% 	c #989994",
";% 	c #90918C",
">% 	c #8B8B88",
",% 	c #848483",
"'% 	c #7E7F7E",
")% 	c #79797A",
"!% 	c #69686E",
"~% 	c #514B53",
"{% 	c #4C454D",
"]% 	c #4A454C",
"^% 	c #48434A",
"/% 	c #797777",
"(% 	c #959490",
"_% 	c #939390",
":% 	c #91928E",
"<% 	c #8D8E89",
"[% 	c #8A8883",
"}% 	c #878580",
"|% 	c #83827C",
"1% 	c #82807B",
"2% 	c #8B8A83",
"3% 	c #8D8A83",
"4% 	c #918E87",
"5% 	c #949088",
"6% 	c #929188",
"7% 	c #878680",
"8% 	c #86857F",
"9% 	c #888680",
"0% 	c #898781",
"a% 	c #8A8882",
"b% 	c #8B8983",
"c% 	c #8C8B84",
"d% 	c #8D8C86",
"e% 	c #919087",
"f% 	c #898A83",
"g% 	c #898B83",
"h% 	c #8B8C85",
"i% 	c #979891",
"j% 	c #9E9F97",
"k% 	c #9DA198",
"l% 	c #9EA199",
"m% 	c #A2A49D",
"n% 	c #605F5F",
"o% 	c #595557",
"p% 	c #95938F",
"q% 	c #95948C",
"r% 	c #96968D",
"s% 	c #908F88",
"t% 	c #8E8D87",
"u% 	c #8D8C87",
"v% 	c #8D8C88",
"w% 	c #8D8D89",
"x% 	c #8A8A84",
"y% 	c #8A8A85",
"z% 	c #8B8B87",
"A% 	c #91918C",
"B% 	c #989790",
"C% 	c #999891",
"D% 	c #96968F",
"E% 	c #868580",
"F% 	c #817F7B",
"G% 	c #807F7B",
"H% 	c #7F7C78",
"I% 	c #A8A9A4",
"J% 	c #BCC2BB",
"K% 	c #BDC3BB",
"L% 	c #BDC3B8",
"M% 	c #BCBEB8",
"N% 	c #4B474D",
"O% 	c #302734",
"P% 	c #524C51",
"Q% 	c #726F70",
"R% 	c #716E6F",
"S% 	c #6B6668",
"T% 	c #656061",
"U% 	c #656062",
"V% 	c #666163",
"W% 	c #696263",
"X% 	c #696261",
"Y% 	c #9C9E9B",
"Z% 	c #BEC3BE",
"`% 	c #BFC0BD",
" & 	c #BCBDBA",
".& 	c #B6B7B3",
"+& 	c #989894",
"@& 	c #8A8A87",
"#& 	c #888885",
"$& 	c #858583",
"%& 	c #7A7A78",
"&& 	c #747278",
"*& 	c #575159",
"=& 	c #504851",
"-& 	c #4E464E",
";& 	c #4A424A",
">& 	c #797675",
",& 	c #93938F",
"'& 	c #92928D",
")& 	c #92908C",
"!& 	c #8E8D89",
"~& 	c #898783",
"{& 	c #85837F",
"]& 	c #83817D",
"^& 	c #82807C",
"/& 	c #888783",
"(& 	c #878682",
"_& 	c #898782",
":& 	c #8F8E87",
"<& 	c #929089",
"[& 	c #87857F",
"}& 	c #87847F",
"|& 	c #878581",
"1& 	c #888681",
"2& 	c #8B8882",
"3& 	c #8B8A82",
"4& 	c #8A8884",
"5& 	c #95958C",
"6& 	c #8B8A84",
"7& 	c #8D8D86",
"8& 	c #969790",
"9& 	c #9C9D96",
"0& 	c #9C9F99",
"a& 	c #9DA09A",
"b& 	c #A1A39E",
"c& 	c #5A5959",
"d& 	c #322B33",
"e& 	c #322C35",
"f& 	c #312B34",
"g& 	c #605D5F",
"h& 	c #989793",
"i& 	c #97968E",
"j& 	c #97968F",
"k& 	c #92908B",
"l& 	c #908E8A",
"m& 	c #8F8E89",
"n& 	c #908F8A",
"o& 	c #8F908A",
"p& 	c #8E8F89",
"q& 	c #8F8E8A",
"r& 	c #8C8B87",
"s& 	c #8E8D88",
"t& 	c #92918C",
"u& 	c #999792",
"v& 	c #9A9993",
"w& 	c #989993",
"x& 	c #979792",
"y& 	c #8B8A86",
"z& 	c #84827E",
"A& 	c #827E7B",
"B& 	c #A7A9A4",
"C& 	c #BDC3BA",
"D& 	c #BDC3B9",
"E& 	c #BBBEB8",
"F& 	c #484249",
"G& 	c #302A35",
"H& 	c #464146",
"I& 	c #686467",
"J& 	c #686566",
"K& 	c #696667",
"L& 	c #6B6768",
"M& 	c #696465",
"N& 	c #676363",
"O& 	c #676362",
"P& 	c #676361",
"Q& 	c #686462",
"R& 	c #706C69",
"S& 	c #746F6B",
"T& 	c #756F6B",
"U& 	c #736D6B",
"V& 	c #9D9E9A",
"W& 	c #B4B8B5",
"X& 	c #B5B5B3",
"Y& 	c #AFB0AD",
"Z& 	c #A8A9A6",
"`& 	c #8B8C89",
" * 	c #868784",
".* 	c #858683",
"+* 	c #848381",
"@* 	c #7D7B7A",
"#* 	c #797978",
"$* 	c #747375",
"%* 	c #544F53",
"&* 	c #4F474C",
"** 	c #4E474B",
"=* 	c #4D454A",
"-* 	c #757271",
";* 	c #8E8E89",
">* 	c #8D8E88",
",* 	c #868581",
"'* 	c #8D8D82",
")* 	c #8E8D84",
"!* 	c #908D86",
"~* 	c #89837E",
"{* 	c #86817C",
"]* 	c #88847F",
"^* 	c #88857F",
"/* 	c #898580",
"(* 	c #8A8781",
"_* 	c #888682",
":* 	c #919088",
"<* 	c #93928A",
"[* 	c #91908A",
"}* 	c #8C8C85",
"|* 	c #91938B",
"1* 	c #9A9B93",
"2* 	c #9A9D97",
"3* 	c #9A9E98",
"4* 	c #9A9D98",
"5* 	c #4D4A4D",
"6* 	c #332C35",
"7* 	c #332D36",
"8* 	c #666465",
"9* 	c #9C9A96",
"0* 	c #9B9A91",
"a* 	c #9A9992",
"b* 	c #979690",
"c* 	c #92918B",
"d* 	c #908F8B",
"e* 	c #908E88",
"f* 	c #91908B",
"g* 	c #908C89",
"h* 	c #8F8C89",
"i* 	c #94928E",
"j* 	c #969490",
"k* 	c #989690",
"l* 	c #979590",
"m* 	c #8C8985",
"n* 	c #888481",
"o* 	c #85817E",
"p* 	c #A6A7A3",
"q* 	c #BBC1BA",
"r* 	c #BBC1B8",
"s* 	c #B5B7B1",
"t* 	c #403941",
"u* 	c #302933",
"v* 	c #272227",
"w* 	c #5E595D",
"x* 	c #635E61",
"y* 	c #605C5C",
"z* 	c #706C6A",
"A* 	c #787471",
"B* 	c #787472",
"C* 	c #787571",
"D* 	c #82807A",
"E* 	c #B6B5AB",
"F* 	c #BCB9AF",
"G* 	c #BDBAB0",
"H* 	c #BFBCB3",
"I* 	c #9E9D99",
"J* 	c #797A78",
"K* 	c #7A7878",
"L* 	c #777675",
"M* 	c #737271",
"N* 	c #727370",
"O* 	c #777775",
"P* 	c #787776",
"Q* 	c #797877",
"R* 	c #605F60",
"S* 	c #434042",
"T* 	c #434144",
"U* 	c #565457",
"V* 	c #8D8B89",
"W* 	c #8E8B8A",
"X* 	c #908D8C",
"Y* 	c #8E8C8A",
"Z* 	c #8A8987",
"`* 	c #898A84",
" = 	c #898884",
".= 	c #858480",
"+= 	c #83807C",
"@= 	c #817E7B",
"#= 	c #807E7A",
"$= 	c #81807C",
"%= 	c #7F7E7A",
"&= 	c #7F7D78",
"*= 	c #8F8E85",
"== 	c #8D8C83",
"-= 	c #8E8B84",
";= 	c #807A74",
">= 	c #827D77",
",= 	c #88837D",
"'= 	c #8A857E",
")= 	c #89847D",
"!= 	c #89857D",
"~= 	c #88857E",
"{= 	c #89857F",
"]= 	c #86837D",
"^= 	c #86837E",
"/= 	c #86837F",
"(= 	c #868480",
"_= 	c #85847F",
":= 	c #85837D",
"<= 	c #85837C",
"[= 	c #888780",
"}= 	c #8B8C83",
"|= 	c #8B8C84",
"1= 	c #8B8B84",
"2= 	c #868883",
"3= 	c #433E43",
"4= 	c #382F39",
"5= 	c #392F39",
"6= 	c #373039",
"7= 	c #6D6A6B",
"8= 	c #A09F99",
"9= 	c #9F9D95",
"0= 	c #9B9A92",
"a= 	c #94928C",
"b= 	c #92908A",
"c= 	c #918F89",
"d= 	c #909189",
"e= 	c #90918A",
"f= 	c #91928C",
"g= 	c #92928E",
"h= 	c #91918D",
"i= 	c #7F7C79",
"j= 	c #807C79",
"k= 	c #86827F",
"l= 	c #8B8784",
"m= 	c #8C8B86",
"n= 	c #8C8983",
"o= 	c #8B8982",
"p= 	c #8B8984",
"q= 	c #6D6A6A",
"r= 	c #4F4D4E",
"s= 	c #514E50",
"t= 	c #4D4A4C",
"u= 	c #2B232C",
"v= 	c #2A222C",
"w= 	c #262127",
"x= 	c #5D575C",
"y= 	c #635D61",
"z= 	c #635D60",
"A= 	c #605B5B",
"B= 	c #726E6A",
"C= 	c #7B7774",
"D= 	c #7C7875",
"E= 	c #7C7874",
"F= 	c #85847B",
"G= 	c #B9B8AC",
"H= 	c #BDBDAF",
"I= 	c #BDBDB0",
"J= 	c #BEBEB1",
"K= 	c #9F9F9A",
"L= 	c #7C7B7A",
"M= 	c #7C797A",
"N= 	c #797778",
"O= 	c #767775",
"P= 	c #767675",
"Q= 	c #777574",
"R= 	c #747271",
"S= 	c #555255",
"T= 	c #37323E",
"U= 	c #444248",
"V= 	c #8F8F8B",
"W= 	c #8F908B",
"X= 	c #8A8B85",
"Y= 	c #888884",
"Z= 	c #8C8883",
"`= 	c #8E8B83",
" - 	c #807972",
".- 	c #847F77",
"+- 	c #8A847D",
"@- 	c #8A857D",
"#- 	c #88857D",
"$- 	c #88847E",
"%- 	c #87837E",
"&- 	c #87837D",
"*- 	c #85827D",
"=- 	c #84817B",
"-- 	c #8C8C86",
";- 	c #8C8A84",
">- 	c #878883",
",- 	c #868683",
"'- 	c #433D43",
")- 	c #3A2F3A",
"!- 	c #3C303B",
"~- 	c #39323B",
"{- 	c #737170",
"]- 	c #A5A49D",
"^- 	c #A3A398",
"/- 	c #A1A097",
"(- 	c #96958E",
"_- 	c #92918A",
":- 	c #919089",
"<- 	c #90928A",
"[- 	c #91928A",
"}- 	c #91948B",
"|- 	c #91958D",
"1- 	c #92958F",
"2- 	c #676462",
"3- 	c #6D6866",
"4- 	c #807B78",
"5- 	c #8D8A85",
"6- 	c #8F8D87",
"7- 	c #8E8B86",
"8- 	c #8F8B86",
"9- 	c #696467",
"0- 	c #40353F",
"a- 	c #3F353F",
"b- 	c #3E343E",
"c- 	c #3C333D",
"d- 	c #2A212B",
"e- 	c #29202A",
"f- 	c #262028",
"g- 	c #5C575C",
"h- 	c #625D5E",
"i- 	c #736F6C",
"j- 	c #7B7773",
"k- 	c #7C7974",
"l- 	c #BBB9B0",
"m- 	c #BCBCAF",
"n- 	c #7E7C7D",
"o- 	c #7D7B7B",
"p- 	c #7C7A7A",
"q- 	c #797879",
"r- 	c #767573",
"s- 	c #555257",
"t- 	c #3A3344",
"u- 	c #383142",
"v- 	c #3E3B44",
"w- 	c #8E8E8C",
"x- 	c #8F8F8A",
"y- 	c #8A8B87",
"z- 	c #848480",
"A- 	c #807D7A",
"B- 	c #7E7D79",
"C- 	c #7E7B77",
"D- 	c #8D8984",
"E- 	c #95948B",
"F- 	c #8B8981",
"G- 	c #7F7972",
"H- 	c #86817A",
"I- 	c #89837D",
"J- 	c #8B857E",
"K- 	c #8B867E",
"L- 	c #8A877F",
"M- 	c #89867F",
"N- 	c #888580",
"O- 	c #898681",
"P- 	c #8C8D85",
"Q- 	c #433D44",
"R- 	c #3B303D",
"S- 	c #3D313C",
"T- 	c #3B323B",
"U- 	c #787473",
"V- 	c #A7A59E",
"W- 	c #A5A49A",
"X- 	c #A3A299",
"Y- 	c #98978F",
"Z- 	c #92938B",
"`- 	c #93948C",
" ; 	c #959992",
".; 	c #969993",
"+; 	c #959591",
"@; 	c #676261",
"#; 	c #807B79",
"$; 	c #837F7C",
"%; 	c #8E8C86",
"&; 	c #8E8C87",
"*; 	c #666064",
"=; 	c #413741",
"-; 	c #403640",
";; 	c #3C343D",
">; 	c #2A222B",
",; 	c #29212A",
"'; 	c #252026",
"); 	c #5B5659",
"!; 	c #625D5F",
"~; 	c #625C5F",
"{; 	c #726E6C",
"]; 	c #78746F",
"^; 	c #797570",
"/; 	c #7A7671",
"(; 	c #BDBAB2",
"_; 	c #BDBCB1",
":; 	c #BCBBAE",
"<; 	c #BBBBAE",
"[; 	c #A1A098",
"}; 	c #7F7D7E",
"|; 	c #7D7B7D",
"1; 	c #7B7A7C",
"2; 	c #7A7979",
"3; 	c #777676",
"4; 	c #747373",
"5; 	c #57545A",
"6; 	c #3A3444",
"7; 	c #383041",
"8; 	c #3B3741",
"9; 	c #8A888A",
"0; 	c #8E8E8A",
"a; 	c #888883",
"b; 	c #7F7D7C",
"c; 	c #807B7B",
"d; 	c #7F7D7A",
"e; 	c #7C7A76",
"f; 	c #94948B",
"g; 	c #98978E",
"h; 	c #9C9890",
"i; 	c #8E8A84",
"j; 	c #817B76",
"k; 	c #87817D",
"l; 	c #88827E",
"m; 	c #8A847E",
"n; 	c #8C8680",
"o; 	c #8B8985",
"p; 	c #8C8A86",
"q; 	c #8B8B86",
"r; 	c #8A8B86",
"s; 	c #8D8D87",
"t; 	c #868681",
"u; 	c #868782",
"v; 	c #453F47",
"w; 	c #3B313F",
"x; 	c #3C333B",
"y; 	c #3C343C",
"z; 	c #7D7A78",
"A; 	c #A9A59E",
"B; 	c #A7A49C",
"C; 	c #A4A49B",
"D; 	c #999890",
"E; 	c #94938D",
"F; 	c #94938C",
"G; 	c #93948D",
"H; 	c #969892",
"I; 	c #989B96",
"J; 	c #999C97",
"K; 	c #979996",
"L; 	c #6C6867",
"M; 	c #787370",
"N; 	c #817D79",
"O; 	c #8A8782",
"P; 	c #91918A",
"Q; 	c #8A8B83",
"R; 	c #8B8C86",
"S; 	c #8E8B87",
"T; 	c #8E8C88",
"U; 	c #8F8D89",
"V; 	c #605B5C",
"W; 	c #403743",
"X; 	c #413742",
"Y; 	c #3F3740",
"Z; 	c #3C353D",
"`; 	c #29242A",
" > 	c #29232A",
".> 	c #322E33",
"+> 	c #777371",
"@> 	c #6F6B6B",
"#> 	c #6D686A",
"$> 	c #75716C",
"%> 	c #7E7A76",
"&> 	c #98948F",
"*> 	c #9A9690",
"=> 	c #97958E",
"-> 	c #A2A09B",
";> 	c #A7A6A2",
">> 	c #A6A6A1",
",> 	c #A5A5A0",
"'> 	c #A29F9B",
")> 	c #767170",
"!> 	c #676265",
"~> 	c #686365",
"{> 	c #666164",
"]> 	c #716B6E",
"^> 	c #525050",
"/> 	c #868483",
"(> 	c #807C7A",
"_> 	c #7E7C78",
":> 	c #7F7D79",
"<> 	c #7D7C78",
"[> 	c #7A7874",
"}> 	c #888781",
"|> 	c #949289",
"1> 	c #97968D",
"2> 	c #9C9991",
"3> 	c #908C86",
"4> 	c #837D79",
"5> 	c #86807C",
"6> 	c #87817C",
"7> 	c #8B857F",
"8> 	c #83847F",
"9> 	c #858681",
"0> 	c #4C464E",
"a> 	c #453C48",
"b> 	c #423E45",
"c> 	c #423E44",
"d> 	c #84817F",
"e> 	c #AAA79F",
"f> 	c #A9A59D",
"g> 	c #A6A59C",
"h> 	c #A2A198",
"i> 	c #94958E",
"j> 	c #959690",
"k> 	c #93948E",
"l> 	c #949491",
"m> 	c #959691",
"n> 	c #929290",
"o> 	c #7B7776",
"p> 	c #7D7A77",
"q> 	c #807D79",
"r> 	c #83817B",
"s> 	c #8A8983",
"t> 	c #898883",
"u> 	c #817F7A",
"v> 	c #7C7876",
"w> 	c #797574",
"x> 	c #797474",
"y> 	c #746F70",
"z> 	c #736F6F",
"A> 	c #74706F",
"B> 	c #716E6D",
"C> 	c #716C6C",
"D> 	c #736E71",
"E> 	c #7F7D7F",
"F> 	c #817F81",
"G> 	c #828083",
"H> 	c #7F7A80",
"I> 	c #363238",
"J> 	c #423F42",
"K> 	c #A4A29E",
"L> 	c #A1A09A",
"M> 	c #9D9B96",
"N> 	c #75726E",
"O> 	c #797571",
"P> 	c #7A7673",
"Q> 	c #74706E",
"R> 	c #696264",
"S> 	c #676062",
"T> 	c #665D5F",
"U> 	c #A4A4A0",
"V> 	c #C8C9C1",
"W> 	c #C7C9BC",
"X> 	c #6C6766",
"Y> 	c #3D313D",
"Z> 	c #3D303B",
"`> 	c #3C3238",
" , 	c #7A7474",
"., 	c #A29C9B",
"+, 	c #9C9A95",
"@, 	c #95948D",
"#, 	c #94948D",
"$, 	c #92938C",
"%, 	c #82807D",
"&, 	c #807E79",
"*, 	c #7F7E79",
"=, 	c #7C7B78",
"-, 	c #787874",
";, 	c #807E78",
">, 	c #85827B",
",, 	c #86817B",
"', 	c #898680",
"), 	c #86807A",
"!, 	c #88827B",
"~, 	c #88837C",
"{, 	c #908D88",
"], 	c #918F8B",
"^, 	c #878480",
"/, 	c #84807D",
"(, 	c #838380",
"_, 	c #848482",
":, 	c #4F4B50",
"<, 	c #48404B",
"[, 	c #46424A",
"}, 	c #474249",
"|, 	c #A9A99E",
"1, 	c #A8A79E",
"2, 	c #A7A69D",
"3, 	c #A2A19A",
"4, 	c #9A9A93",
"5, 	c #979790",
"6, 	c #959790",
"7, 	c #949591",
"8, 	c #7D7D7D",
"9, 	c #797977",
"0, 	c #797A76",
"a, 	c #7C7C77",
"b, 	c #7D7B78",
"c, 	c #7D7D79",
"d, 	c #7D7A76",
"e, 	c #7A7774",
"f, 	c #797573",
"g, 	c #767472",
"h, 	c #757372",
"i, 	c #777373",
"j, 	c #7A7576",
"k, 	c #564F53",
"l, 	c #484147",
"m, 	c #4B4149",
"n, 	c #4B4148",
"o, 	c #4C4147",
"p, 	c #4C4047",
"q, 	c #4C3F46",
"r, 	c #4A3D45",
"s, 	c #463B43",
"t, 	c #828182",
"u, 	c #979B97",
"v, 	c #939393",
"w, 	c #3C393F",
"x, 	c #2B232B",
"y, 	c #454446",
"z, 	c #A4A39F",
"A, 	c #A09F98",
"B, 	c #9E9C97",
"C, 	c #75716E",
"D, 	c #75716D",
"E, 	c #6A6366",
"F, 	c #686165",
"G, 	c #696063",
"H, 	c #685E61",
"I, 	c #A4A5A0",
"J, 	c #C8CAC1",
"K, 	c #C7CBBF",
"L, 	c #C5CABB",
"M, 	c #C2C6B8",
"N, 	c #625D5D",
"O, 	c #3F323F",
"P, 	c #3E343B",
"Q, 	c #7B7575",
"R, 	c #A29D9B",
"S, 	c #9D9C95",
"T, 	c #989890",
"U, 	c #95978F",
"V, 	c #8A8A86",
"W, 	c #7C7A78",
"X, 	c #797874",
"Y, 	c #797771",
"Z, 	c #7F7B74",
"`, 	c #84807A",
" ' 	c #87827B",
".' 	c #88837B",
"+' 	c #89837C",
"@' 	c #8A867E",
"#' 	c #8A867F",
"$' 	c #8B8780",
"%' 	c #8D8A84",
"&' 	c #8E8A85",
"*' 	c #90908B",
"=' 	c #8C8A83",
"-' 	c #87837F",
";' 	c #86827E",
">' 	c #84817D",
",' 	c #838381",
"'' 	c #858684",
")' 	c #4E4B50",
"!' 	c #48414B",
"~' 	c #47414B",
"{' 	c #464047",
"]' 	c #8C8A85",
"^' 	c #A9A89F",
"/' 	c #9C9C95",
"(' 	c #9A9B94",
"_' 	c #999B93",
":' 	c #999A94",
"<' 	c #797878",
"[' 	c #797875",
"}' 	c #7E7E7A",
"|' 	c #7B7876",
"1' 	c #797575",
"2' 	c #787374",
"3' 	c #757373",
"4' 	c #747272",
"5' 	c #757172",
"6' 	c #767174",
"7' 	c #595357",
"8' 	c #484047",
"9' 	c #4B404A",
"0' 	c #4C4249",
"a' 	c #4C4248",
"b' 	c #4B4147",
"c' 	c #4D4047",
"d' 	c #4B3F45",
"e' 	c #473C44",
"f' 	c #979C98",
"g' 	c #9A9B97",
"h' 	c #9A9A95",
"i' 	c #929392",
"j' 	c #37343A",
"k' 	c #2C242D",
"l' 	c #464447",
"m' 	c #A5A4A0",
"n' 	c #A09E99",
"o' 	c #9D9B97",
"p' 	c #716E6B",
"q' 	c #716D6A",
"r' 	c #6F6A69",
"s' 	c #6B6466",
"t' 	c #696265",
"u' 	c #686163",
"v' 	c #A5A6A1",
"w' 	c #C8CCC0",
"x' 	c #C8CCBE",
"y' 	c #C7CBBC",
"z' 	c #C2C5B8",
"A' 	c #575453",
"B' 	c #3F313F",
"C' 	c #3E313E",
"D' 	c #3C333C",
"E' 	c #777272",
"F' 	c #A19D99",
"G' 	c #9E9D97",
"H' 	c #9E9C96",
"I' 	c #9B9A93",
"J' 	c #989991",
"K' 	c #95968F",
"L' 	c #7B7A77",
"M' 	c #7D7D78",
"N' 	c #7C7B77",
"O' 	c #7A7A76",
"P' 	c #7B7A74",
"Q' 	c #807D78",
"R' 	c #827E7A",
"S' 	c #85807B",
"T' 	c #89837F",
"U' 	c #8A8480",
"V' 	c #8A8681",
"W' 	c #8D8982",
"X' 	c #8F8C86",
"Y' 	c #908E89",
"Z' 	c #918F8A",
"`' 	c #91908C",
" ) 	c #92908E",
".) 	c #908E8B",
"+) 	c #8B8883",
"@) 	c #898581",
"#) 	c #888480",
"$) 	c #85817D",
"%) 	c #84817E",
"&) 	c #82817D",
"*) 	c #818380",
"=) 	c #828380",
"-) 	c #838481",
";) 	c #838383",
">) 	c #484449",
",) 	c #453F46",
"') 	c #464046",
")) 	c #454044",
"!) 	c #A9AA9F",
"~) 	c #A8A99F",
"{) 	c #A3A29A",
"]) 	c #9D9D95",
"^) 	c #9B9C95",
"/) 	c #9A9C95",
"() 	c #797776",
"_) 	c #7E7C79",
":) 	c #7E7D7A",
"<) 	c #7F7D7B",
"[) 	c #7F7F7B",
"}) 	c #7F807C",
"|) 	c #7F807B",
"1) 	c #80807C",
"2) 	c #7C7A79",
"3) 	c #797676",
"4) 	c #757174",
"5) 	c #757173",
"6) 	c #747073",
"7) 	c #757073",
"8) 	c #5D565B",
"9) 	c #484048",
"0) 	c #4A4049",
"a) 	c #4C424A",
"b) 	c #4B4049",
"c) 	c #4C3F48",
"d) 	c #4B3F47",
"e) 	c #483D46",
"f) 	c #838184",
"g) 	c #999D9A",
"h) 	c #999C98",
"i) 	c #999B97",
"j) 	c #363338",
"k) 	c #2D242E",
"l) 	c #444245",
"m) 	c #A5A4A2",
"n) 	c #A19F9B",
"o) 	c #A09E9A",
"p) 	c #9C9B97",
"q) 	c #6E6A69",
"r) 	c #6F6B6A",
"s) 	c #767272",
"t) 	c #706D6E",
"u) 	c #6B696A",
"v) 	c #CACFC4",
"w) 	c #CACBC1",
"x) 	c #CACAC2",
"y) 	c #C4C5BF",
"z) 	c #514F52",
"A) 	c #3A2D3C",
"B) 	c #3B2D39",
"C) 	c #3C2F3A",
"D) 	c #6B6767",
"E) 	c #9FA09A",
"F) 	c #9D9E97",
"G) 	c #9D9B95",
"H) 	c #9B9A94",
"I) 	c #989891",
"J) 	c #74736F",
"K) 	c #727175",
"L) 	c #757677",
"M) 	c #757576",
"N) 	c #727172",
"O) 	c #767576",
"P) 	c #787879",
"Q) 	c #7C7B7C",
"R) 	c #7C7C7C",
"S) 	c #7F7E7F",
"T) 	c #807F80",
"U) 	c #808081",
"V) 	c #808282",
"W) 	c #818181",
"X) 	c #828180",
"Y) 	c #828080",
"Z) 	c #818280",
"`) 	c #828281",
" ! 	c #818180",
".! 	c #81807F",
"+! 	c #808080",
"@! 	c #7E8183",
"#! 	c #7F8283",
"$! 	c #7F8284",
"%! 	c #7F8184",
"&! 	c #7E8084",
"*! 	c #797B7F",
"=! 	c #787A7D",
"-! 	c #76797B",
";! 	c #75787A",
">! 	c #76787B",
",! 	c #77777B",
"'! 	c #777779",
")! 	c #777678",
"!! 	c #777679",
"~! 	c #767779",
"{! 	c #78797C",
"]! 	c #777C7E",
"^! 	c #787D80",
"/! 	c #77797E",
"(! 	c #3F3A43",
"_! 	c #423E46",
":! 	c #454047",
"<! 	c #433F44",
"[! 	c #A2A59A",
"}! 	c #A0A197",
"|! 	c #9E9F96",
"1! 	c #9D9C94",
"2! 	c #7F7E7B",
"3! 	c #7F7E7C",
"4! 	c #817F7D",
"5! 	c #81817C",
"6! 	c #80817E",
"7! 	c #81817D",
"8! 	c #82827F",
"9! 	c #82817E",
"0! 	c #7B7877",
"a! 	c #767172",
"b! 	c #757273",
"c! 	c #726D6E",
"d! 	c #706A6C",
"e! 	c #6F696C",
"f! 	c #6F686C",
"g! 	c #6B6369",
"h! 	c #686167",
"i! 	c #665F64",
"j! 	c #868386",
"k! 	c #989999",
"l! 	c #989998",
"m! 	c #979997",
"n! 	c #8F9291",
"o! 	c #353238",
"p! 	c #302731",
"q! 	c #3C3A3C",
"r! 	c #959392",
"s! 	c #8A8885",
"t! 	c #8C8A89",
"u! 	c #7B7979",
"v! 	c #6D6968",
"w! 	c #6C6A68",
"x! 	c #716F6D",
"y! 	c #8C8D8C",
"z! 	c #8B8D8C",
"A! 	c #8B8C8B",
"B! 	c #6E6D6D",
"C! 	c #5D5859",
"D! 	c #5A5657",
"E! 	c #5B5758",
"F! 	c #908A8B",
"G! 	c #8B8685",
"H! 	c #807D77",
"I! 	c #82817B",
"J! 	c #989992",
"K! 	c #92948D",
"L! 	c #91948F",
"M! 	c #90928D",
"N! 	c #888784",
"O! 	c #4C4C4F",
"P! 	c #1A2134",
"Q! 	c #1D273E",
"R! 	c #1D283F",
"S! 	c #1A263F",
"T! 	c #17233B",
"U! 	c #142039",
"V! 	c #121F39",
"W! 	c #111F39",
"X! 	c #101F39",
"Y! 	c #102039",
"Z! 	c #102139",
"`! 	c #122039",
" ~ 	c #122138",
".~ 	c #132038",
"+~ 	c #142037",
"@~ 	c #131F35",
"#~ 	c #111C33",
"$~ 	c #0F1B32",
"%~ 	c #0D1A32",
"&~ 	c #0B1A2F",
"*~ 	c #0A1930",
"=~ 	c #09192F",
"-~ 	c #0A1931",
";~ 	c #091830",
">~ 	c #0B1933",
",~ 	c #0B1932",
"'~ 	c #0C1B33",
")~ 	c #0C1930",
"!~ 	c #0F1A31",
"~~ 	c #101A2F",
"{~ 	c #111A2D",
"]~ 	c #141D2F",
"^~ 	c #162131",
"/~ 	c #182333",
"(~ 	c #1C2435",
"_~ 	c #1B1F34",
":~ 	c #21253A",
"<~ 	c #25283E",
"[~ 	c #272B3A",
"}~ 	c #696A6F",
"|~ 	c #7D7B7C",
"1~ 	c #7B7A7A",
"2~ 	c #807E7C",
"3~ 	c #918E8A",
"4~ 	c #938F8A",
"5~ 	c #908B86",
"6~ 	c #8E8984",
"7~ 	c #8B8681",
"8~ 	c #82827D",
"9~ 	c #81827E",
"0~ 	c #81837E",
"a~ 	c #82837D",
"b~ 	c #848580",
"c~ 	c #858582",
"d~ 	c #888685",
"e~ 	c #8B8785",
"f~ 	c #8C8884",
"g~ 	c #8D8985",
"h~ 	c #8D8B86",
"i~ 	c #8E8C85",
"j~ 	c #8D8B83",
"k~ 	c #8D8B85",
"l~ 	c #7F7B79",
"m~ 	c #726F6F",
"n~ 	c #716D6C",
"o~ 	c #343136",
"p~ 	c #322D35",
"q~ 	c #25202A",
"r~ 	c #433E48",
"s~ 	c #443E48",
"t~ 	c #433D47",
"u~ 	c #484248",
"v~ 	c #6B6766",
"w~ 	c #6C6868",
"x~ 	c #6E6B6C",
"y~ 	c #919292",
"z~ 	c #909390",
"A~ 	c #8F928F",
"B~ 	c #909090",
"C~ 	c #665E64",
"D~ 	c #3C2C39",
"E~ 	c #3C2C38",
"F~ 	c #3B2E37",
"G~ 	c #989792",
"H~ 	c #9B9B96",
"I~ 	c #949691",
"J~ 	c #929590",
"K~ 	c #84837F",
"L~ 	c #4C4E51",
"M~ 	c #101B33",
"N~ 	c #0A1F3B",
"O~ 	c #09203F",
"P~ 	c #08203F",
"Q~ 	c #0B2141",
"R~ 	c #0B2042",
"S~ 	c #0B1F41",
"T~ 	c #0C2143",
"U~ 	c #0B2143",
"V~ 	c #0B2142",
"W~ 	c #0C2141",
"X~ 	c #0D2040",
"Y~ 	c #0E2040",
"Z~ 	c #0D1F3D",
"`~ 	c #0D1D3C",
" { 	c #0C1C3A",
".{ 	c #0C1C39",
"+{ 	c #0C1C37",
"@{ 	c #0B1C35",
"#{ 	c #0B1C34",
"${ 	c #0C1D35",
"%{ 	c #0C1D37",
"&{ 	c #0B1D37",
"*{ 	c #0B1D38",
"={ 	c #0C1F36",
"-{ 	c #0B1D34",
";{ 	c #0C1C34",
">{ 	c #0D1D33",
",{ 	c #0D1D35",
"'{ 	c #0E1D39",
"){ 	c #101E3C",
"!{ 	c #112141",
"~{ 	c #13243F",
"{{ 	c #6F7079",
"]{ 	c #848184",
"^{ 	c #827F82",
"/{ 	c #7F7F80",
"({ 	c #8F8984",
"_{ 	c #8E8883",
":{ 	c #8F8C88",
"<{ 	c #7D7977",
"[{ 	c #756E6F",
"}{ 	c #746F6E",
"|{ 	c #716C6F",
"1{ 	c #373139",
"2{ 	c #332E38",
"3{ 	c #251E2A",
"4{ 	c #3D3742",
"5{ 	c #433D48",
"6{ 	c #453F49",
"7{ 	c #484149",
"8{ 	c #5F5A5D",
"9{ 	c #6A6565",
"0{ 	c #6B6666",
"a{ 	c #6B6667",
"b{ 	c #939594",
"c{ 	c #919491",
"d{ 	c #929293",
"e{ 	c #3A2A37",
"f{ 	c #3A2A38",
"g{ 	c #3A2B38",
"h{ 	c #382B35",
"i{ 	c #989691",
"j{ 	c #9C9C96",
"k{ 	c #939791",
"l{ 	c #939690",
"m{ 	c #898984",
"n{ 	c #0A1F3C",
"o{ 	c #09213F",
"p{ 	c #0A2241",
"q{ 	c #0B2242",
"r{ 	c #0B2244",
"s{ 	c #0A2242",
"t{ 	c #0A2243",
"u{ 	c #0A2344",
"v{ 	c #092444",
"w{ 	c #092443",
"x{ 	c #0B2342",
"y{ 	c #0C2241",
"z{ 	c #0B223F",
"A{ 	c #0B1D3B",
"B{ 	c #0B1D3A",
"C{ 	c #0C1D36",
"D{ 	c #0D1E36",
"E{ 	c #0E1E38",
"F{ 	c #0C1F38",
"G{ 	c #0C1E39",
"H{ 	c #0D2037",
"I{ 	c #0B1E35",
"J{ 	c #0B1D35",
"K{ 	c #0C1D33",
"L{ 	c #0E1E36",
"M{ 	c #0F1E3B",
"N{ 	c #0F1F3D",
"O{ 	c #102041",
"P{ 	c #10223E",
"Q{ 	c #74767E",
"R{ 	c #838084",
"S{ 	c #7E7E7C",
"T{ 	c #8F8985",
"U{ 	c #8D8983",
"V{ 	c #878984",
"W{ 	c #908D89",
"X{ 	c #767171",
"Y{ 	c #777372",
"Z{ 	c #7B7676",
"`{ 	c #787276",
" ] 	c #363038",
".] 	c #332D37",
"+] 	c #261E28",
"@] 	c #3D3540",
"#] 	c #443C48",
"$] 	c #463D49",
"%] 	c #4A424C",
"&] 	c #5D585E",
"*] 	c #676264",
"=] 	c #686465",
"-] 	c #696668",
";] 	c #6F6D6F",
">] 	c #959797",
",] 	c #939694",
"'] 	c #929693",
")] 	c #939595",
"!] 	c #655F64",
"~] 	c #392A35",
"{] 	c #392A38",
"]] 	c #362934",
"^] 	c #94918C",
"/] 	c #9C9B96",
"(] 	c #969890",
"_] 	c #969991",
":] 	c #969791",
"<] 	c #969792",
"[] 	c #959793",
"}] 	c #8A8B88",
"|] 	c #888683",
"1] 	c #8D8D8B",
"2] 	c #4D5157",
"3] 	c #101B3B",
"4] 	c #0B213F",
"5] 	c #0C2242",
"6] 	c #0C2342",
"7] 	c #0E2343",
"8] 	c #0D2245",
"9] 	c #0B2344",
"0] 	c #0A2445",
"a] 	c #0B2446",
"b] 	c #0B2448",
"c] 	c #0A2547",
"d] 	c #0B2647",
"e] 	c #0C2647",
"f] 	c #0C2446",
"g] 	c #0C2344",
"h] 	c #0B233F",
"i] 	c #0B213E",
"j] 	c #0C1F3D",
"k] 	c #0C1F3E",
"l] 	c #0C1F3C",
"m] 	c #0D203D",
"n] 	c #0A1E3B",
"o] 	c #0B1F3C",
"p] 	c #0C203D",
"q] 	c #0C203F",
"r] 	c #0D2140",
"s] 	c #0D2240",
"t] 	c #0C223F",
"u] 	c #0A213E",
"v] 	c #0D1F39",
"w] 	c #0D1E38",
"x] 	c #0F1E39",
"y] 	c #0E1F3B",
"z] 	c #0D1E3A",
"A] 	c #0E1F3C",
"B] 	c #0F213E",
"C] 	c #0F213F",
"D] 	c #102243",
"E] 	c #11253E",
"F] 	c #737981",
"G] 	c #868588",
"H] 	c #828185",
"I] 	c #7F7F83",
"J] 	c #7A7C7D",
"K] 	c #898885",
"L] 	c #8B8782",
"M] 	c #8B8880",
"N] 	c #7D7A79",
"O] 	c #7E7B7A",
"P] 	c #827F7E",
"Q] 	c #807C80",
"R] 	c #353037",
"S] 	c #261E27",
"T] 	c #3C343E",
"U] 	c #443C46",
"V] 	c #473D48",
"W] 	c #4C424E",
"X] 	c #59555B",
"Y] 	c #645F62",
"Z] 	c #666265",
"`] 	c #6C696C",
" ^ 	c #99979A",
".^ 	c #989A9B",
"+^ 	c #96999A",
"@^ 	c #949698",
"#^ 	c #635F64",
"$^ 	c #392834",
"%^ 	c #382833",
"&^ 	c #382A36",
"*^ 	c #352932",
"=^ 	c #8E8885",
"-^ 	c #9B9994",
";^ 	c #959791",
">^ 	c #90938D",
",^ 	c #939592",
"'^ 	c #949693",
")^ 	c #939795",
"!^ 	c #6F7375",
"~^ 	c #686E70",
"{^ 	c #6B7072",
"]^ 	c #6A6F71",
"^^ 	c #696E75",
"/^ 	c #798490",
"(^ 	c #616C77",
"_^ 	c #56636F",
":^ 	c #4E5A68",
"<^ 	c #4C5866",
"[^ 	c #4C5764",
"}^ 	c #4B5764",
"|^ 	c #475864",
"1^ 	c #495A67",
"2^ 	c #4A606C",
"3^ 	c #47666F",
"4^ 	c #466A72",
"5^ 	c #487177",
"6^ 	c #507D81",
"7^ 	c #57878A",
"8^ 	c #5E8D91",
"9^ 	c #699397",
"0^ 	c #719CA5",
"a^ 	c #4F8EA5",
"b^ 	c #4888A4",
"c^ 	c #4586A2",
"d^ 	c #4A8AA6",
"e^ 	c #528AA9",
"f^ 	c #649EBB",
"g^ 	c #64A0BC",
"h^ 	c #64A1BD",
"i^ 	c #62A1BE",
"j^ 	c #63A2BD",
"k^ 	c #69A2BD",
"l^ 	c #659EB7",
"m^ 	c #6097AD",
"n^ 	c #6C9AAD",
"o^ 	c #8DA8B5",
"p^ 	c #8EA8B2",
"q^ 	c #8DA8B0",
"r^ 	c #8FA8B1",
"s^ 	c #95ABB2",
"t^ 	c #93ABB2",
"u^ 	c #92ABB2",
"v^ 	c #8EA9B2",
"w^ 	c #88A7B0",
"x^ 	c #83A3AD",
"y^ 	c #7F9FAA",
"z^ 	c #7F9FAE",
"A^ 	c #86A8B4",
"B^ 	c #6C808A",
"C^ 	c #64676C",
"D^ 	c #5F6269",
"E^ 	c #575C62",
"F^ 	c #4C5156",
"G^ 	c #6E7072",
"H^ 	c #747172",
"I^ 	c #737172",
"J^ 	c #727071",
"K^ 	c #868583",
"L^ 	c #888584",
"M^ 	c #838083",
"N^ 	c #342E36",
"O^ 	c #322C36",
"P^ 	c #383238",
"Q^ 	c #878281",
"R^ 	c #86817D",
"S^ 	c #857F7D",
"T^ 	c #847E7E",
"U^ 	c #726F6A",
"V^ 	c #716E68",
"W^ 	c #504B50",
"X^ 	c #565257",
"Y^ 	c #555157",
"Z^ 	c #504B51",
"`^ 	c #514950",
" / 	c #656065",
"./ 	c #686568",
"+/ 	c #6D696C",
"@/ 	c #726C70",
"#/ 	c #8C8886",
"$/ 	c #959692",
"%/ 	c #7D7F7D",
"&/ 	c #6E7271",
"*/ 	c #727877",
"=/ 	c #79807F",
"-/ 	c #838B8C",
";/ 	c #2B3341",
">/ 	c #0B2035",
",/ 	c #0A2139",
"'/ 	c #092039",
")/ 	c #092339",
"!/ 	c #CCD8DA",
"~/ 	c #F9FFFF",
"{/ 	c #F7FDFE",
"]/ 	c #F3F9FB",
"^/ 	c #F4F9FA",
"// 	c #F3F8F9",
"(/ 	c #F0F8F9",
"_/ 	c #F1F8F9",
":/ 	c #EFF9F9",
"</ 	c #EFFAFA",
"[/ 	c #EEFCFA",
"}/ 	c #EDFCFA",
"|/ 	c #ECFEFB",
"1/ 	c #ECFFFC",
"2/ 	c #EAFEFC",
"3/ 	c #EBFEFC",
"4/ 	c #DBFDFC",
"5/ 	c #7DD5EC",
"6/ 	c #6BCDEA",
"7/ 	c #66CAE5",
"8/ 	c #67C8E4",
"9/ 	c #64B9D7",
"0/ 	c #7ACCEB",
"a/ 	c #7ACDEA",
"b/ 	c #7BD0EA",
"c/ 	c #7CD3E8",
"d/ 	c #85D9EC",
"e/ 	c #93E1F3",
"f/ 	c #93DFF0",
"g/ 	c #94E0F0",
"h/ 	c #A9E9F5",
"i/ 	c #DBF9FD",
"j/ 	c #DCFAFB",
"k/ 	c #DAF9FB",
"l/ 	c #D9F8FB",
"m/ 	c #DAF8FB",
"n/ 	c #D7F7FA",
"o/ 	c #D0F7FA",
"p/ 	c #CCF4F7",
"q/ 	c #C5F1F5",
"r/ 	c #B9EBF0",
"s/ 	c #B5E7EF",
"t/ 	c #B4E6EF",
"u/ 	c #B3E5F0",
"v/ 	c #638590",
"w/ 	c #09182D",
"x/ 	c #07162C",
"y/ 	c #06182D",
"z/ 	c #05182C",
"A/ 	c #464F5D",
"B/ 	c #4D515E",
"C/ 	c #4C4E5B",
"D/ 	c #4B4C58",
"E/ 	c #4B4C52",
"F/ 	c #868685",
"G/ 	c #8A8A83",
"H/ 	c #8B8A88",
"I/ 	c #868486",
"J/ 	c #2D2730",
"K/ 	c #433D40",
"L/ 	c #A29D99",
"M/ 	c #A39F9A",
"N/ 	c #A29F99",
"O/ 	c #7C7973",
"P/ 	c #79756F",
"Q/ 	c #77746E",
"R/ 	c #736F6E",
"S/ 	c #362C35",
"T/ 	c #312130",
"U/ 	c #322231",
"V/ 	c #302330",
"W/ 	c #565056",
"X/ 	c #727173",
"Y/ 	c #747474",
"Z/ 	c #747273",
"`/ 	c #8B8886",
" ( 	c #928F89",
".( 	c #94958C",
"+( 	c #7E7E80",
"@( 	c #6E7376",
"#( 	c #747B7B",
"$( 	c #7B8282",
"%( 	c #838B8E",
"&( 	c #293345",
"*( 	c #0B203E",
"=( 	c #082141",
"-( 	c #062641",
";( 	c #C7D7DA",
">( 	c #F7FCFB",
",( 	c #F9FBFC",
"'( 	c #FAFCFE",
")( 	c #FBFDFF",
"!( 	c #FCFFFE",
"~( 	c #FAFEFD",
"{( 	c #F9FEFD",
"]( 	c #F7FDFC",
"^( 	c #F3FEFB",
"/( 	c #E3FCFC",
"(( 	c #84D7EE",
"_( 	c #72CFEE",
":( 	c #6DCDEA",
"<( 	c #6DCAE6",
"[( 	c #64B8D7",
"}( 	c #7CCDEB",
"|( 	c #7BCDEB",
"1( 	c #7ED0EB",
"2( 	c #80D1EB",
"3( 	c #92D9EF",
"4( 	c #A1E2F0",
"5( 	c #9EE2EE",
"6( 	c #9BE3EE",
"7( 	c #AEEAF5",
"8( 	c #DFF7FD",
"9( 	c #E1F9FE",
"0( 	c #DCF8FD",
"a( 	c #D8F8FC",
"b( 	c #D8F7FD",
"c( 	c #D6F6FB",
"d( 	c #D3F5FC",
"e( 	c #CEF5FA",
"f( 	c #C5F1F7",
"g( 	c #BAE9F3",
"h( 	c #B5E7F4",
"i( 	c #B1E7F4",
"j( 	c #B0E7F3",
"k( 	c #668A9B",
"l( 	c #081730",
"m( 	c #08162F",
"n( 	c #051731",
"o( 	c #021731",
"p( 	c #465160",
"q( 	c #4F545E",
"r( 	c #494F58",
"s( 	c #474A57",
"t( 	c #454852",
"u( 	c #868786",
"v( 	c #8A8C84",
"w( 	c #8B8D85",
"x( 	c #8F9089",
"y( 	c #8D8E87",
"z( 	c #8C8C8A",
"A( 	c #888887",
"B( 	c #332D34",
"C( 	c #2E262F",
"D( 	c #413C3E",
"E( 	c #A19C98",
"F( 	c #A29E98",
"G( 	c #A09E97",
"H( 	c #9E9D96",
"I( 	c #372E37",
"J( 	c #312431",
"K( 	c #524C52",
"L( 	c #656365",
"M( 	c #848281",
"N( 	c #928F8A",
"O( 	c #95968D",
"P( 	c #7F8081",
"Q( 	c #737A7C",
"R( 	c #798080",
"S( 	c #7C8383",
"T( 	c #838B91",
"U( 	c #293249",
"V( 	c #0C2445",
"W( 	c #072A47",
"X( 	c #BDD6D8",
"Y( 	c #F9FBFE",
"Z( 	c #FCFEFF",
"`( 	c #FCFEFE",
" _ 	c #F8FDFC",
"._ 	c #F7FEFC",
"+_ 	c #F5FFFD",
"@_ 	c #E2FCFC",
"#_ 	c #8AD8EC",
"$_ 	c #7AD0EC",
"%_ 	c #75D0EA",
"&_ 	c #6FCCE7",
"*_ 	c #66BAD8",
"=_ 	c #7CCEEB",
"-_ 	c #7FCFEB",
";_ 	c #87D2EE",
">_ 	c #98D9F2",
",_ 	c #A4E0F0",
"'_ 	c #A3E2EF",
")_ 	c #A2E3F0",
"!_ 	c #B1EAF6",
"~_ 	c #DAF8FC",
"{_ 	c #DDF8FD",
"]_ 	c #DAF9FC",
"^_ 	c #D7F8FB",
"/_ 	c #D7F6FC",
"(_ 	c #D7F5FA",
"__ 	c #D5F5FC",
":_ 	c #D0F5FB",
"<_ 	c #CAF4FB",
"[_ 	c #BEEBF5",
"}_ 	c #B6E8F6",
"|_ 	c #AEE9F4",
"1_ 	c #ADE9F3",
"2_ 	c #668E9E",
"3_ 	c #08152F",
"4_ 	c #08152E",
"5_ 	c #05152F",
"6_ 	c #021530",
"7_ 	c #4D5562",
"8_ 	c #525761",
"9_ 	c #4B4F59",
"0_ 	c #484A57",
"a_ 	c #878886",
"b_ 	c #8C8D86",
"c_ 	c #91928D",
"d_ 	c #93928E",
"e_ 	c #90918B",
"f_ 	c #8A8A89",
"g_ 	c #362E35",
"h_ 	c #2E262E",
"i_ 	c #403B3C",
"j_ 	c #9E9A97",
"k_ 	c #9F9B96",
"l_ 	c #9D9A94",
"m_ 	c #7A7674",
"n_ 	c #797572",
"o_ 	c #777172",
"p_ 	c #2F2330",
"q_ 	c #2F2331",
"r_ 	c #2F2531",
"s_ 	c #4A434A",
"t_ 	c #5A565A",
"u_ 	c #5E5B5E",
"v_ 	c #5E5C60",
"w_ 	c #666366",
"x_ 	c #858382",
"y_ 	c #939389",
"z_ 	c #96978F",
"A_ 	c #7A7E80",
"B_ 	c #737F7F",
"C_ 	c #7B8688",
"D_ 	c #7D888A",
"E_ 	c #838E95",
"F_ 	c #2A374A",
"G_ 	c #052644",
"H_ 	c #092445",
"I_ 	c #0B2643",
"J_ 	c #072C49",
"K_ 	c #BCD1D7",
"L_ 	c #FBFCFE",
"M_ 	c #FCFBFE",
"N_ 	c #FCFCFF",
"O_ 	c #FCFDFF",
"P_ 	c #FDFFFF",
"Q_ 	c #FEFFFF",
"R_ 	c #F3FFFE",
"S_ 	c #EDFFFF",
"T_ 	c #EFFFFF",
"U_ 	c #EEFFFE",
"V_ 	c #E8FCFD",
"W_ 	c #BCE4EF",
"X_ 	c #B6E3F0",
"Y_ 	c #AFDEEB",
"Z_ 	c #A6DDEA",
"`_ 	c #A1D6E3",
" : 	c #ABE1EE",
".: 	c #A7DFEB",
"+: 	c #A8DEEC",
"@: 	c #A6DDEF",
"#: 	c #A2DEF2",
"$: 	c #A5E1F3",
"%: 	c #A6E3F2",
"&: 	c #A6E4F3",
"*: 	c #B2EDF7",
"=: 	c #D8F9FE",
"-: 	c #DBF9FE",
";: 	c #D8F8FD",
">: 	c #D4F9FD",
",: 	c #D3F8FD",
"': 	c #D6F7FD",
"): 	c #D7F6FD",
"!: 	c #D2F6FC",
"~: 	c #D1F6FA",
"{: 	c #CDF3F7",
"]: 	c #C2F3F6",
"^: 	c #B4F0F1",
"/: 	c #ACECF1",
"(: 	c #7CA3AF",
"_: 	c #495466",
":: 	c #424D5E",
"<: 	c #414E5A",
"[: 	c #6A7881",
"}: 	c #54626F",
"|: 	c #4E5767",
"1: 	c #49535F",
"2: 	c #454D5B",
"3: 	c #454A52",
"4: 	c #8B8D8A",
"5: 	c #8C8D87",
"6: 	c #8F918B",
"7: 	c #8C8C87",
"8: 	c #8D8C89",
"9: 	c #8F908D",
"0: 	c #8A8C8A",
"a: 	c #362F36",
"b: 	c #2E272F",
"c: 	c #3A3638",
"d: 	c #8C8887",
"e: 	c #898583",
"f: 	c #888482",
"g: 	c #8A8787",
"h: 	c #595559",
"i: 	c #423B41",
"j: 	c #453D43",
"k: 	c #473F44",
"l: 	c #484244",
"m: 	c #70696C",
"n: 	c #797376",
"o: 	c #777275",
"p: 	c #746F71",
"q: 	c #858280",
"r: 	c #A6A49F",
"s: 	c #A7A49F",
"t: 	c #A6A39F",
"u: 	c #8C8C84",
"v: 	c #83847D",
"w: 	c #777774",
"x: 	c #787875",
"y: 	c #7B7B78",
"z: 	c #7F8182",
"A: 	c #3F434D",
"B: 	c #1B2838",
"C: 	c #1C2A3B",
"D: 	c #1D2C3C",
"E: 	c #192938",
"F: 	c #B1C0C6",
"G: 	c #CAD3D6",
"H: 	c #CBD1D4",
"I: 	c #CCD1D3",
"J: 	c #CED4D7",
"K: 	c #EAEFF2",
"L: 	c #FEFBFE",
"M: 	c #FDFCFF",
"N: 	c #FEFDFF",
"O: 	c #FDFEFF",
"P: 	c #FEFFFE",
"Q: 	c #FFFFFE",
"R: 	c #FCFFFF",
"S: 	c #BCEBEE",
"T: 	c #A1EAF0",
"U: 	c #A1EBEF",
"V: 	c #9FE7EF",
"W: 	c #C4E5EB",
"X: 	c #FEFEFE",
"Y: 	c #FEFEFF",
"Z: 	c #FDFFFE",
"`: 	c #B5E4ED",
" < 	c #A0E1F0",
".< 	c #A1E3F1",
"+< 	c #A3E4F2",
"@< 	c #A9E9F3",
"#< 	c #B8EDF4",
"$< 	c #B3EBF1",
"%< 	c #ACE7EE",
"&< 	c #ACE9F1",
"*< 	c #ACE9F3",
"=< 	c #A6E6EF",
"-< 	c #9BDFE9",
";< 	c #C8EEF3",
">< 	c #FAFEFF",
",< 	c #F3FEFF",
"'< 	c #EFFEFE",
")< 	c #F2FCFC",
"!< 	c #F2FAFB",
"~< 	c #EFF9FA",
"{< 	c #F0F8FA",
"]< 	c #F5FDFF",
"^< 	c #6E797F",
"/< 	c #05162F",
"(< 	c #09192D",
"_< 	c #0C1830",
":< 	c #11152A",
"<< 	c #65656C",
"[< 	c #5E5E62",
"}< 	c #58585C",
"|< 	c #5B5A5D",
"1< 	c #8B8D8B",
"2< 	c #363137",
"3< 	c #343032",
"4< 	c #7F7B7C",
"5< 	c #797577",
"6< 	c #777476",
"7< 	c #79767C",
"8< 	c #46414B",
"9< 	c #302433",
"0< 	c #322534",
"a< 	c #312533",
"b< 	c #352C33",
"c< 	c #857F7F",
"d< 	c #8A8684",
"e< 	c #898684",
"f< 	c #888582",
"g< 	c #95928D",
"h< 	c #B1AFA5",
"i< 	c #B1B0A6",
"j< 	c #AFADA2",
"k< 	c #A1A096",
"l< 	c #898981",
"m< 	c #7A7B77",
"n< 	c #6A6A6A",
"o< 	c #6D6D6D",
"p< 	c #727272",
"q< 	c #7B7C80",
"r< 	c #353B49",
"s< 	c #071C39",
"t< 	c #061D3A",
"u< 	c #061E3B",
"v< 	c #001B34",
"w< 	c #D6E1E6",
"x< 	c #F6F8FF",
"y< 	c #FBFDFE",
"z< 	c #FCFDFD",
"A< 	c #FDFCFE",
"B< 	c #B0E8EE",
"C< 	c #96E9F5",
"D< 	c #93EBF5",
"E< 	c #90E7F3",
"F< 	c #BBE8F0",
"G< 	c #FCFDFE",
"H< 	c #FDFDFE",
"I< 	c #FFFFFD",
"J< 	c #FAFFFF",
"K< 	c #AEE6EF",
"L< 	c #9EE2F0",
"M< 	c #9FE3F1",
"N< 	c #A1E4F1",
"O< 	c #A3E6F1",
"P< 	c #A6E6F1",
"Q< 	c #A4E6F1",
"R< 	c #A0E6F1",
"S< 	c #9EE5F0",
"T< 	c #9AE5F1",
"U< 	c #93E4EE",
"V< 	c #88DEE9",
"W< 	c #C6F0F4",
"X< 	c #FBFEFF",
"Y< 	c #6D7A7F",
"Z< 	c #05132F",
"`< 	c #04122C",
" [ 	c #04112D",
".[ 	c #08152B",
"+[ 	c #53565F",
"@[ 	c #4F4D56",
"#[ 	c #4E4B54",
"$[ 	c #4A4853",
"%[ 	c #949390",
"&[ 	c #8D8E8A",
"*[ 	c #8C8D89",
"=[ 	c #8F908C",
"-[ 	c #383138",
";[ 	c #2F272F",
">[ 	c #332F32",
",[ 	c #7F7C7D",
"'[ 	c #757378",
")[ 	c #433C46",
"![ 	c #2F2433",
"~[ 	c #302534",
"{[ 	c #352E37",
"][ 	c #868180",
"^[ 	c #8A8685",
"/[ 	c #8C8585",
"([ 	c #8B8584",
"_[ 	c #95918C",
":[ 	c #AFABA2",
"<[ 	c #B0ADA2",
"[[ 	c #AEACA2",
"}[ 	c #8F8E86",
"|[ 	c #8C8B83",
"1[ 	c #898A80",
"2[ 	c #7A7B78",
"3[ 	c #6B6B6C",
"4[ 	c #6E6E6E",
"5[ 	c #7C7D81",
"6[ 	c #353B4B",
"7[ 	c #051D3E",
"8[ 	c #061F3D",
"9[ 	c #001B37",
"0[ 	c #D5E1E8",
"a[ 	c #F2F7FC",
"b[ 	c #F8F9FD",
"c[ 	c #FDFDFF",
"d[ 	c #FFFFFF",
"e[ 	c #B6EAF1",
"f[ 	c #9BE6F4",
"g[ 	c #98E8F4",
"h[ 	c #96E8F3",
"i[ 	c #BBEAEF",
"j[ 	c #F9FEFF",
"k[ 	c #A5E3EA",
"l[ 	c #9DE2EF",
"m[ 	c #9FE2F0",
"n[ 	c #A2E4F1",
"o[ 	c #A3E5F1",
"p[ 	c #A6E6F2",
"q[ 	c #A7E5F2",
"r[ 	c #A5E6F2",
"s[ 	c #A1E6F2",
"t[ 	c #9CE6F1",
"u[ 	c #97E5F1",
"v[ 	c #8CDEED",
"w[ 	c #C6F1F5",
"x[ 	c #FBFFFE",
"y[ 	c #6B7A80",
"z[ 	c #031330",
"A[ 	c #031230",
"B[ 	c #05112E",
"C[ 	c #0A142D",
"D[ 	c #585860",
"E[ 	c #535058",
"F[ 	c #504C54",
"G[ 	c #4B4953",
"H[ 	c #67666C",
"I[ 	c #92928F",
"J[ 	c #8D8D8C",
"K[ 	c #393138",
"L[ 	c #302730",
"M[ 	c #322D33",
"N[ 	c #807D80",
"O[ 	c #7A787A",
"P[ 	c #757375",
"Q[ 	c #737075",
"R[ 	c #3E3842",
"S[ 	c #2F2533",
"T[ 	c #383137",
"U[ 	c #8B8683",
"V[ 	c #8C8583",
"W[ 	c #8B8583",
"X[ 	c #AEA9A1",
"Y[ 	c #B0ACA2",
"Z[ 	c #AEABA2",
"`[ 	c #ADABA2",
" } 	c #A3A09A",
".} 	c #8B8A81",
"+} 	c #898980",
"@} 	c #6C6D6D",
"#} 	c #727373",
"$} 	c #7D7F82",
"%} 	c #353C4B",
"&} 	c #061D3E",
"*} 	c #01213E",
"=} 	c #CADBE0",
"-} 	c #F6FBFC",
";} 	c #BBE9F1",
">} 	c #A1E5F4",
",} 	c #9EE7F3",
"'} 	c #97E9F3",
")} 	c #BDECF1",
"!} 	c #F8FEFE",
"~} 	c #A1E0E6",
"{} 	c #9DE1ED",
"]} 	c #9FE1EF",
"^} 	c #A6E5F3",
"/} 	c #A4E6F3",
"(} 	c #A0E4F2",
"_} 	c #9FE6F0",
":} 	c #9DE8F1",
"<} 	c #98E6F2",
"[} 	c #90E2F0",
"}} 	c #C4EEF2",
"|} 	c #F8FFFF",
"1} 	c #FBFEFE",
"2} 	c #6A7B81",
"3} 	c #031331",
"4} 	c #0D172F",
"5} 	c #5D5F68",
"6} 	c #54525A",
"7} 	c #504E56",
"8} 	c #4B4A55",
"9} 	c #6A686F",
"0} 	c #909089",
"a} 	c #8F918A",
"b} 	c #8D8B87",
"c} 	c #8D8E8C",
"d} 	c #3A3239",
"e} 	c #30272F",
"f} 	c #282129",
"g} 	c #4F4C52",
"h} 	c #423C43",
"i} 	c #312C31",
"j} 	c #747275",
"k} 	c #8B868A",
"l} 	c #878185",
"m} 	c #827C7F",
"n} 	c #9B9891",
"o} 	c #9E9A93",
"p} 	c #696460",
"q} 	c #706B68",
"r} 	c #75706D",
"s} 	c #7B7674",
"t} 	c #85817C",
"u} 	c #88877F",
"v} 	c #87867D",
"w} 	c #696C6F",
"x} 	c #52565E",
"y} 	c #555A60",
"z} 	c #596064",
"A} 	c #626B71",
"B} 	c #425667",
"C} 	c #2E5065",
"D} 	c #1D3D54",
"E} 	c #12354E",
"F} 	c #08334E",
"G} 	c #C3DDE2",
"H} 	c #EEFBFD",
"I} 	c #ECFAFC",
"J} 	c #E8FAFC",
"K} 	c #EDFBFB",
"L} 	c #FCFFFD",
"M} 	c #FBFFFF",
"N} 	c #E8F8F8",
"O} 	c #D6F3F7",
"P} 	c #D8F3F6",
"Q} 	c #D3F0F1",
"R} 	c #D7EBF0",
"S} 	c #DBF2F5",
"T} 	c #D8F3F9",
"U} 	c #D8F4F9",
"V} 	c #CCF3F5",
"W} 	c #DAF5F4",
"X} 	c #FCFEFD",
"Y} 	c #F6FEFE",
"Z} 	c #CBEFEF",
"`} 	c #CEF0F6",
" | 	c #D1EFF7",
".| 	c #D2F1F7",
"+| 	c #B4EAF2",
"@| 	c #98DFF0",
"#| 	c #98DFF1",
"$| 	c #9AE1F2",
"%| 	c #9BE1F1",
"&| 	c #A5E8F3",
"*| 	c #A5EBF5",
"=| 	c #9FECF6",
"-| 	c #9CEBF8",
";| 	c #CBF5F9",
">| 	c #F8FFFE",
",| 	c #F6FFFF",
"'| 	c #F7FFFF",
")| 	c #F0FFFF",
"!| 	c #66808B",
"~| 	c #203755",
"{| 	c #2B3F5C",
"]| 	c #314B63",
"^| 	c #284358",
"/| 	c #343C48",
"(| 	c #353A47",
"_| 	c #353B47",
":| 	c #303846",
"<| 	c #616167",
"[| 	c #8F8D8B",
"}| 	c #868582",
"|| 	c #858380",
"1| 	c #8F8D86",
"2| 	c #93938C",
"3| 	c #908F89",
"4| 	c #8F8E88",
"5| 	c #8E8B85",
"6| 	c #8E8F8D",
"7| 	c #3B333A",
"8| 	c #2F262E",
"9| 	c #241B24",
"0| 	c #281E29",
"a| 	c #291E2B",
"b| 	c #281D29",
"c| 	c #251D25",
"d| 	c #919091",
"e| 	c #B0AFAA",
"f| 	c #AEADA5",
"g| 	c #ACAAA2",
"h| 	c #A8A49D",
"i| 	c #A9A69C",
"j| 	c #AAA69E",
"k| 	c #9E9B94",
"l| 	c #40373A",
"m| 	c #42333D",
"n| 	c #40313B",
"o| 	c #3E3137",
"p| 	c #625D5A",
"q| 	c #87857E",
"r| 	c #84857D",
"s| 	c #4A4F54",
"t| 	c #060F27",
"u| 	c #051226",
"v| 	c #051327",
"w| 	c #041329",
"x| 	c #96B1C0",
"y| 	c #C4EDF7",
"z| 	c #BEEEEE",
"A| 	c #BCECEB",
"B| 	c #BEECED",
"C| 	c #A4E5EB",
"D| 	c #96DEE5",
"E| 	c #8EDEE7",
"F| 	c #86DDE5",
"G| 	c #ABE0E3",
"H| 	c #BEE8EC",
"I| 	c #72CFDC",
"J| 	c #70D1DD",
"K| 	c #6ACFDD",
"L| 	c #80CCDA",
"M| 	c #F2FEFE",
"N| 	c #FEFEFD",
"O| 	c #FEFDFE",
"P| 	c #FDFEFD",
"Q| 	c #C6EDF2",
"R| 	c #8BD7EC",
"S| 	c #8ADAED",
"T| 	c #8BDBED",
"U| 	c #8FDCEE",
"V| 	c #ACEDF7",
"W| 	c #ABF0F8",
"X| 	c #A7F0FB",
"Y| 	c #A2EBFA",
"Z| 	c #DDF5F7",
"`| 	c #75A2BA",
" 1 	c #709DB7",
".1 	c #6E9AB5",
"+1 	c #6A9DB7",
"@1 	c #71C2DA",
"#1 	c #7CC5E0",
"$1 	c #82C5E3",
"%1 	c #81C5E7",
"&1 	c #65A2BF",
"*1 	c #03112F",
"=1 	c #06122F",
"-1 	c #061236",
";1 	c #4E505D",
">1 	c #7A7A7C",
",1 	c #6D6C6C",
"'1 	c #6B6869",
")1 	c #696769",
"!1 	c #8B8786",
"~1 	c #95958F",
"{1 	c #93908A",
"]1 	c #8F8C87",
"^1 	c #8F8F8E",
"/1 	c #3A333A",
"(1 	c #251A24",
"_1 	c #281E27",
":1 	c #2A1E28",
"<1 	c #2A1D29",
"[1 	c #261D29",
"}1 	c #949194",
"|1 	c #B1B0AA",
"11 	c #AFAEA5",
"21 	c #ADACA2",
"31 	c #A9A69B",
"41 	c #ABA89D",
"51 	c #AAA79D",
"61 	c #AAA79E",
"71 	c #ABA99E",
"81 	c #9F9C93",
"91 	c #40353B",
"01 	c #43333B",
"a1 	c #423139",
"b1 	c #3E3037",
"c1 	c #5C5756",
"d1 	c #87877F",
"e1 	c #88877D",
"f1 	c #8D8E83",
"g1 	c #545A5C",
"h1 	c #06112A",
"i1 	c #05122D",
"j1 	c #06132F",
"k1 	c #06152F",
"l1 	c #95B1BA",
"m1 	c #D1F4F7",
"n1 	c #CBF8FA",
"o1 	c #CBF9FB",
"p1 	c #A5E6EE",
"q1 	c #8BDCE7",
"r1 	c #87DDE8",
"s1 	c #83DBE7",
"t1 	c #A6DFE6",
"u1 	c #BFECEE",
"v1 	c #7BDBE5",
"w1 	c #77DEE7",
"x1 	c #70DAE5",
"y1 	c #78D2DC",
"z1 	c #F0FEFE",
"A1 	c #C7EBF1",
"B1 	c #83D5E8",
"C1 	c #84D8EB",
"D1 	c #84D9EC",
"E1 	c #86D9EA",
"F1 	c #AFEEF7",
"G1 	c #B0F0F9",
"H1 	c #ACEEFC",
"I1 	c #A3EBFB",
"J1 	c #CCF2FA",
"K1 	c #FAFFFE",
"L1 	c #D8F1F5",
"M1 	c #387FAD",
"N1 	c #367DAD",
"O1 	c #327CAB",
"P1 	c #2B7DA8",
"Q1 	c #73C3DF",
"R1 	c #7EC8E4",
"S1 	c #7EC5E2",
"T1 	c #7AC5E2",
"U1 	c #61A7C1",
"V1 	c #011136",
"W1 	c #051232",
"X1 	c #041233",
"Y1 	c #05123A",
"Z1 	c #4C525A",
"`1 	c #808181",
" 2 	c #747376",
".2 	c #6D6B6E",
"+2 	c #6A686E",
"@2 	c #89888A",
"#2 	c #969691",
"$2 	c #969690",
"%2 	c #94938E",
"&2 	c #93918A",
"*2 	c #90918D",
"=2 	c #3B353B",
"-2 	c #2D262E",
";2 	c #241B22",
">2 	c #281F28",
",2 	c #2A1F28",
"'2 	c #2B1E28",
")2 	c #271E29",
"!2 	c #969394",
"~2 	c #B2B0A9",
"{2 	c #B1AEA6",
"]2 	c #AFABA3",
"^2 	c #AAA69D",
"/2 	c #ACA9A0",
"(2 	c #ABA89F",
"_2 	c #A09B95",
":2 	c #40343A",
"<2 	c #43333A",
"[2 	c #413138",
"}2 	c #3D3036",
"|2 	c #575150",
"12 	c #908C82",
"22 	c #8F8B83",
"32 	c #908C85",
"42 	c #96928B",
"52 	c #616266",
"62 	c #08112C",
"72 	c #071330",
"82 	c #061331",
"92 	c #071431",
"02 	c #88A8B5",
"a2 	c #CAF5F6",
"b2 	c #CCF6FA",
"c2 	c #CCF7FB",
"d2 	c #A9E7EE",
"e2 	c #8FDDE7",
"f2 	c #8ADCE7",
"g2 	c #88DAE5",
"h2 	c #A5DFE6",
"i2 	c #F9FEFE",
"j2 	c #C7EEF1",
"k2 	c #83DFE8",
"l2 	c #7DDFE8",
"m2 	c #76DCE8",
"n2 	c #73D5E0",
"o2 	c #E8FDFE",
"p2 	c #C3EAEF",
"q2 	c #85D4E8",
"r2 	c #86D5EB",
"s2 	c #85D5EB",
"t2 	c #83D6E8",
"u2 	c #A8EEF5",
"v2 	c #B1F1FC",
"w2 	c #ACEEFD",
"x2 	c #9FEBF9",
"y2 	c #C4EDF4",
"z2 	c #DAF3F5",
"A2 	c #377EAC",
"B2 	c #377EAD",
"C2 	c #337EAC",
"D2 	c #2F80A9",
"E2 	c #73BFDC",
"F2 	c #7EC4E1",
"G2 	c #7CC3E0",
"H2 	c #78C4DF",
"I2 	c #66ADC7",
"J2 	c #01133C",
"K2 	c #061237",
"L2 	c #051236",
"M2 	c #061339",
"N2 	c #4F535D",
"O2 	c #88888B",
"P2 	c #7A767A",
"Q2 	c #706F72",
"R2 	c #6B6B72",
"S2 	c #87898B",
"T2 	c #949791",
"U2 	c #949590",
"V2 	c #90918E",
"W2 	c #8E8F8E",
"X2 	c #3B363C",
"Y2 	c #272124",
"Z2 	c #595554",
"`2 	c #5C5857",
" 3 	c #5E5958",
".3 	c #5B5656",
"+3 	c #9D9A96",
"@3 	c #AEACA4",
"#3 	c #AEAAA2",
"$3 	c #ACA9A1",
"%3 	c #A6A39B",
"&3 	c #A19E96",
"*3 	c #9F9C94",
"=3 	c #A09C95",
"-3 	c #9D9A92",
";3 	c #5F5A5C",
">3 	c #625B5D",
",3 	c #60585B",
"'3 	c #595355",
")3 	c #403F43",
"!3 	c #4F5355",
"~3 	c #53595A",
"{3 	c #585E5F",
"]3 	c #636C6A",
"^3 	c #58696E",
"/3 	c #243547",
"(3 	c #28394A",
"_3 	c #2E3E4E",
":3 	c #475664",
"<3 	c #87A6B5",
"[3 	c #C3F2F5",
"}3 	c #CFF7F9",
"|3 	c #D0F6F9",
"13 	c #CEF7F9",
"23 	c #ADE8EF",
"33 	c #93DFE9",
"43 	c #94E0ED",
"53 	c #92E0EC",
"63 	c #9CDFE7",
"73 	c #F7FCFD",
"83 	c #EFFDFE",
"93 	c #EFFDFF",
"03 	c #F1FEFF",
"a3 	c #F2FDFE",
"b3 	c #E6F8FA",
"c3 	c #D0F2F6",
"d3 	c #BEEFF1",
"e3 	c #AFEDEF",
"f3 	c #A6E8EA",
"g3 	c #E8FBFC",
"h3 	c #C6E9EC",
"i3 	c #A5DAE8",
"j3 	c #ACDCE9",
"k3 	c #B2E0ED",
"l3 	c #B4EAF1",
"m3 	c #ACEDFA",
"n3 	c #A7ECF9",
"o3 	c #9FECF9",
"p3 	c #E6F6F9",
"q3 	c #ECF9FE",
"r3 	c #EEFDFF",
"s3 	c #F1FFFF",
"t3 	c #D4F1F4",
"u3 	c #377FAB",
"v3 	c #3A81AE",
"w3 	c #3782AC",
"x3 	c #3686AC",
"y3 	c #6FBAD8",
"z3 	c #7AC2DE",
"A3 	c #76C2DD",
"B3 	c #66ADC8",
"C3 	c #001F44",
"D3 	c #01173B",
"E3 	c #031C3D",
"F3 	c #17334E",
"G3 	c #2F3747",
"H3 	c #5A5E61",
"I3 	c #565A5C",
"J3 	c #4F5456",
"K3 	c #484B51",
"L3 	c #767D7D",
"M3 	c #8E928D",
"N3 	c #8C8984",
"O3 	c #8E8D8A",
"P3 	c #8F8F8D",
"Q3 	c #8C8E8D",
"R3 	c #3E3B3B",
"S3 	c #A09D97",
"T3 	c #9C9C94",
"U3 	c #9B9790",
"V3 	c #908D85",
"W3 	c #86857C",
"X3 	c #848279",
"Y3 	c #84817A",
"Z3 	c #7F7F79",
"`3 	c #898D8A",
" 4 	c #8D908F",
".4 	c #8E908F",
"+4 	c #929192",
"@4 	c #66666D",
"#4 	c #081126",
"$4 	c #051429",
"%4 	c #06142E",
"&4 	c #031630",
"*4 	c #A4BABD",
"=4 	c #ECF7F8",
"-4 	c #EDF8F9",
";4 	c #EBF9FA",
">4 	c #E9FCFD",
",4 	c #E6FEFE",
"'4 	c #E8FFFD",
")4 	c #E6FDFC",
"!4 	c #E4FDFC",
"~4 	c #BFEFF5",
"{4 	c #A2E7F2",
"]4 	c #A2E9F5",
"^4 	c #A1EBF7",
"/4 	c #9EE7EE",
"(4 	c #F3FCFD",
"_4 	c #F5FEFE",
":4 	c #87D6E1",
"<4 	c #88DEEB",
"[4 	c #8FE2EF",
"}4 	c #9DDFEC",
"|4 	c #EEFDFE",
"14 	c #FDFEFE",
"24 	c #DBF3F7",
"34 	c #A7E7F8",
"44 	c #A6E9F8",
"54 	c #A3EBF9",
"64 	c #8ED8EC",
"74 	c #62ABCB",
"84 	c #67B0CF",
"94 	c #69B3CC",
"04 	c #6DB6CD",
"a4 	c #6BB6D2",
"b4 	c #5CACCE",
"c4 	c #5DADCF",
"d4 	c #5EB0CF",
"e4 	c #60B5D3",
"f4 	c #72C0DB",
"g4 	c #77C2DB",
"h4 	c #78C3DC",
"i4 	c #77C3DE",
"j4 	c #76C3DE",
"k4 	c #77BDD6",
"l4 	c #80C2D8",
"m4 	c #83C5DB",
"n4 	c #8DCEE6",
"o4 	c #456074",
"p4 	c #061328",
"q4 	c #061127",
"r4 	c #788187",
"s4 	c #868A88",
"t4 	c #7A7B7A",
"u4 	c #7A7A79",
"v4 	c #8A8986",
"w4 	c #8E8D85",
"x4 	c #8C8B82",
"y4 	c #3B373C",
"z4 	c #2F2630",
"A4 	c #403E3F",
"B4 	c #9F9F98",
"C4 	c #9A9A91",
"D4 	c #999990",
"E4 	c #9A9890",
"F4 	c #8F8D85",
"G4 	c #8E8A82",
"H4 	c #8B8881",
"I4 	c #837F7B",
"J4 	c #8A8F8B",
"K4 	c #8D918D",
"L4 	c #939490",
"M4 	c #737377",
"N4 	c #060F29",
"O4 	c #04122A",
"P4 	c #051834",
"Q4 	c #A6BABF",
"R4 	c #F2FCFA",
"S4 	c #F2FBFD",
"T4 	c #F2FCFE",
"U4 	c #F0FDFF",
"V4 	c #EBFEFF",
"W4 	c #E7FDFE",
"X4 	c #EAFEFE",
"Y4 	c #E9FDFD",
"Z4 	c #E8FEFE",
"`4 	c #C2F1F5",
" 5 	c #A6E9F3",
".5 	c #A8E9F8",
"+5 	c #A5EAF8",
"@5 	c #A1E8F1",
"#5 	c #F3FDFE",
"$5 	c #F8FEFF",
"%5 	c #92E2F2",
"&5 	c #8DECFB",
"*5 	c #96F2FA",
"=5 	c #99ECF2",
"-5 	c #DDF5F9",
";5 	c #A9E8FB",
">5 	c #A7EAF9",
",5 	c #A5ECF9",
"'5 	c #94DDF4",
")5 	c #60AED4",
"!5 	c #64B3D7",
"~5 	c #62B5D5",
"{5 	c #62B7D5",
"]5 	c #63B8D4",
"^5 	c #69BBD8",
"/5 	c #6ABBD7",
"(5 	c #6ABDD8",
"_5 	c #6BC0D9",
":5 	c #74C2DC",
"<5 	c #78C4DC",
"[5 	c #79C5DC",
"}5 	c #7AC6DD",
"|5 	c #7AC6DC",
"15 	c #7CC8DE",
"25 	c #7FCADF",
"35 	c #80CAE0",
"45 	c #8ACDE5",
"55 	c #435E72",
"65 	c #05112C",
"75 	c #05102D",
"85 	c #05112D",
"95 	c #03112D",
"05 	c #7F8590",
"a5 	c #878B8E",
"b5 	c #7D8181",
"c5 	c #7C7F7F",
"d5 	c #8E8E85",
"e5 	c #8A8A8A",
"f5 	c #39353A",
"g5 	c #403E40",
"h5 	c #A09F9B",
"i5 	c #9B9B94",
"j5 	c #9A9991",
"k5 	c #908D87",
"l5 	c #8F8B85",
"m5 	c #84827D",
"n5 	c #8D8F8B",
"o5 	c #91938F",
"p5 	c #959892",
"q5 	c #061028",
"r5 	c #05132C",
"s5 	c #061932",
"t5 	c #A8B8BF",
"u5 	c #F1FBFF",
"v5 	c #F1FDFF",
"w5 	c #F2FDFF",
"x5 	c #EEFEFF",
"y5 	c #E6FEFF",
"z5 	c #E7FFFF",
"A5 	c #E5FEFF",
"B5 	c #BEEFF3",
"C5 	c #A6EAF2",
"D5 	c #A8EBF8",
"E5 	c #A7ECF8",
"F5 	c #A5ECF5",
"G5 	c #F3FEFE",
"H5 	c #FAFEFE",
"I5 	c #A5E9F2",
"J5 	c #97F0FB",
"K5 	c #97F1FC",
"L5 	c #95EEF3",
"M5 	c #ECFEFE",
"N5 	c #D9F2F6",
"O5 	c #A6E5F8",
"P5 	c #A7ECFB",
"Q5 	c #A9EFFD",
"R5 	c #9EE4F8",
"S5 	c #60AED3",
"T5 	c #65B2D6",
"U5 	c #65B6D4",
"V5 	c #64B7D4",
"W5 	c #65B8D5",
"X5 	c #6CBCD9",
"Y5 	c #6DBDD9",
"Z5 	c #71BFDB",
"`5 	c #75C3DC",
" 6 	c #77C5DA",
".6 	c #79C5DB",
"+6 	c #7EC7DE",
"@6 	c #82C7DF",
"#6 	c #83C7E0",
"$6 	c #8BC7E1",
"%6 	c #42576C",
"&6 	c #060F2B",
"*6 	c #070F2B",
"=6 	c #020E2B",
"-6 	c #83878D",
";6 	c #888C90",
">6 	c #7E8387",
",6 	c #797D81",
"'6 	c #838685",
")6 	c #8D8F88",
"!6 	c #8B8C87",
"~6 	c #898787",
"{6 	c #363236",
"]6 	c #2E2730",
"^6 	c #403B40",
"/6 	c #A29F9E",
"(6 	c #9B9A96",
"_6 	c #9B9995",
":6 	c #999892",
"<6 	c #93918C",
"[6 	c #918E89",
"}6 	c #8F8B87",
"|6 	c #82817A",
"16 	c #82857F",
"26 	c #838B88",
"36 	c #878D90",
"46 	c #8C8F94",
"56 	c #949798",
"66 	c #88888E",
"76 	c #06102B",
"86 	c #05122C",
"96 	c #0D1F38",
"06 	c #A6B9C1",
"a6 	c #ECFBFF",
"b6 	c #F0FCFF",
"c6 	c #F1FDFE",
"d6 	c #EFFEFF",
"e6 	c #E9FEFF",
"f6 	c #E3FDFE",
"g6 	c #E1FEFE",
"h6 	c #E0FEFD",
"i6 	c #DFFEFD",
"j6 	c #B9EDF0",
"k6 	c #A9EAF0",
"l6 	c #AEECF6",
"m6 	c #B1EFF9",
"n6 	c #B6F0F6",
"o6 	c #F1FEFE",
"p6 	c #F9FFFE",
"q6 	c #F8FDFE",
"r6 	c #F4FCFD",
"s6 	c #F4FDFD",
"t6 	c #E3F9FC",
"u6 	c #DDF9FE",
"v6 	c #D7FAFD",
"w6 	c #D4F8F9",
"x6 	c #F5FDFE",
"y6 	c #DEF5F7",
"z6 	c #C4F2F8",
"A6 	c #CBF4F9",
"B6 	c #D0F8FD",
"C6 	c #C4F4FA",
"D6 	c #63AED0",
"E6 	c #66B2D6",
"F6 	c #63B6D5",
"G6 	c #64B8D5",
"H6 	c #67B9D7",
"I6 	c #6CBDDA",
"J6 	c #6CBEDA",
"K6 	c #6FBFDA",
"L6 	c #72BFDC",
"M6 	c #76C4DD",
"N6 	c #7DC6DD",
"O6 	c #80C6DE",
"P6 	c #81C7DF",
"Q6 	c #85C4DF",
"R6 	c #3E566B",
"S6 	c #16293E",
"T6 	c #182E43",
"U6 	c #182F45",
"V6 	c #1A2D47",
"W6 	c #565F68",
"X6 	c #60676F",
"Y6 	c #5C636C",
"Z6 	c #555B64",
"`6 	c #616568",
" 7 	c #888782",
".7 	c #898682",
"+7 	c #888882",
"@7 	c #878781",
"#7 	c #868380",
"$7 	c #878481",
"%7 	c #848081",
"&7 	c #7A7978",
"*7 	c #7B7A78",
"=7 	c #777376",
"-7 	c #302834",
";7 	c #3A363B",
">7 	c #7E7B7C",
",7 	c #72706F",
"'7 	c #6F6D6B",
")7 	c #716F6C",
"!7 	c #6C6A67",
"~7 	c #6B6865",
"{7 	c #6E6A67",
"]7 	c #7D7E80",
"^7 	c #091522",
"/7 	c #0B192B",
"(7 	c #0E1C2F",
"_7 	c #132031",
":7 	c #748389",
"<7 	c #C8DDE0",
"[7 	c #C8DEDF",
"}7 	c #C5DFDF",
"|7 	c #C5E1E3",
"17 	c #CFF2F2",
"27 	c #D9F9FC",
"37 	c #DBFBF9",
"47 	c #DCFCF9",
"57 	c #DDFCFA",
"67 	c #DFFDFB",
"77 	c #E0FDFC",
"87 	c #DDFEFD",
"97 	c #DCFEFC",
"07 	c #DDFCFC",
"a7 	c #C9F3F8",
"b7 	c #C0F2FA",
"c7 	c #C6F7FB",
"d7 	c #C7F9FC",
"e7 	c #CCFAFC",
"f7 	c #A4D9E2",
"g7 	c #93D4DE",
"h7 	c #81CADC",
"i7 	c #74C6DA",
"j7 	c #BBDEE4",
"k7 	c #FDFFFD",
"l7 	c #F9FFFD",
"m7 	c #E4F9FA",
"n7 	c #60A7C8",
"o7 	c #5CA8CC",
"p7 	c #59ACCD",
"q7 	c #5BADCC",
"r7 	c #63B4D1",
"s7 	c #6CBCD8",
"t7 	c #6DBDD7",
"u7 	c #71C0DB",
"v7 	c #76C4DA",
"w7 	c #77C4DB",
"x7 	c #78C3DA",
"y7 	c #76C2D9",
"z7 	c #78C1D9",
"A7 	c #7AC2DA",
"B7 	c #7AC3DB",
"C7 	c #7BC1DB",
"D7 	c #70B6D2",
"E7 	c #70BBD5",
"F7 	c #71C0D7",
"G7 	c #70C1D8",
"H7 	c #79B7D1",
"I7 	c #04122B",
"J7 	c #0F162B",
"K7 	c #0E152B",
"L7 	c #0D152A",
"M7 	c #30333C",
"N7 	c #7A7776",
"O7 	c #7C7573",
"P7 	c #7B7472",
"Q7 	c #797271",
"R7 	c #797171",
"S7 	c #766E6F",
"T7 	c #736C6B",
"U7 	c #726C69",
"V7 	c #716B69",
"W7 	c #736D6C",
"X7 	c #635C61",
"Y7 	c #3C323F",
"Z7 	c #3C313F",
"`7 	c #3A303D",
" 8 	c #372F3E",
".8 	c #363339",
"+8 	c #686668",
"@8 	c #636162",
"#8 	c #666363",
"$8 	c #686464",
"%8 	c #6A6564",
"&8 	c #6E6A68",
"*8 	c #82827E",
"=8 	c #858581",
"-8 	c #868488",
";8 	c #071125",
">8 	c #07162E",
",8 	c #07172F",
"'8 	c #081732",
")8 	c #6E7D82",
"!8 	c #E9FCFF",
"~8 	c #E5FBFB",
"{8 	c #E1FCFC",
"]8 	c #DCFCFA",
"^8 	c #DAFCFA",
"/8 	c #DAFDFC",
"(8 	c #DBFEFB",
"_8 	c #DCFEFA",
":8 	c #DDFDFB",
"<8 	c #DEFCFB",
"[8 	c #DEFDFC",
"}8 	c #CCF6FD",
"|8 	c #CCF7FD",
"18 	c #CBF8FC",
"28 	c #CAF8FC",
"38 	c #88CEE3",
"48 	c #7FCDE3",
"58 	c #7BCFE4",
"68 	c #77CFE6",
"78 	c #BAE1E8",
"88 	c #FFFCFF",
"98 	c #E8FAFA",
"08 	c #5FA5C8",
"a8 	c #59A3CB",
"b8 	c #55A7CA",
"c8 	c #58AAC9",
"d8 	c #62B4CF",
"e8 	c #6ABCD7",
"f8 	c #6EBED9",
"g8 	c #6FBFD9",
"h8 	c #71C2DB",
"i8 	c #73C3DB",
"j8 	c #74C2DA",
"k8 	c #75C3DB",
"l8 	c #76C1DA",
"m8 	c #77C1DA",
"n8 	c #75C1DB",
"o8 	c #6EBDD7",
"p8 	c #6EBED7",
"q8 	c #6DBFD7",
"r8 	c #6CC2D9",
"s8 	c #71B5D1",
"t8 	c #10152D",
"u8 	c #10152E",
"v8 	c #0F152E",
"w8 	c #3B3E48",
"x8 	c #7C7878",
"y8 	c #797370",
"z8 	c #787270",
"A8 	c #776F70",
"B8 	c #756C6D",
"C8 	c #746A6C",
"D8 	c #72686A",
"E8 	c #716867",
"F8 	c #706767",
"G8 	c #6E6968",
"H8 	c #706A6A",
"I8 	c #716A6B",
"J8 	c #5E565B",
"K8 	c #3D333F",
"L8 	c #3D323F",
"M8 	c #3D3241",
"N8 	c #3C2F3F",
"O8 	c #3A3141",
"P8 	c #383342",
"Q8 	c #353239",
"R8 	c #686569",
"S8 	c #656264",
"T8 	c #666264",
"U8 	c #828280",
"V8 	c #8C8A8E",
"W8 	c #0A1326",
"X8 	c #091933",
"Y8 	c #6A7E84",
"Z8 	c #E2FBFD",
"`8 	c #DEFAFD",
" 9 	c #DBFBFD",
".9 	c #D9FCFD",
"+9 	c #DAFCFC",
"@9 	c #DDFDFD",
"#9 	c #DFFCFC",
"$9 	c #DEFDFA",
"%9 	c #DDFEFA",
"&9 	c #DEFDFB",
"*9 	c #D3F8FC",
"=9 	c #CBF6FC",
"-9 	c #CAF7FC",
";9 	c #C9F8FC",
">9 	c #C7F6FB",
",9 	c #86CDE2",
"'9 	c #80CEE4",
")9 	c #7CCFE6",
"!9 	c #78CFE6",
"~9 	c #B9E1E8",
"{9 	c #E9FBFC",
"]9 	c #65A9CB",
"^9 	c #59A3CC",
"/9 	c #56A7CA",
"(9 	c #59AACA",
"_9 	c #6BBDD8",
":9 	c #70C0DA",
"<9 	c #72C2DC",
"[9 	c #73C2DB",
"}9 	c #72C1DB",
"|9 	c #6FBCD6",
"19 	c #71BBD6",
"29 	c #70BDD7",
"39 	c #72C3DC",
"49 	c #78B3D1",
"59 	c #061230",
"69 	c #0F152D",
"79 	c #3E414D",
"89 	c #7B7778",
"99 	c #787070",
"09 	c #776F6F",
"a9 	c #746C6D",
"b9 	c #73696C",
"c9 	c #71686B",
"d9 	c #6F676A",
"e9 	c #6F6768",
"f9 	c #6F6667",
"g9 	c #6E6767",
"h9 	c #6E6768",
"i9 	c #6E676A",
"j9 	c #544C53",
"k9 	c #3D3340",
"l9 	c #3C3241",
"m9 	c #3B2F3E",
"n9 	c #3A3142",
"o9 	c #393443",
"p9 	c #343137",
"q9 	c #615D63",
"r9 	c #5D5A5F",
"s9 	c #5C595D",
"t9 	c #5B585C",
"u9 	c #5E5B5D",
"v9 	c #686667",
"w9 	c #6D7071",
"x9 	c #72777B",
"y9 	c #7B8281",
"z9 	c #808787",
"A9 	c #878A91",
"B9 	c #0C1F34",
"C9 	c #0A213A",
"D9 	c #0B233B",
"E9 	c #0C233B",
"F9 	c #6C848B",
"G9 	c #DFFAFF",
"H9 	c #D8FBFC",
"I9 	c #D6FBFB",
"J9 	c #D7FCFC",
"K9 	c #DBFCFC",
"L9 	c #DFFCFB",
"M9 	c #DFFEFC",
"N9 	c #DFFEFB",
"O9 	c #DEFFFB",
"P9 	c #DEFEFB",
"Q9 	c #D0F9FB",
"R9 	c #CAF7FB",
"S9 	c #C9F8FB",
"T9 	c #C3F5FC",
"U9 	c #7ECFE2",
"V9 	c #7ECDE5",
"W9 	c #7ECEE7",
"X9 	c #B4DFE8",
"Y9 	c #FBFEFD",
"Z9 	c #F0FDFE",
"`9 	c #71B3D2",
" 0 	c #55A4CB",
".0 	c #57A5C9",
"+0 	c #59ABCB",
"@0 	c #63B4D3",
"#0 	c #72C1DC",
"$0 	c #76C3DB",
"%0 	c #77C2D9",
"&0 	c #76C2DB",
"*0 	c #78C2DA",
"=0 	c #77C2DA",
"-0 	c #76C3DC",
";0 	c #74C1DA",
">0 	c #70BBD4",
",0 	c #71BBD4",
"'0 	c #75C0D9",
")0 	c #75B1CB",
"!0 	c #061135",
"~0 	c #0D1530",
"{0 	c #0C162D",
"]0 	c #0D162C",
"^0 	c #3C3F4C",
"/0 	c #6B686C",
"(0 	c #676267",
"_0 	c #645E62",
":0 	c #6C6567",
"<0 	c #666365",
"[0 	c #646062",
"}0 	c #635E5F",
"|0 	c #625E5D",
"10 	c #605C60",
"20 	c #5B575B",
"30 	c #423946",
"40 	c #3B3340",
"50 	c #372F3D",
"60 	c #342C3B",
"70 	c #332C3A",
"80 	c #342E3E",
"90 	c #36303D",
"00 	c #3E3B40",
"a0 	c #A7A5A1",
"b0 	c #A8A7A0",
"c0 	c #AAA9A0",
"d0 	c #ACACA3",
"e0 	c #AFAEA4",
"f0 	c #B0B0A5",
"g0 	c #B0B0A6",
"h0 	c #A9ADA8",
"i0 	c #1E242B",
"j0 	c #0B1627",
"k0 	c #0B1628",
"l0 	c #0C1829",
"m0 	c #091E2F",
"n0 	c #204F69",
"o0 	c #1B4F6B",
"p0 	c #1A4E68",
"q0 	c #164560",
"r0 	c #77979E",
"s0 	c #E3FCFE",
"t0 	c #E0FCFB",
"u0 	c #E1FDFC",
"v0 	c #E2FDFC",
"w0 	c #E4FCFC",
"x0 	c #E2FCFD",
"y0 	c #E0FDFD",
"z0 	c #DBFCFA",
"A0 	c #F0FEFD",
"B0 	c #F5FEFD",
"C0 	c #F4FEFE",
"D0 	c #D6FAFA",
"E0 	c #CEF9FC",
"F0 	c #D1FBFD",
"G0 	c #D1FBFC",
"H0 	c #CDF9FC",
"I0 	c #58A0B7",
"J0 	c #53A2BB",
"K0 	c #56A7C2",
"L0 	c #54A7C2",
"M0 	c #93C3D0",
"N0 	c #DDF6F7",
"O0 	c #D3F0F0",
"P0 	c #C3EBED",
"Q0 	c #BCE7EA",
"R0 	c #E3FDFD",
"S0 	c #E8FCFE",
"T0 	c #E4FCFD",
"U0 	c #E3FCFB",
"V0 	c #E2FBFC",
"W0 	c #E3FCFD",
"X0 	c #E4FBFB",
"Y0 	c #E4FBFA",
"Z0 	c #E5FCFB",
"`0 	c #E6FBFB",
" a 	c #E6FBFC",
".a 	c #E7FBFC",
"+a 	c #EAFCFD",
"@a 	c #EBFDFE",
"#a 	c #ECFDFE",
"$a 	c #EDFDFE",
"%a 	c #EFFEFD",
"&a 	c #E4F4F7",
"*a 	c #DAEAED",
"=a 	c #DFEEF2",
"-a 	c #E5F5F9",
";a 	c #E7FCFF",
">a 	c #7CB8D4",
",a 	c #57A5CD",
"'a 	c #5AA7CD",
")a 	c #59A9CE",
"!a 	c #7FC5E0",
"~a 	c #A4E2F4",
"{a 	c #A4E2F0",
"]a 	c #A3E0EE",
"^a 	c #A0DDEB",
"/a 	c #9DDCEA",
"(a 	c #9ADAE9",
"_a 	c #99D9E9",
":a 	c #94D7E6",
"<a 	c #91D4E5",
"[a 	c #8FD1E3",
"}a 	c #91D2E5",
"|a 	c #92D3E7",
"1a 	c #92D5E8",
"2a 	c #74BED6",
"3a 	c #6FBAD3",
"4a 	c #74BFD8",
"5a 	c #70A9C5",
"6a 	c #3E5F7F",
"7a 	c #48738F",
"8a 	c #4C7B94",
"9a 	c #4E7A94",
"0a 	c #25374B",
"aa 	c #1A1E2A",
"ba 	c #131929",
"ca 	c #111527",
"da 	c #111524",
"ea 	c #717474",
"fa 	c #6D6B6C",
"ga 	c #6D6C6E",
"ha 	c #AAABA5",
"ia 	c #AFB1A8",
"ja 	c #B4B6AC",
"ka 	c #B8B8AF",
"la 	c #B8B9AF",
"ma 	c #B8B9B0",
"na 	c #B8B8B1",
"oa 	c #B5B7AF",
"pa 	c #ACADA9",
"qa 	c #3E3D41",
"ra 	c #24202A",
"sa 	c #48454B",
"ta 	c #B5B4AD",
"ua 	c #B4B4A8",
"va 	c #B5B4A7",
"wa 	c #B4B4A6",
"xa 	c #B5B4A8",
"ya 	c #B1AFAB",
"za 	c #171D29",
"Aa 	c #0E162A",
"Ba 	c #0D172A",
"Ca 	c #0D182C",
"Da 	c #0A1D31",
"Ea 	c #1F4F69",
"Fa 	c #194E6C",
"Ga 	c #174B69",
"Ha 	c #164664",
"Ia 	c #89ACB3",
"Ja 	c #EBFDFF",
"Ka 	c #E9FBFD",
"La 	c #E8FDFD",
"Ma 	c #E5FDFC",
"Na 	c #E1FDFD",
"Oa 	c #E0FCFD",
"Pa 	c #D9FBF9",
"Qa 	c #DDFAFB",
"Ra 	c #D4FBFE",
"Sa 	c #D5FCFD",
"Ta 	c #D4FBFD",
"Ua 	c #40819C",
"Va 	c #2B7B9A",
"Wa 	c #2A7B9B",
"Xa 	c #2A7A9B",
"Ya 	c #6AAFC0",
"Za 	c #99E0F1",
"`a 	c #8DD9E7",
" b 	c #89D7E4",
".b 	c #8AD8E4",
"+b 	c #D1FAFD",
"@b 	c #D6F9FE",
"#b 	c #D0F6FC",
"$b 	c #CDF5FC",
"%b 	c #CAF6FB",
"&b 	c #C8F6FA",
"*b 	c #C7F6FA",
"=b 	c #C6F7FA",
"-b 	c #C8F8FB",
";b 	c #C9F9FD",
">b 	c #CAF9FD",
",b 	c #CBF8FE",
"'b 	c #CAF8FE",
")b 	c #C8F8FD",
"!b 	c #C8F9FE",
"~b 	c #C5F8FA",
"{b 	c #C7F9FA",
"]b 	c #C8FAFB",
"^b 	c #CBFAFC",
"/b 	c #A0CAD2",
"(b 	c #1F577E",
"_b 	c #276385",
":b 	c #337194",
"<b 	c #4E88A6",
"[b 	c #71BEDC",
"}b 	c #62B9DE",
"|b 	c #5FBADD",
"1b 	c #58B1D5",
"2b 	c #80C5DF",
"3b 	c #ABE4F3",
"4b 	c #ACE4F2",
"5b 	c #ABE3EF",
"6b 	c #A9E3EF",
"7b 	c #A8E2EE",
"8b 	c #A6E1ED",
"9b 	c #A4E1ED",
"0b 	c #A4E0EE",
"ab 	c #A1DDEC",
"bb 	c #9FDBE9",
"cb 	c #A0DCEA",
"db 	c #A0DCEB",
"eb 	c #A0DEED",
"fb 	c #78C2D9",
"gb 	c #6CB8D3",
"hb 	c #6DB9D4",
"ib 	c #71BED8",
"jb 	c #62A6C2",
"kb 	c #4E85A5",
"lb 	c #508CA9",
"mb 	c #4E8EA8",
"nb 	c #4F8DA9",
"ob 	c #234058",
"pb 	c #0C1227",
"qb 	c #0B132B",
"rb 	c #0B132A",
"sb 	c #0B1324",
"tb 	c #747777",
"ub 	c #727073",
"vb 	c #ADADA7",
"wb 	c #B3B5AB",
"xb 	c #B6B8AE",
"yb 	c #B9BBB0",
"zb 	c #B9BCB1",
"Ab 	c #BABEB2",
"Bb 	c #B7BBB1",
"Cb 	c #444446",
"Db 	c #242028",
"Eb 	c #4A474D",
"Fb 	c #B4B2AC",
"Gb 	c #B2B1A6",
"Hb 	c #B2B2A5",
"Ib 	c #B3B3A5",
"Jb 	c #B5B5A9",
"Kb 	c #B6B5A9",
"Lb 	c #B4B1AC",
"Mb 	c #151B2A",
"Nb 	c #0E182E",
"Ob 	c #1D4866",
"Pb 	c #1B4968",
"Qb 	c #1B4866",
"Rb 	c #1A4865",
"Sb 	c #82A9AF",
"Tb 	c #E7FDFF",
"Ub 	c #E4FDFE",
"Vb 	c #E0FBFD",
"Wb 	c #DFFCFD",
"Xb 	c #D8FBF9",
"Yb 	c #DBF9F9",
"Zb 	c #D5F9FB",
"`b 	c #D7FBFC",
" c 	c #D8FCFD",
".c 	c #4282A0",
"+c 	c #2F799C",
"@c 	c #2F7B9C",
"#c 	c #2D799B",
"$c 	c #6AB0C1",
"%c 	c #98DFF2",
"&c 	c #8CDAEB",
"*c 	c #89D8E8",
"=c 	c #8AD8E6",
"-c 	c #CFF9FD",
";c 	c #D2F6FB",
">c 	c #CCF4FB",
",c 	c #C8F4FC",
"'c 	c #C5F4FB",
")c 	c #C3F5F9",
"!c 	c #C4F5F9",
"~c 	c #C5F6FA",
"{c 	c #C9F7FC",
"]c 	c #CBF9FD",
"^c 	c #CBF8FD",
"/c 	c #CAF9FE",
"(c 	c #C7F8FE",
"_c 	c #C6F8FC",
":c 	c #C7F8FC",
"<c 	c #CBF9FC",
"[c 	c #CCF9FC",
"}c 	c #CCF8FD",
"|c 	c #A9D2DB",
"1c 	c #1D527D",
"2c 	c #235E88",
"3c 	c #236591",
"4c 	c #256C98",
"5c 	c #6EC1DF",
"6c 	c #68C2E3",
"7c 	c #5FC1E2",
"8c 	c #5CBCDE",
"9c 	c #80CBE3",
"0c 	c #ABE5F3",
"ac 	c #ADE4F3",
"bc 	c #ACE4F1",
"cc 	c #AAE4F0",
"dc 	c #A9E2EF",
"ec 	c #A7E1EE",
"fc 	c #A5E0EF",
"gc 	c #A3DEED",
"hc 	c #A0DBE9",
"ic 	c #A0DCE9",
"jc 	c #9EDEEC",
"kc 	c #6BB7D3",
"lc 	c #6CB9D3",
"mc 	c #6CBCD5",
"nc 	c #5DA2BF",
"oc 	c #4A7FA1",
"pc 	c #4D87A5",
"qc 	c #4C8AA5",
"rc 	c #4E8CA8",
"sc 	c #24405A",
"tc 	c #0D132B",
"uc 	c #0C142E",
"vc 	c #0C132B",
"wc 	c #0D1524",
"xc 	c #737676",
"yc 	c #706B6F",
"zc 	c #6E6A6E",
"Ac 	c #AAA8A2",
"Bc 	c #B5B4AB",
"Cc 	c #B5B6AD",
"Dc 	c #B7B8AF",
"Ec 	c #B8BAB0",
"Fc 	c #B9BBB1",
"Gc 	c #B9BDB2",
"Hc 	c #B5B8AF",
"Ic 	c #3F3E41",
"Jc 	c #251F29",
"Kc 	c #4A474E",
"Lc 	c #B1B0A9",
"Mc 	c #AFAFA4",
"Nc 	c #B1B1A4",
"Oc 	c #B5B5AA",
"Pc 	c #B8B9AD",
"Qc 	c #B2B1AB",
"Rc 	c #101827",
"Sc 	c #0E182B",
"Tc 	c #0F182C",
"Uc 	c #0F192E",
"Vc 	c #0D1D34",
"Wc 	c #1A4560",
"Xc 	c #1B4764",
"Yc 	c #1A4963",
"Zc 	c #7BA5AA",
"`c 	c #E4FEFE",
" d 	c #E6FDFF",
".d 	c #D9FCFA",
"+d 	c #F4FEFD",
"@d 	c #FCFEFB",
"#d 	c #E6FCF8",
"$d 	c #E9FFFE",
"%d 	c #4482A2",
"&d 	c #2E799D",
"*d 	c #2F799B",
"=d 	c #2D7799",
"-d 	c #65ABBF",
";d 	c #94DDF1",
">d 	c #8BDAEC",
",d 	c #8AD9E8",
"'d 	c #89D8E3",
")d 	c #CDF5FA",
"!d 	c #C8F3F9",
"~d 	c #C4F4FB",
"{d 	c #C2F3FA",
"]d 	c #C6F6FA",
"^d 	c #C8F6FB",
"/d 	c #C8F8FC",
"(d 	c #CCF9FE",
"_d 	c #CDFAFD",
":d 	c #CDFBFE",
"<d 	c #CCFAFF",
"[d 	c #CBFAFF",
"}d 	c #C9F9FF",
"|d 	c #C8F9FF",
"1d 	c #C7FAFE",
"2d 	c #C6F9FC",
"3d 	c #D1F9FE",
"4d 	c #D1F9FD",
"5d 	c #CFF7FE",
"6d 	c #B6DFEB",
"7d 	c #18507B",
"8d 	c #215F89",
"9d 	c #206590",
"0d 	c #276F98",
"ad 	c #72C7E4",
"bd 	c #68C3E3",
"cd 	c #62BFE3",
"dd 	c #5DBEE1",
"ed 	c #81CFE5",
"fd 	c #ADE5F3",
"gd 	c #ACE5F1",
"hd 	c #ACE6F1",
"id 	c #ABE4F0",
"jd 	c #AAE3EF",
"kd 	c #AAE2EF",
"ld 	c #A8E1F0",
"md 	c #A4DFEC",
"nd 	c #9EDBE9",
"od 	c #9DDBE9",
"pd 	c #9BDEEB",
"qd 	c #7BC2DA",
"rd 	c #6DB7D3",
"sd 	c #6CB9D4",
"td 	c #6DBCD6",
"ud 	c #5EA4C2",
"vd 	c #4880A0",
"wd 	c #4D87A4",
"xd 	c #4B89A3",
"yd 	c #4D8BA7",
"zd 	c #26435E",
"Ad 	c #0E162E",
"Bd 	c #0C162F",
"Cd 	c #0E152E",
"Dd 	c #0F1727",
"Ed 	c #6B6F71",
"Fd 	c #68646A",
"Gd 	c #65636A",
"Hd 	c #A3A49D",
"Id 	c #B4B5AB",
"Jd 	c #B5B8AE",
"Kd 	c #B7B9B0",
"Ld 	c #B7BAB1",
"Md 	c #B8BCB2",
"Nd 	c #B9BDB3",
"Od 	c #BABDB3",
"Pd 	c #B6B8B1",
"Qd 	c #3B3A3E",
"Rd 	c #241F28",
"Sd 	c #494850",
"Td 	c #A7A69F",
"Ud 	c #A6A69A",
"Vd 	c #A6A69B",
"Wd 	c #A6A89C",
"Xd 	c #8C8E88",
"Yd 	c #828988",
"Zd 	c #182A3B",
"`d 	c #182B40",
" e 	c #182C40",
".e 	c #192E42",
"+e 	c #4D5D66",
"@e 	c #C8DCE0",
"#e 	c #C7DBDF",
"$e 	c #C5D8DB",
"%e 	c #C2D6D7",
"&e 	c #CDE6E5",
"*e 	c #E5FEFE",
"=e 	c #E2FDFD",
"-e 	c #FCFEFC",
";e 	c #BEE0E8",
">e 	c #93CADA",
",e 	c #98CBDD",
"'e 	c #98CCDD",
")e 	c #ADD6E0",
"!e 	c #CBDFE5",
"~e 	c #CCDCE3",
"{e 	c #CBDDE2",
"]e 	c #CADDE3",
"^e 	c #BAE0E7",
"/e 	c #ACE6EF",
"(e 	c #AEE7EF",
"_e 	c #B1E7EE",
":e 	c #B4EAEF",
"<e 	c #C8F3F8",
"[e 	c #C3F2F7",
"}e 	c #BFF1F7",
"|e 	c #BDEEF6",
"1e 	c #D4F7F7",
"2e 	c #DFFAFA",
"3e 	c #E0FAFA",
"4e 	c #E3F9FB",
"5e 	c #E0FBFC",
"6e 	c #CEF8F8",
"7e 	c #CDF9FB",
"8e 	c #CEFAFE",
"9e 	c #CEFBFD",
"0e 	c #CFFCFD",
"ae 	c #CFFBFD",
"be 	c #CEFCFE",
"ce 	c #CEFCFF",
"de 	c #CDFCFF",
"ee 	c #CAFBFE",
"fe 	c #B7EEF6",
"ge 	c #BBF2F7",
"he 	c #BCF2F7",
"ie 	c #BCF1F7",
"je 	c #BDEEF2",
"ke 	c #98D0DA",
"le 	c #A1DAE2",
"me 	c #A4E1E9",
"ne 	c #ACEFF6",
"oe 	c #5EA4BD",
"pe 	c #4191B9",
"qe 	c #4190BE",
"re 	c #3F93C0",
"se 	c #89C7D8",
"te 	c #BDEEF5",
"ue 	c #BBEEF7",
"ve 	c #B8ECF7",
"we 	c #B3E8F3",
"xe 	c #B4E9F3",
"ye 	c #B4E8F3",
"ze 	c #ABE6F1",
"Ae 	c #9AD8E8",
"Be 	c #97D6E7",
"Ce 	c #95D8EA",
"De 	c #7EC5DB",
"Ee 	c #7FC6DE",
"Fe 	c #82C9E1",
"Ge 	c #84CDE4",
"He 	c #78BFD8",
"Ie 	c #5E9CB8",
"Je 	c #5C9CB7",
"Ke 	c #5B9EB7",
"Le 	c #579BB6",
"Me 	c #326084",
"Ne 	c #1F4D78",
"Oe 	c #1C4F79",
"Pe 	c #1B527B",
"Qe 	c #17395B",
"Re 	c #252B35",
"Se 	c #282E37",
"Te 	c #282D3A",
"Ue 	c #272B35",
"Ve 	c #858A85",
"We 	c #A2A39A",
"Xe 	c #A2A399",
"Ye 	c #A2A49C",
"Ze 	c #A3A69E",
"`e 	c #A5A8A0",
" f 	c #A8A9A2",
".f 	c #AAABA4",
"+f 	c #A2A2A0",
"@f 	c #38363A",
"#f 	c #232028",
"$f 	c #504E58",
"%f 	c #A5A39C",
"&f 	c #A3A095",
"*f 	c #9E9E97",
"=f 	c #5A595F",
"-f 	c #605F65",
";f 	c #67666D",
">f 	c #606771",
",f 	c #1E384F",
"'f 	c #1D3951",
")f 	c #1E3951",
"!f 	c #1D3A52",
"~f 	c #5B7178",
"{f 	c #F0FEFF",
"]f 	c #F1FCFE",
"^f 	c #F2FEFF",
"/f 	c #EDFEFE",
"(f 	c #E1FEFD",
"_f 	c #E0FCFC",
":f 	c #DCFDFA",
"<f 	c #92C2CF",
"[f 	c #2B8CB5",
"}f 	c #298FBA",
"|f 	c #268FBA",
"1f 	c #7EAEC0",
"2f 	c #F8FDFF",
"3f 	c #E9FCFC",
"4f 	c #DAFBFA",
"5f 	c #DBFAFC",
"6f 	c #DAFCFE",
"7f 	c #CDF5F9",
"8f 	c #C0EFF6",
"9f 	c #BBEDF4",
"0f 	c #BAECF2",
"af 	c #D8FAF9",
"bf 	c #D1FAFB",
"cf 	c #D2FBFE",
"df 	c #D2FCFD",
"ef 	c #D3FDFE",
"ff 	c #D5FDFE",
"gf 	c #D6FEFE",
"hf 	c #D7FEFF",
"if 	c #D7FEFE",
"jf 	c #D2FDFE",
"kf 	c #7BC1D8",
"lf 	c #67BAD5",
"mf 	c #67BBD5",
"nf 	c #67BCD3",
"of 	c #94DFE7",
"pf 	c #B7FAFD",
"qf 	c #B8F9FE",
"rf 	c #B6F9FE",
"sf 	c #B4FAFD",
"tf 	c #4F88A6",
"uf 	c #25689A",
"vf 	c #256CA0",
"wf 	c #256FA3",
"xf 	c #9BC4D2",
"yf 	c #DCF9FE",
"zf 	c #D9FAFD",
"Af 	c #CEF9FD",
"Bf 	c #C3F6FD",
"Cf 	c #BAEDF5",
"Df 	c #C0F0F7",
"Ef 	c #C0EFF7",
"Ff 	c #B3EDF5",
"Gf 	c #92D0E3",
"Hf 	c #8BCAE1",
"If 	c #8ACAE0",
"Jf 	c #86CBE1",
"Kf 	c #8DD2E7",
"Lf 	c #9CE0F2",
"Mf 	c #9BE0F1",
"Nf 	c #9AE0F0",
"Of 	c #98E0F0",
"Pf 	c #80C8DF",
"Qf 	c #7FCAE1",
"Rf 	c #81D0E4",
"Sf 	c #84D5E8",
"Tf 	c #4682A5",
"Uf 	c #20669C",
"Vf 	c #1E6C9F",
"Wf 	c #1E73A4",
"Xf 	c #1F537D",
"Yf 	c #0B1327",
"Zf 	c #0C1226",
"`f 	c #0B1127",
" g 	c #0B1124",
".g 	c #6F7371",
"+g 	c #8C8981",
"@g 	c #8B8781",
"#g 	c #39343A",
"$g 	c #262029",
"%g 	c #54535B",
"&g 	c #A6A39D",
"*g 	c #A29F94",
"=g 	c #A09E94",
"-g 	c #737376",
";g 	c #5F5F68",
">g 	c #686870",
",g 	c #74737C",
"'g 	c #6A6E78",
")g 	c #223D53",
"!g 	c #1F3E56",
"~g 	c #1E3E56",
"{g 	c #566F77",
"]g 	c #ECFCFF",
"^g 	c #DDFEFB",
"/g 	c #88BDD0",
"(g 	c #2D8DB9",
"_g 	c #2B8FB8",
":g 	c #2991B8",
"<g 	c #7FADBF",
"[g 	c #F6FCFE",
"}g 	c #F7FCFE",
"|g 	c #F5FEFF",
"1g 	c #F5FFFF",
"2g 	c #DBFAFB",
"3g 	c #DCFBFD",
"4g 	c #D9FBFD",
"5g 	c #D6FAFD",
"6g 	c #CEF6FA",
"7g 	c #C7F2F7",
"8g 	c #C3F1F7",
"9g 	c #C0F0F8",
"0g 	c #BFEFF6",
"ag 	c #DCFBFB",
"bg 	c #D2FAFC",
"cg 	c #D3FBFD",
"dg 	c #D5FBFC",
"eg 	c #D6FCFD",
"fg 	c #D6FDFD",
"gg 	c #D8FEFE",
"hg 	c #DBFEFD",
"ig 	c #DEFFFE",
"jg 	c #DFFFFE",
"kg 	c #D9FEFF",
"lg 	c #7FC4DC",
"mg 	c #6FC0DD",
"ng 	c #6FC4DE",
"og 	c #6EC7DE",
"pg 	c #97E1EC",
"qg 	c #BBF7FE",
"rg 	c #BAF6FE",
"sg 	c #B4FAFE",
"tg 	c #4F85A7",
"ug 	c #28679C",
"vg 	c #276EA0",
"wg 	c #2670A0",
"xg 	c #9DC5D1",
"yg 	c #DDFAFD",
"zg 	c #BDEDF5",
"Ag 	c #C0EFF8",
"Bg 	c #C1F0F9",
"Cg 	c #C0EFF5",
"Dg 	c #8ECCE1",
"Eg 	c #87C5E0",
"Fg 	c #84C4DE",
"Gg 	c #82C4DC",
"Hg 	c #8ED1E6",
"Ig 	c #9CE0EF",
"Jg 	c #9CDFEF",
"Kg 	c #9BDEEE",
"Lg 	c #97DBEF",
"Mg 	c #77C0DA",
"Ng 	c #77C1DE",
"Og 	c #79C8E1",
"Pg 	c #7FCFE5",
"Qg 	c #41759B",
"Rg 	c #1F5C94",
"Sg 	c #1F6399",
"Tg 	c #2574A6",
"Ug 	c #265983",
"Vg 	c #0C1125",
"Wg 	c #0D1124",
"Xg 	c #0D1026",
"Yg 	c #0D1023",
"Zg 	c #717371",
"`g 	c #8D8A81",
" h 	c #8A8780",
".h 	c #27212B",
"+h 	c #5A5860",
"@h 	c #A8A49E",
"#h 	c #A29D93",
"$h 	c #A19D95",
"%h 	c #666770",
"&h 	c #6F717A",
"*h 	c #7D7D85",
"=h 	c #777884",
"-h 	c #273F56",
";h 	c #244159",
">h 	c #244057",
",h 	c #4C6672",
"'h 	c #E4F9FB",
")h 	c #EEFFFF",
"!h 	c #E2FEFC",
"~h 	c #DCFEFD",
"{h 	c #DDFDFC",
"]h 	c #DFFDFC",
"^h 	c #F2FEFD",
"/h 	c #F7FFFE",
"(h 	c #7FB7CE",
"_h 	c #308FBC",
":h 	c #2E91BA",
"<h 	c #2B92BA",
"[h 	c #80ADC1",
"}h 	c #F5FCFE",
"|h 	c #F4FFFE",
"1h 	c #F4FFFF",
"2h 	c #E7FBFB",
"3h 	c #D8FAFB",
"4h 	c #D9FAFE",
"5h 	c #D6FAFF",
"6h 	c #CFF7FB",
"7h 	c #C7F3F9",
"8h 	c #C3F3FA",
"9h 	c #F2FFFF",
"0h 	c #D5FBFE",
"ah 	c #D7FCFD",
"bh 	c #D7FDFE",
"ch 	c #DEFEFF",
"dh 	c #E2FDFF",
"eh 	c #E4FEFF",
"fh 	c #E3FFFF",
"gh 	c #DBFEFF",
"hh 	c #83C8E0",
"ih 	c #75C5E2",
"jh 	c #74C8E3",
"kh 	c #71CBE3",
"lh 	c #9CE5F1",
"mh 	c #BCF6FE",
"nh 	c #BBF6FD",
"oh 	c #B5F8FC",
"ph 	c #B0F7FC",
"qh 	c #4A81A7",
"rh 	c #2B6AA1",
"sh 	c #2A71A3",
"th 	c #2972A4",
"uh 	c #A1C7D3",
"vh 	c #E4FBFF",
"wh 	c #DDFBFD",
"xh 	c #D2F9FE",
"yh 	c #BDEFF8",
"zh 	c #BDEFF6",
"Ah 	c #B6ECF4",
"Bh 	c #88C8DC",
"Ch 	c #82C0DA",
"Dh 	c #80C0DA",
"Eh 	c #7FBFD8",
"Fh 	c #8ACCE2",
"Gh 	c #99DEEE",
"Hh 	c #96DBEE",
"Ih 	c #96DCEF",
"Jh 	c #90D7EB",
"Kh 	c #78BEDA",
"Lh 	c #74BBDA",
"Mh 	c #75C4DD",
"Nh 	c #7BCAE2",
"Oh 	c #3D6F97",
"Ph 	c #1F548E",
"Qh 	c #216098",
"Rh 	c #2775A8",
"Sh 	c #275982",
"Th 	c #0E1125",
"Uh 	c #0D1027",
"Vh 	c #0C0F22",
"Wh 	c #757674",
"Xh 	c #958E88",
"Yh 	c #8F8982",
"Zh 	c #8D8782",
"`h 	c #3A363C",
" i 	c #656569",
".i 	c #8C8D8A",
"+i 	c #888987",
"@i 	c #868989",
"#i 	c #4F535A",
"$i 	c #3C464F",
"%i 	c #3D4951",
"&i 	c #475059",
"*i 	c #58636D",
"=i 	c #A1B1B7",
"-i 	c #ACB6BB",
";i 	c #AFB8BC",
">i 	c #AEB9BC",
",i 	c #B4C2C5",
"'i 	c #EDFCFD",
")i 	c #F1FEFD",
"!i 	c #EDFFFD",
"~i 	c #E5FEFB",
"{i 	c #E4FEFB",
"]i 	c #E1FDFB",
"^i 	c #E3FDFC",
"/i 	c #DDFCF9",
"(i 	c #EBFCFB",
"_i 	c #7BB6CC",
":i 	c #3392BB",
"<i 	c #3193BB",
"[i 	c #2F94BB",
"}i 	c #7FAEC0",
"|i 	c #F3FCFF",
"1i 	c #F6FDFF",
"2i 	c #D2F9F9",
"3i 	c #D6FBFD",
"4i 	c #D7FAFF",
"5i 	c #D4FAFF",
"6i 	c #CEF7FB",
"7i 	c #C9F4F9",
"8i 	c #C4F4F9",
"9i 	c #C6F5F7",
"0i 	c #DCFBFC",
"ai 	c #D9FDFD",
"bi 	c #DAFEFE",
"ci 	c #DAFFFE",
"di 	c #DBFCFE",
"ei 	c #DFFDFE",
"fi 	c #DCFEFF",
"gi 	c #86CFE5",
"hi 	c #7CCBE6",
"ii 	c #7BCDE7",
"ji 	c #7ACFE6",
"ki 	c #A1E9F3",
"li 	c #B7F7FD",
"mi 	c #B0F4FB",
"ni 	c #518DAF",
"oi 	c #3C7DAC",
"pi 	c #357FAB",
"qi 	c #327EA5",
"ri 	c #A1CBD6",
"si 	c #DBFAFE",
"ti 	c #DBFBFF",
"ui 	c #D5FAFD",
"vi 	c #CAF6FC",
"wi 	c #B6ECF5",
"xi 	c #B4EFF8",
"yi 	c #B4EFF7",
"zi 	c #B2ECF6",
"Ai 	c #ADE9F4",
"Bi 	c #89C7DA",
"Ci 	c #8BC6DC",
"Di 	c #8CC8DD",
"Ei 	c #88C9DB",
"Fi 	c #8ACADC",
"Gi 	c #89D0E5",
"Hi 	c #84CFE6",
"Ii 	c #85CFE6",
"Ji 	c #83CEE4",
"Ki 	c #79C1DC",
"Li 	c #75BFDB",
"Mi 	c #74C3DB",
"Ni 	c #4E8FAD",
"Oi 	c #417FA6",
"Pi 	c #4283A9",
"Qi 	c #458DB4",
"Ri 	c #366A8B",
"Si 	c #0F1E32",
"Ti 	c #101E32",
"Ui 	c #0F2038",
"Vi 	c #10223A",
"Wi 	c #5B5F61",
"Xi 	c #6F716D",
"Yi 	c #6A6B67",
"Zi 	c #686664",
"`i 	c #656361",
" j 	c #413C41",
".j 	c #2C252F",
"+j 	c #77787A",
"@j 	c #56626C",
"#j 	c #53616D",
"$j 	c #536270",
"%j 	c #526574",
"&j 	c #0E243D",
"*j 	c #08223A",
"=j 	c #06213B",
"-j 	c #4A5864",
";j 	c #F4FDFF",
">j 	c #FBFDFD",
",j 	c #F6FFFE",
"'j 	c #AECCD5",
")j 	c #71A6BC",
"!j 	c #75A9C1",
"~j 	c #75A9C2",
"{j 	c #73AAC4",
"]j 	c #5CABC7",
"^j 	c #379ABD",
"/j 	c #3699BF",
"(j 	c #359ABF",
"_j 	c #88B9C9",
":j 	c #F4FEFF",
"<j 	c #FAFDFF",
"[j 	c #EBFCFC",
"}j 	c #D0F8FA",
"|j 	c #D1FAFC",
"1j 	c #CFFAFD",
"2j 	c #CAF7FA",
"3j 	c #C7F4F8",
"4j 	c #C5F5F7",
"5j 	c #C5F5F8",
"6j 	c #C4EFF4",
"7j 	c #C3EFF4",
"8j 	c #C2EFF5",
"9j 	c #D9FDFC",
"0j 	c #DAFDFE",
"aj 	c #DCFFFE",
"bj 	c #B0DBE7",
"cj 	c #91CFE2",
"dj 	c #92D1E5",
"ej 	c #95D5E8",
"fj 	c #96D9EA",
"gj 	c #83D1E9",
"hj 	c #83D1E8",
"ij 	c #83D2E9",
"jj 	c #83D2E8",
"kj 	c #A5EBF3",
"lj 	c #BCF7FE",
"mj 	c #BCF5FF",
"nj 	c #B9F6FF",
"oj 	c #B5F5FD",
"pj 	c #9BE4F2",
"qj 	c #9BE4F3",
"rj 	c #98E7F4",
"sj 	c #9AE9F1",
"tj 	c #94D6E2",
"uj 	c #50738A",
"vj 	c #53758D",
"wj 	c #50728B",
"xj 	c #466D89",
"yj 	c #70BBD6",
"zj 	c #77C9E3",
"Aj 	c #72C4DE",
"Bj 	c #6FC1DD",
"Cj 	c #B5F2FA",
"Dj 	c #BDF7FE",
"Ej 	c #BEF9FF",
"Fj 	c #BCF8FF",
"Gj 	c #B0F1FA",
"Hj 	c #7AC8E0",
"Ij 	c #7CC9E4",
"Jj 	c #7DCBE5",
"Kj 	c #7ECCE6",
"Lj 	c #7CCAE3",
"Mj 	c #79CAE1",
"Nj 	c #78C9E1",
"Oj 	c #77CAE1",
"Pj 	c #77CAE3",
"Qj 	c #77CCE5",
"Rj 	c #79CEE8",
"Sj 	c #599BB5",
"Tj 	c #1E4461",
"Uj 	c #214562",
"Vj 	c #1E4767",
"Wj 	c #1E466A",
"Xj 	c #0A1F35",
"Yj 	c #0A1327",
"Zj 	c #081225",
"`j 	c #081226",
" k 	c #051022",
".k 	c #848488",
"+k 	c #908C87",
"@k 	c #7A7A7D",
"#k 	c #566671",
"$k 	c #516472",
"%k 	c #516677",
"&k 	c #0E2640",
"*k 	c #08223C",
"=k 	c #07213D",
"-k 	c #475661",
";k 	c #F4FCFF",
">k 	c #FAFDFE",
",k 	c #A6C6D4",
"'k 	c #5196BB",
")k 	c #519EBD",
"!k 	c #57A2C2",
"~k 	c #57A3C1",
"{k 	c #5CB0CC",
"]k 	c #369EC1",
"^k 	c #379EC2",
"/k 	c #349EC1",
"(k 	c #8CBDCC",
"_k 	c #EFFCFD",
":k 	c #D0F8F9",
"<k 	c #D2F9FC",
"[k 	c #D3FAFF",
"}k 	c #D0FAFE",
"|k 	c #C8F5FA",
"1k 	c #C8F4FA",
"2k 	c #C6F6F8",
"3k 	c #C6F5F9",
"4k 	c #C4F2F7",
"5k 	c #C4F1F6",
"6k 	c #C2F1F7",
"7k 	c #C0F2F8",
"8k 	c #C0F1F8",
"9k 	c #D6FDFE",
"0k 	c #DCFDFF",
"ak 	c #DFFEFF",
"bk 	c #E1FEFF",
"ck 	c #E4FFFF",
"dk 	c #E5FFFF",
"ek 	c #E1FFFF",
"fk 	c #ABDCE8",
"gk 	c #81CDE5",
"hk 	c #81CEE7",
"ik 	c #82D1E8",
"jk 	c #83D2EA",
"kk 	c #87D5E9",
"lk 	c #86D5E8",
"mk 	c #85D5E8",
"nk 	c #A5EAF3",
"ok 	c #BBF5FF",
"pk 	c #B9F7FF",
"qk 	c #B4F6FE",
"rk 	c #9EE7F4",
"sk 	c #99ECF3",
"tk 	c #98ECF2",
"uk 	c #8FD6E7",
"vk 	c #1E4770",
"wk 	c #234973",
"xk 	c #244977",
"yk 	c #22517A",
"zk 	c #6DBEDD",
"Ak 	c #70C7E7",
"Bk 	c #6CC4E4",
"Ck 	c #63BFDF",
"Dk 	c #67BFDC",
"Ek 	c #B9F6FE",
"Fk 	c #BEF8FF",
"Gk 	c #BEF7FF",
"Hk 	c #75C4DF",
"Ik 	c #7BC8E5",
"Jk 	c #7BCAE6",
"Kk 	c #7CCCE5",
"Lk 	c #7ACCE4",
"Mk 	c #7ACBE4",
"Nk 	c #79C9E1",
"Ok 	c #77C7E1",
"Pk 	c #75C7E0",
"Qk 	c #73C5E0",
"Rk 	c #73C8E2",
"Sk 	c #72C9E3",
"Tk 	c #5194AF",
"Uk 	c #1E446A",
"Vk 	c #22476B",
"Wk 	c #1F486C",
"Xk 	c #1D476C",
"Yk 	c #0B1F38",
"Zk 	c #0B1229",
"`k 	c #091128",
" l 	c #081329",
".l 	c #031225",
"+l 	c #8C8F93",
"@l 	c #918E88",
"#l 	c #494448",
"$l 	c #2E2630",
"%l 	c #7B7C7D",
"&l 	c #576672",
"*l 	c #536474",
"=l 	c #546473",
"-l 	c #56687B",
";l 	c #102842",
">l 	c #082341",
",l 	c #09223F",
"'l 	c #082442",
")l 	c #435661",
"!l 	c #EEFCFD",
"~l 	c #FAFDFD",
"{l 	c #A5C7D5",
"]l 	c #5299BE",
"^l 	c #54A1BE",
"/l 	c #5AA5C2",
"(l 	c #5EAFCE",
"_l 	c #3A9EC2",
":l 	c #399FC3",
"<l 	c #389EC2",
"[l 	c #89BBCC",
"}l 	c #F7FEFE",
"|l 	c #D2F7F9",
"1l 	c #D5F9FC",
"2l 	c #D4FAFD",
"3l 	c #D2FAFF",
"4l 	c #CBF8FB",
"5l 	c #C8F5F9",
"6l 	c #C9F6FB",
"7l 	c #C6F2F8",
"8l 	c #C5F2F7",
"9l 	c #C3F2F9",
"0l 	c #C2F2F9",
"al 	c #D6FBFC",
"bl 	c #DCFDFD",
"cl 	c #E2FDFE",
"dl 	c #E8FFFF",
"el 	c #E6FFFF",
"fl 	c #B2DEEA",
"gl 	c #87CEE6",
"hl 	c #88D1E8",
"il 	c #87D4E9",
"jl 	c #88D6E9",
"kl 	c #87D8E9",
"ll 	c #86D8EA",
"ml 	c #A5EAF4",
"nl 	c #B4F4FD",
"ol 	c #9FE5F6",
"pl 	c #9DE5F6",
"ql 	c #9AE7F4",
"rl 	c #97E9F4",
"sl 	c #8BD4E7",
"tl 	c #1F4772",
"ul 	c #244975",
"vl 	c #244A75",
"wl 	c #22547A",
"xl 	c #72C3E0",
"yl 	c #73C8E5",
"zl 	c #70C6E3",
"Al 	c #65C4E3",
"Bl 	c #69C3D9",
"Cl 	c #BAF7FD",
"Dl 	c #C0F6FE",
"El 	c #C2F4FE",
"Fl 	c #BEF7FE",
"Gl 	c #B7F0FD",
"Hl 	c #77C5E1",
"Il 	c #79C9E5",
"Jl 	c #7ACCE7",
"Kl 	c #78CAE5",
"Ll 	c #78CAE3",
"Ml 	c #76C8E1",
"Nl 	c #73C6DE",
"Ol 	c #72C4DF",
"Pl 	c #71C4E0",
"Ql 	c #6EC6DF",
"Rl 	c #498AA4",
"Sl 	c #1F436A",
"Tl 	c #214469",
"Ul 	c #1F4569",
"Vl 	c #1C4667",
"Wl 	c #0A2039",
"Xl 	c #0A142A",
"Yl 	c #091329",
"Zl 	c #091224",
"`l 	c #969596",
" m 	c #4D4749",
".m 	c #302531",
"+m 	c #4F5F6A",
"@m 	c #475B69",
"#m 	c #4A5E6D",
"$m 	c #556D7F",
"%m 	c #163349",
"&m 	c #032940",
"*m 	c #05283F",
"=m 	c #103247",
"-m 	c #37535D",
";m 	c #E1EFEF",
">m 	c #F9FCFE",
",m 	c #F7FEFD",
"'m 	c #A1C9D6",
")m 	c #519DC1",
"!m 	c #57A4C1",
"~m 	c #5DA8C5",
"{m 	c #5CA6C4",
"]m 	c #6BB2C9",
"^m 	c #3E9EC1",
"/m 	c #3E9DC3",
"(m 	c #3B9BC1",
"_m 	c #7EB9CB",
":m 	c #D3F8FA",
"<m 	c #D5F9FD",
"[m 	c #D1FAFE",
"}m 	c #CBF7FA",
"|m 	c #C9F6FA",
"1m 	c #C4F3FA",
"2m 	c #D4FAFC",
"3m 	c #E7FFFE",
"4m 	c #B5E3EF",
"5m 	c #8AD2E7",
"6m 	c #8AD4E8",
"7m 	c #89D6EA",
"8m 	c #8AD7EB",
"9m 	c #89D8EB",
"0m 	c #88D9EB",
"am 	c #87D9EB",
"bm 	c #88DAEB",
"cm 	c #A5EBF4",
"dm 	c #BAF6FF",
"em 	c #B7F7FE",
"fm 	c #B2F3FD",
"gm 	c #9ADFF1",
"hm 	c #99E1F3",
"im 	c #96E3F1",
"jm 	c #94E6F3",
"km 	c #88D0E5",
"lm 	c #1F4672",
"mm 	c #234975",
"nm 	c #23567C",
"om 	c #79C7E3",
"pm 	c #7DCDE8",
"qm 	c #7ACCE6",
"rm 	c #6CCBE1",
"sm 	c #6BC6DA",
"tm 	c #B9F3FB",
"um 	c #BCF3FD",
"vm 	c #BBF5FE",
"wm 	c #BBF5FD",
"xm 	c #B6F2FD",
"ym 	c #79C8E4",
"zm 	c #7AC9E7",
"Am 	c #79CBE6",
"Bm 	c #77C9E4",
"Cm 	c #74C6E1",
"Dm 	c #71C3DE",
"Em 	c #70C2DD",
"Fm 	c #6EC0DC",
"Gm 	c #69C0DB",
"Hm 	c #68C0DA",
"Im 	c #43809E",
"Jm 	c #20436A",
"Km 	c #204368",
"Lm 	c #1E4465",
"Mm 	c #1C4567",
"Nm 	c #0E2240",
"Om 	c #0B152C",
"Pm 	c #0A132B",
"Qm 	c #091326",
"Rm 	c #949495",
"Sm 	c #94928D",
"Tm 	c #94948E",
"Um 	c #504D4F",
"Vm 	c #2F2632",
"Wm 	c #0F1C2E",
"Xm 	c #0B2E49",
"Ym 	c #0A304C",
"Zm 	c #0A314B",
"`m 	c #173A4F",
" n 	c #BCCFD5",
".n 	c #DCEBED",
"+n 	c #EAF6F7",
"@n 	c #F0F9FA",
"#n 	c #9DC4D1",
"$n 	c #3C85AA",
"%n 	c #3E84A7",
"&n 	c #3B81A4",
"*n 	c #347A9C",
"=n 	c #B7EBF4",
"-n 	c #A6E6F0",
";n 	c #97DCE9",
">n 	c #8AD3E1",
",n 	c #9FD9E3",
"'n 	c #D2F9FA",
")n 	c #D1F9FC",
"!n 	c #CCF8FA",
"~n 	c #CBF6FA",
"{n 	c #CBF6FB",
"]n 	c #CCF8FB",
"^n 	c #C9F4FA",
"/n 	c #C8F5FB",
"(n 	c #D5FAFA",
"_n 	c #DCFDFC",
":n 	c #CBF3F5",
"<n 	c #A6DEE9",
"[n 	c #A9E0EC",
"}n 	c #ACE3EE",
"|n 	c #AEE5F1",
"1n 	c #9ADCEC",
"2n 	c #8DD6EB",
"3n 	c #8DD7EB",
"4n 	c #8CD8EB",
"5n 	c #8CD9EB",
"6n 	c #8BDAEB",
"7n 	c #8ADBEB",
"8n 	c #8ADBEC",
"9n 	c #A6ECF4",
"0n 	c #BBF6FE",
"an 	c #B8F7FD",
"bn 	c #B2F2FC",
"cn 	c #97DDF0",
"dn 	c #95DFF2",
"en 	c #95E0F0",
"fn 	c #93E3F1",
"gn 	c #2E658F",
"hn 	c #356C98",
"in 	c #307297",
"jn 	c #34789B",
"kn 	c #62A1BD",
"ln 	c #69A4BF",
"mn 	c #69A6C0",
"nn 	c #5FA6BD",
"on 	c #72ADBE",
"pn 	c #DEFAFE",
"qn 	c #E1F8FF",
"rn 	c #D3FAF9",
"sn 	c #C5EBF4",
"tn 	c #C7E9F4",
"un 	c #C8E8F2",
"vn 	c #C7E6F0",
"wn 	c #C2E3ED",
"xn 	c #BEE1EB",
"yn 	c #BCDFEA",
"zn 	c #BBDEEA",
"An 	c #B9DDEA",
"Bn 	c #B8DCE9",
"Cn 	c #B4DCE9",
"Dn 	c #B1DBE8",
"En 	c #A4C8D5",
"Fn 	c #9BBDC9",
"Gn 	c #98BAC9",
"Hn 	c #97BBCA",
"In 	c #99C2CB",
"Jn 	c #4B6B80",
"Kn 	c #193859",
"Ln 	c #204664",
"Mn 	c #255573",
"Nn 	c #1E415D",
"On 	c #161A23",
"Pn 	c #1F2128",
"Qn 	c #24272D",
"Rn 	c #2B2D31",
"Sn 	c #23232A",
"Tn 	c #2B2631",
"Un 	c #093354",
"Vn 	c #083558",
"Wn 	c #083658",
"Xn 	c #123651",
"Yn 	c #D7E4E6",
"Zn 	c #F9FCFB",
"`n 	c #9BC2CD",
" o 	c #2F759B",
".o 	c #32769C",
"+o 	c #33769D",
"@o 	c #2E7296",
"#o 	c #BDF9FD",
"$o 	c #B7F9FD",
"%o 	c #B0F8FE",
"&o 	c #BBF5FB",
"*o 	c #ECFCFD",
"=o 	c #D2F9FB",
"-o 	c #CEF9FB",
";o 	c #CCF7FA",
">o 	c #CDF7FB",
",o 	c #CDF8FB",
"'o 	c #CBF5FA",
")o 	c #CBF5FB",
"!o 	c #CBF7FB",
"~o 	c #CDF8FC",
"{o 	c #DDFCFE",
"]o 	c #CAF4F8",
"^o 	c #8FD7EA",
"/o 	c #90D8EB",
"(o 	c #91D9EC",
"_o 	c #91DAEC",
":o 	c #90D9ED",
"<o 	c #90DAED",
"[o 	c #8EDAEC",
"}o 	c #8DDAEB",
"|o 	c #8DDBEC",
"1o 	c #8DDCEC",
"2o 	c #8CDBEC",
"3o 	c #B9F6FD",
"4o 	c #B2F3FC",
"5o 	c #93DDF0",
"6o 	c #91DEF0",
"7o 	c #92DEEF",
"8o 	c #90E1F0",
"9o 	c #82D2E8",
"0o 	c #3C87B1",
"ao 	c #3F8BB7",
"bo 	c #3B8EB4",
"co 	c #3E8FB4",
"do 	c #235E85",
"eo 	c #224D77",
"fo 	c #204C76",
"go 	c #1E4E77",
"ho 	c #637E94",
"io 	c #F0FCFD",
"jo 	c #F7FDFF",
"ko 	c #F7FEFF",
"lo 	c #F6FDFD",
"mo 	c #F7FBFC",
"no 	c #F3FDFB",
"oo 	c #E8FBFE",
"po 	c #E6FAFD",
"qo 	c #E0F6FB",
"ro 	c #DCF4FB",
"so 	c #D7F4FB",
"to 	c #D2F4FA",
"uo 	c #CCF3FA",
"vo 	c #C9F0F9",
"wo 	c #C3F1F8",
"xo 	c #C3F7F9",
"yo 	c #598A9D",
"zo 	c #205279",
"Ao 	c #296487",
"Bo 	c #2E7196",
"Co 	c #295A7E",
"Do 	c #060D23",
"Eo 	c #090D21",
"Fo 	c #090D20",
"Go 	c #090C22",
"Ho 	c #171726",
"Io 	c #0C1E34",
"Jo 	c #093658",
"Ko 	c #08395E",
"Lo 	c #0A3B5F",
"Mo 	c #193D59",
"No 	c #DBE5E8",
"Oo 	c #9DC2CC",
"Po 	c #30749A",
"Qo 	c #31759C",
"Ro 	c #32759C",
"So 	c #2D7195",
"To 	c #B0E9EE",
"Uo 	c #B8F8FA",
"Vo 	c #B3F7FB",
"Wo 	c #AEF6FE",
"Xo 	c #B7F2F9",
"Yo 	c #ECFCFC",
"Zo 	c #D3FAFC",
"`o 	c #D3FAFD",
" p 	c #CFF9FC",
".p 	c #CCF7F9",
"+p 	c #CDF7F9",
"@p 	c #CEF8FA",
"#p 	c #D0F9F9",
"$p 	c #E8FEFF",
"%p 	c #90DAEB",
"&p 	c #93DBED",
"*p 	c #94DCEE",
"=p 	c #92DBEC",
"-p 	c #91DCEB",
";p 	c #90DDED",
">p 	c #90DDEE",
",p 	c #8FDDED",
"'p 	c #8EDCED",
")p 	c #A3EBF4",
"!p 	c #BCF7FD",
"~p 	c #B2F4FD",
"{p 	c #8FDDF0",
"]p 	c #8DDEF1",
"^p 	c #8FDFF0",
"/p 	c #8DE1F1",
"(p 	c #7FD2E9",
"_p 	c #3B87B4",
":p 	c #3D89B7",
"<p 	c #398DB6",
"[p 	c #3A8FB5",
"}p 	c #215D85",
"|p 	c #1F4974",
"1p 	c #1E4A75",
"2p 	c #1F4B75",
"3p 	c #607D94",
"4p 	c #F8FBFF",
"5p 	c #EBFDFD",
"6p 	c #E8FCFC",
"7p 	c #E2F9FA",
"8p 	c #DDF7FA",
"9p 	c #D8F6FA",
"0p 	c #D2F5F9",
"ap 	c #CFF5FA",
"bp 	c #CDF3FA",
"cp 	c #5A8AA1",
"dp 	c #1D507C",
"ep 	c #26628B",
"fp 	c #2B719A",
"gp 	c #296288",
"hp 	c #050E28",
"ip 	c #090E23",
"jp 	c #080D22",
"kp 	c #090C27",
"lp 	c #191928",
"mp 	c #2B272F",
"np 	c #0C2034",
"op 	c #0A3857",
"pp 	c #0C3D5F",
"qp 	c #0C4163",
"rp 	c #1B4762",
"sp 	c #DDE7EA",
"tp 	c #FFFDFE",
"up 	c #FFFEFF",
"vp 	c #9FC0CB",
"wp 	c #307499",
"xp 	c #32759A",
"yp 	c #317499",
"zp 	c #2C7195",
"Ap 	c #A7E7EB",
"Bp 	c #B2F9FB",
"Cp 	c #B0F8FC",
"Dp 	c #ABF6FE",
"Ep 	c #AFF2F7",
"Fp 	c #D5F9FE",
"Gp 	c #D2FBFD",
"Hp 	c #D0F9FC",
"Ip 	c #CFF8FB",
"Jp 	c #D2F8FB",
"Kp 	c #EAFEFF",
"Lp 	c #CDF6FA",
"Mp 	c #92DBEB",
"Np 	c #94DCED",
"Op 	c #95DDEE",
"Pp 	c #92DDED",
"Qp 	c #93DEEE",
"Rp 	c #92DEEE",
"Sp 	c #91DEED",
"Tp 	c #90DEEE",
"Up 	c #A3EAF4",
"Vp 	c #BFF5FE",
"Wp 	c #BFF5FC",
"Xp 	c #BCF6FC",
"Yp 	c #B4F3FD",
"Zp 	c #8EDDEE",
"`p 	c #8DDDEE",
" q 	c #8EDEEF",
".q 	c #8BE1F0",
"+q 	c #80D2E8",
"@q 	c #3C7EAE",
"#q 	c #3B7FB0",
"$q 	c #3780B5",
"%q 	c #3583AF",
"&q 	c #1F547D",
"*q 	c #204872",
"=q 	c #1D4A72",
"-q 	c #1E4B71",
";q 	c #5D7B91",
">q 	c #F1FCFF",
",q 	c #F3FEFD",
"'q 	c #EEFEFC",
")q 	c #E9FAFA",
"!q 	c #E4FAF9",
"~q 	c #DFF7FA",
"{q 	c #DAF4FB",
"]q 	c #D5F4F9",
"^q 	c #D2F5FA",
"/q 	c #D0F3FA",
"(q 	c #CDF2F9",
"_q 	c #5F869F",
":q 	c #1A507B",
"<q 	c #22638A",
"[q 	c #2D6F96",
"}q 	c #2F668D",
"|q 	c #05122E",
"1q 	c #080D23",
"2q 	c #090C23",
"3q 	c #1A1927",
"4q 	c #2C2830",
"5q 	c #252836",
"6q 	c #13354D",
"7q 	c #143A55",
"8q 	c #133E57",
"9q 	c #194157",
"0q 	c #D1E1E4",
"aq 	c #F3FCFC",
"bq 	c #F4FCFC",
"cq 	c #F5FCFC",
"dq 	c #F2FBFC",
"eq 	c #EDF8FB",
"fq 	c #E5F6F8",
"gq 	c #DFF4F6",
"hq 	c #DBF3F4",
"iq 	c #D8F1F4",
"jq 	c #D7F1F4",
"kq 	c #83ADC2",
"lq 	c #337099",
"mq 	c #327297",
"nq 	c #327298",
"oq 	c #306F93",
"pq 	c #BCE4EB",
"qq 	c #C9F6FC",
"rq 	c #C2F2F8",
"sq 	c #F6FEFF",
"tq 	c #EBFBFC",
"uq 	c #D1F8FB",
"vq 	c #D3F9FE",
"wq 	c #D0F9FD",
"xq 	c #D0F8FC",
"yq 	c #CFF8FC",
"zq 	c #D1F8FC",
"Aq 	c #CAF5F9",
"Bq 	c #94DDED",
"Cq 	c #96DEEF",
"Dq 	c #94DEEF",
"Eq 	c #94DFEF",
"Fq 	c #95DFEF",
"Gq 	c #94DFEE",
"Hq 	c #A1EAF3",
"Iq 	c #B5F5FC",
"Jq 	c #B5F3FC",
"Kq 	c #B3F4FC",
"Lq 	c #B0F2FA",
"Mq 	c #A7E3F0",
"Nq 	c #A8E4F1",
"Oq 	c #98DEEC",
"Pq 	c #6DAACA",
"Qq 	c #74B5D4",
"Rq 	c #72BAD7",
"Sq 	c #70B4D1",
"Tq 	c #214E73",
"Uq 	c #1F476C",
"Vq 	c #1D486B",
"Wq 	c #5D798C",
"Xq 	c #EBFBFE",
"Yq 	c #D4F6FC",
"Zq 	c #CEF4FA",
"`q 	c #C9F5F9",
" r 	c #C3F0F5",
".r 	c #C7F2F9",
"+r 	c #5A7C8F",
"@r 	c #184062",
"#r 	c #245573",
"$r 	c #2B607F",
"%r 	c #2E607E",
"&r 	c #08182A",
"*r 	c #111122",
"=r 	c #161626",
"-r 	c #1C1A27",
";r 	c #27222C",
">r 	c #322B34",
",r 	c #45404B",
"'r 	c #0B1425",
")r 	c #0A1426",
"!r 	c #0A1427",
"~r 	c #08162C",
"{r 	c #436172",
"]r 	c #4E758B",
"^r 	c #4F6C7E",
"/r 	c #536774",
"(r 	c #61707C",
"_r 	c #85B9CC",
":r 	c #8CC0D5",
"<r 	c #8BBCD1",
"[r 	c #89B9CE",
"}r 	c #8BB8CF",
"|r 	c #8DB8D0",
"1r 	c #8CB5CD",
"2r 	c #87B2C9",
"3r 	c #82AEC4",
"4r 	c #7CA8BE",
"5r 	c #74A2B9",
"6r 	c #699BB4",
"7r 	c #6195B0",
"8r 	c #568EAC",
"9r 	c #4887A7",
"0r 	c #3A7F9F",
"ar 	c #33799E",
"br 	c #31779C",
"cr 	c #2F759C",
"dr 	c #2F6E97",
"er 	c #336F94",
"fr 	c #327197",
"gr 	c #2E6E91",
"hr 	c #DCECF3",
"ir 	c #F9FCFF",
"jr 	c #E8FBFB",
"kr 	c #CDF8F9",
"lr 	c #D3FCFE",
"mr 	c #AAE2EB",
"nr 	c #A7E2F0",
"or 	c #B0E8F5",
"pr 	c #B4EDF5",
"qr 	c #A8E7F3",
"rr 	c #93DDEE",
"sr 	c #94DEEE",
"tr 	c #96DFED",
"ur 	c #97E0EE",
"vr 	c #96E0EE",
"wr 	c #98E1EF",
"xr 	c #98E2F0",
"yr 	c #99E2F0",
"zr 	c #98E3F0",
"Ar 	c #97E3F1",
"Br 	c #92E0EF",
"Cr 	c #84D9EE",
"Dr 	c #81D7EC",
"Er 	c #94DBEA",
"Fr 	c #D6FCFF",
"Gr 	c #DBFCFF",
"Hr 	c #D8FCFF",
"Ir 	c #D4FCFF",
"Jr 	c #C1F4FB",
"Kr 	c #9BDDF0",
"Lr 	c #9BE0F0",
"Mr 	c #99E1F1",
"Nr 	c #95DCF1",
"Or 	c #275679",
"Pr 	c #204369",
"Qr 	c #1F456A",
"Rr 	c #1E476A",
"Sr 	c #284F70",
"Tr 	c #58748B",
"Ur 	c #657E93",
"Vr 	c #71889D",
"Wr 	c #7B95AA",
"Xr 	c #839EB4",
"Yr 	c #829EB4",
"Zr 	c #7E9BB1",
"`r 	c #7D9AB2",
" s 	c #7D9CB2",
".s 	c #7C9CB1",
"+s 	c #799BB0",
"@s 	c #7296AC",
"#s 	c #6D93A9",
"$s 	c #6A91A8",
"%s 	c #648EA7",
"&s 	c #5C8AA4",
"*s 	c #5888A4",
"=s 	c #5586A3",
"-s 	c #4C829E",
";s 	c #447C9B",
">s 	c #407FA1",
",s 	c #4992B2",
"'s 	c #264B69",
")s 	c #090D24",
"!s 	c #070C21",
"~s 	c #060D24",
"{s 	c #282730",
"]s 	c #453E47",
"^s 	c #473E47",
"/s 	c #473E46",
"(s 	c #473E45",
"_s 	c #453C44",
":s 	c #453F4A",
"<s 	c #0B1226",
"[s 	c #0A1429",
"}s 	c #08162A",
"|s 	c #1A4360",
"1s 	c #175F84",
"2s 	c #15587D",
"3s 	c #154C72",
"4s 	c #133B60",
"5s 	c #6DBBD9",
"6s 	c #67BFDB",
"7s 	c #62B9D6",
"8s 	c #5CB5D1",
"9s 	c #58AFCA",
"0s 	c #53A5C2",
"as 	c #5099BA",
"bs 	c #4D95B6",
"cs 	c #488EB0",
"ds 	c #458AAD",
"es 	c #4083A7",
"fs 	c #3F82A8",
"gs 	c #3E80A9",
"hs 	c #3D7FA7",
"is 	c #3B7DA4",
"js 	c #3779A0",
"ks 	c #36789F",
"ls 	c #31759F",
"ms 	c #31709A",
"ns 	c #347095",
"os 	c #347197",
"ps 	c #337197",
"qs 	c #2F6F92",
"rs 	c #E0F0F6",
"ss 	c #FAFBFF",
"ts 	c #E9FBFB",
"us 	c #CEF8F9",
"vs 	c #D2FAFD",
"ws 	c #D4FBFC",
"xs 	c #D8FCFE",
"ys 	c #D5FDFF",
"zs 	c #A1E2EE",
"As 	c #9BDFF1",
"Bs 	c #99E3F1",
"Cs 	c #97E3F3",
"Ds 	c #92DFF0",
"Es 	c #9BE3F2",
"Fs 	c #9CE5F3",
"Gs 	c #99E6F4",
"Hs 	c #92E1F1",
"Is 	c #8BDEF0",
"Js 	c #87DDF2",
"Ks 	c #85DCF1",
"Ls 	c #97DFEE",
"Ms 	c #DAFCFF",
"Ns 	c #DCFCFF",
"Os 	c #D9FCFF",
"Ps 	c #D7FCFF",
"Qs 	c #9ADCEF",
"Rs 	c #9BDFEF",
"Ss 	c #9AE0F1",
"Ts 	c #98DFF5",
"Us 	c #2F5F81",
"Vs 	c #20446B",
"Ws 	c #20466A",
"Xs 	c #20486C",
"Ys 	c #224C71",
"Zs 	c #275278",
"`s 	c #29557D",
" t 	c #2B5782",
".t 	c #2F5D87",
"+t 	c #366290",
"@t 	c #396594",
"#t 	c #3D6896",
"$t 	c #3F6B99",
"%t 	c #3F6D9B",
"&t 	c #426F9D",
"*t 	c #42709E",
"=t 	c #40709D",
"-t 	c #3F6F9D",
";t 	c #3E6F9C",
">t 	c #3D719D",
",t 	c #3C719D",
"'t 	c #3B729C",
")t 	c #3B729D",
"!t 	c #3C739C",
"~t 	c #3C759D",
"{t 	c #3A7BA3",
"]t 	c #3C86AD",
"^t 	c #1E4666",
"/t 	c #080B21",
"(t 	c #0A0B20",
"_t 	c #0C0A21",
":t 	c #2E2A34",
"<t 	c #463E45",
"[t 	c #473D45",
"}t 	c #473B43",
"|t 	c #453B43",
"1t 	c #0C1129",
"2t 	c #0A102C",
"3t 	c #09122C",
"4t 	c #07152B",
"5t 	c #0D324D",
"6t 	c #1A5D7F",
"7t 	c #17597F",
"8t 	c #16547B",
"9t 	c #15466A",
"0t 	c #76C2DC",
"at 	c #69C3DA",
"bt 	c #64BED6",
"ct 	c #63BAD5",
"dt 	c #5FB3CF",
"et 	c #5AA9C8",
"ft 	c #539CBA",
"gt 	c #529AB8",
"ht 	c #4E94B4",
"it 	c #4B8FB0",
"jt 	c #4588AB",
"kt 	c #4285A8",
"lt 	c #3F82A7",
"mt 	c #3E80A5",
"nt 	c #3A7DA2",
"ot 	c #357A9F",
"pt 	c #34799F",
"qt 	c #32779D",
"rt 	c #32769E",
"st 	c #31719B",
"tt 	c #347298",
"ut 	c #347398",
"vt 	c #347597",
"wt 	c #E6F5F8",
"xt 	c #EAFBFC",
"yt 	c #D0F7FC",
"zt 	c #D2F9FD",
"At 	c #D9FCFC",
"Bt 	c #A5E5F2",
"Ct 	c #9CE1F1",
"Dt 	c #9BE3F0",
"Et 	c #9AE3F1",
"Ft 	c #98E2EF",
"Gt 	c #9DE5F3",
"Ht 	c #9FE6F3",
"It 	c #9EE7F6",
"Jt 	c #9CE6F5",
"Kt 	c #94E2F2",
"Lt 	c #8DDFF1",
"Mt 	c #89DEF3",
"Nt 	c #D9FDFF",
"Ot 	c #9BDFF0",
"Pt 	c #9ADFF0",
"Qt 	c #97DDF2",
"Rt 	c #306286",
"St 	c #20456E",
"Tt 	c #21476C",
"Ut 	c #21486E",
"Vt 	c #234B72",
"Wt 	c #295279",
"Xt 	c #2A547C",
"Yt 	c #2D5781",
"Zt 	c #315C87",
"`t 	c #36618E",
" u 	c #3A6693",
".u 	c #3D6894",
"+u 	c #3F6996",
"@u 	c #416B99",
"#u 	c #416D9B",
"$u 	c #3F709D",
"%u 	c #3E709D",
"&u 	c #416E9B",
"*u 	c #3F6F9B",
"=u 	c #3B7298",
"-u 	c #3A7398",
";u 	c #3B7399",
">u 	c #3C759A",
",u 	c #3C769C",
"'u 	c #397AA0",
")u 	c #3A83A8",
"!u 	c #1E486A",
"~u 	c #050B21",
"{u 	c #070C1F",
"]u 	c #090B1F",
"^u 	c #0C0B1E",
"/u 	c #2F2934",
"(u 	c #453D44",
"_u 	c #433740",
":u 	c #423840",
"<u 	c #433941",
"[u 	c #443E46",
"}u 	c #0C1023",
"|u 	c #0B0F24",
"1u 	c #0B0E24",
"2u 	c #0B1025",
"3u 	c #0C2337",
"4u 	c #245472",
"5u 	c #205273",
"6u 	c #1F5173",
"7u 	c #184566",
"8u 	c #7AC5E0",
"9u 	c #68C6E1",
"0u 	c #63BEDA",
"au 	c #62B9D5",
"bu 	c #5EB2CF",
"cu 	c #5AA9C7",
"du 	c #559DBD",
"eu 	c #5599BA",
"fu 	c #5095B6",
"gu 	c #4C91B2",
"hu 	c #498AAD",
"iu 	c #4786A9",
"ju 	c #4282A6",
"ku 	c #4181A5",
"lu 	c #3C7CA1",
"mu 	c #38799E",
"nu 	c #37779E",
"ou 	c #35759C",
"pu 	c #34759D",
"qu 	c #337299",
"ru 	c #357299",
"su 	c #357498",
"tu 	c #367498",
"uu 	c #3E7C9A",
"vu 	c #EDF6F9",
"wu 	c #F8FCFF",
"xu 	c #D0F9FE",
"yu 	c #D3F9FD",
"zu 	c #DAFBFD",
"Au 	c #DCFCFC",
"Bu 	c #DDFBFB",
"Cu 	c #D9FBFE",
"Du 	c #A8E6F3",
"Eu 	c #9BE2F3",
"Fu 	c #9CE2F4",
"Gu 	c #9CE3F5",
"Hu 	c #9BE3F4",
"Iu 	c #96DFF0",
"Ju 	c #95DEEF",
"Ku 	c #94DFF0",
"Lu 	c #96E0EF",
"Mu 	c #9AE4F1",
"Nu 	c #9CE4F2",
"Ou 	c #9CE4F3",
"Pu 	c #9EE5F4",
"Qu 	c #A0E7F5",
"Ru 	c #9FE9F5",
"Su 	c #9DE8F6",
"Tu 	c #94E3F4",
"Uu 	c #8DE0F1",
"Vu 	c #8BDFF4",
"Wu 	c #DBFDFE",
"Xu 	c #C4F2F9",
"Yu 	c #8DD1E9",
"Zu 	c #98DAF1",
"`u 	c #96DFF5",
" v 	c #93DCF3",
".v 	c #2E5E86",
"+v 	c #224771",
"@v 	c #23496F",
"#v 	c #254D74",
"$v 	c #2B537B",
"%v 	c #2B557D",
"&v 	c #2E5881",
"*v 	c #305C86",
"=v 	c #36618B",
"-v 	c #396691",
";v 	c #3B6894",
">v 	c #3D6A95",
",v 	c #3F6B96",
"'v 	c #3F6F98",
")v 	c #3E719A",
"!v 	c #3E719B",
"~v 	c #3D709A",
"{v 	c #3B7098",
"]v 	c #3A7197",
"^v 	c #3A7296",
"/v 	c #3D7395",
"(v 	c #407295",
"_v 	c #3E769F",
":v 	c #3A7AA3",
"<v 	c #3685A8",
"[v 	c #204A6E",
"}v 	c #090A24",
"|v 	c #0A0C20",
"1v 	c #080E1D",
"2v 	c #0B0E1B",
"3v 	c #2E2932",
"4v 	c #453A43",
"5v 	c #453942",
"6v 	c #41373F",
"7v 	c #42373F",
"8v 	c #59515A",
"9v 	c #554B55",
"0v 	c #524953",
"av 	c #4E4650",
"bv 	c #22222D",
"cv 	c #09162B",
"dv 	c #08162B",
"ev 	c #07152A",
"fv 	c #3C6781",
"gv 	c #3B748E",
"hv 	c #336982",
"iv 	c #356983",
"jv 	c #4E89A1",
"kv 	c #84D2E5",
"lv 	c #7ECEDF",
"mv 	c #77C7DB",
"nv 	c #6EBFD5",
"ov 	c #5CABC3",
"pv 	c #5BA2BC",
"qv 	c #5A9EB9",
"rv 	c #579AB7",
"sv 	c #5497B5",
"tv 	c #4A8BAC",
"uv 	c #407EA3",
"vv 	c #3E7BA1",
"wv 	c #3D7A9F",
"xv 	c #3D7C9F",
"yv 	c #3B779B",
"zv 	c #3A7699",
"Av 	c #3A769A",
"Bv 	c #39769A",
"Cv 	c #3B7B9E",
"Dv 	c #B2D5E5",
"Ev 	c #B2D7E8",
"Fv 	c #9ED2E6",
"Gv 	c #97CCE1",
"Hv 	c #9ECEDC",
"Iv 	c #C8F5F7",
"Jv 	c #C2F0F7",
"Kv 	c #C6F2F6",
"Lv 	c #C2F3F8",
"Mv 	c #A5E7F4",
"Nv 	c #9FE5F5",
"Ov 	c #9BE4F4",
"Pv 	c #93DDEF",
"Qv 	c #90DCEE",
"Rv 	c #92DFEF",
"Sv 	c #A1E8F5",
"Tv 	c #A0E6F4",
"Uv 	c #9FE6F4",
"Vv 	c #9AE5F4",
"Wv 	c #8AD3E7",
"Xv 	c #87D1E5",
"Yv 	c #88D3E6",
"Zv 	c #89D4E7",
"`v 	c #8DDBED",
" w 	c #8FE1F3",
".w 	c #8DE1F2",
"+w 	c #8BE0F2",
"@w 	c #DEFEFE",
"#w 	c #E1FFFD",
"$w 	c #BFE3EA",
"%w 	c #153A61",
"&w 	c #254568",
"*w 	c #264C71",
"=w 	c #295073",
"-w 	c #27537C",
";w 	c #28557E",
">w 	c #28557A",
",w 	c #28547C",
"'w 	c #2A557D",
")w 	c #315F86",
"!w 	c #326087",
"~w 	c #336188",
"{w 	c #33608A",
"]w 	c #3C6891",
"^w 	c #426F99",
"/w 	c #43719B",
"(w 	c #44739C",
"_w 	c #47799F",
":w 	c #4A80A3",
"<w 	c #4883A5",
"[w 	c #4884A7",
"}w 	c #4984A7",
"|w 	c #386C8F",
"1w 	c #2D5B80",
"2w 	c #2C5C82",
"3w 	c #2C5D84",
"4w 	c #275274",
"5w 	c #11273C",
"6w 	c #1F3C52",
"7w 	c #24465D",
"8w 	c #255165",
"9w 	c #162E44",
"0w 	c #352B3D",
"aw 	c #312735",
"bw 	c #2E2733",
"cw 	c #2D2731",
"dw 	c #41363E",
"ew 	c #4E3F48",
"fw 	c #4C3D47",
"gw 	c #493C45",
"hw 	c #453A42",
"iw 	c #777773",
"jw 	c #5E555C",
"kw 	c #5D505B",
"lw 	c #5C505A",
"mw 	c #5A5158",
"nw 	c #292633",
"ow 	c #0B1029",
"pw 	c #0A0F29",
"qw 	c #0B0F26",
"rw 	c #0A0F25",
"sw 	c #1A4461",
"tw 	c #154D72",
"uw 	c #14476D",
"vw 	c #113A61",
"ww 	c #416F82",
"xw 	c #99EDF9",
"yw 	c #95EAF4",
"zw 	c #8DE5F2",
"Aw 	c #81DDEF",
"Bw 	c #6FC8DD",
"Cw 	c #78CEE2",
"Dw 	c #7CD3E4",
"Ew 	c #7DD3E6",
"Fw 	c #7CD3E6",
"Gw 	c #69BCD0",
"Hw 	c #569CB8",
"Iw 	c #599EBC",
"Jw 	c #559EBB",
"Kw 	c #549CBA",
"Lw 	c #40799D",
"Mw 	c #3E779E",
"Nw 	c #3C789F",
"Ow 	c #38789D",
"Pw 	c #84C5DE",
"Qw 	c #83C7DF",
"Rw 	c #7FC5E2",
"Sw 	c #7DC3E0",
"Tw 	c #91CBDF",
"Uw 	c #F4FDFE",
"Vw 	c #C8F4F8",
"Ww 	c #C5F4F9",
"Xw 	c #C6F6F9",
"Yw 	c #D2FAFE",
"Zw 	c #AFE8F2",
"`w 	c #A0E3F1",
" x 	c #A0E5F1",
".x 	c #A0E5F2",
"+x 	c #A1E6F5",
"@x 	c #9FE7F4",
"#x 	c #98E3F3",
"$x 	c #8BD8EB",
"%x 	c #8AD8E9",
"&x 	c #87D9E9",
"*x 	c #8ADAEA",
"=x 	c #A7ECF7",
"-x 	c #A6EBF7",
";x 	c #A2E9F6",
">x 	c #98E4F5",
",x 	c #73BED9",
"'x 	c #74C0D8",
")x 	c #75C1D7",
"!x 	c #75C3D9",
"~x 	c #84D4E8",
"{x 	c #92E3F3",
"]x 	c #90E2F2",
"^x 	c #8CE2F3",
"/x 	c #A1E8F2",
"(x 	c #E2FEFE",
"_x 	c #E0FDFF",
":x 	c #BCE3EC",
"<x 	c #0D3664",
"[x 	c #17385F",
"}x 	c #193662",
"|x 	c #1C3967",
"1x 	c #2B5680",
"2x 	c #2A5A83",
"3x 	c #2A5A85",
"4x 	c #2A5981",
"5x 	c #2D5D83",
"6x 	c #34678D",
"7x 	c #376890",
"8x 	c #376891",
"9x 	c #386890",
"0x 	c #46759A",
"ax 	c #4D82A3",
"bx 	c #4E85A7",
"cx 	c #518BAB",
"dx 	c #5497B6",
"ex 	c #569DBA",
"fx 	c #579EBA",
"gx 	c #599EBA",
"hx 	c #336685",
"ix 	c #1E4870",
"jx 	c #1E4C79",
"kx 	c #22547C",
"lx 	c #1F4869",
"mx 	c #070B1F",
"nx 	c #080D21",
"ox 	c #080D25",
"px 	c #151425",
"qx 	c #433442",
"rx 	c #45343F",
"sx 	c #493642",
"tx 	c #493844",
"ux 	c #513F4B",
"vx 	c #54444D",
"wx 	c #54454F",
"xx 	c #554450",
"yx 	c #4A3C48",
"zx 	c #443944",
"Ax 	c #7B7B77",
"Bx 	c #5F565D",
"Cx 	c #2B2835",
"Dx 	c #0A1029",
"Ex 	c #0B102A",
"Fx 	c #0B1028",
"Gx 	c #071227",
"Hx 	c #164763",
"Ix 	c #0D5374",
"Jx 	c #0F4F73",
"Kx 	c #0F4769",
"Lx 	c #52899B",
"Mx 	c #9CEBF7",
"Nx 	c #96E9F4",
"Ox 	c #8CE4F4",
"Px 	c #7EDBEE",
"Qx 	c #74CEE4",
"Rx 	c #7CD2E6",
"Sx 	c #7CD4E4",
"Tx 	c #7CD4E6",
"Ux 	c #69BDD5",
"Vx 	c #509CBE",
"Wx 	c #509DBF",
"Xx 	c #4C9EBD",
"Yx 	c #4B9DBC",
"Zx 	c #4485AA",
"`x 	c #437BA2",
" y 	c #4279A2",
".y 	c #3F7BA2",
"+y 	c #3B7BA0",
"@y 	c #8CCDE6",
"#y 	c #89CDE5",
"$y 	c #85CAE6",
"%y 	c #82C9E5",
"&y 	c #94D0E3",
"*y 	c #C7F3F7",
"=y 	c #C4F3F8",
"-y 	c #C4F5FB",
";y 	c #C6F5FA",
">y 	c #CDF9FD",
",y 	c #D1FCFE",
"'y 	c #AFEAF3",
")y 	c #A0E2F1",
"!y 	c #A0E6F3",
"~y 	c #A0E7F3",
"{y 	c #A2E7F4",
"]y 	c #A3E7F4",
"^y 	c #A2E7F5",
"/y 	c #87D6E8",
"(y 	c #86D7E8",
"_y 	c #88D9EA",
":y 	c #9FE8F4",
"<y 	c #AAEEF9",
"[y 	c #A9EEF9",
"}y 	c #A4ECF9",
"|y 	c #99E6F7",
"1y 	c #77C2DD",
"2y 	c #77C3DA",
"3y 	c #78C4DA",
"4y 	c #78C6DD",
"5y 	c #87D7EC",
"6y 	c #93E5F5",
"7y 	c #92E4F4",
"8y 	c #8EE4F5",
"9y 	c #A2E8F2",
"0y 	c #E1FDFE",
"ay 	c #DEFFFF",
"by 	c #B9E2EC",
"cy 	c #124071",
"dy 	c #1C406B",
"ey 	c #1E3F6A",
"fy 	c #1D406C",
"gy 	c #2C5983",
"hy 	c #2D5D86",
"iy 	c #2B5B86",
"jy 	c #2B5A83",
"ky 	c #306088",
"ly 	c #366A91",
"my 	c #376A92",
"ny 	c #376991",
"oy 	c #47789C",
"py 	c #4F84A4",
"qy 	c #4E86A6",
"ry 	c #4E86A7",
"sy 	c #518BAC",
"ty 	c #5598B8",
"uy 	c #589FBB",
"vy 	c #599EBB",
"wy 	c #386D90",
"xy 	c #1E4E7C",
"yy 	c #1F507D",
"zy 	c #1E557C",
"Ay 	c #1E496A",
"By 	c #090E26",
"Cy 	c #1A1829",
"Dy 	c #443541",
"Ey 	c #493742",
"Fy 	c #4B3843",
"Gy 	c #4B3945",
"Hy 	c #55434D",
"Iy 	c #54434F",
"Jy 	c #453B44",
"Ky 	c #80807E",
"Ly 	c #625A62",
"My 	c #5C505C",
"Ny 	c #5B505C",
"Oy 	c #2D2936",
"Py 	c #0B1128",
"Qy 	c #081228",
"Ry 	c #15485F",
"Sy 	c #115476",
"Ty 	c #114F73",
"Uy 	c #0E486B",
"Vy 	c #61A0B3",
"Wy 	c #98ECF6",
"Xy 	c #90E8F5",
"Yy 	c #87E4F2",
"Zy 	c #79DBEA",
"`y 	c #76D0E3",
" z 	c #7ED2E6",
".z 	c #7DD3E5",
"+z 	c #69BCD5",
"@z 	c #4D9DC2",
"#z 	c #4D9CC1",
"$z 	c #4A9CC0",
"%z 	c #489CBE",
"&z 	c #448AB0",
"*z 	c #457EA7",
"=z 	c #447FA7",
"-z 	c #4180A7",
";z 	c #3E83A7",
">z 	c #86CAE9",
",z 	c #89CBEA",
"'z 	c #88CBE9",
")z 	c #85C9E7",
"!z 	c #96D1E7",
"~z 	c #C5F5FC",
"{z 	c #D5FBFF",
"]z 	c #CFFCFE",
"^z 	c #AFEBF4",
"/z 	c #A2E4F2",
"(z 	c #A3E6F3",
"_z 	c #A3E8F4",
":z 	c #A3E8F5",
"<z 	c #A4E8F4",
"[z 	c #A2E9F4",
"}z 	c #9FE8F5",
"|z 	c #96E2F3",
"1z 	c #86D4E8",
"2z 	c #88D8E9",
"3z 	c #9FEAF5",
"4z 	c #AAEFFA",
"5z 	c #AAEFF9",
"6z 	c #A7EDF9",
"7z 	c #9CE6F8",
"8z 	c #7AC7DF",
"9z 	c #7AC7DE",
"0z 	c #79C8DF",
"az 	c #8CDAED",
"bz 	c #9CE8F6",
"cz 	c #9AE9F6",
"dz 	c #95E8F6",
"ez 	c #ABEBF3",
"fz 	c #D4FCFB",
"gz 	c #D5FCFE",
"hz 	c #D7FDFF",
"iz 	c #ABD9E5",
"jz 	c #164677",
"kz 	c #1F4270",
"lz 	c #1E456E",
"mz 	c #1D456F",
"nz 	c #2C5D85",
"oz 	c #2E6089",
"pz 	c #2D5F89",
"qz 	c #2F5F87",
"rz 	c #33648C",
"sz 	c #396C93",
"tz 	c #376C93",
"uz 	c #386B93",
"vz 	c #487B9E",
"wz 	c #5085A6",
"xz 	c #5087A8",
"yz 	c #5086A9",
"zz 	c #538CAF",
"Az 	c #5699B9",
"Bz 	c #559CB9",
"Cz 	c #589EB9",
"Dz 	c #386D8E",
"Ez 	c #1A4F7D",
"Fz 	c #1C527B",
"Gz 	c #1C557D",
"Hz 	c #1A4A6D",
"Iz 	c #070C23",
"Jz 	c #0B0B23",
"Kz 	c #0A0C22",
"Lz 	c #0B0D24",
"Mz 	c #1E192A",
"Nz 	c #443540",
"Oz 	c #483742",
"Pz 	c #4A3842",
"Qz 	c #4D3A45",
"Rz 	c #53404C",
"Sz 	c #55424E",
"Tz 	c #54414E",
"Uz 	c #52424E",
"Vz 	c #483C47",
"Wz 	c #433C43",
"Xz 	c #858481",
"Yz 	c #726E6E",
"Zz 	c #686265",
"`z 	c #6C666B",
" A 	c #474048",
".A 	c #2D2231",
"+A 	c #2C2031",
"@A 	c #291F2F",
"#A 	c #261F2F",
"$A 	c #0D2539",
"%A 	c #103552",
"&A 	c #133B57",
"*A 	c #103B58",
"=A 	c #558A9E",
"-A 	c #7FCDDC",
";A 	c #7CD0DF",
">A 	c #76CFDF",
",A 	c #73CEDE",
"'A 	c #79D0E1",
")A 	c #7FD1E5",
"!A 	c #7DD2E5",
"~A 	c #7CD1E4",
"{A 	c #7BD1E4",
"]A 	c #68B9D3",
"^A 	c #4E9CC2",
"/A 	c #4C9BC2",
"(A 	c #499BC0",
"_A 	c #469ABE",
":A 	c #4798BB",
"<A 	c #4898BA",
"[A 	c #4C9FC0",
"}A 	c #4BA4C5",
"|A 	c #53A7CA",
"1A 	c #3A77A0",
"2A 	c #3C749F",
"3A 	c #3D759E",
"4A 	c #3D759F",
"5A 	c #5F91B0",
"6A 	c #C7F3F8",
"7A 	c #C6F4FA",
"8A 	c #C6F6FC",
"9A 	c #C6F7FC",
"0A 	c #C9F8FD",
"aA 	c #CDFAFE",
"bA 	c #CFFAFF",
"cA 	c #CDFBFF",
"dA 	c #AEEAF4",
"eA 	c #A4E6F4",
"fA 	c #A4E7F5",
"gA 	c #A4E8F6",
"hA 	c #A5E9F4",
"iA 	c #A4E9F3",
"jA 	c #A2EAF4",
"kA 	c #9FE9F6",
"lA 	c #96E1F3",
"mA 	c #83D4E8",
"nA 	c #82D4E8",
"oA 	c #84D6EA",
"pA 	c #9AE9F4",
"qA 	c #A4EFF9",
"rA 	c #A6EFFA",
"sA 	c #A3EEF9",
"tA 	c #9AE9F7",
"uA 	c #7FCCE2",
"vA 	c #7CCAE0",
"wA 	c #7BCADF",
"xA 	c #7ACADF",
"yA 	c #A4E7F0",
"zA 	c #C6F9FF",
"AA 	c #C5FBFF",
"BA 	c #C1FAFE",
"CA 	c #6F9AB3",
"DA 	c #4E85AB",
"EA 	c #538DAF",
"FA 	c #5595B4",
"GA 	c #4281A6",
"HA 	c #204E7D",
"IA 	c #224875",
"JA 	c #1D4972",
"KA 	c #1C4A72",
"LA 	c #386E93",
"MA 	c #3C7298",
"NA 	c #396F95",
"OA 	c #346890",
"PA 	c #386D94",
"QA 	c #376C94",
"RA 	c #396D95",
"SA 	c #497DA1",
"TA 	c #5086A7",
"UA 	c #5186A9",
"VA 	c #518BAE",
"WA 	c #549BB8",
"XA 	c #569CB9",
"YA 	c #579BB8",
"ZA 	c #386685",
"`A 	c #1D4063",
" B 	c #1C4467",
".B 	c #1C466A",
"+B 	c #193D5E",
"@B 	c #0F1122",
"#B 	c #141022",
"$B 	c #121120",
"%B 	c #12111F",
"&B 	c #251F2B",
"*B 	c #473742",
"=B 	c #493843",
"-B 	c #4B3941",
";B 	c #504247",
">B 	c #635A5D",
",B 	c #645A5C",
"'B 	c #61575A",
")B 	c #60565B",
"!B 	c #483E47",
"~B 	c #443A45",
"{B 	c #9B9A95",
"]B 	c #9D9D98",
"^B 	c #756C6E",
"/B 	c #523A47",
"(B 	c #523A48",
"_B 	c #533C48",
":B 	c #503B48",
"<B 	c #0D1427",
"[B 	c #0E1327",
"}B 	c #0C1D30",
"|B 	c #133750",
"1B 	c #123951",
"2B 	c #144058",
"3B 	c #1D4C63",
"4B 	c #5E9EB3",
"5B 	c #7ECEE2",
"6B 	c #7BCEE2",
"7B 	c #7ACDE1",
"8B 	c #78CCE0",
"9B 	c #65B7D1",
"0B 	c #4B9BC0",
"aB 	c #4B9BC1",
"bB 	c #489BBF",
"cB 	c #459BBE",
"dB 	c #459ABC",
"eB 	c #489BBC",
"fB 	c #4CA1C3",
"gB 	c #4DA6C8",
"hB 	c #53ABCB",
"iB 	c #2D678F",
"jB 	c #295D87",
"kB 	c #295F8A",
"lB 	c #2A628E",
"mB 	c #4E7F9C",
"nB 	c #EFFBFC",
"oB 	c #E9FCFB",
"pB 	c #C6F6FB",
"qB 	c #C7F7FD",
"rB 	c #C6F7FD",
"sB 	c #B7EFF9",
"tB 	c #A1E0EF",
"uB 	c #A2E2EF",
"vB 	c #A4E6F0",
"wB 	c #A5E6F0",
"xB 	c #A3E5F2",
"yB 	c #A5E7F5",
"zB 	c #A6E8F6",
"AB 	c #A5EAF7",
"BB 	c #A6E9F5",
"CB 	c #A5EAF5",
"DB 	c #A3EBF5",
"EB 	c #A0EAF7",
"FB 	c #83D3E7",
"GB 	c #82D2E7",
"HB 	c #7FD2E5",
"IB 	c #79CADF",
"JB 	c #75C4DB",
"KB 	c #77C9DE",
"LB 	c #80CDE1",
"MB 	c #7FCBE0",
"NB 	c #7DCBE1",
"OB 	c #7BCBE0",
"PB 	c #AAE7F0",
"QB 	c #CAFCFC",
"RB 	c #CCFBFE",
"SB 	c #61859F",
"TB 	c #2A5E8D",
"UB 	c #296194",
"VB 	c #296797",
"WB 	c #2A6594",
"XB 	c #265483",
"YB 	c #24527C",
"ZB 	c #23517B",
"`B 	c #21517A",
" C 	c #40799C",
".C 	c #437E9F",
"+C 	c #417B9E",
"@C 	c #3F789C",
"#C 	c #3E759B",
"$C 	c #3A7198",
"%C 	c #386E96",
"&C 	c #386D95",
"*C 	c #396D94",
"=C 	c #4A7EA1",
"-C 	c #5185A7",
";C 	c #5086A8",
">C 	c #4F8AAD",
",C 	c #5497B8",
"'C 	c #5398B6",
")C 	c #5398B5",
"!C 	c #4D90AD",
"~C 	c #2D536E",
"{C 	c #0E172B",
"]C 	c #0E172C",
"^C 	c #0E162C",
"/C 	c #0D1327",
"(C 	c #362C3A",
"_C 	c #3E2E3C",
":C 	c #3E2E3A",
"<C 	c #3D2D38",
"[C 	c #4B3B46",
"}C 	c #54434D",
"|C 	c #56444E",
"1C 	c #57454B",
"2C 	c #645B5A",
"3C 	c #969590",
"4C 	c #413946",
"5C 	c #9D9C96",
"6C 	c #776D6E",
"7C 	c #513A48",
"8C 	c #523B4A",
"9C 	c #543D4B",
"0C 	c #503E4B",
"aC 	c #161726",
"bC 	c #0D1426",
"cC 	c #101D31",
"dC 	c #1A3A54",
"eC 	c #183B53",
"fC 	c #193D54",
"gC 	c #619DB3",
"hC 	c #7CCAE1",
"iC 	c #77CADE",
"jC 	c #75C9DC",
"kC 	c #74C7DB",
"lC 	c #65B5D0",
"mC 	c #4D9CC2",
"nC 	c #4C9BC4",
"oC 	c #4B9BC3",
"pC 	c #4A9AC2",
"qC 	c #4999C0",
"rC 	c #4A9ABE",
"sC 	c #4C9BC3",
"tC 	c #4DA0C5",
"uC 	c #52A7C9",
"vC 	c #2A668E",
"wC 	c #275D88",
"xC 	c #27608A",
"yC 	c #29628C",
"zC 	c #4B7E9D",
"AC 	c #EDFAFC",
"BC 	c #C2F6F9",
"CC 	c #C4F6FD",
"DC 	c #C5F6FF",
"EC 	c #C4F6FF",
"FC 	c #B6EFF6",
"GC 	c #9EE3F1",
"HC 	c #A0E5F0",
"IC 	c #A1E6F1",
"JC 	c #A4E7F2",
"KC 	c #A6E9F4",
"LC 	c #A7EAF5",
"MC 	c #A6EBF6",
"NC 	c #A7EAF6",
"OC 	c #A4ECF6",
"PC 	c #A2EAF8",
"QC 	c #96E3F4",
"RC 	c #81D2E6",
"SC 	c #7FD0E5",
"TC 	c #7DD1E4",
"UC 	c #7AD0E2",
"VC 	c #72C2DA",
"WC 	c #6FBDD7",
"XC 	c #6CBCD6",
"YC 	c #6FBED6",
"ZC 	c #82CDE2",
"`C 	c #83CBE2",
" D 	c #7ECCE1",
".D 	c #7BCDE1",
"+D 	c #A6E6ED",
"@D 	c #6286A0",
"#D 	c #285F90",
"$D 	c #2B6196",
"%D 	c #296597",
"&D 	c #2B6391",
"*D 	c #255684",
"=D 	c #22537F",
"-D 	c #23517D",
";D 	c #23527C",
">D 	c #41799E",
",D 	c #447EA1",
"'D 	c #427C9F",
")D 	c #437B9F",
"!D 	c #427A9E",
"~D 	c #41779C",
"{D 	c #3C7097",
"]D 	c #3B6F94",
"^D 	c #407397",
"/D 	c #4C7FA1",
"(D 	c #5184A5",
"_D 	c #5085A5",
":D 	c #4D87A9",
"<D 	c #4C87AB",
"[D 	c #4E88AC",
"}D 	c #4D86A6",
"|D 	c #477E9D",
"1D 	c #457997",
"2D 	c #264358",
"3D 	c #121527",
"4D 	c #101427",
"5D 	c #101425",
"6D 	c #101423",
"7D 	c #382E3D",
"8D 	c #44333D",
"9D 	c #46323C",
"0D 	c #45313D",
"aD 	c #523F4A",
"bD 	c #594752",
"cD 	c #584651",
"dD 	c #5A4751",
"eD 	c #675D61",
"fD 	c #979490",
"gD 	c #949792",
"hD 	c #4F4C50",
"iD 	c #3F3643",
"jD 	c #9D9D96",
"kD 	c #7C7273",
"lD 	c #533C4B",
"mD 	c #4F3E4B",
"nD 	c #101D30",
"oD 	c #17374F",
"pD 	c #163851",
"qD 	c #163750",
"rD 	c #132F4A",
"sD 	c #6599B0",
"tD 	c #7AC8DE",
"uD 	c #75C7DB",
"vD 	c #74C5D9",
"wD 	c #74C4D9",
"xD 	c #72C0D9",
"yD 	c #70BAD7",
"zD 	c #6FBAD4",
"AD 	c #6DB8D2",
"BD 	c #6BB5D1",
"CD 	c #61ADCC",
"DD 	c #5AA6C8",
"ED 	c #54A3C6",
"FD 	c #53A5C7",
"GD 	c #53A8C8",
"HD 	c #2E6A91",
"ID 	c #285F8A",
"JD 	c #28628E",
"KD 	c #2A6390",
"LD 	c #4D83A2",
"MD 	c #F3FFFF",
"ND 	c #C1F3F6",
"OD 	c #C1F4F9",
"PD 	c #C1F3FB",
"QD 	c #BFF3FA",
"RD 	c #B6F0F4",
"SD 	c #9FE5F2",
"TD 	c #A0E5F3",
"UD 	c #A8EAF6",
"VD 	c #A8EBF7",
"WD 	c #A8EBF6",
"XD 	c #A4ECF7",
"YD 	c #95E1F3",
"ZD 	c #7ECFE4",
"`D 	c #7ECFE3",
" E 	c #7CCFE2",
".E 	c #77CCE0",
"+E 	c #74C4DC",
"@E 	c #72BFDA",
"#E 	c #71BED9",
"$E 	c #6FBFD8",
"%E 	c #70BFD7",
"&E 	c #85CCE4",
"*E 	c #81CDE3",
"=E 	c #7DCDE2",
"-E 	c #A2E5EC",
";E 	c #CAFCFE",
">E 	c #CBFCFE",
",E 	c #CAFBFD",
"'E 	c #CCFAFE",
")E 	c #62869F",
"!E 	c #29608F",
"~E 	c #2C6392",
"{E 	c #2A6692",
"]E 	c #2C658F",
"^E 	c #275885",
"/E 	c #275884",
"(E 	c #275683",
"_E 	c #285883",
":E 	c #41799F",
"<E 	c #447B9F",
"[E 	c #4E86A9",
"}E 	c #689EBF",
"|E 	c #6BA1C1",
"1E 	c #6CA3C1",
"2E 	c #69A1BF",
"3E 	c #619AB6",
"4E 	c #5F97B3",
"5E 	c #5E99B4",
"6E 	c #5D9BB5",
"7E 	c #4F809B",
"8E 	c #1D3652",
"9E 	c #1C354D",
"0E 	c #203853",
"aE 	c #263F56",
"bE 	c #172737",
"cE 	c #121628",
"dE 	c #111526",
"eE 	c #101524",
"fE 	c #382D3C",
"gE 	c #44343E",
"hE 	c #46333D",
"iE 	c #47333E",
"jE 	c #56424D",
"kE 	c #5B4752",
"lE 	c #5B4852",
"mE 	c #6B6064",
"nE 	c #989591",
"oE 	c #959893",
"pE 	c #4C494E",
"qE 	c #3C3341",
"rE 	c #9A9B96",
"sE 	c #7D7476",
"tE 	c #4F3D4B",
"uE 	c #513E4C",
"vE 	c #53414F",
"wE 	c #504251",
"xE 	c #181626",
"yE 	c #161525",
"zE 	c #171626",
"AE 	c #1D1D2B",
"BE 	c #1E2133",
"CE 	c #0D1D37",
"DE 	c #0D1D3B",
"EE 	c #0E1D3C",
"FE 	c #0E1A39",
"GE 	c #689AAF",
"HE 	c #79C7DE",
"IE 	c #77C5DC",
"JE 	c #8ED6E9",
"KE 	c #8ED8EA",
"LE 	c #8FD8EA",
"ME 	c #80D1E8",
"NE 	c #7CD0E7",
"OE 	c #7AD1E7",
"PE 	c #7DD3E8",
"QE 	c #498BB0",
"RE 	c #3573A0",
"SE 	c #3376A1",
"TE 	c #3279A1",
"UE 	c #35769A",
"VE 	c #5C7A91",
"WE 	c #5E7C91",
"XE 	c #5B8091",
"YE 	c #5B849B",
"ZE 	c #A9CBD6",
"`E 	c #DFF8FB",
" F 	c #A1E8F4",
".F 	c #A3E8F3",
"+F 	c #A9EBF7",
"@F 	c #A9ECF8",
"#F 	c #A8EDF8",
"$F 	c #A8ECF8",
"%F 	c #A4EBF9",
"&F 	c #7BCCE2",
"*F 	c #7ACBE1",
"=F 	c #75C8DE",
"-F 	c #6FC0D9",
";F 	c #6EC1D7",
">F 	c #88CEE4",
",F 	c #85CFE4",
"'F 	c #80CFE5",
")F 	c #91DAEB",
"!F 	c #B7F2F8",
"~F 	c #B7F4FA",
"{F 	c #B7F4FB",
"]F 	c #5D8199",
"^F 	c #23507C",
"/F 	c #26537D",
"(F 	c #255780",
"_F 	c #2C5E89",
":F 	c #346693",
"<F 	c #346793",
"[F 	c #346591",
"}F 	c #356891",
"|F 	c #437BA0",
"1F 	c #457CA2",
"2F 	c #457CA1",
"3F 	c #457CA0",
"4F 	c #558DAF",
"5F 	c #72A9C6",
"6F 	c #73A9C6",
"7F 	c #70A9C3",
"8F 	c #6DA6C0",
"9F 	c #67A3BC",
"0F 	c #64A2BB",
"aF 	c #63A2BA",
"bF 	c #528197",
"cF 	c #111428",
"dF 	c #151729",
"eF 	c #13182A",
"fF 	c #13192A",
"gF 	c #121A2A",
"hF 	c #121829",
"iF 	c #12182A",
"jF 	c #121728",
"kF 	c #44333E",
"lF 	c #48323E",
"mF 	c #48333F",
"nF 	c #55434C",
"oF 	c #5C4B53",
"pF 	c #5B4952",
"qF 	c #5B4951",
"rF 	c #6B6163",
"sF 	c #979591",
"tF 	c #4A464B",
"uF 	c #372F3B",
"vF 	c #7E7F7B",
"wF 	c #9B9C93",
"xF 	c #93908B",
"yF 	c #8D8987",
"zF 	c #928C8B",
"AF 	c #968F8D",
"BF 	c #9A9392",
"CF 	c #5E5A61",
"DF 	c #504953",
"EF 	c #514954",
"FF 	c #564F5A",
"GF 	c #4D4B5A",
"HF 	c #0B1233",
"IF 	c #0A1437",
"JF 	c #0A1436",
"KF 	c #0A1535",
"LF 	c #659AAD",
"MF 	c #79C8E0",
"NF 	c #77C5DD",
"OF 	c #7FCDE2",
"PF 	c #90D8E9",
"QF 	c #8ED8E9",
"RF 	c #88D6E7",
"SF 	c #7DD1E6",
"TF 	c #7AD2E6",
"UF 	c #7BD4E6",
"VF 	c #4A91B5",
"WF 	c #3578A5",
"XF 	c #357AA5",
"YF 	c #317AA3",
"ZF 	c #306F98",
"`F 	c #224B7A",
" G 	c #224C79",
".G 	c #1F4F77",
"+G 	c #1F547E",
"@G 	c #95B4C0",
"#G 	c #E5F9FC",
"$G 	c #A9ECF7",
"%G 	c #AAECF8",
"&G 	c #AAEDF8",
"*G 	c #A9EDF8",
"=G 	c #A6ECF7",
"-G 	c #A6EBF9",
";G 	c #96DFF3",
">G 	c #77CAE0",
",G 	c #77C9E0",
"'G 	c #76C9DF",
")G 	c #72C5DD",
"!G 	c #70C2DB",
"~G 	c #6FC1DA",
"{G 	c #6EC1DA",
"]G 	c #6EC3D9",
"^G 	c #89CFE5",
"/G 	c #85D0E4",
"(G 	c #80D0E6",
"_G 	c #86D4E6",
":G 	c #B5F2FB",
"<G 	c #B5F4FC",
"[G 	c #5E879C",
"}G 	c #204571",
"|G 	c #214770",
"1G 	c #1F4A73",
"2G 	c #295883",
"3G 	c #356794",
"4G 	c #346894",
"5G 	c #346794",
"6G 	c #356A93",
"7G 	c #447BA0",
"8G 	c #467DA3",
"9G 	c #588FB2",
"0G 	c #73ABC8",
"aG 	c #74AAC8",
"bG 	c #73AAC7",
"cG 	c #71AAC4",
"dG 	c #6FA9C3",
"eG 	c #6AA5BF",
"fG 	c #67A5BE",
"gG 	c #67A5BD",
"hG 	c #56859C",
"iG 	c #101426",
"jG 	c #141626",
"kG 	c #131727",
"lG 	c #121727",
"mG 	c #161C2C",
"nG 	c #181D2D",
"oG 	c #1B1F2F",
"pG 	c #1D1F2E",
"qG 	c #3D3240",
"rG 	c #4A3944",
"sG 	c #4C3A43",
"tG 	c #4C3B42",
"uG 	c #786D6E",
"vG 	c #837C78",
"wG 	c #817A76",
"xG 	c #807A78",
"yG 	c #949690",
"zG 	c #49454A",
"AG 	c #362F3A",
"BG 	c #767773",
"CG 	c #9B9B95",
"DG 	c #989A90",
"EG 	c #98958C",
"FG 	c #97948A",
"GG 	c #98938E",
"HG 	c #59515C",
"IG 	c #4A4250",
"JG 	c #4B4350",
"KG 	c #4C4551",
"LG 	c #413C4C",
"MG 	c #0C1033",
"NG 	c #091336",
"OG 	c #091335",
"PG 	c #091433",
"QG 	c #629BAA",
"RG 	c #77CCDF",
"SG 	c #78C9DF",
"TG 	c #77C7DD",
"UG 	c #75C7DC",
"VG 	c #7ECEE1",
"WG 	c #8DD8E9",
"XG 	c #8DD6E8",
"YG 	c #8ED7EA",
"ZG 	c #8CD8E9",
"`G 	c #84D3E5",
" H 	c #7DCFE2",
".H 	c #79CCE3",
"+H 	c #75CAE1",
"@H 	c #77CBE1",
"#H 	c #498CB2",
"$H 	c #3673A0",
"%H 	c #34749F",
"&H 	c #31749C",
"*H 	c #2D6D94",
"=H 	c #224D79",
"-H 	c #234E78",
";H 	c #214F78",
">H 	c #22537B",
",H 	c #8CA8B2",
"'H 	c #E9FAFC",
")H 	c #9DE9F2",
"!H 	c #A2EBF5",
"~H 	c #A6EBF5",
"{H 	c #A8ECF7",
"]H 	c #A9EEF7",
"^H 	c #A9EFF7",
"/H 	c #ABEEF8",
"(H 	c #ABEFFA",
"_H 	c #A9EAF6",
":H 	c #A6ECF9",
"<H 	c #96E0F2",
"[H 	c #75C9E0",
"}H 	c #74C8E0",
"|H 	c #74C7DF",
"1H 	c #72C4DD",
"2H 	c #71C3DB",
"3H 	c #6EC2DA",
"4H 	c #6DC4DA",
"5H 	c #84D0E5",
"6H 	c #86D0E5",
"7H 	c #82D0E4",
"8H 	c #7DD1E5",
"9H 	c #7ED0E2",
"0H 	c #B2F4FA",
"aH 	c #B6F4FA",
"bH 	c #B6F4FB",
"cH 	c #6293AA",
"dH 	c #214270",
"eH 	c #224470",
"fH 	c #204771",
"gH 	c #295782",
"hH 	c #356996",
"iH 	c #346994",
"jH 	c #336995",
"kH 	c #356B94",
"lH 	c #447CA2",
"mH 	c #467EA4",
"nH 	c #477FA6",
"oH 	c #4880A6",
"pH 	c #5991B3",
"qH 	c #71AAC6",
"rH 	c #70AAC5",
"sH 	c #6EA9C3",
"tH 	c #6AA5BE",
"uH 	c #69A4BD",
"vH 	c #68A4BC",
"wH 	c #57869B",
"xH 	c #0E1325",
"yH 	c #121624",
"zH 	c #121625",
"AH 	c #121525",
"BH 	c #141828",
"CH 	c #1D2332",
"DH 	c #212332",
"EH 	c #252532",
"FH 	c #272632",
"GH 	c #403540",
"HH 	c #4C3A46",
"IH 	c #4C3B44",
"JH 	c #4C3B41",
"KH 	c #817A78",
"LH 	c #90908A",
"MH 	c #939691",
"NH 	c #49444A",
"OH 	c #362F3B",
"PH 	c #9A9995",
"QH 	c #99968F",
"RH 	c #97948C",
"SH 	c #97938A",
"TH 	c #97908D",
"UH 	c #595159",
"VH 	c #4D414F",
"WH 	c #4E414E",
"XH 	c #4C414E",
"YH 	c #3D3947",
"ZH 	c #10122C",
"`H 	c #0E122D",
" I 	c #0F122D",
".I 	c #13152F",
"+I 	c #578691",
"@I 	c #67B0C0",
"#I 	c #67ACC0",
"$I 	c #62A6BA",
"%I 	c #5A9EB0",
"&I 	c #74B2C4",
"*I 	c #86CBDC",
"=I 	c #85C7D9",
"-I 	c #82C4D8",
";I 	c #7FC2D6",
">I 	c #79BCD2",
",I 	c #76B9D0",
"'I 	c #74B5CE",
")I 	c #72B4CD",
"!I 	c #71B6D0",
"~I 	c #5492B8",
"{I 	c #457FA9",
"]I 	c #4480A6",
"^I 	c #4283A6",
"/I 	c #3E80A2",
"(I 	c #214D76",
"_I 	c #234E76",
":I 	c #205076",
"<I 	c #215178",
"[I 	c #87A2AD",
"}I 	c #F6FEFD",
"|I 	c #EFFCFE",
"1I 	c #BFEFF4",
"2I 	c #C9F2F8",
"3I 	c #CBF3F9",
"4I 	c #BDF3F6",
"5I 	c #ABF1F5",
"6I 	c #ADF0F7",
"7I 	c #AEEFF8",
"8I 	c #AAEFF7",
"9I 	c #A9EBF6",
"0I 	c #A6EBF8",
"aI 	c #97E0F1",
"bI 	c #7DCAE1",
"cI 	c #7DC9E1",
"dI 	c #7BC9E0",
"eI 	c #7BC8DF",
"fI 	c #80CBDE",
"gI 	c #83CCDF",
"hI 	c #80CDDF",
"iI 	c #7DCCDC",
"jI 	c #91D7E5",
"kI 	c #95D8E6",
"lI 	c #95D9E8",
"mI 	c #94D9E8",
"nI 	c #80CADC",
"oI 	c #ADEFFB",
"pI 	c #B4F6FC",
"qI 	c #B6F7FB",
"rI 	c #B6F5FA",
"sI 	c #74A4BB",
"tI 	c #204172",
"uI 	c #22456D",
"vI 	c #1F476D",
"wI 	c #29567F",
"xI 	c #386995",
"yI 	c #366892",
"zI 	c #3B6E96",
"AI 	c #4A80A6",
"BI 	c #4984A6",
"CI 	c #4983A7",
"DI 	c #4A83A8",
"EI 	c #5893B3",
"FI 	c #6FA9C5",
"GI 	c #6EA9C5",
"HI 	c #669AB2",
"II 	c #5F91A4",
"JI 	c #5F90A4",
"KI 	c #4D7382",
"LI 	c #0D1523",
"MI 	c #101622",
"NI 	c #111624",
"OI 	c #151927",
"PI 	c #272736",
"QI 	c #2B2837",
"RI 	c #2E2B37",
"SI 	c #302D35",
"TI 	c #423641",
"UI 	c #4C3845",
"VI 	c #4D3A44",
"WI 	c #4D3941",
"XI 	c #837B7B",
"YI 	c #918D8A",
"ZI 	c #939692",
"`I 	c #484448",
" J 	c #362F3C",
".J 	c #7A7A77",
"+J 	c #9A9994",
"@J 	c #99968E",
"#J 	c #96928A",
"$J 	c #958F8A",
"%J 	c #7E7877",
"&J 	c #787171",
"*J 	c #766F6E",
"=J 	c #746E6F",
"-J 	c #615C64",
";J 	c #2D2636",
">J 	c #33293A",
",J 	c #362B3D",
"'J 	c #3D3144",
")J 	c #1D1F32",
"!J 	c #071732",
"~J 	c #0E1635",
"{J 	c #0F1536",
"]J 	c #0E1534",
"^J 	c #537689",
"/J 	c #80C1D4",
"(J 	c #7FBED2",
"_J 	c #7DBCD0",
":J 	c #7CBACE",
"<J 	c #78B6CC",
"[J 	c #77B3CA",
"}J 	c #75B3C9",
"|J 	c #72B4CB",
"1J 	c #5FA2C2",
"2J 	c #5698BA",
"3J 	c #589ABB",
"4J 	c #579DBC",
"5J 	c #5499B9",
"6J 	c #235077",
"7J 	c #4B708C",
"8J 	c #7896AD",
"9J 	c #7793A8",
"0J 	c #789BAB",
"aJ 	c #81A0BB",
"bJ 	c #CCE0EA",
"cJ 	c #DDF6F6",
"dJ 	c #AEF0F5",
"eJ 	c #B1F2F8",
"fJ 	c #B3F1F9",
"gJ 	c #AEF0F9",
"hJ 	c #A9EBF5",
"iJ 	c #A7EAF4",
"jJ 	c #A6EAF6",
"kJ 	c #A7EAF8",
"lJ 	c #A1E7F6",
"mJ 	c #9EE4F3",
"nJ 	c #9CE5F2",
"oJ 	c #A0E4F3",
"pJ 	c #ADEAF6",
"qJ 	c #B1ECF4",
"rJ 	c #B2ECF4",
"sJ 	c #B1EDF6",
"tJ 	c #B0ECF3",
"uJ 	c #CAFCFD",
"vJ 	c #CFFEFE",
"wJ 	c #D3FEFF",
"xJ 	c #9FC8D3",
"yJ 	c #2E5A7B",
"zJ 	c #528399",
"AJ 	c #72A0B1",
"BJ 	c #7EADBC",
"CJ 	c #5B89A7",
"DJ 	c #2F5C84",
"EJ 	c #305E85",
"FJ 	c #2F6287",
"GJ 	c #467BA0",
"HJ 	c #467BA1",
"IJ 	c #497EA2",
"JJ 	c #4C82A5",
"KJ 	c #518AAB",
"LJ 	c #518CAB",
"MJ 	c #528DAC",
"NJ 	c #548EAF",
"OJ 	c #5D98B5",
"PJ 	c #6CA6C1",
"QJ 	c #6DA6C1",
"RJ 	c #6BA5C0",
"SJ 	c #6BA5C1",
"TJ 	c #365169",
"UJ 	c #091426",
"VJ 	c #0C1427",
"WJ 	c #0C1628",
"XJ 	c #0D1528",
"YJ 	c #0F1725",
"ZJ 	c #101723",
"`J 	c #101624",
" K 	c #191D2B",
".K 	c #34303F",
"+K 	c #392F3F",
"@K 	c #3A303A",
"#K 	c #413540",
"$K 	c #493643",
"%K 	c #4B383F",
"&K 	c #857C7D",
"*K 	c #918C89",
"=K 	c #928E8A",
"-K 	c #949490",
";K 	c #474347",
">K 	c #342D3B",
",K 	c #999992",
"'K 	c #9B9991",
")K 	c #9B978F",
"!K 	c #95918A",
"~K 	c #878380",
"{K 	c #726F74",
"]K 	c #34293B",
"^K 	c #362B3B",
"/K 	c #372C3B",
"(K 	c #3A2E3F",
"_K 	c #211D33",
":K 	c #101432",
"<K 	c #0F1538",
"[K 	c #0E1639",
"}K 	c #0F1437",
"|K 	c #57768B",
"1K 	c #84C0D5",
"2K 	c #80BED2",
"3K 	c #7FBDD1",
"4K 	c #7DBBCF",
"5K 	c #77B5CC",
"6K 	c #74B2C9",
"7K 	c #74B3CA",
"8K 	c #71B4CA",
"9K 	c #63A7C2",
"0K 	c #5EA0C0",
"aK 	c #5FA2BF",
"bK 	c #5DA3C0",
"cK 	c #59A0BD",
"dK 	c #245079",
"eK 	c #264F77",
"fK 	c #225076",
"gK 	c #24527B",
"hK 	c #275780",
"iK 	c #2C5D88",
"jK 	c #2E628F",
"kK 	c #2E6893",
"lK 	c #2D6E9C",
"mK 	c #C1DBE2",
"nK 	c #F9FDFE",
"oK 	c #D7F5F6",
"pK 	c #ACEDF4",
"qK 	c #B2EFF7",
"rK 	c #B0F1F8",
"sK 	c #AEF1F9",
"tK 	c #A8EBF4",
"uK 	c #A6E8F8",
"vK 	c #A2E5F4",
"wK 	c #9DE4F2",
"xK 	c #9FE3F2",
"yK 	c #ADE8F4",
"zK 	c #B4EBF4",
"AK 	c #B4ECF4",
"BK 	c #B3ECF4",
"CK 	c #B4ECF2",
"DK 	c #D6FDFF",
"EK 	c #A1C9D4",
"FK 	c #1E3F6F",
"GK 	c #1C446E",
"HK 	c #336794",
"IK 	c #366B95",
"JK 	c #396E95",
"KK 	c #42789D",
"LK 	c #477FA3",
"MK 	c #4981A5",
"NK 	c #4B82A6",
"OK 	c #4E86AA",
"PK 	c #528CAE",
"QK 	c #538EAE",
"RK 	c #548FAF",
"SK 	c #538EAD",
"TK 	c #5F9AB6",
"UK 	c #6BA6BE",
"VK 	c #6CA6BE",
"WK 	c #6BA5BD",
"XK 	c #6BA4BB",
"YK 	c #345065",
"ZK 	c #0E1527",
"`K 	c #0D1625",
" L 	c #0E1726",
".L 	c #101626",
"+L 	c #0F1626",
"@L 	c #202330",
"#L 	c #4D414D",
"$L 	c #4B3C48",
"%L 	c #493B43",
"&L 	c #746D6F",
"*L 	c #7F7977",
"=L 	c #7F7A78",
"-L 	c #7D7877",
";L 	c #8E8986",
">L 	c #92928B",
",L 	c #93948F",
"'L 	c #939792",
")L 	c #474247",
"!L 	c #7F7F7E",
"~L 	c #979894",
"{L 	c #9A978F",
"]L 	c #918D88",
"^L 	c #8A8682",
"/L 	c #858281",
"(L 	c #7A767C",
"_L 	c #382D3D",
":L 	c #241F36",
"<L 	c #0F1331",
"[L 	c #597C8E",
"}L 	c #84C4D6",
"|L 	c #83C0D2",
"1L 	c #80BDD0",
"2L 	c #7EBBCF",
"3L 	c #75B3CB",
"4L 	c #73B2CA",
"5L 	c #70B1CA",
"6L 	c #65A9C3",
"7L 	c #61A3C2",
"8L 	c #62A4C2",
"9L 	c #5FA4C1",
"0L 	c #59A2BE",
"aL 	c #25527B",
"bL 	c #275079",
"cL 	c #245278",
"dL 	c #26537C",
"eL 	c #295881",
"fL 	c #2D5F88",
"gL 	c #2F648D",
"hL 	c #2F678F",
"iL 	c #2D6D96",
"jL 	c #C3DCE2",
"kL 	c #D5F3F4",
"lL 	c #B1EFF7",
"mL 	c #AFF2F8",
"nL 	c #A7EAF3",
"oL 	c #A5E8F4",
"pL 	c #A4E5F1",
"qL 	c #9EE4F1",
"rL 	c #A2E3F1",
"sL 	c #B0E8F4",
"tL 	c #B5ECF5",
"uL 	c #B5EDF5",
"vL 	c #B5ECF3",
"wL 	c #CFFBFE",
"xL 	c #D8FDFF",
"yL 	c #A0CBD3",
"zL 	c #1D4371",
"AL 	c #1E426D",
"BL 	c #1D426C",
"CL 	c #204772",
"DL 	c #366996",
"EL 	c #376D96",
"FL 	c #386E94",
"GL 	c #3B7097",
"HL 	c #42799E",
"IL 	c #4880A4",
"JL 	c #538CAE",
"KL 	c #558FB0",
"LL 	c #558FAF",
"ML 	c #5E99B5",
"NL 	c #6AA4BC",
"OL 	c #68A4B9",
"PL 	c #345266",
"QL 	c #0C1426",
"RL 	c #1F212F",
"SL 	c #4A3D48",
"TL 	c #4C3C47",
"UL 	c #4B3D47",
"VL 	c #493D42",
"WL 	c #948D8A",
"XL 	c #9C988F",
"YL 	c #939189",
"ZL 	c #92938D",
"`L 	c #7E7E7D",
" M 	c #999994",
".M 	c #9D9A93",
"+M 	c #9D9993",
"@M 	c #8C8885",
"#M 	c #898685",
"$M 	c #888583",
"%M 	c #878483",
"&M 	c #817C80",
"*M 	c #342B3B",
"=M 	c #35293A",
"-M 	c #362B3A",
";M 	c #352C3C",
">M 	c #242135",
",M 	c #10132F",
"'M 	c #111532",
")M 	c #111633",
"!M 	c #131732",
"~M 	c #5C7F8D",
"{M 	c #7EBDCD",
"]M 	c #78B6CA",
"^M 	c #71AEC2",
"/M 	c #6EACBF",
"(M 	c #72B0C4",
"_M 	c #70B0C9",
":M 	c #6DADC6",
"<M 	c #6EAEC7",
"[M 	c #69A9C5",
"}M 	c #66A5C4",
"|M 	c #65A8C6",
"1M 	c #61A9C6",
"2M 	c #28557D",
"3M 	c #29517B",
"4M 	c #29547C",
"5M 	c #27557C",
"6M 	c #295981",
"7M 	c #2D5F87",
"8M 	c #2F638A",
"9M 	c #31648C",
"0M 	c #306A90",
"aM 	c #BED7DE",
"bM 	c #EEFAFA",
"cM 	c #F0FAFB",
"dM 	c #F2FAFC",
"eM 	c #D8F4F6",
"fM 	c #C1F1F5",
"gM 	c #C6F2F7",
"hM 	c #C4F4F8",
"iM 	c #BBF1F6",
"jM 	c #B8EFF6",
"kM 	c #B7EFF6",
"lM 	c #B8EFF7",
"mM 	c #B4EEF7",
"nM 	c #AFEBF5",
"oM 	c #ADECF5",
"pM 	c #A9EAF2",
"qM 	c #A9E8F2",
"rM 	c #B0E9F3",
"sM 	c #B5EDF3",
"tM 	c #B4EDF4",
"uM 	c #D6FEFF",
"vM 	c #D5FEFF",
"wM 	c #97C8D2",
"xM 	c #1C4876",
"yM 	c #1F466F",
"zM 	c #1F4570",
"AM 	c #26507A",
"BM 	c #3C709A",
"CM 	c #3B7099",
"DM 	c #3B729A",
"EM 	c #447AA1",
"FM 	c #4882A7",
"GM 	c #4D87AB",
"HM 	c #538EB2",
"IM 	c #548FB1",
"JM 	c #538FB1",
"KM 	c #5390B0",
"LM 	c #5D9AB7",
"MM 	c #689FB7",
"NM 	c #699FB7",
"OM 	c #68A0B5",
"PM 	c #67A0B6",
"QM 	c #335264",
"RM 	c #0D1527",
"SM 	c #0D1425",
"TM 	c #0C1624",
"UM 	c #0E1725",
"VM 	c #121826",
"WM 	c #141726",
"XM 	c #141727",
"YM 	c #222431",
"ZM 	c #493E47",
"`M 	c #4B3D44",
" N 	c #493D44",
".N 	c #483E43",
"+N 	c #958D8E",
"@N 	c #9D9792",
"#N 	c #95968E",
"$N 	c #92938A",
"%N 	c #93938E",
"&N 	c #929691",
"*N 	c #7D7E7D",
"=N 	c #9B9893",
"-N 	c #9D9A95",
";N 	c #9C9994",
">N 	c #989490",
",N 	c #726968",
"'N 	c #706865",
")N 	c #6E6764",
"!N 	c #17172A",
"~N 	c #181A32",
"{N 	c #181933",
"]N 	c #181830",
"^N 	c #111D34",
"/N 	c #0C213E",
"(N 	c #0E233F",
"_N 	c #34566F",
":N 	c #72B6CF",
"<N 	c #70B4CC",
"[N 	c #6DB1CA",
"}N 	c #6DB4CD",
"|N 	c #7BC4DD",
"1N 	c #79C7E0",
"2N 	c #73C9E1",
"3N 	c #6FCBE2",
"4N 	c #71C2DD",
"5N 	c #33668D",
"6N 	c #305D86",
"7N 	c #325F88",
"8N 	c #306188",
"9N 	c #2E5F86",
"0N 	c #2E5E85",
"aN 	c #2F6088",
"bN 	c #306289",
"cN 	c #2D648A",
"dN 	c #35688A",
"eN 	c #3C6E8F",
"fN 	c #457298",
"gN 	c #4E7A9F",
"hN 	c #D2E9EF",
"iN 	c #EDFDFF",
"jN 	c #D4FFFE",
"kN 	c #D2FDFF",
"lN 	c #BEF3FB",
"mN 	c #BBF4FB",
"nN 	c #B8F1F8",
"oN 	c #B6F2F8",
"pN 	c #B7EFF7",
"qN 	c #BAF0F7",
"rN 	c #BAF2FA",
"sN 	c #B5EAF9",
"tN 	c #6490A6",
"uN 	c #6791A1",
"vN 	c #6392A2",
"wN 	c #6193A3",
"xN 	c #457795",
"yN 	c #2A5881",
"zN 	c #2B577F",
"AN 	c #2A557F",
"BN 	c #32638B",
"CN 	c #4A84AB",
"DN 	c #4984AC",
"EN 	c #4582A8",
"FN 	c #4280A6",
"GN 	c #5391B3",
"HN 	c #6DAECD",
"IN 	c #6BB0CE",
"JN 	c #6AB0CD",
"KN 	c #68AFCC",
"LN 	c #589EBF",
"MN 	c #559ABF",
"NN 	c #539ABD",
"ON 	c #5098B9",
"PN 	c #477C9C",
"QN 	c #12283D",
"RN 	c #12263B",
"SN 	c #182D42",
"TN 	c #1C3447",
"UN 	c #0F2332",
"VN 	c #0C1425",
"WN 	c #0D1424",
"XN 	c #0D1223",
"YN 	c #41394A",
"ZN 	c #433749",
"`N 	c #433647",
" O 	c #403344",
".O 	c #383742",
"+O 	c #766F72",
"@O 	c #77706F",
"#O 	c #71686A",
"$O 	c #60595A",
"%O 	c #968F90",
"&O 	c #9A9791",
"*O 	c #92938E",
"=O 	c #919591",
"-O 	c #362F3D",
";O 	c #837F80",
">O 	c #7A7678",
",O 	c #767274",
"'O 	c #726E70",
")O 	c #726E6D",
"!O 	c #9E9D93",
"~O 	c #9C9B91",
"{O 	c #9C9A90",
"]O 	c #99968D",
"^O 	c #87837A",
"/O 	c #868076",
"(O 	c #847D74",
"_O 	c #837B72",
":O 	c #6C6564",
"<O 	c #171327",
"[O 	c #191A31",
"}O 	c #18192E",
"|O 	c #151C34",
"1O 	c #102442",
"2O 	c #0E2642",
"3O 	c #102843",
"4O 	c #112846",
"5O 	c #345771",
"6O 	c #74B8D2",
"7O 	c #70B7CF",
"8O 	c #6DB4CC",
"9O 	c #7CC7E0",
"0O 	c #78CAE2",
"aO 	c #74CAE2",
"bO 	c #71CAE2",
"cO 	c #73C6E0",
"dO 	c #366E94",
"eO 	c #31618A",
"fO 	c #33638C",
"gO 	c #31658C",
"hO 	c #2F5E85",
"iO 	c #306086",
"jO 	c #306186",
"kO 	c #2E6287",
"lO 	c #2C5F85",
"mO 	c #2A5F86",
"nO 	c #2B6087",
"oO 	c #2E608C",
"pO 	c #C9E6EC",
"qO 	c #ECFFFF",
"rO 	c #E9FFFF",
"sO 	c #DDFEFE",
"tO 	c #D9FFFE",
"uO 	c #C9F7FE",
"vO 	c #C1F2FA",
"wO 	c #C0F3FA",
"xO 	c #BCF2F9",
"yO 	c #BBF2F8",
"zO 	c #BBF0F7",
"AO 	c #BDF1F7",
"BO 	c #BEF2F7",
"CO 	c #BDF3F8",
"DO 	c #B6E9F5",
"EO 	c #264D74",
"FO 	c #28446B",
"GO 	c #26456A",
"HO 	c #25466A",
"IO 	c #2B517A",
"JO 	c #2F5A83",
"KO 	c #2D5B83",
"LO 	c #2E5B84",
"MO 	c #366890",
"NO 	c #4C85AE",
"OO 	c #4C86AF",
"PO 	c #4A85AD",
"QO 	c #4885AC",
"RO 	c #5D9DBE",
"SO 	c #79BDD9",
"TO 	c #77BDD9",
"UO 	c #77BED9",
"VO 	c #76BEDA",
"WO 	c #5EA9C8",
"XO 	c #52A2C6",
"YO 	c #50A2C3",
"ZO 	c #4581A1",
"`O 	c #071024",
" P 	c #0F132B",
".P 	c #10142F",
"+P 	c #0A162D",
"@P 	c #0A152B",
"#P 	c #0D1428",
"$P 	c #0C1424",
"%P 	c #0A1223",
"&P 	c #4D3F52",
"*P 	c #513D50",
"=P 	c #503D4E",
"-P 	c #49384A",
";P 	c #979390",
">P 	c #9B9591",
",P 	c #948E8B",
"'P 	c #989491",
")P 	c #98968F",
"!P 	c #909490",
"~P 	c #464147",
"{P 	c #393241",
"]P 	c #7B7B7C",
"^P 	c #6D686C",
"/P 	c #706B6B",
"(P 	c #A4A197",
"_P 	c #A09E93",
":P 	c #9C9A8F",
"<P 	c #89867C",
"[P 	c #888377",
"}P 	c #868175",
"|P 	c #868077",
"1P 	c #645D5D",
"2P 	c #191528",
"3P 	c #191831",
"4P 	c #17182E",
"5P 	c #16192C",
"6P 	c #141C32",
"7P 	c #0F2442",
"8P 	c #0F2844",
"9P 	c #112847",
"0P 	c #395C76",
"aP 	c #77BBD5",
"bP 	c #72B8D1",
"cP 	c #70B6CE",
"dP 	c #6EB6CD",
"eP 	c #7BC8E3",
"fP 	c #7AC8E2",
"gP 	c #77C4E2",
"hP 	c #3D719A",
"iP 	c #33608C",
"jP 	c #32638C",
"kP 	c #32638A",
"lP 	c #2F5E86",
"mP 	c #2F5F86",
"nP 	c #2E6086",
"oP 	c #2B6088",
"pP 	c #2E618C",
"qP 	c #29638A",
"rP 	c #CBE5EC",
"sP 	c #D7FEFC",
"tP 	c #D1FDFF",
"uP 	c #C8F8FE",
"vP 	c #BEF3FA",
"wP 	c #BEF1F9",
"xP 	c #BCF1F8",
"yP 	c #BEF1F7",
"zP 	c #B4E9F5",
"AP 	c #234D78",
"BP 	c #284871",
"CP 	c #294870",
"DP 	c #27486F",
"EP 	c #2A5179",
"FP 	c #315A86",
"GP 	c #3A6B94",
"HP 	c #4D86B1",
"IP 	c #4D87B0",
"JP 	c #4A88B1",
"KP 	c #5E9FC1",
"LP 	c #7BBDDB",
"MP 	c #79BDDB",
"NP 	c #78BEDD",
"OP 	c #61AAC9",
"PP 	c #56A3C6",
"QP 	c #51A2C5",
"RP 	c #4A8AA9",
"SP 	c #040E24",
"TP 	c #0D152B",
"UP 	c #0B162B",
"VP 	c #0B1629",
"WP 	c #0C1527",
"XP 	c #0B1325",
"YP 	c #4F4153",
"ZP 	c #513D51",
"`P 	c #4F3C50",
" Q 	c #4C4752",
".Q 	c #989590",
"+Q 	c #9B958F",
"@Q 	c #98958F",
"#Q 	c #98958D",
"$Q 	c #443F46",
"%Q 	c #3C3444",
"&Q 	c #7A7A7B",
"*Q 	c #736E6F",
"=Q 	c #A6A29A",
"-Q 	c #A7A49A",
";Q 	c #A5A298",
">Q 	c #A3A096",
",Q 	c #9F9C92",
"'Q 	c #8D8A7F",
")Q 	c #8C887C",
"!Q 	c #8A877A",
"~Q 	c #89837A",
"{Q 	c #625C5C",
"]Q 	c #1A1728",
"^Q 	c #19172D",
"/Q 	c #181729",
"(Q 	c #181928",
"_Q 	c #151C2F",
":Q 	c #0F243E",
"<Q 	c #112540",
"[Q 	c #122541",
"}Q 	c #122540",
"|Q 	c #45677A",
"1Q 	c #80C2D6",
"2Q 	c #7BBECF",
"3Q 	c #75B7C9",
"4Q 	c #71B7CA",
"5Q 	c #7BC5DD",
"6Q 	c #7AC7E3",
"7Q 	c #79C7E1",
"8Q 	c #77C7E0",
"9Q 	c #76C3E0",
"0Q 	c #4779A3",
"aQ 	c #335F8E",
"bQ 	c #32638D",
"cQ 	c #30658E",
"dQ 	c #32648C",
"eQ 	c #315F88",
"fQ 	c #315F89",
"gQ 	c #2F5F85",
"hQ 	c #2D6085",
"iQ 	c #2D6086",
"jQ 	c #2D6088",
"kQ 	c #2E6188",
"lQ 	c #2D6186",
"mQ 	c #296586",
"nQ 	c #C9E3E8",
"oQ 	c #EDFEFF",
"pQ 	c #EBFFFF",
"qQ 	c #DCFEFB",
"rQ 	c #D8FEFC",
"sQ 	c #D0FBFE",
"tQ 	c #BFF2F9",
"uQ 	c #C1F4FA",
"vQ 	c #B7EAF6",
"wQ 	c #25547C",
"xQ 	c #294D76",
"yQ 	c #294C74",
"zQ 	c #274C71",
"AQ 	c #2B527B",
"BQ 	c #325D87",
"CQ 	c #335E89",
"DQ 	c #3C6D96",
"EQ 	c #4E86B3",
"FQ 	c #5088B3",
"GQ 	c #4F89B2",
"HQ 	c #4D8BB3",
"IQ 	c #5D9EC0",
"JQ 	c #7ABDDB",
"KQ 	c #79BDDD",
"LQ 	c #79BFDE",
"MQ 	c #65ADCB",
"NQ 	c #5AA5C6",
"OQ 	c #57A4C7",
"PQ 	c #55A4C8",
"QQ 	c #5392B1",
"RQ 	c #040E26",
"SQ 	c #0C1529",
"TQ 	c #4E4052",
"UQ 	c #513E51",
"VQ 	c #463548",
"WQ 	c #544F59",
"XQ 	c #9B9791",
"YQ 	c #9B968E",
"ZQ 	c #9B958E",
"`Q 	c #99948E",
" R 	c #939590",
".R 	c #8E918F",
"+R 	c #413A44",
"@R 	c #3C3445",
"#R 	c #58565A",
"$R 	c #787676",
"%R 	c #747371",
"&R 	c #6C686B",
"*R 	c #615C61",
"=R 	c #615C63",
"-R 	c #676468",
";R 	c #84837C",
">R 	c #837F7E",
",R 	c #7C7978",
"'R 	c #5C5A60",
")R 	c #41404C",
"!R 	c #372C3D",
"~R 	c #3E3244",
"{R 	c #373043",
"]R 	c #0E172E",
"^R 	c #0D1730",
"/R 	c #0D1630",
"(R 	c #1C2D41",
"_R 	c #33546C",
":R 	c #2B4D63",
"<R 	c #26455E",
"[R 	c #27465F",
"}R 	c #6B9EB7",
"|R 	c #87D2EC",
"1R 	c #84D0EB",
"2R 	c #80D0E9",
"3R 	c #7FCFEA",
"4R 	c #62A4C9",
"5R 	c #4381A9",
"6R 	c #4484A7",
"7R 	c #4386A8",
"8R 	c #4384A7",
"9R 	c #326990",
"0R 	c #386F96",
"aR 	c #3B799F",
"bR 	c #3A7CA0",
"cR 	c #2D5883",
"dR 	c #2A5B81",
"eR 	c #285F83",
"fR 	c #246085",
"gR 	c #7DA9B9",
"hR 	c #8FBAC8",
"iR 	c #86B6C7",
"jR 	c #85B4C9",
"kR 	c #8FBFCF",
"lR 	c #EDFDFD",
"mR 	c #E6FDFE",
"nR 	c #DDFAFE",
"oR 	c #D3F7FB",
"pR 	c #D2F7FA",
"qR 	c #9FCAD6",
"rR 	c #6C96AB",
"sR 	c #729BB0",
"tR 	c #7FAABC",
"uR 	c #8AB9CA",
"vR 	c #28547F",
"wR 	c #285079",
"xR 	c #285077",
"yR 	c #2F5A81",
"zR 	c #33618B",
"AR 	c #34638E",
"BR 	c #35648F",
"CR 	c #528DB5",
"DR 	c #5491B7",
"ER 	c #5493B9",
"FR 	c #5697BB",
"GR 	c #599DC0",
"HR 	c #5BA2C3",
"IR 	c #61A9C7",
"JR 	c #67B2CF",
"KR 	c #3C667C",
"LR 	c #29485F",
"MR 	c #375A73",
"NR 	c #3B657D",
"OR 	c #365A70",
"PR 	c #091027",
"QR 	c #0D1328",
"RR 	c #0C1325",
"SR 	c #0D1325",
"TR 	c #0D1020",
"UR 	c #444050",
"VR 	c #3E384A",
"WR 	c #383344",
"XR 	c #2C2836",
"YR 	c #5A515B",
"ZR 	c #685D66",
"`R 	c #665D65",
" S 	c #5F565E",
".S 	c #99948F",
"+S 	c #958F8B",
"@S 	c #908A87",
"#S 	c #827F79",
"$S 	c #7F7C77",
"%S 	c #7C7976",
"&S 	c #797674",
"*S 	c #767473",
"=S 	c #737273",
"-S 	c #707272",
";S 	c #707372",
">S 	c #6E7171",
",S 	c #6B6B70",
"'S 	c #3A3240",
")S 	c #393242",
"!S 	c #484353",
"~S 	c #474251",
"{S 	c #494252",
"]S 	c #4A4453",
"^S 	c #4D4655",
"/S 	c #504958",
"(S 	c #524B5A",
"_S 	c #534D5C",
":S 	c #565261",
"<S 	c #585461",
"[S 	c #59555E",
"}S 	c #5A565E",
"|S 	c #5B585D",
"1S 	c #5C5860",
"2S 	c #5E5B64",
"3S 	c #5F5D67",
"4S 	c #65646C",
"5S 	c #64626F",
"6S 	c #433648",
"7S 	c #47394B",
"8S 	c #493A4D",
"9S 	c #3F3448",
"0S 	c #0A1126",
"aS 	c #0C132C",
"bS 	c #0C142D",
"cS 	c #0E1B33",
"dS 	c #153354",
"eS 	c #103459",
"fS 	c #123359",
"gS 	c #152F54",
"hS 	c #73A4BC",
"iS 	c #88D6EF",
"jS 	c #87D4EF",
"kS 	c #83D3EC",
"lS 	c #80D3EC",
"mS 	c #6AB4D8",
"nS 	c #4591B6",
"oS 	c #4992B8",
"pS 	c #4894B9",
"qS 	c #4A95BB",
"rS 	c #3677A0",
"sS 	c #3E7FA9",
"tS 	c #4187AF",
"uS 	c #408AB0",
"vS 	c #316B93",
"wS 	c #26507C",
"xS 	c #24537B",
"yS 	c #24577C",
"zS 	c #235A83",
"AS 	c #2A6B98",
"BS 	c #2C6E9F",
"CS 	c #2D6F9F",
"DS 	c #2B6F9F",
"ES 	c #F9FDFF",
"FS 	c #E6FCFF",
"GS 	c #E5FDFE",
"HS 	c #94B8C2",
"IS 	c #24486E",
"JS 	c #254871",
"KS 	c #284E7D",
"LS 	c #325885",
"MS 	c #315B83",
"NS 	c #315C83",
"OS 	c #39688F",
"PS 	c #3A6D96",
"QS 	c #396E97",
"RS 	c #386E97",
"SS 	c #3E799E",
"TS 	c #5698B9",
"US 	c #559ABB",
"VS 	c #569BBD",
"WS 	c #589EBE",
"XS 	c #589DC0",
"YS 	c #5399BD",
"ZS 	c #519BBC",
"`S 	c #519FBD",
" T 	c #56A1BE",
".T 	c #27485C",
"+T 	c #0D132A",
"@T 	c #0A1630",
"#T 	c #071933",
"$T 	c #091831",
"%T 	c #0E1429",
"&T 	c #0E1328",
"*T 	c #0E1324",
"=T 	c #131523",
"-T 	c #5C5564",
";T 	c #504555",
">T 	c #4A3F4F",
",T 	c #443848",
"'T 	c #68646C",
")T 	c #77716F",
"!T 	c #716A6A",
"~T 	c #70676B",
"{T 	c #6D6767",
"]T 	c #696362",
"^T 	c #645D5E",
"/T 	c #5C5559",
"(T 	c #534D54",
"_T 	c #524C54",
":T 	c #514853",
"<T 	c #4F4751",
"[T 	c #4A4450",
"}T 	c #49424F",
"|T 	c #48404E",
"1T 	c #473F4C",
"2T 	c #443C49",
"3T 	c #423B4B",
"4T 	c #352C3E",
"5T 	c #342D3E",
"6T 	c #4D4757",
"7T 	c #4B4555",
"8T 	c #4C4557",
"9T 	c #4C4757",
"0T 	c #504A59",
"aT 	c #514C5A",
"bT 	c #524E5B",
"cT 	c #534E5C",
"dT 	c #585361",
"eT 	c #5E5866",
"fT 	c #5F5966",
"gT 	c #605B66",
"hT 	c #615C67",
"iT 	c #625D68",
"jT 	c #655F6B",
"kT 	c #65616A",
"lT 	c #65626A",
"mT 	c #656369",
"nT 	c #6A6771",
"oT 	c #63616E",
"pT 	c #413446",
"qT 	c #47374A",
"rT 	c #4A3B4D",
"sT 	c #3D3447",
"tT 	c #080F23",
"uT 	c #0C112A",
"vT 	c #0D122A",
"wT 	c #0C1931",
"xT 	c #133453",
"yT 	c #0C3658",
"zT 	c #0E3759",
"AT 	c #113356",
"BT 	c #7BAEC5",
"CT 	c #87D6ED",
"DT 	c #87D6EF",
"ET 	c #84D4EC",
"FT 	c #7FD3EB",
"GT 	c #6CB8D8",
"HT 	c #488FB8",
"IT 	c #4A8FB9",
"JT 	c #4891BB",
"KT 	c #4A93BD",
"LT 	c #3676A2",
"MT 	c #3D7DAA",
"NT 	c #4183AF",
"OT 	c #4187B2",
"PT 	c #336A94",
"QT 	c #264C78",
"RT 	c #245078",
"ST 	c #26537B",
"TT 	c #255681",
"UT 	c #2C6C98",
"VT 	c #2E709E",
"WT 	c #306F9E",
"XT 	c #2D709D",
"YT 	c #3A7DA1",
"ZT 	c #E2FBFE",
"`T 	c #EBFFFE",
" U 	c #E9FFFC",
".U 	c #E6FFFC",
"+U 	c #92B6C1",
"@U 	c #274875",
"#U 	c #284874",
"$U 	c #274872",
"%U 	c #2B507B",
"&U 	c #315C86",
"*U 	c #305E87",
"=U 	c #305E86",
"-U 	c #386991",
";U 	c #3C6F99",
">U 	c #3B6F99",
",U 	c #40779E",
"'U 	c #5898B9",
")U 	c #5799BB",
"!U 	c #579BBB",
"~U 	c #599DBE",
"{U 	c #5B9FC2",
"]U 	c #569CC0",
"^U 	c #559EC1",
"/U 	c #53A2BF",
"(U 	c #5BA3C1",
"_U 	c #274256",
":U 	c #0B1125",
"<U 	c #0A162C",
"[U 	c #0C172D",
"}U 	c #0E162D",
"|U 	c #0E152A",
"1U 	c #0E1428",
"2U 	c #1D1C29",
"3U 	c #524958",
"4U 	c #4A3E4F",
"5U 	c #473A4B",
"6U 	c #433646",
"7U 	c #69636C",
"8U 	c #7A7477",
"9U 	c #777071",
"0U 	c #6D6567",
"aU 	c #6A6365",
"bU 	c #676064",
"cU 	c #655D63",
"dU 	c #605861",
"eU 	c #58525B",
"fU 	c #564F5B",
"gU 	c #554E5A",
"hU 	c #534D58",
"iU 	c #524C57",
"jU 	c #504C56",
"kU 	c #504A55",
"lU 	c #4F4855",
"mU 	c #4E4654",
"nU 	c #4C4552",
"oU 	c #4A4351",
"pU 	c #484150",
"qU 	c #47404F",
"rU 	c #362D3E",
"sU 	c #4A4452",
"tU 	c #4B4353",
"uU 	c #4C4454",
"vU 	c #4C4556",
"wU 	c #4E4757",
"xU 	c #504A58",
"yU 	c #524B58",
"zU 	c #544E5B",
"AU 	c #57505F",
"BU 	c #5B5463",
"CU 	c #5E5766",
"DU 	c #5F5867",
"EU 	c #605968",
"FU 	c #655E6C",
"GU 	c #66616C",
"HU 	c #66626C",
"IU 	c #67636B",
"JU 	c #6A6770",
"KU 	c #64616E",
"LU 	c #423246",
"MU 	c #463449",
"NU 	c #493A4C",
"OU 	c #38303F",
"PU 	c #0B0F21",
"QU 	c #0D0F24",
"RU 	c #0E0F26",
"SU 	c #0D1028",
"TU 	c #0B172F",
"UU 	c #123351",
"VU 	c #113656",
"WU 	c #123657",
"XU 	c #103556",
"YU 	c #83B6CC",
"ZU 	c #91D9F0",
"`U 	c #8CD8EE",
" V 	c #88D5ED",
".V 	c #84D3EA",
"+V 	c #71BAD8",
"@V 	c #478CBB",
"#V 	c #4A8DB9",
"$V 	c #4990BA",
"%V 	c #4C92BB",
"&V 	c #38739F",
"*V 	c #3A76A2",
"=V 	c #3B7CA8",
"-V 	c #4084AE",
";V 	c #336A95",
">V 	c #244C78",
",V 	c #234F77",
"'V 	c #274F7B",
")V 	c #26527F",
"!V 	c #2F6B97",
"~V 	c #2F709E",
"{V 	c #2D7199",
"]V 	c #367B9C",
"^V 	c #DEF8FC",
"/V 	c #F1FFFC",
"(V 	c #EEFFFC",
"_V 	c #EDFFFB",
":V 	c #93B3C0",
"<V 	c #28487A",
"[V 	c #294877",
"}V 	c #284A72",
"|V 	c #315D88",
"1V 	c #305E88",
"2V 	c #315E87",
"3V 	c #3A6A93",
"4V 	c #3D719B",
"5V 	c #3C719A",
"6V 	c #42779F",
"7V 	c #5997BB",
"8V 	c #5898BC",
"9V 	c #589BBD",
"0V 	c #5CA1C3",
"aV 	c #589EC1",
"bV 	c #599FC3",
"cV 	c #56A3BF",
"dV 	c #5CA5C1",
"eV 	c #21394D",
"fV 	c #0C1025",
"gV 	c #0B152B",
"hV 	c #0C162A",
"iV 	c #0B1528",
"jV 	c #0C1324",
"kV 	c #0D1222",
"lV 	c #221E2C",
"mV 	c #4C4151",
"nV 	c #463A4D",
"oV 	c #47394C",
"pV 	c #453745",
"qV 	c #6C646B",
"rV 	c #7A7478",
"sV 	c #777072",
"tV 	c #716A6D",
"uV 	c #6E666A",
"vV 	c #6B6468",
"wV 	c #696166",
"xV 	c #675F65",
"yV 	c #625A61",
"zV 	c #5A545D",
"AV 	c #57505C",
"BV 	c #544E59",
"CV 	c #514B56",
"DV 	c #504956",
"EV 	c #4F4856",
"FV 	c #4D4654",
"GV 	c #4C4553",
"HV 	c #4B4454",
"IV 	c #484151",
"JV 	c #352D3E",
"KV 	c #3D3843",
"LV 	c #4D4950",
"MV 	c #534D53",
"NV 	c #5E5A5E",
"OV 	c #615C60",
"PV 	c #635E62",
"QV 	c #676266",
"RV 	c #6A6568",
"SV 	c #696569",
"TV 	c #666367",
"UV 	c #676367",
"VV 	c #6D696D",
"WV 	c #6D6A6F",
"XV 	c #6E6B70",
"YV 	c #6E6C70",
"ZV 	c #66646D",
"`V 	c #635E66",
" W 	c #635E65",
".W 	c #6A676B",
"+W 	c #69686D",
"@W 	c #413F49",
"#W 	c #3B3745",
"$W 	c #3D3746",
"%W 	c #3E3744",
"&W 	c #322E3B",
"*W 	c #0F2439",
"=W 	c #0E233E",
"-W 	c #0E233D",
";W 	c #0E243E",
">W 	c #658596",
",W 	c #75A2B3",
"'W 	c #73A3B4",
")W 	c #71A3B4",
"!W 	c #6FA3B3",
"~W 	c #6CA2BB",
"{W 	c #5294BF",
"]W 	c #5097C0",
"^W 	c #4E98BE",
"/W 	c #519ABF",
"(W 	c #5997BD",
"_W 	c #5B9ABE",
":W 	c #5FA1C4",
"<W 	c #62A8CB",
"[W 	c #5595B9",
"}W 	c #376E94",
"|W 	c #397598",
"1W 	c #3F799F",
"2W 	c #3F7DA4",
"3W 	c #34749E",
"4W 	c #2F6F9A",
"5W 	c #2E6F9B",
"6W 	c #2B6F97",
"7W 	c #317799",
"8W 	c #BBE7F0",
"9W 	c #CEEEF3",
"0W 	c #CFEFF3",
"aW 	c #DDF8FB",
"bW 	c #D1EDF1",
"cW 	c #B8D5D7",
"dW 	c #BBD6D9",
"eW 	c #BED7DB",
"fW 	c #B9D7DC",
"gW 	c #7096A6",
"hW 	c #2B4D7C",
"iW 	c #2D4D7A",
"jW 	c #2B4F77",
"kW 	c #2F597F",
"lW 	c #396790",
"mW 	c #396891",
"nW 	c #386791",
"oW 	c #42739C",
"pW 	c #467BA3",
"qW 	c #467DA4",
"rW 	c #457DA4",
"sW 	c #477EA5",
"tW 	c #5390B4",
"uW 	c #5191B4",
"vW 	c #5093B5",
"wW 	c #4F87A5",
"xW 	c #406A80",
"yW 	c #48748B",
"zW 	c #53899C",
"AW 	c #558C9F",
"BW 	c #122234",
"CW 	c #0D1125",
"DW 	c #0F182A",
"EW 	c #101929",
"FW 	c #1B1D2F",
"GW 	c #1D1B2E",
"HW 	c #1C1A2A",
"IW 	c #1A1B29",
"JW 	c #2B2732",
"KW 	c #6D666D",
"LW 	c #6F676C",
"MW 	c #6E656A",
"NW 	c #6E6569",
"OW 	c #7C7777",
"PW 	c #827D7C",
"QW 	c #7F7A7A",
"RW 	c #7A7575",
"SW 	c #787273",
"TW 	c #757071",
"UW 	c #716B6D",
"VW 	c #6C6668",
"WW 	c #5A555C",
"XW 	c #58545A",
"YW 	c #575359",
"ZW 	c #575358",
"`W 	c #565259",
" X 	c #555158",
".X 	c #56525B",
"+X 	c #514D56",
"@X 	c #2A2331",
"#X 	c #313236",
"$X 	c #BABDB7",
"%X 	c #C5C6BE",
"&X 	c #C7C8BF",
"*X 	c #C7C7BD",
"=X 	c #C5C6BB",
"-X 	c #C3C5BB",
";X 	c #B1B1A9",
">X 	c #A8A8A2",
",X 	c #9EA099",
"'X 	c #9D9F98",
")X 	c #9C9F98",
"!X 	c #9D9E98",
"~X 	c #A0A29B",
"{X 	c #9FA29B",
"]X 	c #9FA29C",
"^X 	c #A1A1A2",
"/X 	c #57525D",
"(X 	c #4C4352",
"_X 	c #4E4554",
":X 	c #4F4551",
"<X 	c #433C49",
"[X 	c #101429",
"}X 	c #0F142B",
"|X 	c #0D142A",
"1X 	c #0C142A",
"2X 	c #0D152C",
"3X 	c #0A182D",
"4X 	c #0C1C36",
"5X 	c #0C1D38",
"6X 	c #517D96",
"7X 	c #64B0D1",
"8X 	c #5DA9CE",
"9X 	c #58A7CB",
"0X 	c #58A6C9",
"aX 	c #75BCDB",
"bX 	c #75BFDC",
"cX 	c #70C2DE",
"dX 	c #64AFCE",
"eX 	c #4485A9",
"fX 	c #468BB0",
"gX 	c #4A91B3",
"hX 	c #4893B7",
"iX 	c #347199",
"jX 	c #255C89",
"kX 	c #265D8B",
"lX 	c #27658F",
"mX 	c #32769B",
"nX 	c #79CCEC",
"oX 	c #7DD1EF",
"pX 	c #7ED3EF",
"qX 	c #87D7F0",
"rX 	c #7AC2DD",
"sX 	c #28537E",
"tX 	c #2D527F",
"uX 	c #2C537F",
"vX 	c #2D5882",
"wX 	c #2E5882",
"xX 	c #2C587F",
"yX 	c #346389",
"zX 	c #43789E",
"AX 	c #4279A0",
"BX 	c #40779F",
"CX 	c #3F779E",
"DX 	c #5B98BB",
"EX 	c #5FA1BF",
"FX 	c #5EA2C0",
"GX 	c #5CA3C0",
"HX 	c #5DA2C0",
"IX 	c #4A8CB0",
"JX 	c #4A8EB0",
"KX 	c #4991B1",
"LX 	c #3C7290",
"MX 	c #0A1025",
"NX 	c #081328",
"OX 	c #0A1227",
"PX 	c #0D1227",
"QX 	c #0E1729",
"RX 	c #0F1627",
"SX 	c #534C5B",
"TX 	c #524656",
"UX 	c #4D4251",
"VX 	c #493E4E",
"WX 	c #484148",
"XX 	c #999490",
"YX 	c #95938E",
"ZX 	c #A4A19B",
"`X 	c #A7A59D",
" Y 	c #ABA9A1",
".Y 	c #ABABA3",
"+Y 	c #B1B2AA",
"@Y 	c #B0B3AC",
"#Y 	c #B1B2AC",
"$Y 	c #B2B2AC",
"%Y 	c #B2B2AB",
"&Y 	c #B3B3AA",
"*Y 	c #B1B3AC",
"=Y 	c #B1B3AD",
"-Y 	c #B2B5AD",
";Y 	c #B4B7AE",
">Y 	c #B7B7AF",
",Y 	c #ADACAA",
"'Y 	c #232128",
")Y 	c #1C1920",
"!Y 	c #38393D",
"~Y 	c #C2C5BF",
"{Y 	c #CBCCC3",
"]Y 	c #CACCC2",
"^Y 	c #C5C7BB",
"/Y 	c #A5A69F",
"(Y 	c #A1A29A",
"_Y 	c #9FA098",
":Y 	c #9DA098",
"<Y 	c #9C9F97",
"[Y 	c #9D9F97",
"}Y 	c #9EA299",
"|Y 	c #9EA29A",
"1Y 	c #9FA39C",
"2Y 	c #A2A3A2",
"3Y 	c #5E5A64",
"4Y 	c #473F4D",
"5Y 	c #4B4250",
"6Y 	c #413A48",
"7Y 	c #101328",
"8Y 	c #0E132A",
"9Y 	c #0A162B",
"0Y 	c #091A2E",
"aY 	c #0B1D36",
"bY 	c #0C203A",
"cY 	c #55879F",
"dY 	c #62B4D3",
"eY 	c #56A9CA",
"fY 	c #54A8C8",
"gY 	c #74BCDA",
"hY 	c #77BDDC",
"iY 	c #74BFDC",
"jY 	c #71BFDD",
"kY 	c #66B0CF",
"lY 	c #4284A9",
"mY 	c #498FB2",
"nY 	c #4791B5",
"oY 	c #326F98",
"pY 	c #235987",
"qY 	c #255B89",
"rY 	c #26638E",
"sY 	c #77CCED",
"tY 	c #78CEEE",
"uY 	c #78D0EE",
"vY 	c #7AD3EC",
"wY 	c #2A5481",
"xY 	c #305480",
"yY 	c #2F5480",
"zY 	c #2C5680",
"AY 	c #2D5983",
"BY 	c #2E5B83",
"CY 	c #2A5882",
"DY 	c #36658F",
"EY 	c #4479A2",
"FY 	c #4279A3",
"GY 	c #4076A1",
"HY 	c #3F77A0",
"IY 	c #5D9BBE",
"JY 	c #5FA2C1",
"KY 	c #5EA3C2",
"LY 	c #5CA4C2",
"MY 	c #5CA2C1",
"NY 	c #498BAE",
"OY 	c #498DB2",
"PY 	c #488FB2",
"QY 	c #4891B3",
"RY 	c #42799A",
"SY 	c #0A1026",
"TY 	c #0B1429",
"UY 	c #0F142A",
"VY 	c #0F1429",
"WY 	c #10152A",
"XY 	c #10172A",
"YY 	c #4E4857",
"ZY 	c #4E4251",
"`Y 	c #4A3E4E",
" Z 	c #473B4B",
".Z 	c #4F494F",
"+Z 	c #989791",
"@Z 	c #9C9B94",
"#Z 	c #A1A099",
"$Z 	c #A4A39C",
"%Z 	c #A8A79F",
"&Z 	c #ACABA2",
"*Z 	c #ADAEA4",
"=Z 	c #AFB1A7",
"-Z 	c #B1B3A9",
";Z 	c #B1B2AB",
">Z 	c #B2B3AC",
",Z 	c #B2B3AB",
"'Z 	c #B2B4AA",
")Z 	c #B2B5AC",
"!Z 	c #B1B4AC",
"~Z 	c #B2B6AB",
"{Z 	c #AEAEAB",
"]Z 	c #25232A",
"^Z 	c #1B1821",
"/Z 	c #3C3B43",
"(Z 	c #C4C5C1",
"_Z 	c #CACBC3",
":Z 	c #C9C9BF",
"<Z 	c #C5C6BC",
"[Z 	c #A4A59D",
"}Z 	c #A0A199",
"|Z 	c #9C9E98",
"1Z 	c #9C9D98",
"2Z 	c #9D9F99",
"3Z 	c #9E9F99",
"4Z 	c #9FA19B",
"5Z 	c #9FA2A0",
"6Z 	c #635F67",
"7Z 	c #423644",
"8Z 	c #483B49",
"9Z 	c #3C3443",
"0Z 	c #0F1225",
"aZ 	c #0B1428",
"bZ 	c #09162E",
"cZ 	c #0A1A30",
"dZ 	c #0A1C36",
"eZ 	c #091E37",
"fZ 	c #5A8EA3",
"gZ 	c #62B6D3",
"hZ 	c #5DACCE",
"iZ 	c #57A9C9",
"jZ 	c #56AAC9",
"kZ 	c #73BCDA",
"lZ 	c #77BCD8",
"mZ 	c #75BEDD",
"nZ 	c #72BFDE",
"oZ 	c #6AB2D5",
"pZ 	c #4281A9",
"qZ 	c #4589B1",
"rZ 	c #458CB1",
"sZ 	c #4490B5",
"tZ 	c #336F99",
"uZ 	c #255785",
"vZ 	c #265988",
"wZ 	c #27618D",
"xZ 	c #357BA0",
"yZ 	c #77CBEC",
"zZ 	c #78CDED",
"AZ 	c #77CDEC",
"BZ 	c #74CEEB",
"CZ 	c #5FADCC",
"DZ 	c #2B5380",
"EZ 	c #2F537F",
"FZ 	c #2F547E",
"GZ 	c #2C567F",
"HZ 	c #2E5D85",
"IZ 	c #2B5983",
"JZ 	c #386692",
"KZ 	c #4679A5",
"LZ 	c #4479A5",
"MZ 	c #4076A2",
"NZ 	c #3E77A2",
"OZ 	c #5C9AC1",
"PZ 	c #61A1C3",
"QZ 	c #5FA3C3",
"RZ 	c #5EA4C3",
"SZ 	c #4C8EAF",
"TZ 	c #4C90B4",
"UZ 	c #4594B6",
"VZ 	c #427C9D",
"WZ 	c #081027",
"XZ 	c #0B1326",
"YZ 	c #0C1429",
"ZZ 	c #0D1529",
"`Z 	c #0F1529",
" ` 	c #0E182C",
".` 	c #1B1B30",
"+` 	c #4A4151",
"@` 	c #473A49",
"#` 	c #413645",
"$` 	c #3F3343",
"%` 	c #514B4F",
"&` 	c #999492",
"*` 	c #96938F",
"=` 	c #95928F",
"-` 	c #979691",
";` 	c #A3A29D",
">` 	c #ACAAA3",
",` 	c #ADAEA6",
"'` 	c #AEAFA7",
")` 	c #B2B4AC",
"!` 	c #B3B4AD",
"~` 	c #B2B5AE",
"{` 	c #ADAFAB",
"]` 	c #1C1821",
"^` 	c #504F56",
"/` 	c #C5C6C3",
"(` 	c #C9C9C2",
"_` 	c #C9C8C0",
":` 	c #C7C6BD",
"<` 	c #C6C5BC",
"[` 	c #BBBDB3",
"}` 	c #AAACA2",
"|` 	c #A0A29A",
"1` 	c #9B9C97",
"2` 	c #9C9C97",
"3` 	c #9D9E99",
"4` 	c #9D9F9A",
"5` 	c #9DA09B",
"6` 	c #40333E",
"7` 	c #41343F",
"8` 	c #433440",
"9` 	c #382B3A",
"0` 	c #151223",
"a` 	c #121326",
"b` 	c #111427",
"c` 	c #091A2F",
"d` 	c #0D1B33",
"e` 	c #0B1C36",
"f` 	c #5B8DA5",
"g` 	c #65B7D5",
"h` 	c #61AFCE",
"i` 	c #5EAACA",
"j` 	c #5EABCA",
"k` 	c #74BCDB",
"l` 	c #77BDDB",
"m` 	c #75BEDB",
"n` 	c #6FB6D8",
"o` 	c #4E8BB2",
"p` 	c #5293B8",
"q` 	c #5397B8",
"r` 	c #559CBD",
"s` 	c #4180A6",
"t` 	c #316996",
"u` 	c #306B96",
"v` 	c #2F709A",
"w` 	c #357BA4",
"x` 	c #69BBDE",
"y` 	c #6EC2E5",
"z` 	c #70C5E8",
"A` 	c #6AC7E7",
"B` 	c #519CBE",
"C` 	c #2B517F",
"D` 	c #2E517D",
"E` 	c #2E537C",
"F` 	c #2D567E",
"G` 	c #35638C",
"H` 	c #35618C",
"I` 	c #325E8A",
"J` 	c #3F6D98",
"K` 	c #4D7FAA",
"L` 	c #4A80A9",
"M` 	c #487DA7",
"N` 	c #457EA5",
"O` 	c #5C9BBF",
"P` 	c #5D9FC2",
"Q` 	c #5EA0C3",
"R` 	c #5FA2C5",
"S` 	c #63A2C4",
"T` 	c #5386A4",
"U` 	c #5893B8",
"V` 	c #5A99BB",
"W` 	c #447793",
"X` 	c #071123",
"Y` 	c #0A1325",
"Z` 	c #0B1526",
"`` 	c #0B1426",
"  .	c #0F1526",
". .	c #121426",
"+ .	c #141627",
"@ .	c #1B1828",
"# .	c #403644",
"$ .	c #3F303F",
"% .	c #3A2E3D",
"& .	c #382C3A",
"* .	c #554E54",
"= .	c #989394",
"- .	c #95918F",
"; .	c #93918D",
"> .	c #9A9894",
", .	c #A09F9A",
"' .	c #A6A59F",
") .	c #ABAAA4",
"! .	c #AEAFA8",
"~ .	c #B1B1AA",
"{ .	c #B0B0AA",
"] .	c #B0B1AA",
"^ .	c #B2B4AE",
"/ .	c #B2B5B1",
"( .	c #B3B7B1",
"_ .	c #B4B9B2",
": .	c #ABAEAC",
"< .	c #1E1B24",
"[ .	c #1F1A23",
"} .	c #BBBCB8",
"| .	c #B4B5AF",
"1 .	c #AFAFA8",
"2 .	c #AFAEA7",
"3 .	c #AEADA4",
"4 .	c #A5A69C",
"5 .	c #A2A49A",
"6 .	c #9E9F95",
"7 .	c #9A9A94",
"8 .	c #979893",
"9 .	c #989893",
"0 .	c #999A95",
"a .	c #989B94",
"b .	c #93918B",
"c .	c #8C8686",
"d .	c #503F48",
"e .	c #4A3945",
"f .	c #483945",
"g .	c #473A45",
"h .	c #2F2A38",
"i .	c #0C162B",
"j .	c #0B162C",
"k .	c #213C52",
"l .	c #275470",
"m .	c #27506D",
"n .	c #264D6A",
"o .	c #2B546E",
"p .	c #85C8DF",
"q .	c #7EC7DF",
"r .	c #81C5DF",
"s .	c #7FC4DE",
"t .	c #84C6DE",
"u .	c #84C7DD",
"v .	c #85C8DA",
"w .	c #83CADD",
"x .	c #61A5C2",
"y .	c #387CA6",
"z .	c #3980A9",
"A .	c #3983AC",
"B .	c #397CA8",
"C .	c #30709F",
"D .	c #2B6998",
"E .	c #2F6C9A",
"F .	c #2F6E9A",
"G .	c #2F6691",
"H .	c #305584",
"I .	c #315580",
"J .	c #30567F",
"K .	c #2D567F",
"L .	c #46779D",
"M .	c #4E84AB",
"N .	c #4C82A9",
"O .	c #497FA6",
"P .	c #66A2BF",
"Q .	c #65A4C0",
"R .	c #66A5C0",
"S .	c #64A5C1",
"T .	c #4F8EB0",
"U .	c #3A7BA1",
"V .	c #3A7CA3",
"W .	c #4185AB",
"X .	c #5088AC",
"Y .	c #01142A",
"Z .	c #16293B",
"` .	c #243A4C",
" ..	c #244050",
"...	c #182C3C",
"+..	c #0B1222",
"@..	c #0B1424",
"#..	c #0C1523",
"$..	c #0F1321",
"%..	c #473C4C",
"&..	c #4E3D4E",
"*..	c #4C3B4B",
"=..	c #4E444C",
"-..	c #898582",
";..	c #85817F",
">..	c #959190",
",..	c #93908F",
"'..	c #AAAAA3",
")..	c #ACACA5",
"!..	c #A9AAA2",
"~..	c #717171",
"{..	c #68666B",
"]..	c #6B6A6F",
"^..	c #6A696D",
"/..	c #1E1924",
"(..	c #1F1A25",
"_..	c #BEC0B8",
":..	c #ABACA5",
"<..	c #A7A7A0",
"[..	c #A8A69F",
"}..	c #9A9B95",
"|..	c #959792",
"1..	c #979892",
"2..	c #979991",
"3..	c #939391",
"4..	c #56434C",
"5..	c #4F3D4A",
"6..	c #4D3D4A",
"7..	c #0A1528",
"8..	c #0A152A",
"9..	c #112742",
"0..	c #133A5E",
"a..	c #14385E",
"b..	c #13385B",
"c..	c #1D405F",
"d..	c #8ECFE6",
"e..	c #83CBDF",
"f..	c #82C9E3",
"g..	c #81C6E1",
"h..	c #88CCDF",
"i..	c #88CCDD",
"j..	c #89CBDD",
"k..	c #86CDDF",
"l..	c #63A5C0",
"m..	c #3077A1",
"n..	c #3680A9",
"o..	c #3980AA",
"p..	c #3678A6",
"q..	c #316FA0",
"r..	c #2B6699",
"s..	c #2D6299",
"t..	c #2B6297",
"u..	c #2C5E8E",
"v..	c #2F5785",
"w..	c #2F5681",
"x..	c #2E557F",
"y..	c #2C547E",
"z..	c #4A7EA5",
"A..	c #508CB2",
"B..	c #4C87AF",
"C..	c #5894B5",
"D..	c #68A6C0",
"E..	c #69A7C2",
"F..	c #68A6C1",
"G..	c #66A6C0",
"H..	c #5190B1",
"I..	c #3C7EA5",
"J..	c #3E82A9",
"K..	c #4880A5",
"L..	c #030D27",
"M..	c #0A1224",
"N..	c #091425",
"O..	c #0C1525",
"P..	c #141625",
"Q..	c #504150",
"R..	c #574350",
"S..	c #56424F",
"T..	c #55434E",
"U..	c #5B4C54",
"V..	c #93918E",
"W..	c #A8AAA2",
"X..	c #ACADA6",
"Y..	c #A3A49C",
"Z..	c #94958F",
"`..	c #90908C",
" +.	c #848581",
".+.	c #7E7F7A",
"++.	c #7B7C77",
"@+.	c #5F5A5F",
"#+.	c #534957",
"$+.	c #524955",
"%+.	c #504854",
"&+.	c #4C4651",
"*+.	c #251E2C",
"=+.	c #BABCB5",
"-+.	c #A9ABA3",
";+.	c #A4A49D",
">+.	c #A4A39A",
",+.	c #A2A199",
"'+.	c #A2A29A",
")+.	c #969893",
"!+.	c #979593",
"~+.	c #54424B",
"{+.	c #503A48",
"]+.	c #4F3C4A",
"^+.	c #4D3D4B",
"/+.	c #3B3543",
"(+.	c #0F2540",
"_+.	c #133A5D",
":+.	c #14395E",
"<+.	c #214361",
"[+.	c #90D1E7",
"}+.	c #84CCDF",
"|+.	c #83CAE3",
"1+.	c #82C7E2",
"2+.	c #82C7E0",
"3+.	c #8BCEE3",
"4+.	c #8ACDDF",
"5+.	c #8CCFE0",
"6+.	c #8AD1E2",
"7+.	c #69AAC4",
"8+.	c #2D6F9C",
"9+.	c #3279A4",
"0+.	c #337AA6",
"a+.	c #3374A4",
"b+.	c #2E6C9E",
"c+.	c #2C669A",
"d+.	c #2E639A",
"e+.	c #2A6196",
"f+.	c #2B5D8D",
"g+.	c #2F5682",
"h+.	c #2E5581",
"i+.	c #2B527E",
"j+.	c #4D81A8",
"k+.	c #528DB4",
"l+.	c #4E88B0",
"m+.	c #5C98BA",
"n+.	c #69A7C1",
"o+.	c #66A7C0",
"p+.	c #5293B4",
"q+.	c #3D81A8",
"r+.	c #3D83A9",
"s+.	c #3D86AB",
"t+.	c #4883A8",
"u+.	c #514251",
"v+.	c #564250",
"w+.	c #55414E",
"x+.	c #5B4E55",
"y+.	c #92918D",
"z+.	c #AEB0A8",
"A+.	c #ACAEA6",
"B+.	c #A3A59D",
"C+.	c #999A93",
"D+.	c #7D7D7B",
"E+.	c #605B60",
"F+.	c #514856",
"G+.	c #4F4753",
"H+.	c #4C4550",
"I+.	c #29222E",
"J+.	c #B2B7B0",
"K+.	c #A4A49E",
"L+.	c #A09E98",
"M+.	c #A2A39B",
"N+.	c #A2A29B",
"O+.	c #A2A19B",
"P+.	c #9F9D97",
"Q+.	c #979594",
"R+.	c #4E4048",
"S+.	c #473544",
"T+.	c #493747",
"U+.	c #4A3C4B",
"V+.	c #3A3441",
"W+.	c #0B1328",
"X+.	c #0B1329",
"Y+.	c #0D233A",
"Z+.	c #123555",
"`+.	c #143659",
" @.	c #133559",
".@.	c #234864",
"+@.	c #90D5E6",
"@@.	c #84CDE1",
"#@.	c #83C9E2",
"$@.	c #7FC8E0",
"%@.	c #7FC9E0",
"&@.	c #90D3E3",
"*@.	c #8CD3E4",
"=@.	c #6FB1CD",
"-@.	c #296C9B",
";@.	c #2B74A2",
">@.	c #2E74A4",
",@.	c #2E6EA1",
"'@.	c #2B679B",
")@.	c #296398",
"!@.	c #276095",
"~@.	c #265F92",
"{@.	c #2D5C8D",
"]@.	c #2F5782",
"^@.	c #2E5680",
"/@.	c #2C5480",
"(@.	c #4E82AD",
"_@.	c #558DB9",
":@.	c #5289B5",
"<@.	c #4D86B0",
"[@.	c #5F99BD",
"}@.	c #68A7C1",
"|@.	c #66A6BF",
"1@.	c #65A6BE",
"2@.	c #4F94B3",
"3@.	c #3F86AB",
"4@.	c #3E87AB",
"5@.	c #408AAE",
"6@.	c #4688AC",
"7@.	c #0A2237",
"8@.	c #0A1125",
"9@.	c #0C1327",
"0@.	c #181725",
"a@.	c #493E4C",
"b@.	c #503F4D",
"c@.	c #503E4D",
"d@.	c #564A51",
"e@.	c #938F8C",
"f@.	c #93928D",
"g@.	c #92908D",
"h@.	c #918F8D",
"i@.	c #908F8D",
"j@.	c #B2B4AB",
"k@.	c #B0B2A9",
"l@.	c #999893",
"m@.	c #969693",
"n@.	c #919390",
"o@.	c #7E7C7B",
"p@.	c #656166",
"q@.	c #59525F",
"r@.	c #59515D",
"s@.	c #59525E",
"t@.	c #534E56",
"u@.	c #27232C",
"v@.	c #26212C",
"w@.	c #979692",
"x@.	c #969591",
"y@.	c #989692",
"z@.	c #979795",
"A@.	c #767373",
"B@.	c #787575",
"C@.	c #726D71",
"D@.	c #372C37",
"E@.	c #372839",
"F@.	c #372739",
"G@.	c #332838",
"H@.	c #242433",
"I@.	c #0F1D33",
"J@.	c #11213A",
"K@.	c #12223B",
"L@.	c #203950",
"M@.	c #80BCD0",
"N@.	c #73B2C9",
"O@.	c #6EA7BE",
"P@.	c #69A1B8",
"Q@.	c #76B2C7",
"R@.	c #97DAEC",
"S@.	c #96DAE8",
"T@.	c #95D9E7",
"U@.	c #92D8E8",
"V@.	c #82CCE2",
"W@.	c #62AFD0",
"X@.	c #65B3D2",
"Y@.	c #67B7D2",
"Z@.	c #72BAD5",
"`@.	c #70B8D3",
" #.	c #6CB1CD",
".#.	c #63A4C2",
"+#.	c #4C82A7",
"@#.	c #335D88",
"##.	c #355E8A",
"$#.	c #325B86",
"%#.	c #2E5983",
"&#.	c #5E96BA",
"*#.	c #68A3C5",
"=#.	c #659EC0",
"-#.	c #5F9ABC",
";#.	c #65A3C3",
">#.	c #62A3BF",
",#.	c #60A1BE",
"'#.	c #5EA0BE",
")#.	c #5E9EBA",
"!#.	c #376480",
"~#.	c #35657F",
"{#.	c #3A6E87",
"]#.	c #3C708A",
"^#.	c #3F6D85",
"/#.	c #192333",
"(#.	c #221D2E",
"_#.	c #221E2F",
":#.	c #231F2F",
"<#.	c #262232",
"[#.	c #2A2535",
"}#.	c #2C2737",
"|#.	c #2E2735",
"1#.	c #2A272F",
"2#.	c #5E595E",
"3#.	c #70676C",
"4#.	c #6F666B",
"5#.	c #6C6266",
"6#.	c #8C8987",
"7#.	c #8E8C8B",
"8#.	c #8C8C89",
"9#.	c #898A86",
"0#.	c #8F8F8C",
"a#.	c #898784",
"b#.	c #838180",
"c#.	c #8A8788",
"d#.	c #888587",
"e#.	c #29262E",
"f#.	c #2A232F",
"g#.	c #7E7B78",
"h#.	c #6E6867",
"i#.	c #6F6968",
"j#.	c #726E6B",
"k#.	c #969994",
"l#.	c #969995",
"m#.	c #979993",
"n#.	c #989892",
"o#.	c #979791",
"p#.	c #999A96",
"q#.	c #9D9E9C",
"r#.	c #989593",
"s#.	c #4E3C45",
"t#.	c #4D3746",
"u#.	c #4C3645",
"v#.	c #493745",
"w#.	c #332B35",
"x#.	c #0E1020",
"y#.	c #0C1224",
"z#.	c #0C1225",
"A#.	c #0D2341",
"B#.	c #0B2543",
"C#.	c #0C2541",
"D#.	c #102341",
"E#.	c #588090",
"F#.	c #A0E4F0",
"G#.	c #9DE2ED",
"H#.	c #9CDFEC",
"I#.	c #98DFEC",
"J#.	c #6DC1DD",
"K#.	c #74CAE1",
"L#.	c #76CAE0",
"M#.	c #84D2E9",
"N#.	c #86D2E9",
"O#.	c #86D1E8",
"P#.	c #84D1E8",
"Q#.	c #73B5D4",
"R#.	c #3F6895",
"S#.	c #3D6692",
"T#.	c #36638C",
"U#.	c #6DA7C6",
"V#.	c #78B6D0",
"W#.	c #75B2CC",
"X#.	c #71AFCA",
"Y#.	c #6BAAC8",
"Z#.	c #4D93B0",
"`#.	c #468DAA",
" $.	c #468EAB",
".$.	c #5093B1",
"+$.	c #1A364E",
"@$.	c #06102C",
"#$.	c #05112A",
"$$.	c #05122B",
"%$.	c #050F27",
"&$.	c #372F3C",
"*$.	c #4B394A",
"=$.	c #473746",
"-$.	c #473646",
";$.	c #4A3A49",
">$.	c #4D3F4D",
",$.	c #4C3D4B",
"'$.	c #4C3C48",
")$.	c #847F7E",
"!$.	c #97948F",
"~$.	c #96918D",
"{$.	c #918C88",
"]$.	c #8D8D8A",
"^$.	c #8D8C8A",
"/$.	c #8C8B8A",
"($.	c #8C8B88",
"_$.	c #8B8A87",
":$.	c #8A8A88",
"<$.	c #848684",
"[$.	c #838483",
"}$.	c #838382",
"|$.	c #838281",
"1$.	c #83817F",
"2$.	c #908F8C",
"3$.	c #8F8F8F",
"4$.	c #2C2930",
"5$.	c #2B252F",
"6$.	c #706969",
"7$.	c #716869",
"8$.	c #979A97",
"9$.	c #979A96",
"0$.	c #979A95",
"a$.	c #989A96",
"b$.	c #9A9A92",
"c$.	c #989A92",
"d$.	c #9E9F9A",
"e$.	c #9F9E9A",
"f$.	c #989695",
"g$.	c #4F3E46",
"h$.	c #4D3846",
"i$.	c #4B3745",
"j$.	c #493744",
"k$.	c #352C37",
"l$.	c #0A1124",
"m$.	c #0E2948",
"n$.	c #0D2949",
"o$.	c #0D2848",
"p$.	c #102748",
"q$.	c #628B9A",
"r$.	c #A2E6EF",
"s$.	c #A1E4EF",
"t$.	c #9EE2ED",
"u$.	c #9AE1ED",
"v$.	c #8AD5E9",
"w$.	c #6EC0DE",
"x$.	c #72C4E1",
"y$.	c #76C8E2",
"z$.	c #77C9E2",
"A$.	c #7ECAE3",
"B$.	c #84CEE6",
"C$.	c #84CFE8",
"D$.	c #74BAD7",
"E$.	c #3B6797",
"F$.	c #3E6694",
"G$.	c #38628E",
"H$.	c #6EA6C6",
"I$.	c #78B4CE",
"J$.	c #75B1CA",
"K$.	c #72AECA",
"L$.	c #6BAAC9",
"M$.	c #4F96B6",
"N$.	c #4792B0",
"O$.	c #4590AE",
"P$.	c #4C92B1",
"Q$.	c #1D3950",
"R$.	c #080F2C",
"S$.	c #07102A",
"T$.	c #071029",
"U$.	c #060F28",
"V$.	c #332F3C",
"W$.	c #453744",
"X$.	c #483646",
"Y$.	c #483845",
"Z$.	c #493B46",
"`$.	c #483B46",
" %.	c #453843",
".%.	c #877F82",
"+%.	c #93908C",
"@%.	c #8E8C89",
"#%.	c #8D8B8A",
"$%.	c #8B8987",
"%%.	c #888986",
"&%.	c #858885",
"*%.	c #81827F",
"=%.	c #838280",
"-%.	c #858381",
";%.	c #8F918F",
">%.	c #2D2932",
",%.	c #817F7C",
"'%.	c #716969",
")%.	c #706A69",
"!%.	c #777472",
"~%.	c #939491",
"{%.	c #969A94",
"]%.	c #989B98",
"^%.	c #989B97",
"/%.	c #999B96",
"(%.	c #999A92",
"_%.	c #503F46",
":%.	c #4C3745",
"<%.	c #4A3845",
"[%.	c #352D38",
"}%.	c #0E2846",
"|%.	c #0E2847",
"1%.	c #0F2545",
"2%.	c #6791A0",
"3%.	c #A5E8F1",
"4%.	c #A1E4F0",
"5%.	c #9FE3EE",
"6%.	c #9AE2ED",
"7%.	c #8BD7EA",
"8%.	c #6DBFDD",
"9%.	c #70C1DF",
"0%.	c #71C5DF",
"a%.	c #73C6E1",
"b%.	c #79C6E2",
"c%.	c #81C9E6",
"d%.	c #81CAE7",
"e%.	c #82CEE7",
"f%.	c #74BAD8",
"g%.	c #3D6899",
"h%.	c #406796",
"i%.	c #3E6593",
"j%.	c #3A6490",
"k%.	c #73B0CA",
"l%.	c #71ADC9",
"m%.	c #5097B7",
"n%.	c #4994B4",
"o%.	c #4893B2",
"p%.	c #4B92B2",
"q%.	c #224258",
"r%.	c #06112C",
"s%.	c #07102B",
"t%.	c #312E3A",
"u%.	c #433541",
"v%.	c #443342",
"w%.	c #443241",
"x%.	c #493A46",
"y%.	c #4C3E4A",
"z%.	c #4C3F4B",
"A%.	c #4B3E4A",
"B%.	c #878082",
"C%.	c #999690",
"D%.	c #8F8D8C",
"E%.	c #8A8C89",
"F%.	c #888B87",
"G%.	c #878986",
"H%.	c #878885",
"I%.	c #82817F",
"J%.	c #8E8D8B",
"K%.	c #2E2731",
"L%.	c #878684",
"M%.	c #939693",
"N%.	c #949794",
"O%.	c #959894",
"P%.	c #949995",
"Q%.	c #959B97",
"R%.	c #999C99",
"S%.	c #969692",
"T%.	c #969794",
"U%.	c #979895",
"V%.	c #989996",
"W%.	c #9A9A98",
"X%.	c #999997",
"Y%.	c #918D8C",
"Z%.	c #55484C",
"`%.	c #513E4A",
" &.	c #4F3B49",
".&.	c #4B3B47",
"+&.	c #3A313D",
"@&.	c #0F0E1D",
"#&.	c #0E0F22",
"$&.	c #0F1023",
"%&.	c #0E1225",
"&&.	c #0E263D",
"*&.	c #0E253D",
"=&.	c #11213B",
"-&.	c #0F203A",
";&.	c #6F91A0",
">&.	c #AEE9F3",
",&.	c #A6E7F3",
"'&.	c #9DE2EE",
")&.	c #6EBFDC",
"!&.	c #6BC0DC",
"~&.	c #6AC1DA",
"{&.	c #6CC1DB",
"]&.	c #8ED3E8",
"^&.	c #98D8EC",
"/&.	c #95D8EB",
"(&.	c #90D7EA",
"_&.	c #81C4DB",
":&.	c #406A9B",
"<&.	c #44699A",
"[&.	c #416A97",
"}&.	c #3D6B97",
"|&.	c #629CBE",
"1&.	c #69AAC5",
"2&.	c #69AAC3",
"3&.	c #68A9C2",
"4&.	c #66A6C1",
"5&.	c #4F8AA7",
"6&.	c #4A88A5",
"7&.	c #4C86A2",
"8&.	c #243E52",
"9&.	c #0D1127",
"0&.	c #0E1128",
"a&.	c #0E1127",
"b&.	c #101326",
"c&.	c #2A2733",
"d&.	c #40313F",
"e&.	c #3F3040",
"f&.	c #41313F",
"g&.	c #4C404B",
"h&.	c #605760",
"i&.	c #5B545B",
"j&.	c #595359",
"k&.	c #878180",
"l&.	c #9A948D",
"m&.	c #999995",
"n&.	c #898886",
"o&.	c #898786",
"p&.	c #888886",
"q&.	c #888A87",
"r&.	c #888B88",
"s&.	c #898C89",
"t&.	c #898C88",
"u&.	c #807F7D",
"v&.	c #7D7878",
"w&.	c #878686",
"x&.	c #2E2631",
"y&.	c #92948F",
"z&.	c #959794",
"A&.	c #959995",
"B&.	c #959A96",
"C&.	c #9A9D9A",
"D&.	c #979B95",
"E&.	c #92918F",
"F&.	c #949492",
"G&.	c #898383",
"H&.	c #696061",
"I&.	c #685D5E",
"J&.	c #685C5D",
"K&.	c #675C5D",
"L&.	c #453B42",
"M&.	c #493846",
"N&.	c #473A47",
"O&.	c #151C2E",
"P&.	c #111A2C",
"Q&.	c #0F1A2F",
"R&.	c #273644",
"S&.	c #465E6A",
"T&.	c #445D69",
"U&.	c #3F5C67",
"V&.	c #3E5D69",
"W&.	c #578DA2",
"X&.	c #6DC1DE",
"Y&.	c #6AC2DD",
"Z&.	c #69C2DC",
"`&.	c #68BFD9",
" *.	c #BFF7FE",
".*.	c #C8FAFE",
"+*.	c #C1FCFF",
"@*.	c #B1EBF6",
"#*.	c #5D97BD",
"$*.	c #629BC0",
"%*.	c #619CBE",
"&*.	c #5D9CBE",
"**.	c #4A81A0",
"=*.	c #306482",
"-*.	c #346886",
";*.	c #3B728E",
">*.	c #3D6E8A",
",*.	c #031023",
"'*.	c #061025",
")*.	c #241C2B",
"!*.	c #3A2833",
"~*.	c #3A2834",
"{*.	c #392733",
"]*.	c #3E2B38",
"^*.	c #3F2E3B",
"/*.	c #402F40",
"(*.	c #3E2F3D",
"_*.	c #6E6869",
":*.	c #9F9D98",
"<*.	c #95908A",
"[*.	c #97918C",
"}*.	c #94918B",
"|*.	c #B7B9B2",
"1*.	c #B8B9B1",
"2*.	c #B6B7B0",
"3*.	c #B0B1AB",
"4*.	c #81807D",
"5*.	c #83807F",
"6*.	c #8A8D8A",
"7*.	c #7C7575",
"8*.	c #878382",
"9*.	c #868485",
"0*.	c #959590",
"a*.	c #969A96",
"b*.	c #989C98",
"c*.	c #9A9E99",
"d*.	c #8F918D",
"e*.	c #8E8D8D",
"f*.	c #908F8E",
"g*.	c #91918F",
"h*.	c #888181",
"i*.	c #6B6363",
"j*.	c #696260",
"k*.	c #69615F",
"l*.	c #69605E",
"m*.	c #675A5B",
"n*.	c #4E3C43",
"o*.	c #4D3843",
"p*.	c #4E3944",
"q*.	c #4E3B49",
"r*.	c #191828",
"s*.	c #121729",
"t*.	c #11172B",
"u*.	c #11182D",
"v*.	c #10182D",
"w*.	c #101D37",
"x*.	c #111F37",
"y*.	c #122038",
"z*.	c #52839A",
"A*.	c #6DC5E1",
"B*.	c #6AC4E0",
"C*.	c #6AC3DF",
"D*.	c #6CC3DD",
"E*.	c #C2FAFE",
"F*.	c #C6FCFE",
"G*.	c #B7F0FA",
"H*.	c #62A1C1",
"I*.	c #65A4C3",
"J*.	c #65A5C3",
"K*.	c #63A6C3",
"L*.	c #4E84A3",
"M*.	c #2C5F7E",
"N*.	c #2F6381",
"O*.	c #376C89",
"P*.	c #36657F",
"Q*.	c #050C1C",
"R*.	c #090E22",
"S*.	c #081023",
"T*.	c #262230",
"U*.	c #412D39",
"V*.	c #422C38",
"W*.	c #432D39",
"X*.	c #432D3B",
"Y*.	c #402D3D",
"Z*.	c #3F2D3D",
"`*.	c #3E2C3B",
" =.	c #6F6A68",
".=.	c #A0A095",
"+=.	c #9FA092",
"@=.	c #9F9E93",
"#=.	c #9C9B90",
"$=.	c #918D87",
"%=.	c #94958D",
"&=.	c #BDBEB3",
"*=.	c #BABCB4",
"==.	c #7C7C7A",
"-=.	c #878A85",
";=.	c #888C88",
">=.	c #8B8E8B",
",=.	c #7A7877",
"'=.	c #787675",
")=.	c #767372",
"!=.	c #8A8886",
"~=.	c #8C8A88",
"{=.	c #8B8B89",
"]=.	c #2E2831",
"^=.	c #979995",
"/=.	c #999D98",
"(=.	c #969793",
"_=.	c #8D8D8D",
":=.	c #8E8E8E",
"<=.	c #919290",
"[=.	c #949493",
"}=.	c #8B8887",
"|=.	c #857E7E",
"1=.	c #706667",
"2=.	c #6C6464",
"3=.	c #6A6363",
"4=.	c #6B6360",
"5=.	c #685B5D",
"6=.	c #4F3C44",
"7=.	c #4F3844",
"8=.	c #503945",
"9=.	c #503C4B",
"0=.	c #1C1829",
"a=.	c #111729",
"b=.	c #11172C",
"c=.	c #10172D",
"d=.	c #101C37",
"e=.	c #0F1F39",
"f=.	c #102038",
"g=.	c #568AA0",
"h=.	c #71CAE5",
"i=.	c #6CC7E2",
"j=.	c #6CC4E0",
"k=.	c #6DC4DD",
"l=.	c #CCF9FD",
"m=.	c #C8FCFF",
"n=.	c #B8F1FA",
"o=.	c #66A5C3",
"p=.	c #66A6C3",
"q=.	c #66A6C4",
"r=.	c #4C85A3",
"s=.	c #2A5E7E",
"t=.	c #2E6281",
"u=.	c #366B89",
"v=.	c #34637D",
"w=.	c #060C1F",
"x=.	c #070F23",
"y=.	c #071023",
"z=.	c #282232",
"A=.	c #422D3A",
"B=.	c #442E3A",
"C=.	c #442F3B",
"D=.	c #442F3D",
"E=.	c #422D3F",
"F=.	c #3F2D3C",
"G=.	c #3D2B3A",
"H=.	c #A1A194",
"I=.	c #A09D93",
"J=.	c #96938C",
"K=.	c #BDBEB6",
"L=.	c #BFBFB5",
"M=.	c #BCBEB6",
"N=.	c #9C9D9A",
"O=.	c #7F807D",
"P=.	c #878B85",
"Q=.	c #878785",
"R=.	c #787574",
"S=.	c #7C7877",
"T=.	c #868282",
"U=.	c #878583",
"V=.	c #2D2831",
"W=.	c #929390",
"X=.	c #8C8C8B",
"Y=.	c #8C8C8C",
"Z=.	c #929191",
"`=.	c #929292",
" -.	c #939392",
".-.	c #8A8988",
"+-.	c #7B7474",
"@-.	c #7C7474",
"#-.	c #746B6B",
"$-.	c #726969",
"%-.	c #6E6665",
"&-.	c #6D6463",
"*-.	c #6A5D5F",
"=-.	c #4F3C45",
"--.	c #503A46",
";-.	c #503A45",
">-.	c #1E1929",
",-.	c #121629",
"'-.	c #111628",
")-.	c #11182B",
"!-.	c #10182C",
"~-.	c #101B35",
"{-.	c #0F1D35",
"]-.	c #101F36",
"^-.	c #76CFE8",
"/-.	c #6FC9E3",
"(-.	c #6BC5E0",
"_-.	c #6EC5DD",
":-.	c #C2FBFE",
"<-.	c #CCFAFD",
"[-.	c #60A1C0",
"}-.	c #68A5C3",
"|-.	c #68A5C4",
"1-.	c #4985A2",
"2-.	c #295E7E",
"3-.	c #2D6080",
"4-.	c #316784",
"5-.	c #2E5C75",
"6-.	c #070C20",
"7-.	c #090F23",
"8-.	c #282432",
"9-.	c #432E3A",
"0-.	c #442D3A",
"a-.	c #46303C",
"b-.	c #47313D",
"c-.	c #45303E",
"d-.	c #422E3F",
"e-.	c #402D3C",
"f-.	c #A09E95",
"g-.	c #95928C",
"h-.	c #8E8A87",
"i-.	c #BBBCB5",
"j-.	c #BBBAB2",
"k-.	c #BAB9B2",
"l-.	c #B4B5AE",
"m-.	c #999A97",
"n-.	c #8C8F8C",
"o-.	c #8D8F8C",
"p-.	c #757471",
"q-.	c #7D7C7A",
"r-.	c #817E7D",
"s-.	c #817C7C",
"t-.	c #827F7D",
"u-.	c #878485",
"v-.	c #322831",
"w-.	c #2D2830",
"x-.	c #989C94",
"y-.	c #8D8E8B",
"z-.	c #8B8C8C",
"A-.	c #8A8D8C",
"B-.	c #88898A",
"C-.	c #5B5759",
"D-.	c #565054",
"E-.	c #565055",
"F-.	c #5C5658",
"G-.	c #696162",
"H-.	c #766B6D",
"I-.	c #776C6E",
"J-.	c #7F7675",
"K-.	c #827C79",
"L-.	c #777171",
"M-.	c #686064",
"N-.	c #6C6467",
"O-.	c #6B6367",
"P-.	c #4B4850",
"Q-.	c #393848",
"R-.	c #383848",
"S-.	c #343444",
"T-.	c #282B3B",
"U-.	c #10172B",
"V-.	c #0F172D",
"W-.	c #0F172C",
"X-.	c #0F182E",
"Y-.	c #4A7183",
"Z-.	c #6BAEC0",
"`-.	c #65A7BD",
" ;.	c #5DA1B6",
".;.	c #599CB8",
"+;.	c #B9ECF3",
"@;.	c #CBFAFE",
"#;.	c #C9FBFF",
"$;.	c #B7F1F9",
"%;.	c #4988A7",
"&;.	c #528EAE",
"*;.	c #5690B2",
"=;.	c #5B94B7",
"-;.	c #36627B",
";;.	c #1C3B53",
">;.	c #1D3C53",
",;.	c #1C3B51",
"';.	c #172B3F",
");.	c #29202D",
"!;.	c #2C222E",
"~;.	c #2E2331",
"{;.	c #4D3945",
"];.	c #4F3944",
"^;.	c #4D3944",
"/;.	c #5B545D",
"(;.	c #5C5761",
"_;.	c #5B5861",
":;.	c #5A575E",
"<;.	c #A4A398",
"[;.	c #A2A298",
"};.	c #8A8683",
"|;.	c #878681",
"1;.	c #888983",
"2;.	c #8B8C8A",
"3;.	c #8E908D",
"4;.	c #8E918D",
"5;.	c #787372",
"6;.	c #6D6969",
"7;.	c #312831",
"8;.	c #999793",
"9;.	c #999894",
"0;.	c #999D96",
"a;.	c #8E8F8B",
"b;.	c #8B8B8B",
"c;.	c #838585",
"d;.	c #483F48",
"e;.	c #493D48",
"f;.	c #4A3E47",
"g;.	c #4A3E44",
"h;.	c #827879",
"i;.	c #7F7576",
"j;.	c #827A79",
"k;.	c #85827E",
"l;.	c #83807D",
"m;.	c #81807E",
"n;.	c #868787",
"o;.	c #878884",
"p;.	c #716E74",
"q;.	c #544E5E",
"r;.	c #564F5F",
"s;.	c #584F61",
"t;.	c #454453",
"u;.	c #0E1323",
"v;.	c #0E1425",
"w;.	c #0E1426",
"x;.	c #0D1A2A",
"y;.	c #0E1E32",
"z;.	c #11203A",
"A;.	c #142141",
"B;.	c #132949",
"C;.	c #B3DEE4",
"D;.	c #CBFCFF",
"E;.	c #B5EFF7",
"F;.	c #235980",
"G;.	c #2E628B",
"H;.	c #2F6B92",
"I;.	c #37729C",
"J;.	c #122946",
"K;.	c #090F24",
"L;.	c #090E24",
"M;.	c #090E25",
"N;.	c #121325",
"O;.	c #43333E",
"P;.	c #4C363D",
"Q;.	c #4D373E",
"R;.	c #4E393F",
"S;.	c #543E47",
"T;.	c #594350",
"U;.	c #5A4450",
"V;.	c #554650",
"W;.	c #77787E",
"X;.	c #7C7E86",
"Y;.	c #787F85",
"Z;.	c #737C80",
"`;.	c #808383",
" >.	c #A6A59E",
".>.	c #A0A098",
"+>.	c #888383",
"@>.	c #8F928E",
"#>.	c #989694",
"$>.	c #777273",
"%>.	c #6A6468",
"&>.	c #6C6769",
"*>.	c #8E908C",
"=>.	c #8B8989",
"->.	c #2F2831",
";>.	c #8B8E8D",
">>.	c #8C8E8E",
",>.	c #8D8F8E",
"'>.	c #818483",
")>.	c #473C46",
"!>.	c #483B47",
"~>.	c #4A3D47",
"{>.	c #4C3D44",
"]>.	c #6D6868",
"^>.	c #82837F",
"/>.	c #898A88",
"(>.	c #858482",
"_>.	c #716B71",
":>.	c #524658",
"<>.	c #514758",
"[>.	c #52485A",
"}>.	c #413C4D",
"|>.	c #0E1122",
"1>.	c #0D1324",
"2>.	c #0C1428",
"3>.	c #0E192D",
"4>.	c #111E33",
"5>.	c #12223A",
"6>.	c #132442",
"7>.	c #17324E",
"8>.	c #B8E3EA",
"9>.	c #CDFAFC",
"0>.	c #B9EEF8",
"a>.	c #215E84",
"b>.	c #2F658E",
"c>.	c #326E96",
"d>.	c #3C779F",
"e>.	c #122947",
"f>.	c #080E27",
"g>.	c #101325",
"h>.	c #43323E",
"i>.	c #4B3742",
"j>.	c #553F49",
"k>.	c #5A454F",
"l>.	c #5A4650",
"m>.	c #5A4651",
"n>.	c #574952",
"o>.	c #707276",
"p>.	c #72757A",
"q>.	c #72767C",
"r>.	c #72777C",
"s>.	c #858687",
"t>.	c #A5A49B",
"u>.	c #A4A39B",
"v>.	c #8C8A87",
"w>.	c #858383",
"x>.	c #898B88",
"y>.	c #8A8D88",
"z>.	c #8C8E8B",
"A>.	c #8F928C",
"B>.	c #686367",
"C>.	c #686466",
"D>.	c #91938E",
"E>.	c #342C34",
"F>.	c #2F2832",
"G>.	c #9B9D98",
"H>.	c #92918E",
"I>.	c #8A8B8B",
"J>.	c #898A8A",
"K>.	c #898B8C",
"L>.	c #8A8D8D",
"M>.	c #8D8F90",
"N>.	c #828383",
"O>.	c #463C45",
"P>.	c #483C46",
"Q>.	c #4D4046",
"R>.	c #716D6D",
"S>.	c #878782",
"T>.	c #6E676D",
"U>.	c #504456",
"V>.	c #504557",
"W>.	c #50465A",
"X>.	c #403A4C",
"Y>.	c #101224",
"Z>.	c #0D1A2D",
"`>.	c #101F33",
" ,.	c #11223A",
".,.	c #122340",
"+,.	c #18324C",
"@,.	c #BBE4EA",
"#,.	c #D1F9FA",
"$,.	c #D0FAFA",
"%,.	c #BAEFF8",
"&,.	c #225F85",
"*,.	c #30658F",
"=,.	c #346F98",
"-,.	c #3E79A1",
";,.	c #132B48",
">,.	c #090E27",
",,.	c #070F27",
"',.	c #443440",
"),.	c #4C3843",
"!,.	c #503B45",
"~,.	c #57414A",
"{,.	c #5C464E",
"],.	c #5B474F",
"^,.	c #594B54",
"/,.	c #6E7074",
"(,.	c #727579",
"_,.	c #848586",
":,.	c #878582",
"<,.	c #8B8E89",
"[,.	c #8C8F8B",
"},.	c #969493",
"|,.	c #696469",
"1,.	c #666165",
"2,.	c #919490",
"3,.	c #90938F",
"4,.	c #2F2732",
"5,.	c #989A95",
"6,.	c #A0A09C",
"7,.	c #A3A49F",
"8,.	c #A2A59F",
"9,.	c #9FA39D",
"0,.	c #8B8D8D",
"a,.	c #898C8C",
"b,.	c #878A89",
"c,.	c #828184",
"d,.	c #7D7B7F",
"e,.	c #7D7B7E",
"f,.	c #7B797B",
"g,.	c #767575",
"h,.	c #5A5356",
"i,.	c #5B5358",
"j,.	c #5C5458",
"k,.	c #5C5456",
"l,.	c #81817F",
"m,.	c #7C7C7B",
"n,.	c #716F70",
"o,.	c #7A7578",
"p,.	c #6B646A",
"q,.	c #696268",
"r,.	c #655F67",
"s,.	c #555058",
"t,.	c #1D1B29",
"u,.	c #1C1B2A",
"v,.	c #0E1427",
"w,.	c #131C30",
"x,.	c #131E34",
"y,.	c #0F1F36",
"z,.	c #13293E",
"A,.	c #A4C8D1",
"B,.	c #B8E0E6",
"C,.	c #B8E3E7",
"D,.	c #B5E3E9",
"E,.	c #A4D7E2",
"F,.	c #235678",
"G,.	c #2F5E82",
"H,.	c #34698D",
"I,.	c #3E7295",
"J,.	c #152843",
"K,.	c #0D0E27",
"L,.	c #0E0E27",
"M,.	c #0C0F27",
"N,.	c #131425",
"O,.	c #473945",
"P,.	c #513F47",
"Q,.	c #534149",
"R,.	c #57464C",
"S,.	c #625557",
"T,.	c #6B6162",
"U,.	c #6A6063",
"V,.	c #685F61",
"W,.	c #645D5F",
"X,.	c #66656A",
"Y,.	c #66646B",
"Z,.	c #64636B",
"`,.	c #767577",
" '.	c #A5A49F",
".'.	c #A3A39B",
"+'.	c #A1A19B",
"@'.	c #9C9D97",
"#'.	c #888A86",
"$'.	c #898B87",
"%'.	c #8A8D89",
"&'.	c #8C8E8A",
"*'.	c #939191",
"='.	c #6E696E",
"-'.	c #696269",
";'.	c #665F66",
">'.	c #615B61",
",'.	c #888686",
"''.	c #8F918E",
")'.	c #372F36",
"!'.	c #302631",
"~'.	c #AEAFAA",
"{'.	c #AEB3AC",
"]'.	c #A9ADA7",
"^'.	c #8C8F8E",
"/'.	c #878989",
"('.	c #625C62",
"_'.	c #4C434B",
":'.	c #4B4048",
"<'.	c #524A4E",
"['.	c #8B8888",
"}'.	c #948F8D",
"|'.	c #938E8B",
"1'.	c #8D8B88",
"2'.	c #80807F",
"3'.	c #797979",
"4'.	c #757575",
"5'.	c #707070",
"6'.	c #9F9E9C",
"7'.	c #A5A39B",
"8'.	c #A4A19A",
"9'.	c #A09B96",
"0'.	c #6D6269",
"a'.	c #62555E",
"b'.	c #645A66",
"c'.	c #5F5B66",
"d'.	c #393946",
"e'.	c #12152A",
"f'.	c #111529",
"g'.	c #060E25",
"h'.	c #030F27",
"i'.	c #011328",
"j'.	c #011429",
"k'.	c #021127",
"l'.	c #051329",
"m'.	c #05142A",
"n'.	c #051529",
"o'.	c #051025",
"p'.	c #382E3F",
"q'.	c #493748",
"r'.	c #473446",
"s'.	c #453344",
"t'.	c #433640",
"u'.	c #695F60",
"v'.	c #736864",
"w'.	c #746965",
"x'.	c #766D6B",
"y'.	c #85807E",
"z'.	c #59575C",
"A'.	c #352C38",
"B'.	c #362D39",
"C'.	c #636063",
"D'.	c #9FA09B",
"E'.	c #92938F",
"F'.	c #898985",
"G'.	c #888B86",
"H'.	c #898C87",
"I'.	c #8E8B8C",
"J'.	c #696369",
"K'.	c #675F66",
"L'.	c #635B62",
"M'.	c #5F575E",
"N'.	c #868284",
"O'.	c #2F2530",
"P'.	c #929591",
"Q'.	c #B1B4AE",
"R'.	c #B2B6B0",
"S'.	c #AEB1AC",
"T'.	c #898C8B",
"U'.	c #675D66",
"V'.	c #574854",
"W'.	c #554752",
"X'.	c #5A5057",
"Y'.	c #8D8A8A",
"Z'.	c #828582",
"`'.	c #808180",
" ).	c #787979",
".).	c #797A7C",
"+).	c #757678",
"@).	c #737472",
"#).	c #A7A69C",
"$).	c #A6A59A",
"%).	c #A6A49A",
"&).	c #A19F97",
"*).	c #62515A",
"=).	c #60525E",
"-).	c #5E5560",
";).	c #3B3846",
">).	c #0F1527",
",).	c #0B172B",
"').	c #09172C",
")).	c #07162B",
"!).	c #07132A",
"~).	c #081129",
"{).	c #090F28",
"]).	c #342938",
"^).	c #4A3644",
"/).	c #493543",
"().	c #483643",
"_).	c #493840",
":).	c #716664",
"<).	c #78716B",
"[).	c #78726D",
"}).	c #7A7470",
"|).	c #91908D",
"1).	c #5E5A5F",
"2).	c #362D3A",
"3).	c #372D39",
"4).	c #372F3A",
"5).	c #646165",
"6).	c #A3A4A0",
"7).	c #A0A19A",
"8).	c #8F8E8C",
"9).	c #8D8A8C",
"0).	c #676066",
"a).	c #635B63",
"b).	c #858183",
"c).	c #2E252F",
"d).	c #B2B4AF",
"e).	c #B4B7B2",
"f).	c #B4B7B1",
"g).	c #AFB3AB",
"h).	c #9A9C94",
"i).	c #949692",
"j).	c #929592",
"k).	c #8D908D",
"l).	c #8B908E",
"m).	c #8A8D8E",
"n).	c #6C6269",
"o).	c #5B4A55",
"p).	c #574956",
"q).	c #625961",
"r).	c #92928C",
"s).	c #91918B",
"t).	c #888985",
"u).	c #7E8180",
"v).	c #777576",
"w).	c #A9A69E",
"x).	c #A8A69B",
"y).	c #A4A199",
"z).	c #72696F",
"A).	c #5F505D",
"B).	c #5B4F5A",
"C).	c #5C545D",
"D).	c #3B3744",
"E).	c #101324",
"F).	c #0F1525",
"G).	c #101329",
"H).	c #0A172B",
"I).	c #0A172E",
"J).	c #0B172E",
"K).	c #09152C",
"L).	c #07142B",
"M).	c #061429",
"N).	c #061326",
"O).	c #2C2731",
"P).	c #483641",
"Q).	c #483744",
"R).	c #776B6D",
"S).	c #7D7571",
"T).	c #7E7571",
"U).	c #7E7673",
"V).	c #898683",
"W).	c #91938D",
"X).	c #5C595E",
"Y).	c #372D3A",
"Z).	c #3A2D3A",
"`).	c #686669",
" !.	c #A4A4A1",
".!.	c #9A9B98",
"+!.	c #949593",
"@!.	c #9C9E99",
"#!.	c #908D8E",
"$!.	c #6B646B",
"%!.	c #686369",
"&!.	c #656066",
"*!.	c #615962",
"=!.	c #827E82",
"-!.	c #8E918E",
";!.	c #8D8E8F",
">!.	c #363039",
",!.	c #2D2431",
"'!.	c #B5B8B3",
")!.	c #B3B6B0",
"!!.	c #B0B2AC",
"~!.	c #8F9190",
"{!.	c #8E9190",
"]!.	c #8C918F",
"^!.	c #8D9290",
"/!.	c #6A6266",
"(!.	c #605057",
"_!.	c #625C60",
":!.	c #828282",
"<!.	c #808281",
"[!.	c #7B7B7B",
"}!.	c #7B7C7E",
"|!.	c #7A797C",
"1!.	c #A3A19E",
"2!.	c #A6A39A",
"3!.	c #A4A099",
"4!.	c #706A6E",
"5!.	c #5B4E5B",
"6!.	c #5A505A",
"7!.	c #59535C",
"8!.	c #3B3845",
"9!.	c #121324",
"0!.	c #0A172A",
"a!.	c #09182C",
"b!.	c #0B172D",
"c!.	c #08152A",
"d!.	c #071426",
"e!.	c #2B2630",
"f!.	c #4B3A45",
"g!.	c #796E71",
"h!.	c #7F7974",
"i!.	c #817A75",
"j!.	c #847E7A",
"k!.	c #8E908B",
"l!.	c #90928E",
"m!.	c #5A575C",
"n!.	c #382E3A",
"o!.	c #392E3B",
"p!.	c #6D6C6F",
"q!.	c #A7A7A5",
"r!.	c #A2A39D",
"s!.	c #959593",
"t!.	c #9EA19D",
"u!.	c #9DA19C",
"v!.	c #928F90",
"w!.	c #6D646C",
"x!.	c #6D656E",
"y!.	c #6B636C",
"z!.	c #655B65",
"A!.	c #7F7B7F",
"B!.	c #90918F",
"C!.	c #8C8C8D",
"D!.	c #332F37",
"E!.	c #2C2431",
"F!.	c #939591",
"G!.	c #777978",
"H!.	c #6F6E72",
"I!.	c #706F73",
"J!.	c #707074",
"K!.	c #726C6E",
"L!.	c #716B6B",
"M!.	c #8D8786",
"N!.	c #8B8D88",
"O!.	c #828482",
"P!.	c #818482",
"Q!.	c #7E7E7E",
"R!.	c #7E8081",
"S!.	c #7D7C7F",
"T!.	c #7B7A7B",
"U!.	c #A19F9D",
"V!.	c #A8A69E",
"W!.	c #A6A49C",
"X!.	c #A3A19A",
"Y!.	c #827E7E",
"Z!.	c #82807F",
"`!.	c #70706F",
" ~.	c #3A3948",
".~.	c #3A3849",
"+~.	c #353445",
"@~.	c #181A2B",
"#~.	c #101627",
"$~.	c #101527",
"%~.	c #2F293D",
"&~.	c #2C2438",
"*~.	c #2A2336",
"=~.	c #2A2434",
"-~.	c #3D3541",
";~.	c #523F4C",
">~.	c #533F4D",
",~.	c #523F4D",
"'~.	c #594C54",
")~.	c #837D7C",
"!~.	c #59565A",
"~~.	c #39303C",
"{~.	c #BFBFBB",
"]~.	c #BDBEB7",
"^~.	c #BBBCB6",
"/~.	c #B7B8B3",
"(~.	c #989997",
"_~.	c #848484",
":~.	c #858585",
"<~.	c #8F918C",
"[~.	c #9B9E9A",
"}~.	c #A2A5A2",
"|~.	c #A1A5A2",
"1~.	c #A0A5A1",
"2~.	c #949294",
"3~.	c #4E444D",
"4~.	c #4B424C",
"5~.	c #49404A",
"6~.	c #433944",
"7~.	c #322E36",
"8~.	c #2E2734",
"9~.	c #868986",
"0~.	c #90938E",
"a~.	c #666768",
"b~.	c #4C4851",
"c~.	c #4F4754",
"d~.	c #4F4651",
"e~.	c #57484E",
"f~.	c #6C6161",
"g~.	c #838683",
"h~.	c #838684",
"i~.	c #817F80",
"j~.	c #828486",
"k~.	c #818183",
"l~.	c #A2A19D",
"m~.	c #A7A69E",
"n~.	c #5D5563",
"o~.	c #5F5467",
"p~.	c #615A6B",
"q~.	c #5E5868",
"r~.	c #151120",
"s~.	c #141020",
"t~.	c #151020",
"u~.	c #1D1726",
"v~.	c #4C3C4E",
"w~.	c #473346",
"x~.	c #453245",
"y~.	c #453345",
"z~.	c #523F4F",
"A~.	c #594553",
"B~.	c #594453",
"C~.	c #594554",
"D~.	c #675B62",
"E~.	c #8B8B85",
"F~.	c #8D908C",
"G~.	c #58555A",
"H~.	c #3A333E",
"I~.	c #838183",
"J~.	c #CECEC9",
"K~.	c #CECFC7",
"L~.	c #CDCEC8",
"M~.	c #CCCDC7",
"N~.	c #A5A6A2",
"O~.	c #818182",
"P~.	c #838384",
"Q~.	c #8F928D",
"R~.	c #9D9F9C",
"S~.	c #A3A6A2",
"T~.	c #A2A7A3",
"U~.	c #A1A6A2",
"V~.	c #959497",
"W~.	c #392D39",
"X~.	c #372B37",
"Y~.	c #342834",
"Z~.	c #645F64",
"`~.	c #8A8C8B",
" {.	c #342F37",
".{.	c #302937",
"+{.	c #929391",
"@{.	c #929491",
"#{.	c #949694",
"${.	c #6A6A6C",
"%{.	c #514953",
"&{.	c #524852",
"*{.	c #524850",
"={.	c #5B4C51",
"-{.	c #8B8C88",
";{.	c #868785",
">{.	c #858685",
",{.	c #848685",
"'{.	c #828181",
"){.	c #838587",
"!{.	c #838486",
"~{.	c #828384",
"{{.	c #A2A29E",
"]{.	c #A6A59D",
"^{.	c #5B5260",
"/{.	c #594A60",
"({.	c #5A4B62",
"_{.	c #574C61",
":{.	c #2A2333",
"<{.	c #161021",
"[{.	c #15111E",
"}{.	c #15111D",
"|{.	c #1B1722",
"1{.	c #483846",
"2{.	c #463341",
"3{.	c #463343",
"4{.	c #473445",
"5{.	c #53404E",
"6{.	c #5A4655",
"7{.	c #5B4655",
"8{.	c #5A4654",
"9{.	c #685D63",
"0{.	c #3A343F",
"a{.	c #3C3641",
"b{.	c #898687",
"c{.	c #D2D2CC",
"d{.	c #CFD1C8",
"e{.	c #CED0C8",
"f{.	c #CED0C9",
"g{.	c #A5A6A3",
"h{.	c #808082",
"i{.	c #848383",
"j{.	c #8E8E88",
"k{.	c #90928F",
"l{.	c #9EA09D",
"m{.	c #A3A6A3",
"n{.	c #A3A8A4",
"o{.	c #A1A8A4",
"p{.	c #959597",
"q{.	c #3B2F39",
"r{.	c #392C39",
"s{.	c #362936",
"t{.	c #635E63",
"u{.	c #342F38",
"v{.	c #312939",
"w{.	c #969795",
"x{.	c #534952",
"y{.	c #534953",
"z{.	c #534951",
"A{.	c #53484F",
"B{.	c #5D4E53",
"C{.	c #78706F",
"D{.	c #868885",
"E{.	c #858887",
"F{.	c #848786",
"G{.	c #858686",
"H{.	c #86888A",
"I{.	c #838485",
"J{.	c #A2A29D",
"K{.	c #A8A9A1",
"L{.	c #A8A89D",
"M{.	c #5B5261",
"N{.	c #55475C",
"O{.	c #57475E",
"P{.	c #55495F",
"Q{.	c #282331",
"R{.	c #1A1622",
"S{.	c #473443",
"T{.	c #483343",
"U{.	c #554150",
"V{.	c #5A4856",
"W{.	c #5B4957",
"X{.	c #5B4956",
"Y{.	c #6D6367",
"Z{.	c #8D8A87",
"`{.	c #8E918B",
" ].	c #3B3440",
".].	c #D2D4CB",
"+].	c #D0D2CA",
"@].	c #CED1C9",
"#].	c #CFD2CC",
"$].	c #A4A5A3",
"%].	c #7F7F81",
"&].	c #7F7E81",
"*].	c #9DA09D",
"=].	c #A2A7A5",
"-].	c #A3A8A7",
";].	c #A2A8A5",
">].	c #3B303A",
",].	c #3B2E39",
"'].	c #3A2D38",
")].	c #372A37",
"!].	c #615C62",
"~].	c #838080",
"{].	c #929190",
"]].	c #706C6D",
"^].	c #584F56",
"/].	c #5C5258",
"(].	c #60575B",
"_].	c #61595C",
":].	c #848784",
"<].	c #828584",
"[].	c #848584",
"}].	c #848688",
"|].	c #808183",
"1].	c #A5A49C",
"2].	c #686268",
"3].	c #615963",
"4].	c #6B696E",
"5].	c #443F44",
"6].	c #31292F",
"7].	c #2B222A",
"8].	c #281D2A",
"9].	c #281E2B",
"0].	c #423441",
"a].	c #423340",
"b].	c #443141",
"c].	c #463342",
"d].	c #574553",
"e].	c #63525B",
"f].	c #64545C",
"g].	c #65555E",
"h].	c #787072",
"i].	c #3E3441",
"j].	c #3E3642",
"k].	c #3F3944",
"l].	c #D4D6CD",
"m].	c #D4D6CF",
"n].	c #D3D6CD",
"o].	c #D0D5CE",
"p].	c #767578",
"q].	c #767678",
"r].	c #79777C",
"s].	c #878786",
"t].	c #9C9F9E",
"u].	c #9FA1A0",
"v].	c #9DA09E",
"w].	c #909294",
"x].	c #3E343D",
"y].	c #392C38",
"z].	c #7F8082",
"A].	c #818081",
"B].	c #332B36",
"C].	c #332A3A",
"D].	c #504F53",
"E].	c #858483",
"F].	c #7A7B79",
"G].	c #6A6768",
"H].	c #696768",
"I].	c #6C696A",
"J].	c #6E6C6C",
"K].	c #858283",
"L].	c #8A8B89",
"M].	c #93908E",
"N].	c #726B6C",
"O].	c #64565B",
"P].	c #64555C",
"Q].	c #63535A",
"R].	c #60535C",
"S].	c #5F545E",
"T].	c #60535F",
"U].	c #5E5460",
"V].	c #5B535B",
"W].	c #83817E",
"X].	c #8E8A86",
"Y].	c #3F3543",
"Z].	c #403745",
"`].	c #413C46",
" ^.	c #D6D9CF",
".^.	c #D5D9CE",
"+^.	c #D4D8CE",
"@^.	c #D1D6D0",
"#^.	c #8B8F8E",
"$^.	c #626065",
"%^.	c #605D63",
"&^.	c #5E5B60",
"*^.	c #7F8180",
"=^.	c #949892",
"-^.	c #949793",
";^.	c #939593",
">^.	c #979896",
",^.	c #959694",
"'^.	c #888A8A",
")^.	c #3F373F",
"!^.	c #3C2F3C",
"~^.	c #3A2D39",
"{^.	c #2E252D",
"]^.	c #30252D",
"^^.	c #33272D",
"/^.	c #362A30",
"(^.	c #352C32",
"_^.	c #352B37",
":^.	c #545057",
"<^.	c #868484",
"[^.	c #7E7D7B",
"}^.	c #797876",
"|^.	c #6E6A6B",
"1^.	c #6B6769",
"2^.	c #7B7B7A",
"3^.	c #605256",
"4^.	c #64515E",
"5^.	c #61545F",
"6^.	c #625964",
"7^.	c #625763",
"8^.	c #5F5662",
"9^.	c #5B5362",
"0^.	c #838283",
"a^.	c #8F9088",
"b^.	c #8F908F",
"c^.	c #433847",
"d^.	c #423C47",
"e^.	c #9EA09C",
"f^.	c #D8DCD1",
"g^.	c #D7DBD0",
"h^.	c #D5DACE",
"i^.	c #D2D9D1",
"j^.	c #8A8E8D",
"k^.	c #625F65",
"l^.	c #605D64",
"m^.	c #5D5960",
"n^.	c #7D7F7E",
"o^.	c #929690",
"p^.	c #979A94",
"q^.	c #969996",
"r^.	c #969895",
"s^.	c #969694",
"t^.	c #939290",
"u^.	c #423A43",
"v^.	c #3D303D",
"w^.	c #30252F",
"x^.	c #32242E",
"y^.	c #34242D",
"z^.	c #352931",
"A^.	c #372B3A",
"B^.	c #555259",
"C^.	c #848380",
"D^.	c #83837F",
"E^.	c #83827F",
"F^.	c #777474",
"G^.	c #736F70",
"H^.	c #6E686A",
"I^.	c #6B6566",
"J^.	c #6A6465",
"K^.	c #858282",
"L^.	c #818381",
"M^.	c #848787",
"N^.	c #868788",
"O^.	c #848486",
"P^.	c #92968F",
"Q^.	c #766D72",
"R^.	c #5F4F5A",
"S^.	c #62515E",
"T^.	c #625261",
"U^.	c #635563",
"V^.	c #625764",
"W^.	c #605763",
"X^.	c #5E5562",
"Y^.	c #595163",
"Z^.	c #848286",
"`^.	c #8F8E8B",
" /.	c #909290",
"./.	c #555258",
"+/.	c #423A49",
"@/.	c #45414B",
"#/.	c #A7A6A4",
"$/.	c #DEDED6",
"%/.	c #DADBD2",
"&/.	c #D4DAD1",
"*/.	c #8B8E8E",
"=/.	c #646268",
"-/.	c #605D65",
";/.	c #5D5A62",
">/.	c #969894",
",/.	c #8D9090",
"'/.	c #3E303E",
")/.	c #3D2E3A",
"!/.	c #3A2C37",
"~/.	c #31242F",
"{/.	c #30242F",
"]/.	c #33252E",
"^/.	c #362832",
"//.	c #372A36",
"(/.	c #56555B",
"_/.	c #807F7F",
":/.	c #7F7E7E",
"</.	c #7C7B7B",
"[/.	c #6C686A",
"}/.	c #696363",
"|/.	c #676162",
"1/.	c #858384",
"2/.	c #888888",
"3/.	c #858584",
"4/.	c #7A7879",
"5/.	c #868988",
"6/.	c #87898A",
"7/.	c #848487",
"8/.	c #93938D",
"9/.	c #7F797D",
"0/.	c #615661",
"a/.	c #625762",
"b/.	c #615860",
"c/.	c #635961",
"d/.	c #615960",
"e/.	c #605860",
"f/.	c #5E575F",
"g/.	c #5A545F",
"h/.	c #878487",
"i/.	c #8E928F",
"j/.	c #919393",
"k/.	c #57555C",
"l/.	c #423D4A",
"m/.	c #44414E",
"n/.	c #49454F",
"o/.	c #DDE0D7",
"p/.	c #D9DED4",
"q/.	c #D9DDD4",
"r/.	c #D5DAD3",
"s/.	c #888B8B",
"t/.	c #616068",
"u/.	c #616064",
"v/.	c #989C97",
"w/.	c #989D98",
"x/.	c #979B98",
"y/.	c #959895",
"z/.	c #898A8C",
"A/.	c #402E3D",
"B/.	c #3C2C36",
"C/.	c #392A34",
"D/.	c #312530",
"E/.	c #302630",
"F/.	c #302830",
"G/.	c #312A35",
"H/.	c #322A38",
"I/.	c #7E7F85",
"J/.	c #423A40",
"K/.	c #433B41",
"L/.	c #433D42",
"M/.	c #4A4348",
"N/.	c #514B4E",
"O/.	c #50494E",
"P/.	c #50494D",
"Q/.	c #7A7775",
"R/.	c #898888",
"S/.	c #898B8A",
"T/.	c #898B89",
"U/.	c #888988",
"V/.	c #767475",
"W/.	c #5D565C",
"X/.	c #575057",
"Y/.	c #443E44",
"Z/.	c #848285",
"`/.	c #888A8B",
" (.	c #878A8A",
".(.	c #868686",
"+(.	c #A0A196",
"@(.	c #A1A196",
"#(.	c #A2A299",
"$(.	c #A2A49B",
"%(.	c #A1A299",
"&(.	c #9C9D94",
"*(.	c #979890",
"=(.	c #939790",
"-(.	c #909491",
";(.	c #68656C",
">(.	c #534E5B",
",(.	c #52505C",
"'(.	c #54505A",
")(.	c #6A6869",
"!(.	c #6C6A6B",
"~(.	c #706E71",
"{(.	c #989897",
"](.	c #919191",
"^(.	c #848182",
"/(.	c #7E7D7D",
"((.	c #7E7C7C",
"_(.	c #7D7C7C",
":(.	c #7D7C7E",
"<(.	c #575457",
"[(.	c #383338",
"}(.	c #393238",
"|(.	c #392D37",
"1(.	c #5B5458",
"2(.	c #858986",
"3(.	c #878A88",
"4(.	c #858788",
"5(.	c #3B373F",
"6(.	c #2E2835",
"7(.	c #94969C",
"8(.	c #2D242D",
"9(.	c #31272F",
"0(.	c #33262F",
"a(.	c #342730",
"b(.	c #3D3139",
"c(.	c #43373F",
"d(.	c #44373E",
"e(.	c #443740",
"f(.	c #494146",
"g(.	c #908C8C",
"h(.	c #8F8D8A",
"i(.	c #8E8A8A",
"j(.	c #878A86",
"k(.	c #878988",
"l(.	c #878B89",
"m(.	c #6A696B",
"n(.	c #433546",
"o(.	c #423446",
"p(.	c #403446",
"q(.	c #828385",
"r(.	c #868B8B",
"s(.	c #878A8B",
"t(.	c #878887",
"u(.	c #A7A79E",
"v(.	c #A9AB9F",
"w(.	c #AAAB9F",
"x(.	c #ACACA1",
"y(.	c #AAABA0",
"z(.	c #9B9C94",
"A(.	c #989B95",
"B(.	c #909591",
"C(.	c #6D6B70",
"D(.	c #57535D",
"E(.	c #54525D",
"F(.	c #59545E",
"G(.	c #5B5460",
"H(.	c #58525E",
"I(.	c #57515B",
"J(.	c #9A9C99",
"K(.	c #919492",
"L(.	c #909291",
"M(.	c #7F7B7D",
"N(.	c #7C777A",
"O(.	c #7C777B",
"P(.	c #7A777A",
"Q(.	c #787679",
"R(.	c #7B797C",
"S(.	c #50484E",
"T(.	c #2F1E28",
"U(.	c #2E1C2A",
"V(.	c #291C2A",
"W(.	c #241C27",
"X(.	c #59555A",
"Y(.	c #726F71",
"Z(.	c #797775",
"`(.	c #8A8C87",
" _.	c #9CA19A",
"._.	c #9DA39B",
"+_.	c #9EA39C",
"@_.	c #9B9F9D",
"#_.	c #302836",
"$_.	c #95999E",
"%_.	c #332730",
"&_.	c #372A33",
"*_.	c #3F333B",
"=_.	c #453841",
"-_.	c #463843",
";_.	c #4B4249",
">_.	c #908E8E",
",_.	c #8C8B89",
"'_.	c #888A88",
")_.	c #888B89",
"!_.	c #888C8A",
"~_.	c #868C8A",
"{_.	c #6C6A6F",
"]_.	c #423445",
"^_.	c #403346",
"/_.	c #3D3341",
"(_.	c #838687",
"__.	c #878C8D",
":_.	c #ABABA2",
"<_.	c #ADADA1",
"[_.	c #AAACA0",
"}_.	c #ABADA1",
"|_.	c #ADADA2",
"1_.	c #AEAEA2",
"2_.	c #AEADA2",
"3_.	c #A6A89E",
"4_.	c #919692",
"5_.	c #929694",
"6_.	c #6F6C72",
"7_.	c #54525C",
"8_.	c #55515C",
"9_.	c #58535B",
"0_.	c #625C63",
"a_.	c #605A62",
"b_.	c #5F5962",
"c_.	c #636064",
"d_.	c #9CA09D",
"e_.	c #8C8F89",
"f_.	c #807C7D",
"g_.	c #7E7A7B",
"h_.	c #7C7879",
"i_.	c #7A7779",
"j_.	c #7A7778",
"k_.	c #797678",
"l_.	c #787677",
"m_.	c #7B7879",
"n_.	c #301F29",
"o_.	c #251D28",
"p_.	c #5F5C60",
"q_.	c #6F6D6E",
"r_.	c #9FA49D",
"s_.	c #A0A69D",
"t_.	c #9FA59C",
"u_.	c #2F2835",
"   .  +  @  #  $  %  &  *  =  -  ;  >  ,  '  '  )  !  ~  {  ]  ^  /  (  _  _  _  _  :  <  [  }  |  1  2  3  4  5  6  7  8  9  0  a  b  c  d  e  f  g  h  i  j  k  l  m  n  o  p  q  r  s  t  u  v  w  x  <  m  y  z  A  B  C  D  D  E  F  G  H  I  J  K  K  L  M  N  O  P  Q  R  S  T  U  V  W  X  Y  Y  Y  Z  `   . .. +. @. #. $. %. &. *. =. -. ;. >. ,. '. '. ;. ;. ). !. ~. {. ]. ^. /. (. ",
"_. :. <. [. }. |. |. 1. =  2. 3. 4. 5. 6. 7. 8. 9. 0. a. b. c. d. e. f. g. h. i. j. k. l. l. m. n. o. p. q. r. s. s. t. u. v. w. x. y. z. A. B. C. D. E. F. G. H. I. J. K. L. M. N. O. O. O. O. P. Q. R. R. w  S. T. U. B  V. W. X. Y. Z. `.  + .+ ++ @+ K  L  #+ $+ %+ &+ *+ =+ -+ ;+ >+ ,+ '+ )+ !+ ~+ ~+ {+ ]+ ^+ /+ (+ _+ :+ <+ [+ }+ |+ 1+ 2+ 2+ 3+ 3+ 4+ 5+ 3+ 2+ ,. 6+ 7+ 8+ 9+ 0+ a+ b+ ",
"c+ .  d+ :. e+ f+ g+ h+ i+ j+ >  k+ l+ m+ n+ 8. o+ p+ q+ r+ b. b. s+ t+ u+ g. v+ w+ x+ y+ z+ A+ B+ C+ D+ C+ E+ F+ s. s. G+ H+ I+ J+ K+ K+ L+ M+ N+ O+ P+ Q+ R+ S+ T+ m  S. U+ P. P. V+ W+ W+ W+ X+ Y+ r  Z+ `+ w   @ .@ v  +@ +@ @@ #@ $@ %@ &@ *@ =@ -@ ;@ L  >@ ,@ '@ )@ !@ ~@ =+ {@ ]@ ^@ /@ (@ _@ ~+ ~+ )+ ]+ ]+ :@ <@ [@ }@ |@ [+ }+ 1@ 2@ 3@ 3@ 4@ 4@ 3@ 2@ 5@ 5@ 6@ 7@ 8@ ^. 9@ 0@ a@ (. ",
"b@ c@ d@ e@ f@ g@ h@ i@ j@ k@ l@ m@ n@ }. o@ p@ q@ r@ s@ t@ u@ v@ w@ x@ y@ z@ A@ B@ C@ D@ E@ F@ G@ H@ I@ J@ K@ L@ M@ N@ O@ P@ Q@ R@ S@ T@ U@ V@ W@ X@ Y@ Z@ `@  # .# +# @# ## $# $# %# &# *# =# -# ## ## -# ;# ;# ># ,# '# )# !# !# ~# {# ]# ^# /# (# _# _# :# <# [# }# |# 1# 2# 3# 4# 5# 6# 7# 8# 9# 0# a# b# b# b# c# 2@ 5+ 3+ d# e# f# g# h# i# h# j# j# j# k# l# m# n# o# p# q# r# s# t# u# ",
"v# w# x# x# y# z# A# B# C# D# E# F# G# H# I# J# K# L# M# N# O# P# Q# R# S# T# U# V# W# X# Y# Z# `#  $ .$ +$ @$ #$ $$ %$ &$ *$ =$ -$ ;$ >$ ,$ '$ )$ !$ ~$ {$ ]$ ]$ ^$ {$ /$ ($ _$ :$ :$ ~$ <$ [$ }$ |$ 1$ !$ 2$ 3$ 4$ 5$ 6$ 7$ 8$ 9$ 0$ a$ b$ c$ d$ e$ f$ g$ h$ i$ j$ k$ l$ m$ n$ o$ p$ p$ q$ r$ s$ t$ u$ v$ s$ s$ s$ w$ 1$ x$ y$ z$ r$ A$ B$ C$ D$ E$ F$ G$ H$ I$ J$ K$ L$ M$ N$ O$ P$ Q$ R$ S$ ",
"T$ U$ V$ W$ X$ Y$ Z$ `$ `$  % .% +% @% #% $% %% &% *% =% -% ;% Q# >% ,% '% )% !% ~% {% ]% ^% /% (% _% :% <% [% }% |% 1% [% q$ 2% 3% 4% 5% )$ 6% 4$ 2% 7% 8% 8% 8% 8% 8% 9% 0% a% b% p$ 0% 0% 0% a% p$ c% d% e% ,$ ,$ C$ c% f% g% h% i% j% k% l% m% n% f$ g$ g$ o% p% q% r% ,$ s% t% u% v% v% w% <% P# P# <% <% w% Q# *$ 2% 2% x% y% z% Q# A% D$ B% B% C% C% D% E% F% G% H% I% J% K% L% M% N% O% ",
"P% Q% R% R% R% S%  % E# T% U% V% W% X% +% Y% Z% `%  & .& +& <% @& #& $& S# %& && *& =& -& ;& >& ,& '& )& !& ~& {& ]& ^& /& ~& (& _& :& l$ 6% e% <& b% [& }& [& E% |& 1& 0% 2& !$ !$ 3& 4& 4& 4& 4& q$ c% :& ,$ 5& q% H$ *$ 6& *$ 7& 8& 9& 0& a& b& c& d& e& f& g& h& i& j& D$ k& l& !& t% t% m& l& n& o& p& m& q& !& v% r& r& r& r& d% s& t& (% u& C% v& w& x& y& z& A& F% B& J% C& D& E& F& G& ",
"H& I& J& K& L& M& N& O& P& Q& R& S& T& U& V& W& X& Y& Z& `&  * $& .* +* @* #* $* %* &* ** =* -* ;* >* v% r$ ,* ]& ^& F% {& {& z& ($ 2% '* )* )* !* ~* {* ]* ]* ]* ]* ^* /* (* y$ p$ 0% _* _* ~& 4& [% w$ *$ :* )$ <* [* *$ *$ *$ }* |* 1* 2* 3* 4* 5* 6* 7* 6* 8* 9* 0* a* b* c* d* l& e* e* n& f* )& ;% d* l& g* h* v% v% v% v% v% d% t% k& i* j* F$ k* l* }  m* n* o* z& p* q* r* r* s* t* u* ",
"v* w* x* e@ y* z* A* B* C* D* E* F* G* H* I* J* K* L* M* N* O* P* Q* R* S* T* U* V* W* X* Y* Z* s$ `*  = .= += @= F% #= $= G% %= &= 2& *= )* == -= ;= >= ,= '= )= )= != ~= {= ^* }& ]= ^= /= (= ,* |& _= _= := <= I$ [= *$ }= |= }* 1= q$ s$ s$ 2= 3= 4= 5= 6= 7= 8= x. 9= 0= a= b= c= B$ d= e= f= g= h= i= j= k= l= m= u% t% t% t% d% *$ *$ 6& b% n= b% o= 2& a% [% [% p= q= r= r= s= t= u= v= ",
"w= x= y= z= A= B= C= D= E= F= G= H= I= J= K= L= M= M= N= O= P= Q= R= S= T= T= U= V= W= W= P# +$ z% X= Y= .= ^& @= #= %= F% F% %= H% Z= ;$ e% e% `=  - .- )= '= +- +- @- #- #- $- %- &- %- %- (= ,* ,* ,* .= *- =- =- 0% }* }= |= -- ;- ~& >- >- ,- '- )- !- ~- {- ]- ^- /- z. (- _- :- <- [- }- |- 1- '& 2- 3- 4- o* 5- e* e* e* 6- d% *$ *$ 2% 2% c% *$ 7- 8- 7- t% t% s% 9- 0- a- b- c- d- e- ",
"f- g- y= z= h- i- j- E= k- [$ l- I= m- m- 8= n- o- p- <# q- T# r- R= s- t- u- v- w- x- W= P# <% Q# y- t$ z- %= A- A- %= G% %= B- C- D- >$ E- q% F- G- H- )= I- )= J- K- L- M- N- ]* }& N- O- _* /& ~& ~& _* }& %- %- a% d% P- P- d% m= _* >- >- R# Q- R- S- T- U- V- W- X- K+ Y- C$ _- Z- `- 0$  ; .; +; @; U& #; $; D- :- :- c= e* t% d% *$ 6& 2% h% d% d% %; &; t% s& j$ *; =; -; a- ;; >; ,; ",
"'; ); !; ~; !; {; ]; ^; /; ^* (; _; :; <; [; }; I@ |; 1; 2; O* 3; 4; 5; 6; 7; 8; 9; 0; P# P# P# w% z% a; $$ b; c; d; B- #= B- B- e; p$ f; g; h; i; j; k; l; l; m; J- n; 2& (* [% 4& 4& o; p; q; r; q; p; o; 0% 7% 9% b% s; t% d% u% 4& (= t; u; R# v; w; x; y; z; A; B; C; /- D; E; F; G; G; H; I; J; K; L; M; N; A& O; P; P; _- :- e* t% d% 1= Q; |= R; 7- S; T; j$ U; :- V; W; X; Y; Z; `;  > ",
".> u. +> @> #> {; $> ^; /; %> &> *> => (- -> ;> >> ,> '> )> !> ~> !> {> ]> g@ ^> /> w% P# W= P# w% r; a; $$ b; (> _> B- :> %= <> [> }> |> 1> 2> 3> 4> 5> 6> l; I- J- 7> (* 2& p= p; r& v% U; ;* <% ;* !& r& p$ w$ a% p$ 6& c% 6& [% (= ]& 8> 9> R# 0> a> b> c> d> e> f> g> h> a* E$ G$ i> j> k> l> m> n> o> C= p> q> r> q$ r$ y& p; ;- 6& s> t> u> v> w> x> y> z> A> B> C> D> E> F> G> H> I> b@ ",
"J> K> L> 8= M> _& N> O> P> Q> R> V% S> T> U> V> 0# W> 4# X> Y> Z> `>  , ., +, B% @, #, G; $, x- r; t$ a; z- %, F% &, *, :> B- =, -, ;, >, ,, ', '= H- ), H- !, !, ~, )= ', 2& D- 7- {, l& ], W= W= P# P# v% 6& o= 2& 0% ', ^* ^, /= /, d> (, _, R# :, <, [, }, |& |, 1, 2, 3, 4, 5, D% 6, 7, 8, 9, 0, a, b, _> c, B- H% d, e, f, U- g, h, i, j, k, l, m, n, o, p, q, r, s, t, u, N# -% v, w, x, ",
"y, z, 3, A, B, 1& C, C, D, z* E, F, G, H, I, J, K, L, M, N, O, O, P, Q, R, A+ S, 0* T, U, $, P# V, t$ t$ z- ]& F% &, &= <> B- W, X, Y, Z, >= `,  ' .' +' +- J- @' #' $' n= %' &' 8- {, l& ], *' ;% W= W= U; m= =' 2& 0% /* }& -' ;' >' (, ,' _, '' )' !' ~' {' ]' O+ ^' 2, 3, /' (' _' :' ,& <' Q= [' c, _> B- }' }' B- b, |' 1' 2' 3' 4' 5' 6' 7' 8' 9' 0' a' b' c' d' e' t, f' g' h' i' j' k' ",
"l' m' -> n' o' (= p' q' z* r' s' t' u' H# v' w' x' y' z' A' B' C' D' E' F' G' H' I' J' K' $, P# Q# q;  = ,* ]& ^& &, &= L' M' N' O' P' Q' R' S' l; T' U' U' V' $' $' W' W' i; i; X' 6- Y' Z' ], `' )&  ) .) T; 5- +) @) #) %- $) %) &) *) =) -) ;) >) ,) ') )) U; !) ~) N+ {) ]) ^) ^) /) :% P* () _) :) <) [) }) |) 1) <) 2) 3) 2' 4) 5) 6) 7) 8) 9) 0) a) m, b) c) d) e) f) g) h) i) I# j) k) ",
"l) m) n) o) p) %, z* q) q) r) s) t) u) e$ I% v) w) x) y) z) A) B) C) D) E) F) G) H) I) K' $, ;% W= w%  = (= z& ]& r> J) K) L) M) N) O) P) Q) R) S) T) U) V) W) X) X) Y) Z) `)  ! .! +! @! #! $! #! %! &! *! =! -! ;! >! ,! '! )! !! ~! {! ]! ^! /! (! _! :! <! y% [! }! |! 1! S, G) H) I) s& 2! <) %= 3! 4! 5! 6! 7! 8! 9! <) 0! E' a! 5' w# b! c! d! e! f! g! h! h! i! i! j! k! l! m! n! o! p! ",
"q! r! s! &$ t! u! q) v! w! x! w- y! z! A! B! C! D! ); E! F! G! *- H! I! w& J! k* j& E$ i> K! L! M! W= t; F% ]& (= N! O! P! Q! R! S! T! U! V! W! X! W! Y! Z! `!  ~ .~ +~ @~ @~ #~ $~ %~ &~ *~ =~ *~ -~ ;~ >~ -~ ,~ '~ '~ ,~ )~ !~ ~~ {~ ]~ ^~ /~ (~ _~ :~ <~ [~ }~ |~ 1~ p- 2~ 3~ 4~ 5~ 6~ 7~ ;' ]& 8~ 9~ 0~ a~ -) b~ c~ d~ &$ s! e~ f~ g~ h~ u% d% i~ j~ k~ k~ k~ ;- +) p= l~ m~ n~ B> L& o~ p~ ",
"q~ r~ s~ t~ u~ V% v~ L; w~ x~ y~ z~ A~ B~ C~ D~ D~ E~ F~ G~ H~ H) C% j& D$ j& F$ D% j> I~ J~ J~ J~ L! t$ K~ .= _* r& L~ M~ N~ O~ P~ Q~ R~ S~ R~ T~ U~ V~ W~ W~ W~ X~ Y~ Z~ `~  { .{ +{ @{ #{ #{ #{ #{ ${ %{ &{ *{ &{ ={ ={ ={ -{ #{ #{ ;{ >{ >{ ,{ '{ ){ !{ ~{ {{ ]{ ^{ /{ 3! ]' ({ _{ 2& (* 1& ,* {& b~ 8> b~ 9> u; 2= o; v% !& !& !& !& h* g* :{ d% d% 7- 8- &' &' n= b% <{ [{ }{ A> |{ 1{ 2{ ",
"3{ 4{ 5{ 6{ 7{ 8{ 9{ 0{ a{ x~ b{ c{ z~ d{ C~ e{ f{ g{ h{ i{ j{ v& C% B% k* B% F$ D% j> m> k{ k{ l{ J~ m{ ,* ~& 4& w% L~ M~ n{ o{ p{ q{ r{ s{ t{ u{ v{ w{ x{ x{ x{ x{ y{ z{ A{ B{ .{ %{ C{ ${ #{ #{ ${ D{ E{ F{ G{ F{ H{ ={ ={ I{ J{ ${ ${ K{ K{ L{ M{ N{ O{ P{ Q{ j! R{ /{ S{ m* T{ T{ U{ 2& _& _* ,* 9> u; u; >- >- V{ r& !& !& !& !& !& W{ g* g* t% t% X' 8- &' &' n= 0% |' X{ Y{ Z{ `{  ] .] ",
"+] @] #] $] %] &] *] =] -] ;] >] ,] '] )] !] ~] {] {] ]] ^] /] a* C% C% B% B% D% K' 6, (] _] :] <] [] }] |] o; p= 1] 2] 3] 4] 5] 6] 7] 8] 9] 0] a] b] c] d] e] e] f] g] h] i] j] k] k] l] m] A{ n] o] p] q] r] X~ s] t] u] v] w] E{ x] '{ y] z] A] B] C] D] E] F] G] H] I] J] K] Z= Z= L] M] a% ~& /& >- >- t$ t$ t$ s$ v% l& l& l& x- x- U; j$ j$ t% d% %; h~ 5- m* [% E% d; N] O] P] Q] R] .] ",
"S] T] U] V] W] X] x* Y] Z] `]  ^ .^ +^ @^ #^ $^ %^ &^ *^ =^ -^ C% C% B% k* B% K' j> ;^ >^ J~ ,^ '^ )^ !^ ~^ {^ ]^ ^^ /^ (^ _^ :^ <^ [^ }^ |^ |^ 1^ 2^ 3^ 4^ 5^ 6^ 7^ 8^ 9^ 0^ a^ b^ c^ d^ e^ f^ g^ h^ i^ j^ k^ l^ m^ n^ o^ p^ q^ r^ s^ t^ u^ v^ w^ x^ y^ z^ A^ B^ C^ D^ E^ F^ G^ H^ I^ J^ r-  = 4& ~& t$ s$ r; z% Q# +$ P# n& l& l& P# <% s; d% t% d% d% d% *$ 6& ~& (& {& .= #$ K^ L^ M^ N^ O^ ",
"P^ Q^ R^ S^ T^ e, U^ V^ R& e! W^ X^ Y^ Z^ `^  / ./ +/ @/ #/ k& H$ F; G$ E$ Y- D% j> $/ %/ &/ */ =/ -/ ;/ >/ ,/ '/ )/ !/ ~/ {/ ]/ ^/ ^/ // (/ (/ _/ :/ </ [/ }/ |/ 1/ 2/ 3/ 4/ 5/ 6/ 7/ 8/ 9/ 0/ a/ b/ c/ d/ e/ f/ g/ h/ i/ j/ k/ l/ m/ n/ o/ p/ q/ r/ s/ t/ u/ v/ w/ x/ y/ z/ A/ B/ C/ D/ E/ F/ y& o; `* r; Q# <% <% <% P# d* d* q& >* z% G/ 2% 1= 6& 6& 2% 6& s> _& |& (& /&  = v$ H/ I/ d& J/ ",
"K/ L/ M/ N/ A, 6& O/ P/ Q/ R/ S/ T/ U/ V/ W/ X/ Y/ 4' Z/ `/  ( ,$ ,$ f; .( r% 1> 1> K' +( @( #( $( %( &( *( s{ =( -( ;( >( ,( '( )( )( )( )( )( )( )( )( !( !( ~( {( ]( ^( /( (( _( :( <( [( }( |( 1( 2( 3( 4( 5( 6( 7( 8( 9( 0( a( b( c( d( e( f( g( h( i( j( k( l( m( n( o( p( q( r( s( t( u( r& p; v( w( o& W= W= d= x( o& W= P# y( h% h% h% h% s$ t$ G/ 2% 2% p$ a% a; t$ V, z( 1] A( B( C( ",
"D( E( F( G( H( w$ O/ /; /; i, I( U/ U/ J( K( L( 8* ]# u) M( N( )$ '$ f; O( r% 1> 1> j> P( Q( R( S( T( U( T~ 9] V( W( X( Y( ,( '( )( Z( Z( Z( Z( !( !( !( !( `( ~(  _ ._ +_ @_ #_ $_ %_ &_ *_ }( =_ -_ ;_ >_ ,_ '_ )_ !_ ~_ {_ ]_ ^_ /_ (_ __ :_ <_ [_ }_ |_ 1_ 2_ 3_ 4_ 5_ 6_ 7_ 8_ 9_ 0_ t( a_ !& v% b_ p& c_ g= d_ <- <- e_ W= P# y( b_ h% h% h% s$ s$ x% 2% p$ p$ p$ m{ s$ Q# 1] w- f_ g_ h_ ",
"i_ j_ k_ l_ 0= {& m_ m_ n_ o_ g_ p_ q_ r_ s_ t_ u_ v_ w_ x_ k& _- C$ y_ a  z_ 8& i% <] A_ B_ C_ D_ E_ F_ G_ H_ I_ J_ K_ L_ M_ N_ O_ Z( P_ P_ P_ Q_ Q_ Q_ Q_ !( R_ S_ T_ U_ V_ W_ X_ Y_ Z_ `_  : .: +: @: #: $: %: &: *: =: -: ;: >: ,: ': ): !: ~: {: ]: ^: /: (: _: :: <: [: }: |: 1: 2: 3: 4: +$ Q# 5: `' d_ d_ d_ '& ;% 6: W= P# <% >* +$ 7: z% 6& 2% 2% 2% 2% p$ p$ 4& o; 8: w- 9: 0: a: b: ",
"c: d: e: f: g: h: i: j: k: l: m: n: o: p: q: r: s: t: s: S, *$ 6& ;- u: v: w: x: y: z: A: B: C: D: E: F: G: H: I: J: K: L: M: N: O: Z( P_ P_ P_ P: Q: Q: Q_ R: S: T: U: V: W: X: N: Y: R: R: R: P_ Z: ~/ `:  < .< +< @< #< #< $< %< &< *< =< -< ;< Z( >< ,< '< )< !< ~< {< ]< ^< /< (< _< :< << [< }< |< h, (% }  }  g= ;% W= W= P# <% +$ +$ Q# q; 2% 2% 2% 2% 2% 2% 2% q$ 4& r& 1] o# 1< 2< b: ",
"3< 4< 5< 6< 7< 8< 9< 0< a< b< c< d< e< f< g< h< i< h< j< k< 3& w$ 1$ l< m< n< o< p< q< r< s< t< u< v< w< x< Y( y< z< A< O_ Z( Z( O: P_ P: Q_ Q_ P: P: P: Q_ R: B< C< D< E< F< G< H< O: Z: P: P: I< I< J< K< L< M< N< O< P< P< Q< R< S< T< U< V< W< H< )( )( J< Z: P_ X< X< X< Y< Z< `<  [ .[ +[ @[ #[ $[ q@ %[ d_ d_ e_ e_ W= P# P# &[ *[ Q# V, q$ 2% 2% 2% 2% 2% 2% 2% q$ 4& r& &[ =[ y! -[ ;[ ",
">[ ,[ N= O) '[ )[ ![ ~[ ~[ {[ ][ ^[ /[ ([ _[ :[ <[ <[ [[ h> }[ |[ o$ 1[ 2[ 3[ 4[ p< 5[ 6[ 7[ 8[ 8[ 9[ 0[ a[ b[ )( O_ c[ Z( R: P_ P_ P: I< d[ d[ Q_ P_ P_ Q_ R: e[ f[ g[ h[ i[ Z( Z( Z( P_ d[ d[ d[ d[ j[ k[ l[ m[ n[ o[ p[ q[ r[ s[ S< t[ u[ v[ w[ )( )( j[ J< R: P_ !( x[ ~/ y[ z[ A[ B[ C[ D[ E[ F[ G[ H[ I[ ;% ;% x( x( o& P# P# &[ <% v% p; o; 2% 2% 2% 2% 2% 2% 2% 4& o; w% <% W= J[ K[ L[ ",
"M[ N[ O[ P[ Q[ R[ ![ S[ S[ T[ k= U[ V[ W[ _[ X[ Y[ Z[ `[  } )* .} n$ +} J* @} 4[ #} $} %} &} 8[ 8[ *} =} -} Y( )( O: O: Z( P_ P_ P_ P: I< d[ d[ P: P_ P_ P: R: ;} >} ,} '} )} P_ P_ P_ P_ d[ d[ d[ d[ !} ~} {} ]} 4( Q< r[ ^} /} (} _} :} <} [} }} )( j[ |} ~/ R: P_ !( 1} |} 2} 3} A[ B[ 4} 5} 6} 7} 8} 9} n> ;% W= x( 0} a} ;% *' x( s& v% v% o; 2% n= 2% 2% 2% 2% p$ p= b} !& P# P# c} d} e} ",
"f} <. g} h} i} j} k} l} m} c; n} o} k_ G' l* p} q} r} s} t} F- u} v} 9% w} x} y} z} A} B} C} D} E} F} G} H} I} J} K} L} M} P_ d[ Q_ P_ P_ d[ Q: N} O} P} Q} R} S} T} U} V} W} X} R: P_ P_ P_ P_ Q_ Q_ Y} Z} `}  | .| +| @| #| $| %| &| *| =| -| ;| j[ |} |} ~/ X< >| ,| '| )| !| ~| {| ]| ^| /| (| _| :| <| [| }| || .= 1| C$ 2| C$ _- 3| 4| 6- 5| n= 2& 2& b% n= o; o; r& v% !& W= W= 6| 7| 8| ",
"9| 0| a| b| c| d| e| f| g| h| i| i| j| ^' k| l| m| n| o| p| q| F= /$ r| s| t| u| v| w| x| y| z| A| B| C| D| E| F| G| !} x[ Q_ d[ Q_ P_ P_ d[ d[ H| I| J| K| L| M| R: O: X: P: P: P_ P_ !( !( P_ P_ P_ R: Z: N| O| P| Q| R| S| T| U| V| W| X| Y| o/ >< '| '| ~/ Z| `|  1 .1 +1 @1 #1 $1 %1 &1 *1 =1 B[ -1 ;1 >1 ,1 '1 )1 !1 b* ~1 E; H$ {1 c= s% 4| ]1 5| *$ 6& 2% o; y& r& !& q& W= h= ^1 /1 h_ ",
"(1 _1 :1 <1 [1 }1 |1 11 21 31 41 51 61 71 81 91 01 a1 b1 c1 d1 v} e1 f1 g1 h1 i1 j1 k1 l1 m1 n1 n1 o1 p1 q1 r1 s1 t1 !} !( Z( Z( P_ Q_ Q_ d[ d[ u1 v1 w1 x1 y1 z1 c[ O: `( !( R: P_ P_ !( !( P_ P_ P_ Z( O: N: X: X: A1 B1 C1 D1 E1 F1 G1 H1 I1 J1 `( K1 K1 K1 L1 M1 N1 O1 P1 Q1 R1 S1 T1 U1 V1 W1 X1 Y1 Z1 `1  2 .2 +2 @2 #2 $2 ~1 %2 a= &2 _- :- e* %; c% 2% 2% o; y& r& !& .) *2  $ ^1 =2 -2 ",
";2 >2 ,2 '2 )2 !2 ~2 {2 ]2 ^2 /2 (2 61 (2 _2 :2 <2 [2 }2 |2 12 22 32 42 52 62 72 82 92 02 a2 b2 b2 c2 d2 e2 f2 g2 h2 i2 O: >< Z( P_ Q_ d[ d[ d[ j2 k2 l2 m2 n2 o2 N: Z( X< M} R: P_ P_ !( !( P_ P_ Z( )( Z( Z( !( !( p2 q2 r2 s2 t2 u2 v2 w2 x2 y2 P_ Z: !( !( z2 A2 B2 C2 D2 E2 F2 G2 H2 I2 J2 K2 L2 M2 N2 O2 P2 Q2 R2 S2 T2 I~ U2 D$ E; F; C$ _- c= d% U{ U{ U{ o; p; r& !& q& 9: V2 W2 X2 -2 ",
"Y2 Z2 `2  3 .3 +3 @3 #3 $3 %3 &3 *3 =3 -3 &' ;3 >3 ,3 '3 )3 !3 ~3 {3 ]3 ^3 /3 (3 _3 :3 <3 [3 }3 |3 13 23 33 43 53 63 73 N: M} Z( x[ 83 93 03 a3 b3 c3 d3 e3 f3 g3 N: Z( Z( M} P_ P_ P_ P_ !( P_ Z( )( )( Z( Z( !( ~( h3 i3 j3 k3 k3 l3 m3 n3 o3 +| p3 q3 r3 s3 t3 u3 v3 w3 x3 y3 z3 z3 A3 B3 C3 D3 E3 F3 G3 H3 I3 J3 K3 L3 M3 v$ A$ ], H$ H$ _- s% t% c% =' U{ N3 o; r& v% !& O3 P3 9: Q3 X2 -2 ",
"R3 S3 T3 I' U3 *= V3 `= `= .} W3 X3 Y3 H! Z3 `3  4 .4 +4 @4 #4 $4 %4 &4 *4 N} =4 -4 ;4 >4 ,4 '4 )4 !4 ~4 {4 ]4 ^4 /4 (4 M: M} M} _4 :4 <4 [4 }4 |4 M} X< X< c[ Z( Z( Z( Z( Z( P_ P_ P_ !( !( Z( Z( Z( M} Z( !( 14 O: J< M} P_ 14 14 24 34 44 54 64 74 84 94 04 a4 b4 c4 d4 e4 f4 g4 h4 i4 j4 k4 l4 m4 n4 o4 p4 u| q4 q4 r4 s4 t4 u4 v4 k& :- e* t% w4 x4 c% *$ *$ *$ *$ u% v% O3 w- P3 y! y4 z4 ",
"A4 B4 C4 D4 E4 e% F4 G4 H4 w$ _$ =- I4 A& 5! J4 K4 z~ L4 M4 N4 O4 %4 P4 Q4 R4 S4 T4 U4 V4 W4 X4 Y4 Z4 `4  5 .5 +5 @5 #5 c[ M} M} $5 %5 &5 *5 =5 83 Z( Z( Z( c[ Z( Z( Z( Z( Z( P_ P_ P_ P_ P_ !( !( !( Z( Z( X: X: X: O: Q_ Q_ Q_ Q_ -5 ;5 >5 ,5 '5 )5 !5 ~5 {5 ]5 ^5 /5 (5 _5 :5 <5 [5 }5 |5 15 25 35 45 55 65 75 85 95 05 a5 b5 c5 A( n& 0} 3| :& d5 =$ *$ *$ *$ *$ 2% m= 7: 8: z( 1] e5 f5 z4 ",
"g5 h5 i5 a* j5 _- k5 l5 n= 0% 8% m5 1% G% (, n5 M! o5 p5 J] q5 O4 r5 s5 t5 u5 v5 03 w5 x5 y5 z5 y5 A5 B5 C5 D5 E5 F5 G5 I< Y: P: H5 I5 J5 K5 L5 M5 O: Z( Z( Z( P_ P_ P_ P_ P_ P_ P_ P_ P_ P_ P_ P_ P_ P_ P_ P_ P_ P_ P_ P_ P_ P_ P: N5 O5 P5 Q5 R5 S5 T5 U5 V5 W5 X5 X5 Y5 Z5 `5  6 .6 }5 }5 +6 @6 #6 $6 %6 &6 *6 &6 =6 -6 ;6 >6 ,6 '6 )6 5$ y( 7& t% d% }* 1= 6& q$ o; y% X= !6 w% <% ~6 {6 ]6 ",
"^6 /6 (6 _6 :6 <6 [6 }6 g~ _* E% z& ^& |6 16 26 36 46 56 66 76 86 86 96 06 a6 b6 c6 d6 e6 f6 g6 h6 i6 j6 k6 l6 m6 n6 o6 p6 q6 r6 s6 t6 u6 v6 w6 x6 X: `( Z( Z( P_ P_ P_ P_ P_ P_ P_ P_ P_ P_ P_ P_ P_ Q_ Q_ P_ P_ P_ P_ P_ P_ P_ Z: y6 z6 A6 B6 C6 D6 E6 F6 G6 H6 I6 J6 K6 L6 M6  6 .6 .6 [5 N6 O6 P6 Q6 R6 S6 T6 U6 V6 W6 X6 Y6 Z6 `6  7 .7 N- 1& s! q$ +7 @7 E% #7 $7 $7 %7 N= &7 *7 =7 7* -7 ",
";7 >7 ,7 '7 )7 !7 ~7 {7 z* N> K~ K~ K~ || ]7 ^7 /7 (7 _7 :7 <7 [7 }7 |7 17 27 37 47 57 67 77 87 97 07 a7 b7 c7 d7 e7 f7 g7 h7 i7 j7 Y: O: X< >< O: X: Q_ O: Z( P_ Q_ Q_ Q_ Q_ Q_ Q_ Q_ Q_ Q_ Q_ Q_ Q_ d[ d[ Q_ Q_ Q_ Q_ Q_ Q_ Q_ k7 l7 ~/ p6 p6 m7 n7 o7 p7 q7 r7 /5 s7 t7 u7 `5 v7 w7 x7 y7 z7 A7 B7 C7 D7 E7 F7 G7 H7 I7 J7 K7 L7 M7 N7 O7 P7 Q7 R7 S7 T7 U7 V7 q' W7 W7 X7 &@ Y7 Z7 `7  8 a. ",
".8 +8 @8 #8 N& .% N& $8 %8 &8 *8 =8 ,* d< -8 ;8 >8 ,8 '8 )8 !8 ~8 {8 ]8 ^8 /8 (8 (8 _8 :8 <8 :8 :8 [8 >: }8 |8 18 28 38 48 58 68 78 88 N: 14 c[ P_ d[ d[ Q_ P_ d[ d[ d[ d[ d[ d[ d[ d[ d[ d[ d[ d[ d[ d[ d[ d[ d[ d[ d[ d[ d[ d[ Q_ !( P_ x[ x[ 98 08 a8 b8 c8 d8 e8 f8 g8 h8 i8 j8 k8 g4 l8 m8 g4 g4 n8 o8 p8 q8 r8 s8 j1 t8 u8 v8 w8 x8 y8 z8 A8 B8 C8 D8 E8 F8 G8 H8 I8 J8 K8 L8 M8 N8 O8 P8 ",
"Q8 R8 S8 T8 *] *] =] M& 9{ q) U8 >- 4& #/ V8 W8 >8 ,8 X8 Y8 Z8 `8  9 .9 +9 @9 #9 <8 $9 :8 <8 %9 %9 &9 *9 =9 -9 ;9 >9 ,9 '9 )9 !9 ~9 N: N: 14 Y: Q_ Q: I< d[ d[ d[ d[ d[ d[ d[ d[ d[ d[ d[ d[ d[ d[ d[ d[ d[ d[ d[ d[ d[ d[ d[ d[ d[ P_ P_ R: R: {9 ]9 ^9 /9 (9 d8 _9 g8 :9 <9 [9 j8 j8 g4 l8 l8 l8 j8 }9 |9 19 29 39 49 59 u8 u8 69 79 89 99 09 a9 b9 c9 d9 e9 f9 g9 h9 i9 j9 %@ k9 l9 m9 n9 o9 ",
"p9 q9 r9 s9 t9 u9 w@ ]# v9 w9 x9 L3 y9 z9 A9 B9 C9 D9 E9 F9 G9 H9 I9 J9 K9 L9 L9 :8 %9 M9 N9 N9 O9 P9 Q9 R9 S9 S9 T9 U9 V9 W9 !9 X9 Y9 Y: k7 Z: P_ P_ P_ Z: P: Q_ Q_ Q_ Q_ d[ d[ Q: Q: Q: Q: P: P: Q_ d[ d[ Q_ P: P: Q: Q: Q: Q: d[ P_ P_ P: Q_ Z9 `9  0 .0 +0 @0 #0 $0 y7 %0 g4 &0 g4 *0 *0 =0 -0 &0 ;0 >0 >0 ,0 '0 )0 !0 ~0 {0 ]0 ^0 && /0 (0 _0 :0 <0 [0 }0 |0 10 20 |. 30 40 50 60 70 80 90 ",
"00 a0 b0 c0 d0 e0 f0 i< g0 h0 i0 j0 k0 l0 m0 n0 o0 p0 q0 r0 s0 t0 u0 v0 w0 x0 y0 &9 z0 A0 B0 C0 _4 _4 D0 E0 F0 G0 H0 I0 J0 K0 L0 M0 N0 O0 P0 Q0 R0 S0 T0 !4 U0 @_ V0 /( W0 T0 X0 Y0 Y0 Z0 Z0 `0  a  a  a  a .a g3 V_ +a @a #a $a %a &a *a =a -a ;a >a ,a 'a )a !a ~a {a ]a ^a /a (a _a :a <a [a }a |a 1a 2a 3a 3a 4a 5a 6a 7a 8a 9a 0a aa ba ca da ea fa `] ga ha ia ja ka la ma na oa pa qa ra ",
"sa ta A@ ua va wa xa xa xa ya za Aa Ba Ca Da Ea Fa Ga Ha Ia Ja Ka La Ma v0 Na Oa #9 Pa B0 Q_ Q_ Q_ Q_ Qa Ra Sa Sa Ta Ua Va Wa Xa Ya Za `a  b .b +b @b #b $b %b &b *b =b c7 c7 =b -b S9 ;b ;b >b ,b 'b 'b 'b )b !b ;9 -b ~b {b ]b ^b /b (b _b :b <b [b }b |b 1b 2b 3b 4b 5b 6b 7b 8b 9b 0b ab bb cb db eb fb gb hb ib jb kb lb mb nb ob pb qb rb sb tb Q= 4) ub vb wb xb la yb zb z  Ab Bb Cb Db ",
"Eb Fb Gb Gb Hb Ib ua Jb Kb Lb Mb Aa Ba Nb ;{ Ob Pb Qb Rb Sb W4 !8 Tb Ub Na Na Vb Wb Xb B0 Z: X: Z: x[ Yb Zb `b J9  c .c +c @c #c $c %c &c *c =c -c ;c >c ,c 'c )c !c ~c c7 c7 >9 {c 28 >b >b ]c ^c ]c /c /c !b (c (c _c :c <c [c }c |c 1c 2c 3c 4c 5c 6c 7c 8c 9c 0c ac bc cc 6b dc ec fc gc hc hc ic jc B7 kc lc mc nc oc pc qc rc sc tc uc vc wc xc A> yc zc Ac Bc Cc Dc Ec Fc Gc A  Hc Ic Jc ",
"Kc Lc Mc Mc f0 Nc A@ Oc Pc Qc Rc Sc Tc Uc Vc Wc Qb Xc Yc Zc `c ;a  d f6 Na Na Oa Wb .d +d !( 14 Z: @d #d o2 X4 $d `c %d &d *d =d -d ;d >d ,d 'd {c )d !d ~d {d )c ~c ]d ^d /d -b ^c (d e7 e7 e7 _d :d <d [d }d |d 1d 2d 18 3d 4d 5d 6d 7d 8d 9d 0d ad bd cd dd ed 0c fd gd hd id jd kd ld md nd nd od pd qd rd sd td ud vd wd xd yd zd Ad Bd Cd Dd Ed u) Fd Gd Hd Id Jd Kd Ld Md Nd Od Pd Qd Rd ",
"Sd Td Ud Vd Wd J' Xd +$ =[ Yd Zd `d  e .e +e @e #e $e %e &e *e =e =e =e Na Na h6 L9 ]8 C0 O: !( Z: -e ;e >e ,e 'e )e !e ~e {e ]e ^e /e (e _e :e ^d <e [e }e |e 1e 2e 3e 4e 5e 6e 7e 8e 9e 0e 0e 0e ae 9e be ce de de ee fe ge he ie je ke le me ne oe pe qe re se te |e ue ve we xe ye h( ze Ae Be Be Ce De Ee Fe Ge He Ie Je Ke Le Me Ne Oe Pe Qe Re Se Te Ue Ve We Xe Ye Ze `e  f .f +f @f #f ",
"$f %f &f v. *f Y/ =f -f ;f >f ,f 'f )f !f ~f {f ]f a3 ^f /f (f u0 _f u0 Na Na h6 L9 :f R_ M} K1 x[ l7 <f [f }f |f 1f q6 2f $5 $5 3f 4f 5f 6f v6 7f f( 8f 9f 0f )| M} M} P_ ~/ af bf cf G0 F0 F0 df df ef ff gf hf if jf kf lf mf nf of pf qf rf sf tf uf vf wf xf yf zf Af Bf Cf Df Ef te Ff Gf Hf If Jf Kf Lf Mf Nf Of Pf Qf Rf Sf Tf Uf Vf Wf Xf Yf Zf `f  g .g 22 +g o= 0% ', @g @g e: #g $g ",
"%g &g *g =g G' -g ;g >g ,g 'g )g !g !g ~g {g ]g U4 d6 {f '4 i6 h6 y0 Na Na x0 Na _f ^g R_ M} K1 x[ >| /g (g _g :g <g [g }g |g 1g 3f 2g 3g 4g 5g 6g 7g 8g 9g 0g s3 M} M} !( x[ ag bg cg dg eg eg eg fg gg hg ig jg jg kg lg mg ng og pg qg rg rf sg tg ug vg wg xg `8 yg `b 18 zg Ag Bg Cg #< Dg Eg Fg Gg Hg Ig Jg Kg Lg Mg Ng Og Pg Qg Rg Sg Tg Ug Vg Wg Xg Yg Zg F4 `g H4 (*  h L- L- e: #g .h ",
"+h @h #h $h B, M4 %h &h *h =h -h ;h ob >h ,h 'h )h d6 d6 !h ~h {h ]h 77 h6 Na h6 ]h :f ^h M} K1 x[ /h (h _h :h <h [h }h [g |h 1h 2h 3h  9 4h 5h 6h a7 7h 8h [e 9h M} J< ~/ |} j/ Ra 0h ah ah ah bh if kg ch dh eh fh gh hh ih jh kh lh mh nh oh ph qh rh sh th uh vh vh wh xh 0g yh yh zh Ah Bh Ch Dh Eh Fh Gh Hh Ih Jh Kh Lh Mh Nh Oh Ph Qh Rh Sh Zf Th Uh Vh Wh Xh Yh Zh 2& 2& L- L- @) `h ++ ",
" i .i #& +i @i #i $i %i &i *i =i -i ;i >i ,i 'i )i %a !i ~i {i ]i v0 v0 !h ^i v0 67 /i (i )| ^f ,< $a _i :i <i [i }i |i 1i 1h 1h  a 2i 3i 4i 5i 6i 7i 7h 8i 9i W4 Z9 z1 /f V4 0i ah ah  c ai ai bi ci ci di ei dh fh fi gi hi ii ji ki mh mh li mi ni oi pi qi ri si ti ui vi wi xi yi zi Ai Bi Ci Di Ei Fi Gi Hi Ii Ji Ki Li Mi i8 Ni Oi Pi Qi Ri Si Ti Ui Vi Wi Xi Yi Zi `i R' $' M- V'  j .j ",
"+j @j #j $j %j &j *j *j =j -j ;j 1} y< >j >j )( O_ Z( P_ O: Z( x[ K1 /h ,j ,j |} |h C0 'j )j !j ~j {j ]j ^j /j (j _j :j 2f <j X< [j 6e }j |j 1j 2j 3j 7h 4j 5j q/ 6j 7j 8j 8j eg 9j ai 0j ~h aj ig h6 ig bj cj dj ej fj gj hj ij jj kj lj mj nj oj pj qj rj sj tj uj vj wj xj yj zj Aj Bj <5 Cj Dj Ej Fj Gj Hj Ij Jj Kj Lj Nh Mj Nj Oj Pj Qj Rj Sj Tj Uj Vj Wj Xj Yj Zj `j  k .k +k D- Z= H& ]6 ",
"@k #k $k $k %k &k *k *k =k -k ;k )( )( )( y< Z( Z( P_ P_ Q_ Q: Q: Q_ !( M} M} Z( y< >k ,k 'k )k !k ~k {k ]k ^k /k (k $5 O_ O_ O: _k :k <k [k }k 18 |k 1k 2k 3k 4k 5k 6k 7k 8k 9k hg hg 0k ak bk ck dk ek fk gk hk ik jk q2 kk lk mk nk Dj ok pk qk rk ,} sk tk uk vk wk xk yk zk Ak Bk Ck Dk Ek Fk Gk lj Gj Hk Ik Jk Kk Lk Mk Nk Ok Pk Qk Rk Sk Tk Uk Vk Wk Xk Yk Zk `k  l .l +l @l +k &' #l $l ",
"%l &l *l =l -l ;l >l ,l 'l )l !l <j )( )( Z( `( P_ P_ P_ P_ Q_ P_ P_ P_ P_ !( !( Y9 ~l {l ]l ^l /l /l (l _l :l <l [l }l )( )( Z( !l |l 1l 2l 3l 4l 5l 1k 6l 1k 7l 8l 4k 9l 0l al bl @9 Wb cl A5 Z4 dl el fl gl hl il jl kl ll ll E1 ml Dj ok Ek nl ol pl ql rl sl tl ul vl wl xl yl zl Al Bl Cl Dl El Fl Gl Hl Il Jk Jl Kl Ll Ml Nl Nl Ol Pl Ql Rl Sl Tl Ul Vl Wl Xl Yl Zk Zl `l 4~ {, k5  m .m ",
"{! +m @m #m $m %m &m *m =m -m ;m >m )( )( Z( P_ P_ P_ P_ P_ P_ P_ P_ R: x[ {( {( {( ,m 'm )m !m ~m {m ]m ^m /m (m _m C0 ~( )( Z( _k :m <m 2l [m }m |m 6l -9 6l 7h 7h 7h 'c 1m 2m bl bl bl g6 el 3m z5 dk 4m 5m 6m 7m 8m 9m 0m am bm cm Dj dm em fm gm hm im jm km lm mm vl nm om pm qm rm sm tm um vm wm xm ym zm zm Am Bm Cm Qk Dm Em Fm Gm Hm Im Jm Km Lm Mm Nm Om Xl Pm Qm Rm Sm Z' Tm Um Vm ",
"Wm Xm Ym Zm `m  n .n +n (/ @n H5 y< )( Z( P_ P_ Q_ Q_ P: P: P: Q_ Q_ P_ !( K1 K1 K1 >| #n $n %n &n *n =n -n ;n >n ,n 1i y< )( Z( 'i 'n 2l 2l )n !n ~n {n ]n ~n ^n ^n ^n /n ^d (n 4/ _n #9 :n <n [n }n |n 1n 2n 3n 4n 5n 6n 7n 7n 8n 9n Dj 0n an bn cn dn en fn gi gn hn in jn kn ln mn nn on pn qn {_ rn :k sn tn un vn wn xn yn zn An Bn Cn Dn En Fn Gn Hn In Jn Kn Ln Mn Nn On Pn Qn Rn Sn Tn ",
"Vc Un Vn Wn Xn Yn Zn '( O_ M: y< `( `( !( P_ Q_ d[ d[ Q: I< I< d[ d[ Q_ P_ !( Z: Z: M} `n  o .o +o @o 9f #o $o %o &o 2f M: )( Z( *o =o cg 2l |j -o ;o >o ,o ;o 'o )o {n !o ~o {o ck ck el ]o ^o /o (o _o _o :o <o [o }o |o |o 1o 2o cm lj 0n 3o 4o 5o 6o 7o 8o 9o 0o ao bo co do eo fo go ho io [g jo ko $5 Y} lo lo mo no 'i oo po t6 qo ro so to uo vo wo xo yo zo Ao Bo Co Do Eo Fo Go Ho Tn ",
"Io Jo Ko Lo Mo No >k )( O_ O_ 1} !( Z: P_ Q_ d[ d[ d[ Q: I< I< d[ d[ Q_ P_ P_ d[ d[ P_ Oo Po Qo Ro So To Uo Vo Wo Xo 2f M: )( Z( Yo Zo `o 2l F0  p ,o ,o ,o ,o .p .p +p @p #p dh $p z5 el 'o %p &p *p *p *p =p -p ;p >p >p >p ,p 'p )p !p mh 3o ~p {p ]p ^p /p (p _p :p <p [p }p |p 1p 2p 3p U4 4p 2f <j >< $5 ko $5 2f x6 %a 5p 6p ~8 7p 8p 9p 0p ap bp a7 |m cp dp ep fp gp hp ip jp kp lp mp ",
"np op pp qp rp sp X: 14 14 tp X: Q_ Q_ d[ d[ d[ d[ d[ d[ d[ up Q: Q: P: P: P: Q: Q: X: vp wp xp yp zp Ap Bp Cp Dp Ep 2f X< !( !( Yo 1l Fp 2l Gp Hp 6i 6i E0 E0 6i 6i 6h Ip Jp *e Kp e6 el Lp Mp Np Op Op Op Pp Pp Qp Qp Qp Rp Sp Tp Up Vp Wp Xp Yp Zp `p  q .q +q @q #q $q %q &q *q =q -q ;q >q 4p $5 J< M} X< >< j[ $5 !} ,q 'q (i )q !q ~q {q ]q ^q /q (q ap _q :q <q [q }q |q 1q 1q 2q 3q 4q ",
"5q 6q 7q 8q 9q 0q aq bq cq >< P| P_ P_ Q_ Q_ Q_ M} M} J< J< ~/ |g dq eq fq gq hq iq jq kq lq mq nq oq pq <c >o qq rq sq x[ !( !( tq uq vq 2l F0 wq xq xq B6 xq yq yq zq 4d 2m dk e6 e6 dk Aq Bq Op Op Cq Cq Dq Eq Eq Eq Fq Fq Fq Gq Hq Iq Jq Kq Lq Mq 4b Nq Q< Oq Pq Qq Rq Sq Tq Jm Uq Vq Wq Xq ko M} Z: Z: Z: O: O: M} >< sq ,< r3 Y4 s0 i/ Yq Zq `q 7l  r .r +r @r #r $r %r &r *r =r -r ;r >r ",
",r 'r )r !r ~r {r ]r ^r /r (r _r :r <r [r }r |r 1r 2r 3r 4r 5r 6r 7r 8r 9r 0r ar br cr dr er fr mq gr hr ir j[ j[ $5 !( 14 Z: !( jr kr yq <k <k )n )n )n +b )n )n `o ui 0h lr mr nr or pr qr rr Qp sr tr ur vr ur wr xr yr zr zr Ar Br 8n Cr Dr Er Fr Gr Hr Ir Jr Kr Lr Mr Nr Or Pr Qr Rr Sr Tr Ur Vr Wr Xr Yr Zr `r  s .s +s @s #s $s %s &s *s =s -s ;s >s ,s 's )s !s ~s t| {s ]s ^s /s (s _s ",
":s <s Zk [s }s |s 1s 2s 3s 4s 5s 6s 7s 8s 9s 0s as bs cs ds es fs gs hs is js ks +o ls ms ns os ps qs rs ss <j )( Z( k7 X: 14 !( ts us Ip <k <k )n )n vs Ra Ta ws `b 4g xs ys zs Op As Bs Cs Ds Eq Gq tr wr wr wr yr Es Fs f[ f[ Gs Hs Is Js Ks Ls Ms Ns Os Ps 8h Qs Rs Ss Ts Us Vs Ws Xs Ys Zs `s  t .t +t @t #t $t %t &t *t =t -t ;t >t ,t 't )t !t ~t {t ]t ^t /t (t (t _t :t <t [t }t |t |t ",
":s 1t 2t 3t 4t 5t 6t 7t 8t 9t 0t at bt ct dt et ft gt ht it jt kt lt mt nt ot pt qt rt st ps tt ut vt wt ss <j )( H< Z: N| 14 !( xt o/ yt zt zt )n <k 2l 0h dg `b At K9 di Fr Bt Mr Ct Dt Et Fq Fq Fq vr Ft Bs Et Es Gt Ht rk It Jt Kt Lt Mt Js wr Nt Ms Os Hr {d Ih Ot Pt Qt Rt St Tt Ut Vt Wt Xt Yt Zt `t  u .u +u @u #u $u %u $u &u *u =u -u ;u >u ,u 'u )u !u ~u {u ]u ^u /u (u |t _u :u <u ",
"[u }u |u 1u 2u 3u 4u 5u 6u 7u 8u 9u 0u au bu cu du eu fu gu hu iu ju ku lu mu nu ou pu qu ru su tu uu vu wu ,| :j 03 1} X: `( !( xt o/ xq xu 3d 4d yu 2l 0h 5g 4g zu Au Bu Cu Du Eu Fu Gu Hu Iu Ju Ku Lu Mu Nu Ou Gt Pu Qu Ru Ru Su Tu Uu Vu Mt Dt bi Wu 0k Wu Xu Yu Zu `u  v .v +v @v Vt #v $v %v &v *v =v -v ;v >v ,v 'v )v !v !v ~v {v ]v ^v /v (v _v :v <v [v }v |v 1v 2v 3v 4v 5v 6v 7v <u ",
"`] 8v 9v 0v av bv cv dv }s ev fv gv hv iv jv kv lv mv nv ov pv qv rv sv tv uv vv wv xv yv zv Av Bv Cv Dv Ev Fv Gv Hv !} Z( !( !( g3 Iv 5l -9 H0 -c zt `o cg Zo  r Jv 4k Kv Lv Mv Nv Nv Nv Ov Pv Qv >p Rv Nu Sv Tv Uv Vv Wv Xv Yv Zv `v  w .w +w R< @w #w 77 i6 $w %w &w *w =w -w ;w >w ,w 'w )w !w ~w {w ]w ^w /w (w _w :w <w [w }w |w 1w 2w 3w 4w 5w 6w 7w 8w 9w 0w aw bw cw dw ew fw gw hw <u ",
"iw jw kw lw mw nw ow pw qw rw sw tw uw vw ww xw yw zw Aw Bw Cw Dw Ew Fw Gw Hw Iw Jw Kw Tf Lw Mw Nw Ow Pw Qw Rw Sw Tw Uw )( !( !( {9 Vw Ww 8i Xw H0 Yw Gp Gp ae Zw ]} `w  x .x >} +x +x @x #x $x %x &x *x rk =x -x ;x >x ,x 'x )x !x ~x {x ]x ^x /x @w (x _x ak :x <x [x }x |x 1x 2x 3x 4x 5x 6x 7x 8x 9x 0x ax kb bx cx dx ex fx gx hx ix jx kx lx mx Fo nx ox px qx rx sx tx ux vx wx xx yx zx ",
"Ax Bx kw lw mw Cx Dx Ex Fx Gx Hx Ix Jx Kx Lx Mx Nx Ox Px Qx Rx Sx Sx Tx Ux Vx Wx Xx Yx Zx `x  y .y +y @y #y $y %y &y ;j >< Z( Z( {9 *y =y -y ;y >y cf lr lr ,y 'y )y .x !y ~y {y ]y ^y Qu Cs kk /y (y _y :y <y [y }y |y 1y 2y 3y 4y 5y 6y 7y 8y 9y 87 0y ak ay by cy dy ey fy gy hy iy jy ky ly my my ny oy py qy ry sy ty ex uy vy wy xy yy zy Ay {u Fo nx By Cy Dy Ey Fy Gy ux Hy Hy Iy yx Jy ",
"Ky Ly My Ny Ny Oy Py Dx ow Qy Ry Sy Ty Uy Vy Wy Xy Yy Zy `y  z .z .z Fw +z @z #z $z %z &z *z =z -z ;z >z ,z 'z )z !z Uw >< M} M} {9 *y Ww ~z >9 Af 5i 0h {z ]z ^z /z (z _z :z <z <z [z }z |z 1z mk Sf 2z 3z 4z 5z 6z 7z 8z 9z 9z 0z az bz cz dz ez fz gz hz ys iz jz kz lz mz nz oz pz qz rz sz tz tz uz vz wz xz yz zz Az Bz fx Cz Dz Ez Fz Gz Hz Iz Jz Kz Lz Mz Nz Oz Pz Qz Rz Sz Tz Uz Vz Wz ",
"Xz Yz Zz Zz `z  A .A +A @A #A $A %A &A *A =A -A ;A >A ,A 'A )A !A ~A {A ]A ^A /A (A _A :A <A [A }A |A 1A 2A 3A 4A 5A S4 p6 M} M} 3f 6A 7A 8A 9A 0A ]c aA bA cA dA eA fA gA gA hA iA jA kA lA ~x mA nA oA pA qA rA sA tA uA vA wA xA yA zA AA BA 1d CA DA EA FA GA HA IA JA KA LA MA NA OA ly PA PA QA RA SA TA UA UA VA ty WA XA YA ZA `A  B .B +B @B #B $B %B &B *B =B -B ;B >B ,B 'B )B !B ~B ",
")6 5, :6 {B ]B ^B /B (B _B :B =r <B <B [B }B |B 1B 2B 3B 4B 5B 6B 7B 8B 9B 0B aB bB cB dB eB fB gB hB iB jB kB lB mB nB ko J< M} oB 3k pB qB rB sB tB uB vB wB xB yB zB AB AB BB CB DB EB |z FB GB HB .z IB $0 &0 JB KB LB MB NB OB PB }k be QB RB SB TB UB VB WB XB YB ZB `B  C .C +C @C #C $C %C &C *C =C -C ;C yz >C ,C 'C )C !C ~C {C ]C ^C /C (C _C :C <C [C }C |C 1C 2C 3C 8& 8& 7, T$ 4C ",
"f= J! (' ^) 5C 6C 7C 8C 9C 0C aC bC bC bC cC dC eC fC fC gC hC iC jC kC lC mC nC oC pC qC rC sC tC uC vC wC xC yC zC AC wu $5 $5 6p BC CC DC EC FC GC (} HC IC JC KC LC MC MC NC MC OC PC QC RC SC TC UC VC ib WC XC YC ZC `C  D .D +D 3l 3l }k bA @D #D $D %D &D *D =D -D ;D >D ,D 'D )D !D ~D {D ]D ^D /D (D _D :D <D [D }D |D 1D 2D 3D 4D 5D 6D 7D 8D 9D 0D aD bD cD dD eD fD 8& 8& gD hD iD ",
",& :' ^) ^) jD kD 8C lD 9C mD aC bC bC bC nD oD pD qD rD sD tD uD vD wD xD yD zD AD BD CD DD ED FD GD HD ID JD KD LD >4 MD )h S_ /( ND OD PD QD RD SD TD IC {4 &| UD VD =x =x WD MC XD 54 YD ZD `D  E .E +E @E #E $E %E Ji &E *E =E -E ;E >E ,E 'E )E !E ~E {E ]E ^E /E (E _E :E 'D 'D <E [E }E |E 1E 2E 3E 4E 5E 6E 7E 8E 9E 0E aE bE cE dE dE eE fE gE hE iE jE kE kE lE mE nE 8& 8& oE pE qE ",
":% rE ^) ^) S, sE tE uE vE wE xE yE zE AE BE CE DE EE FE GE tD HE 4y IE  D JE KE LE KE jl ME NE OE PE QE RE SE TE UE VE WE XE YE ZE ^f ]< |g ,| `E !y  F .F hA NC +F @F #F $F +F UD -x %F YD &F &F *F =F 39 :9 :9 -F ;F gi >F ,F 'F )F !F ~F {F wm ]F ^F /F (F _F :F <F [F }F |F 1F 2F 3F 4F 5F 6F 5F 7F 8F 9F 0F aF bF cF dF eF fF gF hF hF iF jF fE kF lF mF nF oF pF qF rF sF K' 8& T2 tF uF ",
"vF h' ^) ^) wF xF yF zF AF BF CF DF EF FF GF HF IF JF KF LF iC MF 4y NF OF PF ^o /o QF RF RC SF TF UF VF WF XF YF ZF `F  G .G +G @G j[ O_ Z( P_ #G ~y ]4 ml MC $G %G &G [y *G +F UD =G -G ;G >G ,G 'G )G !G !G ~G {G ]G gi ^G /G (G _G :G <G <G Ek [G }G |G 1G 2G 3G 4G 5G 6G 7G 8G 8G 8G 9G 0G aG bG cG dG eG fG gG hG iG jG kG lG ba mG nG oG pG qG rG sG tG uG vG wG xG o* D$ E$ 8& yG zG AG ",
"BG h' CG i5 X@ DG P@ EG FG GG HG IG JG KG LG MG NG OG PG QG RG SG TG UG VG WG XG YG ZG `G  H .H +H @H #H $H %H &H *H =H -H ;H >H ,H ir M: O: P_ 'H )H !H ~H {H ]H ^H /H (H [y VD _H E5 :H <H [H }H |H 1H 2H 2H !G 3H 4H 5H 6H 7H 8H 9H 0H aH bH Iq cH dH eH fH gH hH iH jH kH lH mH nH oH pH 0G bG qH rH sH tH uH vH wH xH yH zH AH BH CH DH EH FH GH HH IH JH KH &' +k j$ LH #, ~1 6, MH NH OH ",
"w: PH I' v& a* j5 QH RH SH TH UH VH WH XH YH ZH `H  I .I +I @I #I $I %I &I *I =I -I ;I >I ,I 'I )I !I ~I {I ]I ^I /I (I _I :I <I [I G5 }I $5 J< |I 1I z6 2I 3I 4I 5I 6I 7I 8I 9I UD =x 0I aI bI cI dI eI fI gI gI hI iI jI kI lI mI nI oI pI qI rI sI tI uI vI wI xI yI yI zI AI BI CI DI EI FI 7F sH GI HI II II JI KI LI MI NI da OI PI QI RI SI TI UI VI WI XI g* YI ], A% ,& U2 T2 ZI `I  J ",
".J +J a* a* C% C% @J RH #J $J %J &J *J =J -J ;J >J ,J 'J )J !J ~J {J ]J ^J /J (J _J :J <J [J }J }J |J 1J 2J 3J 4J 5J 6J _I :I <I 7J 8J 9J 0J aJ bJ >< <j `( 1} cJ dJ eJ fJ gJ hJ iJ jJ kJ lJ mJ nJ nJ oJ pJ qJ rJ sJ tJ uJ vJ wJ ys xJ yJ zJ AJ BJ CJ DJ EJ FJ ]D GJ HJ IJ JJ KJ LJ MJ NJ OJ PJ QJ RJ SJ TJ UJ VJ WJ XJ YJ ZJ NI `J  K .K +K `7 @K #K $K Pz %K &K *K =K )& g= ,& -K k{ ZI ;K >K ",
" ! -% ,K 'K h; )K @J RH !K +k /* ~K ;' %$ {K ]K ^K /K (K _K :K <K [K }K |K 1K 2K 3K 4K <J 5K 6K 7K 8K 9K 0K aK bK cK dK eK fK gK hK iK jK kK lK mK nK j[ M} j[ oK pK qK rK sK tK KC zB uK vK /z (} wK xK yK zK AK BK CK 9e DK hz Nt EK FK fy dy GK HK IK PA JK KK LK MK NK OK PK QK RK SK TK UK VK WK XK YK ZK ZK bC `K  L YJ .L +L @L #L $L $L %L &L *L =L -L ;L  ( <& >L '& ,L J~ k{ 'L )L 70 ",
"!L ~L ,K 'K h; h; {L @J 42 ]L ^L n* ~K /L (L ]K ^K /K _L :L <L ]J ~J ~J [L }L |L 1L 2L <J }J 3L 4L 5L 6L 7L 8L 9L 0L aL bL cL dL eL fL gL hL iL jL q6 j[ M} j[ kL pK lL mL sK nL &| oL KC JC pL O< qL rL sL tL uL pr vL wL hz hz xL yL zL AL BL CL DL EL FL GL HL IL MK NK OK JL RK KL LL ML uH NL NL OL PL QL bC bC `K  L +L .L .L RL SL TL UL VL WL XL D; E$ H$ YL Z- Z- ZL ,L J~ k{ ZI `I 70 ",
"`L  M a* a* 'K 'K .M +M QH {1 @M #M $M %M &M *M =M -M ;M >M ,M 'M )M !M ~M {M ]M ^M /M (M _M :M <M 5L [M }M |M 1M ud 2M 3M 4M 5M 6M 7M 8M 9M 0M aM bM cM dM S4 eM fM gM 3j hM iM jM kM lM mM nM oM pM qM rM AK sM tM tL 8e uM vM wJ wM xM yM zM AM ~v BM CM DM EM qh FM CI GM HM IM JM KM LM MM NM OM PM QM RM bC SM TM UM VM WM XM YM ZM `M  N .N +N @N T, #N `- $N Z- ZL %N ,L J~ k{ &N `I 70 ",
"*N PH a* a* a* =N -N ;N >N g* YI s& d% 7- yF c! ,N 'N )N g& !N ~N {N ]N ^N 4] /N (N Nm _N :N <N [N }N |N 1N 2N 3N 4N 5N 6N 7N 8N 9N 0N aN bN cN dN eN eN fN gN hN 83 c6 >q iN 0y bi jN kN 0A lN mN nN oN pN qN ge rN sN tN uN vN wN xN yN zN AN BN CN DN EN FN GN HN IN JN KN LN MN NN ON PN QN RN SN TN UN VN SM WN XN YN ZN `N  O .O +O @O #O $O %O &O B% K' G; $, $, *O ,& ,L J~ k{ =O `I -O ",
"R) PH C% C% sF ;O >O ,O 'O )O k| !O ~O {O ]O ^O /O (O _O :O <O [O }O }O |O 1O 2O 3O 4O 5O 6O 7O 8O 8O 9O 0O aO bO cO dO eO fO gO 8N hO iO jO kO lO mO nO oO yC pO r3 qO qO rO sO tO uM kN uO vO wO xO yO zO AO BO CO DO EO FO GO HO IO JO KO LO MO NO OO PO QO RO SO TO UO VO WO ED XO YO ZO `O  P .P +P @P #P bC $P %P &P *P =P -P r~ ;P *> >P ,P 'P QH )P ~1 G; G; G; ,& ,& ,L J~ k{ !P ~P {P ",
"]P +J C% C% (% |~ yc ^P ^P /P &3 (P *g _P :P <P [P }P |P 1P 2P 3P 4P 5P 6P 7P 2O 8P 9P 0P aP bP cP dP 9O eP fP Ok gP hP iP jP gO kP lP qz mP nP lO nO oP pP qP rP b6 x5 S_ rO 97 sP gf tP uP PD wO vP wP xP yP BO CO zP AP BP CP DP EP FP *v *v GP HP HP IP JP KP LP LP MP NP OP PP ED QP RP SP vc TP UP VP WP QL XP %P YP ZP `P -P  Q .Q {L +Q GG @Q #Q => E$ D$ i> G; ,& ,& ,L J~ k{ z~ $Q %Q ",
"&Q p) C% C% (% }; yc ^P ^P *Q =Q -Q ;Q >Q ,Q 'Q )Q !Q ~Q {Q ]Q ^Q /Q (Q _Q :Q <Q [Q }Q |Q 1Q 2Q 3Q 4Q 5Q 6Q 7Q 8Q 9Q 0Q aQ bQ cQ dQ eQ fQ gQ hQ iQ jQ kQ lQ mQ nQ 93 oQ pQ z5 qQ rQ eg sQ uO PD wO wO tQ wP wO uQ wO vQ wQ xQ yQ zQ AQ Zt BQ CQ DQ EQ FQ GQ HQ IQ JQ LP KQ LQ MQ NQ OQ PQ QQ RQ tc L7 XJ SQ WP QL QL %P TQ UQ `P VQ WQ XQ YQ ZQ `Q RH RH => F$ E$ i> i> U2 U2  R J~ k{ .R +R @R ",
"#R $R Q= %R 4; &R K@ *R =R -R m& k& j$ %; 3& ;R >R ,R 4' 'R )R !R (K ~R {R ]R ^R /R ^R (R _R :R <R [R }R |R 1R 2R 3R 4R 5R 6R 7R 8R 9R 0R aR bR }q cR dR eR fR gR hR iR jR kR cl lR 5p mR nR oR pR uq  p qR rR sR tR uR vR wR xR xR yR zR AR BR hP CR DR ~I ER FR GR HR IR JR KR LR MR NR OR PR QR RR SR TR UR VR WR XR YR ZR `R  S g! .S `Q +S @S ^L %- #S $S %S &S *S =S -S -S ;S >S ,S 'S )S ",
"!S ~S ~S {S ]S ^S /S (S _S :S <S [S [S }S |S 1S 2S 3S -f 4S 5S 6S 7S 8S 9S 0S aS aS bS cS dS eS fS gS hS iS jS kS lS mS nS oS pS qS rS sS tS uS vS wS xS yS zS AS BS CS DS uv S0 ir ES $5 d6 FS FS GS (f HS IS DP JS KS LS MS NS NS OS PS QS RS SS TS US VS WS XS YS ZS `S  T .T +T @T #T $T %T &T *T XN =T -T ;T >T ,T 'T 1' )T !T ~T {T ]T ^T /T W/ (T _T ~% ;  :T <T [T }T |T 1T 2T 3T 4T 5T ",
"6T 7T 7T 8T 9T 0T aT bT cT dT eT fT gT hT iT jT kT lT mT nT oT pT qT rT sT tT uT vT aS wT xT yT zT AT BT CT DT ET FT GT HT IT JT KT LT MT NT OT PT QT RT ST TT UT VT WT XT YT ZT jo ko i2 |h !i `T  U .U +U @U #U $U %U &U *U =U EJ -U ;U BM >U ,U 'U )U !U ~U {U ]U ^U /U (U _U :U <U [U }U |U 1U *T XN 2U 3U 4U 5U 6U 7U 8U 9U I8 0U aU bU cU dU eU fU gU hU iU jU kU lU mU nU oU pU qU rU rU ",
"nU sU tU uU vU wU xU yU zU AU BU CU CU DU EU FU GU HU IU JU KU LU MU NU OU PU QU RU SU TU UU VU WU XU YU ZU `U  V .V +V @V #V $V %V &V *V =V -V ;V >V ,V 'V )V !V ~V ~V {V ]V ^V sq ES <j /h /V (V _V Z4 :V <V [V }V $v |V fQ 1V 2V 3V ~v 4V 5V 6V 7V 8V !U 9V 0V aV bV cV dV eV fV gV hV Ba hV iV jV kV lV mV nV oV pV qV rV sV tV uV vV wV xV yV zV AV fU BV hU iU CV DV EV FV GV HV IV JV JV ",
"KV LV :, MV t_ NV OV PV QV RV SV R8 TV UV UV VV WV XV YV 9} ZV `V  W .W +W @W #W $W %W &W *W =W -W ;W >W ,W 'W )W !W ~W {W ]W ^W /W (W _W :W <W [W }W |W 1W 2W 3W 4W 5W 6W 7W 8W 9W 0W aW bW cW dW eW fW gW hW iW jW kW lW mW mW nW oW pW qW rW sW tW uW vW fu wW xW yW zW AW BW CW J7 DW EW FW GW HW IW JW KW LW MW NW OW PW QW RW SW TW UW VW x* s9 WW XW YW YW ZW L@ `W `W  X `W .X +X {  @X ",
"#X $X %X &X *X =X -X '. d#  @ ;X >X Hd ,X 'X )X !X a$ ,X ,X ~X {X {X ]X ^X /X (X _X :X <X [X }X |X 1X 2X 3X 4X %{ 5X 6X 7X 8X 9X 0X aX bX #0 cX dX eX fX gX hX iX jX kX lX mX nX oX pX qX rX sX tX uX AN vX wX &v xX yX zX AX BX CX DX EX FX GX HX tv IX JX KX LX MX Zf NX OX PX &T |U QX RX SX TX UX VX WX XX YX D$ D$ k* m. A+ ZX `X  Y .Y -# +Y @Y @Y #Y $Y %Y &Y *# *Y =Y -Y ;Y >Y ,Y 'Y )Y ",
"!Y ~Y {Y ]Y }+ ^Y 3+ Y+ Y+ j# Q+ /Y (Y _Y :Y <Y F) [Y :Y :Y l% }Y |Y 1Y 2Y 3Y 4Y 5Y W] 6Y 7Y 8Y +T 1X 9Y 0Y aY Yk bY cY dY b4 eY fY gY hY iY jY kY lY fX mY nY oY pY qY rY ot sY tY uY vY o8 wY xY yY zY AY BY KO CY DY EY FY GY HY IY JY KY LY MY NY OY PY QY RY SY Zf TY QR UY VY WY XY eF YY ZY `Y  Z .Z 'P }  d_ E; +Z @Z #Z $Z %Z &Z *Z =Z -Z ;Z ;Z >Z >Z ,Z 'Z wb )Z !Z )Z ~Z ja {Z ]Z ^Z ",
"/Z (Z _Z &. :Z <Z 3+ Y+ `+ y  -# [Z }Z a$ !X |Z 1Z !X !X 2Z 3Z 3Z E) 4Z 5Z 6Z 7Z 8Z 8Z 9Z 0Z Yf aZ Xl bZ cZ dZ &{ eZ fZ gZ hZ iZ jZ kZ lZ mZ nZ oZ pZ qZ rZ sZ tZ uZ vZ wZ xZ yZ zZ AZ BZ CZ DZ EZ FZ GZ KO HZ HZ IZ JZ KZ LZ MZ NZ OZ PZ QZ RZ QZ SZ TZ VF UZ VZ WZ XZ YZ TY ZZ `Z WY  ` .` +` @` #` $` %` &` *` =` d_ -` _6 n' ;` b0 >` ,` '` +Y ;Z ;Z ;Z >Z >Z )` !` ~` -Y ~Z ~Z ja {` 'Y ]` ",
"^` /` (` _` :` <` Y+ `+ [` Dc }` |` [Y F) 1Z 1Z 1` 2` 1Z 1Z 1Z 1Z 3` 4` 5` <0 6` 7` 8` 9` 0` a` a` b` SQ c` d` cS e` f` g` h` i` j` k` aX l` m` n` o` p` q` r` s` t` u` v` w` x` y` z` A` B` C` D` E` F` )w G` H` I` J` K` L` M` N` O` P` Q` R` S` T` U` V` gt W` X` Y` Z` ``   .. .3D + .@ .# .$ .% .& .* .= .- .- .; .j* > .o' , .' .) .,` ! .;Z ~ .{ .{ .] .;Z #Y !` ^ ./ .( ._ ._ .: .< .[ .",
"} .| .1 .2 .3 .^'  # 4 .5 .}! 6 .9& (' 7 .h' -% 8 .8 .8 .8 .<] <] 9 .0 .a .b .u% u% u% c .d .e .f .g .h .hV i .i .j .k .l .m .n .o .p .q .r .s .O6 t .u .v .w .x .y .z .A .B .C .D .E .F .G .H .I .J .K .L .M .N .O .4F P .Q .R .S .T .U .V .W .X .Y .Z .` . .....+..@..#..$..%..&..*..SL =..d: #/ -..o* ;..>..,.. ) ], }  j* }  3C 3, '..)..! .!..#Z H( (' 8& R; u; =8 9> ~..U# {..]..^../..(..",
"_..:..<..[..2, /- /- /- K+ z. Y@ ^) (' }..h' 8 .p5 p5 |..m> m> <] 8 .1.._] 2..<] <] <] 3..4..7C 5..6..-O )r 7..VP 8..9..0..a..b..c..d..e..f..g..@6 h..i..j..k..l..m..n..o..p..q..r..s..t..u..v..w..x..y..z..A..B..DN C..D..E..F..G..H..is I..J..K..L..M..N..'r XP QL bC O..P..Q..R..S..T..U..V..}  d_ Z- ;% A% h= I[ }  }  ; .T; }> W..ia '` X..Y..J! K' Z..`.. +..+.++.y: @+.#+.$+.%+.&+.q~ *+.",
"=+.-+.;+.]- g> >+.,+.'+.'+.,+.z. ^) (' 7 . M 8 ..; .; )+.<] <] 8 .8 .1..2..8& <] <] <] !+.~+.{+.]+.^+./+.)r 7..7..[s (+._+.:+.b..<+.[+.}+.|+.1+.2+.3+.4+.5+.6+.7+.8+.9+.0+.a+.b+.c+.d+.e+.f+.v..g+.h+.i+.j+.k+.l+.PO m+.E..n+.D..o+.p+.q+.r+.s+.t+.r5 M..N..Y` XP QL bC O..aC u+.v+.w+.Sz x+.V..(% (% `- '& g= I[ n> i* y+.l& T;  7 X..-Z z+.A+.B+.C+.8& :] ,& 9> S{ D+.=, E+.F+.%+.G+.H+.I+.]  ",
"J+.K+.8= L+.A, 8= M+.We N+.O+.P+.(' 1* w& 8 .8 ..; .; .; .; .; <] <] x& sF sF <] <] <] Q+.R+.S+.T+.U+.V+.XN W+.X+.Yj Y+.Z+.`+. @..@.+@.@@.#@.$@.%@.d..}a &@.*@.=@.-@.;@.>@.,@.'@.)@.!@.~@.{@.v..]@.^@./@.(@._@.:@.<@.[@.E..}@.|@.1@.2@.3@.4@.5@.6@.7@.8@.XZ XZ 9@.VJ <B xH 0@.a@.b@.b@.c@.d@.e@.d_ }  f@.; .g@.h@.i@.V= x- &[ Q# f% ] .j@.k@.'` Ye H) l@.m@.n@._, 3! o@.W, p@.q@.r@.s@.t@.u@.v@.",
"U2 Tm G$ E$ D$ a% f< W{ Sm +Z -^ J! 2..i% <] 8 ..; .; .; .; .; <] <] w@.x@.y@.<] <] 8 .z@.4) ,O A@.B@.C@.D@.E@.F@.G@.H@.I@.J@.K@.L@.M@.N@.O@.P@.Q@.R@.S@.T@.U@.V@.W@.X@.Y@.a4 Z@.`@. #..#.+#.@#.##.$#.%#.&#.*#.=#.-#.;#.>#.,#.'#.)#.!#.~#.{#.]#.^#./#.(#._#.:#.<#.[#.}#.|#.1#.2#.3#.4#.5#.W% 6#.q& d* l& l& [| 7#.7#.<% +$ 8#.>% 9#.7, l> I[ 0#.y- a#.#$ +* b#.9! %$ 4! F% %M c#.V* 7#.d#.e#.f#.",
"3C D$ D$ F; C$ g#.h#.{T i#.j#.;* Z..Z..j> |..8 .k#.l#.k#..; .; m#.n#.I) o#.x& x& 8 .9 .p#.q#.2Z 2Z 2Z r#.s#.t#.u#.v#.w#.x#.y#.y#.z#.A#.B#.C#.D#.E#.F#.G#.H#.I#.Zv J#.Qk K#.L#.M#.N#.O#.P#.Q#.;v R#.S#.T#.U#.V#.W#.X#.Y#.Z#.`#. $..$.+$.@$.#$.$$.%$.&$.*$.=$.-$.;$.>$.,$.'$.}t )$.p% !$.~$.{$.m= v% 8: w% w% ]$.^$./$.($._$.H/ :$.u$ A( <$.[$.}$.}$.|$.X) %$ %$ 1$.1$.1$./> ^$.2$.,L m> 3$.4$.5$.",
"E$ G$ D$ C$ _- =, 6$.7$.#O )O =[ U2 U2 ;^ p5 .; l#.8$.9$.0$.0$.a$.v& b$.c$.2..8 .8 . M rE 3` d$.d$.e$.f$.g$.h$.i$.j$.k$.Yg l$.z#.VJ m$.n$.o$.p$.q$.r$.s$.t$.u$.v$.w$.x$.y$.z$.A$.B$.B$.C$.D$.E$.R#.F$.G$.H$.I$.J$.K$.L$.M$.N$.O$.P$.Q$.R$.S$.T$.U$.V$.W$.X$.S+.Y$.Z$.`$.g . %..%.!$.@Q ;P +%.@%.#%.#%.Q# <% ]$.1] z( t! $%.Z* @& v$ %%.&%. * $& _, ,' *%.=%.d> $$ -%.x_ L^ 7#.2$.,L m> ;%.>%.J/ ",
"k* F$ E$ E; _- ,%.H8 '%.)%.!%.~%.7, m> |...; {%.8$.]%.^%.I; I; /%.CG 4, (%.2..8 .8 .+& h' 3` d$.d$.3` Q+._%.h$.:%.<%.[%.Yg  g z#.VJ }%.|%.|%.1%.2%.3%.4%.5%.6%.7%.8%.9%.0%.a%.b%.c%.d%.e%.f%.g%.h%.i%.j%.H$.W#.k%.l%.Y#.m%.n%.o%.p%.q%.r%.s%.S$.U$.t%.u%.v%.w%.x%.y%.z%.A%.yx B%.&> C%.'P (% g@.D%.^$.Q# <% ]$.1] z( E%.F%.F%.F%.F%.F%.G%.H%.R# $& _, 8! I%.>R x_ #$ L^ @$ #%.J%.W= ;% z( 4q K%.",
"B% B% b* %N f= P# ,- L%.K] q& m> M%.N%.O%.P%.Q%.]%.]%.R%.R%.R%.J; rE :6 +Z sF S%.m@.T%.U%.V%.W%.W%.X%.Y%.Z%.`%. &..&.+&.@&.#&.$&.%&.&&.*&.=&.-&.;&.>&.,&.IC '&.YG )&.!&.~&.{&.]&.^&./&.(&._&.:&.<&.[&.}&.|&.1&.2&.3&.4&.5&.6&.b^ 7&.8&.9&.0&.a&.b&.c&.d&.e&.f&.g&.h&.h+ i&.j&.k&.l&.ZQ @Q 3C 1Z m&.L4 P# t$ n&.o&.d~ p&.%%.q&.r&.s&.s&.t&.q&.a_ $& S# u&.4! v&.$$ _* ~& 4& p; w% 1] 7#.w&.b: x&.",
"B% B% 3C (% g= ,& y&.r# I~ #2 <] z&.z&.A&.B&.f' ]%.R%.C&.C&.C&.D&.,L g@. ) E&.n> 3..F&.F&.V2 V2 V2 h@.G&.H&.I&.J&.K&.'B L&.Y$.M&.N&.O&.P&.~~ Q&.R&.S&.T&.U&.V&.W&.X&.Y&.Z&.`&. *.<d .*.+*.@*.#*.$*.%*.&*.**.=*.-*.;*.>*.,*.q4 Gx '*.)*.!*.~*.{*.~*.]*.^*./*.(*._*.:*.v& l@.!$.4~ <*.[*.}*.i% |*.1*.2*.3*.8> 4*.5*.%$ $& %%.F%.s&.6*.6*.s&.t&.q&._, W, N] >& 7*.8*.~& 4& o; o; ($.1] #%.9*.b: x&.",
"I) +Z sF 0*.-K -K -K U2 I~ T2 H; k#.l#.a*.u, b*.R%.C&.C&.c*.h) |..d*.J[ e*.f*.g*.n> 3..F&.9: 1] 1] W* h*.i*.j*.k*.l*.m*.n*.o*.p*.q*.r*.s*.t*.u*.v*.w*.x*.y*.y*.z*.A*.B*.C*.D*.E*.H0 [c F*.G*.H*.I*.J*.K*.L*.M*.N*.O*.P*.Q*.R*.ip S*.T*.U*.V*.V*.W*.X*.Y*.Z*.`*. =..=.+=.@=.#=.R@ ]L $=.5| %=.T. &=.x  *=.L4 ==.3! u&.=8 -=.;=.6*.6*.>=.>=.6*.s&.c~ ,=.'=.)=.Z{ 8*.~& 4& s! !=.~=.{=.z( 9*.;[ ]=.",
"(%.y@.sF x@.U2 U2 m> m> ;^ p5 .; ^=.K; K; 9$.h) /=.c*.C&.3* J; (=.V2 J[ _=.:=.<=.3..F&.[=.E&.}=.#M %M |=.1=.2=.3=.4=.5=.6=.7=.8=.9=.0=.a=.a=.b=.c=.d=.e=.f=.f=.g=.h=.i=.j=.k=.E*.[c l=.m=.n=.H*.o=.p=.q=.r=.s=.t=.u=.v=.w=.tT x=.y=.z=.A=.W*.B=.C=.D=.E=.F=.G=.I8 h> H=.*g I=.J=.}6 f~ n= %=.K=.L=.[  M=.N=.D+.S{ O=.9> P=.;=.6*.6*.>=.>=.>=.>=.Q=.{- R=.>& S=.T=.U=.|] @$ @$ :$.{=.z( 9*.L[ V=.",
"C+.-` y@.-` <] <] <] <] H; k#.m#.-% (=.m> T2 H; )+.)+.a$.I; )+.W=.w- X=.Y=.W2 B~ Z=.`=. -..-.Q, +-.+-.@-.#-.$-.%-.&-.*-.=-.--.;-.]+.>-.,-.'-.)-.!-.~-.{-.]-.x*.fZ ^-./-.(-._-.:-.<-.l=.m=.n=.[-.J*.}-.|-.1-.2-.3-.4-.5-.6-.7-.tT y=.8-.9-.0-.a-.b-.c-.d-.e-.`*.I8 X- B. >Q f-.g-.h-.f~ O; o#.i-.j-.k-.l-.m-. ! ,' _, 2= P=.s&.4: >=.n-.o-.o-.n-.a_ p-.q-.2~ r-.s-.4! t-.5*.-%.u$ {=.z( u-.v-.w-.",
"(' -` y@.G~ 8 .8 .m&.N# x-.h) I[ +$ 0; P# P# W= 0#.y-.{=.{=.}] {=.Y=.z-.A-.B-.C-.D-.E-.F-.G-.H-.I-.uG J-.K-.4- D= C= L-.M-.N-.s' O-.P-.Q-.R-.S-.T-.U-.V-.W-.X-.Y-.Z-.`-. ;..;.+;.^b @;.#;.$;.%;.&;.*;.=;.-;.;;.>;.,;.';.);.!;.~;.$l T- {;.];.];.^;./;.(;._;.:;.b! {) <;.[;.K+ <& V' };.(& |;.2% p= q$ 1;.H%.Q=.Q=.p&.G%.r&.2;.z( 1] n-.3;.3;.4;.3;.q& `..I[ r#.5;.v! 6;.n~ c~ }] z( z( u-.7;.]6 ",
"^) G~ 8;.9;. M 0 .1` 1` 0;.h) a;.v% U; q& P# P# w- 1] z( {=.{=.b;.Y=.z! A-.c;.d;.e;.f;.g;.,B h;.i;.j;.^, (= k;.l;.l;.m;.n;.q&.o;.K^ p;.q;.r;.s;.t;.u;.v;.v;.w;.x;.y;.z;.A;.B;.C;.RB :d D;.E;.F;.G;.H;.I;.J;.K;.L;.M;.N;.O;.P;.Q;.R;.S;.T;.U;.U;.V;.W;.X;.Y;.Z;.`;. >.W- >+..>.]1 n* +>..= ,* (& _* _* Q=.%%.%%.v$ v$ s&.6*..i 1] w- 3;.@>.@>.A~ n@.U2 m> $/ #>.$>.a{ %>.&>.Z* *>.9: P3 =>.f$ ->.",
"j{ > .> .PH N# 1Z 3* 3* 2* h) g= V= 0#.w- w- 1] _=.Y=.X=.7@ b;.A-.;>.>>.,>.'>.)>.!>.~>.{>.]>.r& y% 4& ~& _* c~ 8! ^>.=) />.@& Q=.(>._>.:>.<>.[>.}>.|>.1>.w;.2>.3>.4>.5>.6>.7>.8>.9>.9e :d 0>.a>.b>.c>.d>.e>.ox By f>.g>.h>.i>.o*.];.j>.k>.l>.m>.n>.o>.p>.q>.r>.s>.Td t>.u>.8= v>.w>.x_ z& |& $M @$ @$ %%.%%.q&.x>.s&.y>.y>.z>.o-.3;.A>.A>.c_ I[ U2 m> <] <] f$.4) %>.B>.C>.J%.D>.@>.@>.y! E>.F>.",
"2` N# 2` 1Z G>.1Z 3* 4* J; ]%.H>..$ 9: w- 1] 1] _=.Y=.z-.I>.J>.K>.L>.M>..4 N>.O>.)>.P>.Q>.R>.V, s$ q$  = S>._, ,' =) 6! _, }$. ! o- T>.U>.V>.W>.X>.Y>.QL QL aZ Z>.`>. ,..,.+,.@,.#,.$,._d %,.&,.*,.=,.-,.;,.>,.>,.,,.g>.',.),.^;.!,.~,.{,.],.kE ^,./,.(,.q>.q>._,.r: u>.M+.*f z% x_ x_ -%.:,.a#.@$ !=.%%.v$ x>.s&.s&.y>.<,.[,.3;.9: A>.A>.*O -K <] 8 .8 .i% },.C@.|,.(0 1,.J%.1- 2,.3,.q# g_ 4,.",
"5,.6,.7,.8,.9,.2` rE /%.5,.^=. $ 0#.w- c} c} c} Q3 0,.A-.a,.b,.c,.d,.e,.f,.g,.h,.i,.j,.k,.0! V, 9#.A$ Y= ,- ,' *%.l,.!L m,.<# 3; n,.o,.p,.q,.r,.s,.t,.u,.dF v,.U-.w,.x,.y,.z,.A,.B,.C,.D,.E,.F,.G,.H,.I,.J,.K,.L,.M,.N,.O,.P,.Q,.R,.S,.T,.U,.V,.W,.X,.Y,.ZV Z,.`,. '..'.+'.@'.V= Z* K] s! 4& K] n&.A$ #'.$'.s&.s&.s&.%'.&'.n5 =[ =[ 6: M! *O U2 <] 8 .8 .1..*'.='.-'.;'.>'.,'.:% ''.3;.y! )'.!'.",
"I~ ~'.=Y {'.]'.H~  M 9 .<] m> c_ 0#.w- q# ^'.^'.;>.;>.;>.A-./'.('._'.:'.<'.['.}'.|'.|'.:{ 1'.&$ v$ v$ Q=..* =) 6! 2'.8, 3'.3'.4'.5'.6'.Td 7'.8'.9'.0'.a'.b'.c'.d'.e'.f'.ZK v,.g'.h'.i'.j'.k'.l'.m'.n'.o'.p'.q'.r'.s'.t'.u'.v'.w'.x'.y'.y+.n> *O +; z'.[%.A'.B'.C'.7,.(Y D'.G>.E'.a;.Q# y& o; F'.v$ v$ G'.H'.t&.s&.s&.4: 1] V= *' *' W= ;% g= U2 x&  M  M ~L I'.J'.K'.L'.M'.N'.`..o# 1] A! )'.O'.",
"P'.Q'.*% R'.S'.(6 8 .<] <] 7, c_ 9: w- q# ^'.^'.^'.^'.^'.;>.T'.U'.V'.W'.X'.Y'.^] &2 b= c= s& &$ v$ %%.H%.Z'.*%.*%.`'.8,  )..).+).@).+'.#).$).%).&).3#.*).=).-).;).b&.4D >).VY %T ,).w/ 3X ').)).!).~).{).]).^)./).()._).:).<).[).}).~K |).%N Tm +; 1).2).3).4).5).6).7).a& J; L4 `..*[ r& o; V, v$ v$ H'.H'.t&.E%.{=.z( 8).`' `' ], W= *2 g= U2 8 .rE rE /%.9).-'.0).a).M'.b)..$ 9: o# _=.a: c).",
"c{ d).e).f).g).h).<] <] i).j).z~ ''.k).k).3;.3;..4 .4  4 l).m).n).o).p).q).P3 r).s).s).a} >* V, t$ t).R# ,' W) +! u).>7 3'..).J@ v).K> w).x).-Q y).z).A).B).C).D).E).F).4D G).ZZ H).w/ I).J).K).L).M).N).O).P).P).Q).rG R).S).T).U).V).*' W).*O ~%.X).Y).Z)..+ `). !.6,.K= .!.+!.g*.1] v% o; y% s$ s$ z% z% z% z% Q# +$ P# W= W= a;.w- 9: :% U2 -% R%.C&.@!.#!.$!.%!.&!.*!.=!.V2 -!.;%.;!.>!.,!.",
"n@.f).'!.)!.!!.-% m> m> I~ j).z~ A~ ''.3;.s# 3$.~!.~!.{!.]!.^!./!.(!._!.4' *[ W= ;% ;% P# w% V, t$ o;.R# _, :!.W) <!.,[ [!.}!.|!.N= 1!.j| 31 2!.3!.4!.5!.6!.7!.8!.9!.F).4D G).ZZ 0!.a!.I).b!.+P K).c!.d!.e!.P)./).j$.f!.g!.h!.i!.j!.q$ k!.A>.A>.l!.m!.n!.o!.G  p!.q!.r!.D'.1` s!._=.e5 &$ o; y% s$ s$ z% z% Q# Q# Q# <% P# W= W= W= 9: 9: *2 ,L rE t!.t!.u!.v!.w!.x!.y!.z!.A!.B!.@>.A~ C!.D!.E!.",
"r&.r# F!.~%. R  R l> l> ~%.c{ c{ z~ z~ z~ G!.H!.I!.J!.Q2 K!.L!.-L M!.1'.N!.Q# +$ <% 0; z( {=.@& %%.H%.R# $& _, O!.P!.}; Q!.R!.S!.T!.U!.V!.#).W!.X!.d< Y!.Z!.X) `!..O  ~..~.+~.@~.dE #~.$~.cE %~.&~.*~.=~.-~.;~.>~.,~.'~.)~.5> ,= O; z% P# 4;.*>.''.!~.o!.~~. + O[ {~.]~.^~./~.(~._~.:~.L^ p= x% s$ V, r& v% w% P# P# P# ;% <~.<~.<~.9: 9: w- 9: [~.}~.|~.1~.2~.3~.4~.5~.6~.SV y! E%.x>.:~.7~.8~.",
"9~.%%.%%.v$ %'.0~.3..3..3..j).j).j).j).j).a~.b~.c~.lU d~.e~.f~.V).y& r& 7: Q# Q# Q# 8#.z( {=.v$ %%.H%.Q=.R# $& g~.h~.i~.:!.j~.k~.T) l~.m~.2, ]- O+.j* d_ y+.`' 0; n~.o~.p~.q~.(. r~.s~.t~.u~.v~.w~.x~.y~.z~.A~.B~.C~.D~.#/ 2& 2% E~.Q# <% F~.3;.;%.G~.+&. + H~.I~.J~.K~.L~.M~.N~.O~.P~./> 4& h% !6 +$ v% !& 0; P# P# W= h= M! Q~.Q~.9: 9: V2 n@.R~.S~.T~.U~.V~.)- W~.X~.Y~.Z~.`~.v$ %%.|$. {..{.",
"&%.H%.p&.%%.q&.3;.+{.+{.@{.j).M%.M%.'^ #{.${.%{.&{.&{.*{.={.,N .7 q$ z% Q# -{.8#.8#.8#.{=.}] v$ %%.H%.;{.;{.>{.<$.,{.'{._~.){.!{.~{.{{.%Z 2, ]{.3, D$ d_ A% ;% 4: ^{./{.({._{.:{.<{.[{.}{.|{.1{.2{.3{.4{.5{.6{.7{.8{.9{.yF Q; E~.!6 8#.0; F~.*>.;%.X] &@ 0{.a{.b{.c{.d{.e{.f{.g{.h{.h{.i{. = j{.P# P# ;* q& x- W= W= ;% g= o5 o5 o5 g*.k{.k{.@{.l{.m{.n{.o{.p{.q{.Z).r{.s{.t{.A! v$ v$ X) u{.v{.",
"&%.;{.Q=.Q=.p&.y-.n@.c{ @{.M%.N%.z&.T%.w{.+/ x{.y{.z{.A{.B{.C{._* F'.z% -{.y>.z( z( {=.{=.v$ v$ %%.D{.&%.&%.E{.F{.G{.:!.n;.H{.){.I{.J{.K{.L{.2, 3, f@.d_ )& )& ]$.M{.N{.O{.P{.Q{.}{.}{.[{.R{.v%.S{.T{.T{.U{.V{.W{.X{.Y{.Z{.h% Q# 8#.1] w- `{.`{.;%.X] K8  ].4{ !=..].+].@].#].$].%].&].U) #& W= W= W= W= W= W= W= ;% h= ,& _% 3..3..n> z~ z~ j).*].=].-].;].@^ >].,].'].)].!].z-.v$ v$ ~].7* v{.",
"2'.R# $& $&  * {=.z( 1] w- 1] y-.9: g*.{].]].^]./].(]._].0U <) a; s$ @& {=.s&.{=.{=.{=.{=.v$ %%.%%.D{.&%.:].F{.<].[].Q!.:~.}].j~.|].H~ M+.1].$Z S, c* )& )& ], B$ 2].3].q,.4].5].6].7].8].9].0].a].b].c].d].e].f].g].h].b} R; Q# ]$.w- w- `{.`{.;%.L@ i].j].k].&[ l].m].n].o].8$.p].q].r].s].c_ h= h= A% ;% ;% h= g= g= U2 l> F&.F&.3..c{ c{ M%.]%.t].u].v].w].x].,].,].y].W/ z].W) A].o,.B].C].",
"D].E].$& $& $& $& S{ ==.F].5'.G].H].I].J].K].z-.z>.3;.6| c} t&.v$ x>.L].{=.{=.s&.x>.F%.F%.F%.%%.H%.;{.R# $& _, =)  ! 3'._~.'6 N>.+! z- w$ ;- 6- f* )& )& ;% W= o& Y%.M].,L ~%.N].O].P].Q].R].S].T].U].V].W].]' &' X].h* u% Q# +$ &[ w- w- 3;.3;.;%.L@ Y].Z].`].$/  ^..^.+^.@^.#^.$^.%^.&^.*^.y&.,& ,L o5 L! D>.L! J~ l{ =^.[] -^.M%.;^.M%.N%.>^.,^.j).3..l!.'^.)^.!^.!^.~^.{^.]^.^^./^.(^._^.-M ",
":^.<^._, _, _, U8 [^.q-.}^.U$ |^.&>.1^.S% /> .R @>.@>.3;.n-.6*.E%.0: 2;.z( z( 6*.s&.t&.t&.F%.%%.p&.Q=.R# $& _, =) Z) 2^.[].F{._~.O~.Q# :- k& k& y+.; .y+.c_ ;% ;% ; .}  1- P'.!T 3^.e].4^.5^.6^.7^.8^.9^.0^.a^.s% e* Y' 4| w% <% &[ w- P3 3;.3;.b^.Y^ # .c^.d^.e^.f^.g^.h^.i^.j^.k^.l^.m^.n^.MH m> m> J~ J~ o^.T2 =^.p5 p^.0$.q^.r^.O%.l#.l#.K; s^.F&.t^.:% 0,.u^.v^.v^.~^.w^.x^.y^.y^.z^.)].A^.",
"B^./> C^.D^.E^.S# o@.0! F^.G^.H^.I^.s' J^.K^..R -!.-!.k).z>.6*.6*.6*.6*.2;.2;.4: 2;.E%.L].q&.+i A( s].R# $& E].+* L^.8  <$.M^.N^.O^..$ A% )& y+.d_ g= '& g= c_ g= ,& ,L P^.l{ Q^.R^.S^.T^.U^.V^.W^.X^.Y^.Z^.o& x- n& LH Y' ;* ;* `^.P3 d*.4;.4;. /../.%W +/.@/.#/.$/.%/.R  &/.*/.=/.-/.;/.Q!.|..<] ;^ =^.=^.p5 )+.)+.p^.p^.a$.9$.0$.0$.0$.l#.9$.>/.i)._% y&.,/.U] '/.)/.!/.~/.{/.x^.]/.^/.//.-M ",
"(/.W) _/._/.:/.</.<' Z# Q% [/.M& }/.+% |/.1/. 4 ^'.^'.;>.>=.6*.s&.s&.6*.6*.6*.z( {=.{=.}] q&.2/.2/.A( ;{.F/ 3/._, O!.4/.n;.5/.6/.7/.,L K' F$ F; 8/.%N ,L %N %N ,& -K U2 J~  R 9/.0/.a/.b/.c/.d/.e/.f/.g/.h/.=[ W= W= W= ], *' W= =[ V2 i/.A~ A~ j/.k/.l/.m/.n/.p* o/.p/.q/.r/.s/.4S t/.u/.S# x& <] <] oE p5 )+.^=.i) /=.v/./=./=./=./=.w/.b*.x/.y/.F!.~%.W=.z/.X; A/.B/.C/.D/.z4 E/.E/.F/.G/.H/.",
"I/./1 J/.K/.L/.M/.N/.O/.=* P/.$>.Q/.S=.N] R/.T'.S/.S/.T/.s&.s&.s&.s&.s&.s&.s&.{=.x>.F%.q&.G%.p# U/.+i 9~.V/.W/.X/.<. Y/.Z/.`/. (..(.|! +(.@(.k< #(.$(.We %(.&(.*(.;^ yG =(. R W).*' `' `' l& q& !& u% @%.H>.*' W= W= 6: x& -% (=.r# +{.-(.z~ z~ j/.;(.>(.,(.'(.X).)(.!(.~(.Q* {(.](.J[ z( o# L4 L4 ,& 2,.9: ~6 <^.^(._/./(.((._(.</.</.o- Q) :(.<(.[(.}(.a: -2 |(.-& 1(.A# Wh 2(.s4 3(.4(.5(.6(.",
"7(.8(.9(.0(.a(.b(.c(.d(.e(.f(.g(.h(.i(.$%.A$ j(.%%.%%.%%.G%.G%.F%.t&.s&.s&.s&.p# p# p# p# k(.p# p# r&.l(.m(.n(.o(.p(.%@ q(.r(.s(.t(.u(.|, v(.v(.w(.x(.x(.y(.Y..z(.1..<] <] j> Z..i> K' E$ F$ F$ G$ D$ U2 %N ;% W= W= A>.A(.9$.q^.O%.M%.j).B(.B(.'] C(.D(.E(.D(.F(.G(.H(.I(.1).J(.r^.j).K(.L(.;%.6| 1] {=.w>.M(.N(.O(.P(.Q(.Q(.Q(.Q(.Q(.P(.P(.R(.S(.T(.U(.V(.W(.X(.XV Y(.Z(.`(. _.._.+_.@_.5(.#_.",
"$_.8(.9(.%_.&_.*_.c(.=_.-_.;_.>_.8: ,_.v$ %%.G%.Q=.Q=.D{.&%.&%.G%.q&.r&.s&.s&.'_.'_.'_.'_.'_.)_.S/.!_.~_.{_.]_.]_.^_./_.(_.__.`/.u( :_.<_.[_.}_.|_.1_.2_.[_.3_.j% :' 9 .<] <] K' K' 8& B% B% B% j& 3C m> ,& c_ ;% ;% >^ I; ]%.8$.l#.z&.M%.4_.4_.5_.6_..X 7_.8_.9_.0_.a_.b_.c_.d_.p^.gD j).c{ @>.e_.V,  * 1$.f_.g_.h_.i_.j_.k_.l_.l_.l_.j_.m_.1; O/.n_.U(.V(.o_.p_.q_.b! <) yG r_.s_.t_.t!.>!.u_."};
