/* XPM */
static char * exit_xpm[] = {
"128 128 13789 3",
"   	c #BFB9A5",
".  	c #DED9BB",
"+  	c #E7E3BF",
"@  	c #E5DFC0",
"#  	c #91897E",
"$  	c #453D3C",
"%  	c #453E37",
"&  	c #B3ACA5",
"*  	c #D7D2C1",
"=  	c #DAD4C3",
"-  	c #68625F",
";  	c #3F3A37",
">  	c #8E8C81",
",  	c #D9D5C1",
"'  	c #D8D4BB",
")  	c #CFC9B2",
"!  	c #B3AC98",
"~  	c #847D71",
"{  	c #3B3430",
"]  	c #C7BFA7",
"^  	c #C7C0A1",
"/  	c #B8B091",
"(  	c #BEB697",
"_  	c #BDB495",
":  	c #C1B899",
"<  	c #C3B99C",
"[  	c #C2B89B",
"}  	c #C1B79B",
"|  	c #C1B79A",
"1  	c #BAAF93",
"2  	c #C0B69A",
"3  	c #C4BA9D",
"4  	c #C8BE9F",
"5  	c #C6BC9E",
"6  	c #BBB297",
"7  	c #271E23",
"8  	c #8A837B",
"9  	c #B3AC97",
"0  	c #A49C86",
"a  	c #A19883",
"b  	c #9B927D",
"c  	c #938A73",
"d  	c #A29981",
"e  	c #A19881",
"f  	c #A79D86",
"g  	c #A8A085",
"h  	c #B0A88E",
"i  	c #B2A98F",
"j  	c #B2A990",
"k  	c #B2A991",
"l  	c #B1A892",
"m  	c #B0A791",
"n  	c #A59C86",
"o  	c #7D756B",
"p  	c #2E292D",
"q  	c #B9B3A7",
"r  	c #BBB4A1",
"s  	c #A39C82",
"t  	c #A49A80",
"u  	c #A69C81",
"v  	c #AAA084",
"w  	c #ADA386",
"x  	c #AFA58B",
"y  	c #B4AB91",
"z  	c #B8AE94",
"A  	c #BDB398",
"B  	c #BCB298",
"C  	c #B7AE93",
"D  	c #AFAA8C",
"E  	c #A7A086",
"F  	c #504643",
"G  	c #7F776E",
"H  	c #B3AB92",
"I  	c #9D957D",
"J  	c #A39A82",
"K  	c #A39A83",
"L  	c #A19982",
"M  	c #9C937B",
"N  	c #968D75",
"O  	c #958C75",
"P  	c #9B927A",
"Q  	c #9E947C",
"R  	c #9E957C",
"S  	c #9A9279",
"T  	c #999078",
"U  	c #9B937C",
"V  	c #91877A",
"W  	c #181214",
"X  	c #BDB7AE",
"Y  	c #CFC8B2",
"Z  	c #B9B095",
"`  	c #B9AE91",
" . 	c #BFB496",
".. 	c #C3B899",
"+. 	c #CABF9F",
"@. 	c #D0C5A3",
"#. 	c #D4C9A6",
"$. 	c #D5CBAA",
"%. 	c #D4CAA9",
"&. 	c #D1C7A7",
"*. 	c #CDC2A3",
"=. 	c #CCC0A2",
"-. 	c #CABEA1",
";. 	c #C7BD9C",
">. 	c #A89D81",
",. 	c #746B62",
"'. 	c #221A1C",
"). 	c #ADA396",
"!. 	c #AB9E8A",
"~. 	c #C2B49D",
"{. 	c #CBBEA2",
"]. 	c #B8A995",
"^. 	c #A99B89",
"/. 	c #BBAE98",
"(. 	c #CCC0A8",
"_. 	c #CDC0A6",
":. 	c #CCC0A5",
"<. 	c #CDC0A7",
"[. 	c #CDC1A8",
"}. 	c #CBC0A7",
"|. 	c #C5BBA4",
"1. 	c #C1B8A4",
"2. 	c #BBB2A3",
"3. 	c #8B8679",
"4. 	c #A8A291",
"5. 	c #A39E88",
"6. 	c #868071",
"7. 	c #5E5651",
"8. 	c #B1AAA0",
"9. 	c #C7C2AD",
"0. 	c #CECBB4",
"a. 	c #CAC8B0",
"b. 	c #C9C6AF",
"c. 	c #B4B0A3",
"d. 	c #BFBBAB",
"e. 	c #7E796F",
"f. 	c #7E776D",
"g. 	c #888175",
"h. 	c #8B8375",
"i. 	c #978E7E",
"j. 	c #7A7067",
"k. 	c #3B3130",
"l. 	c #BEB49D",
"m. 	c #B5AC91",
"n. 	c #998F77",
"o. 	c #9D937B",
"p. 	c #9E957B",
"q. 	c #A1987D",
"r. 	c #A2967C",
"s. 	c #9F947A",
"t. 	c #9F9679",
"u. 	c #9E9579",
"v. 	c #9D9479",
"w. 	c #9D9478",
"x. 	c #9D9477",
"y. 	c #9C9376",
"z. 	c #999276",
"A. 	c #979078",
"B. 	c #2A2326",
"C. 	c #8A837A",
"D. 	c #AAA38C",
"E. 	c #99917A",
"F. 	c #99927B",
"G. 	c #958D77",
"H. 	c #948B75",
"I. 	c #9A927C",
"J. 	c #968F78",
"K. 	c #98917A",
"L. 	c #968E78",
"M. 	c #98907B",
"N. 	c #968E7A",
"O. 	c #958D7A",
"P. 	c #948C79",
"Q. 	c #776F67",
"R. 	c #302A2D",
"S. 	c #ABA69A",
"T. 	c #AAA491",
"U. 	c #958F77",
"V. 	c #978F79",
"W. 	c #9C947D",
"X. 	c #9C957B",
"Y. 	c #9D957E",
"Z. 	c #9C947E",
"`. 	c #9C947C",
" + 	c #9E9680",
".+ 	c #9E9781",
"++ 	c #9B9580",
"@+ 	c #9E9883",
"#+ 	c #99947F",
"$+ 	c #989380",
"%+ 	c #4C4441",
"&+ 	c #827A72",
"*+ 	c #B1A993",
"=+ 	c #99917E",
"-+ 	c #98907A",
";+ 	c #978F7B",
">+ 	c #998F79",
",+ 	c #998E79",
"'+ 	c #988E76",
")+ 	c #999077",
"!+ 	c #988F77",
"~+ 	c #9C927A",
"{+ 	c #9E947D",
"]+ 	c #9F957F",
"^+ 	c #9E957E",
"/+ 	c #A59E85",
"(+ 	c #8F877B",
"_+ 	c #181115",
":+ 	c #BEB8AE",
"<+ 	c #CCC5AF",
"[+ 	c #9D927A",
"}+ 	c #A2957C",
"|+ 	c #A1947B",
"1+ 	c #A1957A",
"2+ 	c #A5997D",
"3+ 	c #A89B80",
"4+ 	c #A79A7E",
"5+ 	c #A19579",
"6+ 	c #9F9377",
"7+ 	c #A1967C",
"8+ 	c #A0957B",
"9+ 	c #9E957A",
"0+ 	c #9D937A",
"a+ 	c #978B75",
"b+ 	c #756B66",
"c+ 	c #231E1F",
"d+ 	c #D4CCB7",
"e+ 	c #D5C8A8",
"f+ 	c #CCBE9E",
"g+ 	c #C7BB9B",
"h+ 	c #CBC0A1",
"i+ 	c #C4B99B",
"j+ 	c #C5B89A",
"k+ 	c #CEC29D",
"l+ 	c #D1C49F",
"m+ 	c #D4C8A3",
"n+ 	c #D6C9A7",
"o+ 	c #DCCFB1",
"p+ 	c #DCD1B2",
"q+ 	c #DBD0B2",
"r+ 	c #D4CBAE",
"s+ 	c #CDC5AE",
"t+ 	c #554F4D",
"u+ 	c #8B8279",
"v+ 	c #8C8476",
"w+ 	c #7F7769",
"x+ 	c #989081",
"y+ 	c #B6AF9D",
"z+ 	c #C0BAA5",
"A+ 	c #B8B39F",
"B+ 	c #B0AC97",
"C+ 	c #ACA792",
"D+ 	c #A6A18C",
"E+ 	c #B3AD99",
"F+ 	c #8C8478",
"G+ 	c #898073",
"H+ 	c #908979",
"I+ 	c #9B9382",
"J+ 	c #A39A89",
"K+ 	c #7D7469",
"L+ 	c #3D3433",
"M+ 	c #B7AD97",
"N+ 	c #ADA489",
"O+ 	c #A29880",
"P+ 	c #A39981",
"Q+ 	c #A2987E",
"R+ 	c #A3987E",
"S+ 	c #A2987D",
"T+ 	c #A2977C",
"U+ 	c #A3997E",
"V+ 	c #9D9379",
"W+ 	c #A0977C",
"X+ 	c #9D9579",
"Y+ 	c #9E967B",
"Z+ 	c #9A9379",
"`+ 	c #9D9580",
" @ 	c #2F272A",
".@ 	c #898279",
"+@ 	c #ACA48D",
"@@ 	c #9C957D",
"#@ 	c #9A927B",
"$@ 	c #988E78",
"%@ 	c #958B75",
"&@ 	c #978D77",
"*@ 	c #978F78",
"=@ 	c #99917B",
"-@ 	c #978F7A",
";@ 	c #968F7A",
">@ 	c #958E79",
",@ 	c #766D66",
"'@ 	c #342E2F",
")@ 	c #B4AEA2",
"!@ 	c #A9A38F",
"~@ 	c #99917C",
"{@ 	c #989179",
"]@ 	c #9A927D",
"^@ 	c #9D9680",
"/@ 	c #9C9680",
"(@ 	c #A09882",
"_@ 	c #9F9781",
":@ 	c #9B957F",
"<@ 	c #9E9983",
"[@ 	c #8B857A",
"}@ 	c #7A736F",
"|@ 	c #3E3636",
"1@ 	c #837B72",
"2@ 	c #AEA68F",
"3@ 	c #9A927E",
"4@ 	c #9D9480",
"5@ 	c #98907C",
"6@ 	c #998F7A",
"7@ 	c #988E79",
"8@ 	c #988F78",
"9@ 	c #988F79",
"0@ 	c #9A907B",
"a@ 	c #9B927C",
"b@ 	c #8B8277",
"c@ 	c #191417",
"d@ 	c #C7C0B6",
"e@ 	c #D3CBB5",
"f@ 	c #9E937B",
"g@ 	c #A69980",
"h@ 	c #A5987F",
"i@ 	c #A5997E",
"j@ 	c #A59A7E",
"k@ 	c #A6997D",
"l@ 	c #A7997E",
"m@ 	c #A4987C",
"n@ 	c #A2977B",
"o@ 	c #A5997F",
"p@ 	c #A4997F",
"q@ 	c #A59A80",
"r@ 	c #9E927C",
"s@ 	c #7C736B",
"t@ 	c #221C1E",
"u@ 	c #CCC4AF",
"v@ 	c #C6B999",
"w@ 	c #C1B493",
"x@ 	c #BAAF8F",
"y@ 	c #BCB192",
"z@ 	c #BBAE91",
"A@ 	c #BAAC91",
"B@ 	c #A29479",
"C@ 	c #998B70",
"D@ 	c #9A8C71",
"E@ 	c #A09174",
"F@ 	c #A5977A",
"G@ 	c #A0947B",
"H@ 	c #58524F",
"I@ 	c #AEA693",
"J@ 	c #BAB39B",
"K@ 	c #AFA790",
"L@ 	c #B9B199",
"M@ 	c #B7AF97",
"N@ 	c #ADA48D",
"O@ 	c #A99F87",
"P@ 	c #9B917A",
"Q@ 	c #958B76",
"R@ 	c #9A917C",
"S@ 	c #99907B",
"T@ 	c #948C77",
"U@ 	c #8F8773",
"V@ 	c #746B61",
"W@ 	c #3C3433",
"X@ 	c #B0A590",
"Y@ 	c #9F957B",
"Z@ 	c #9A9078",
"`@ 	c #A39A7E",
" # 	c #A4987F",
".# 	c #A2997E",
"+# 	c #A0977D",
"@# 	c #9D967A",
"## 	c #9A937A",
"$# 	c #9C947F",
"%# 	c #30292B",
"&# 	c #888179",
"*# 	c #ABA38D",
"=# 	c #9C937D",
"-# 	c #9B917C",
";# 	c #9B907B",
"># 	c #9C917C",
",# 	c #9A917B",
"'# 	c #9B927E",
")# 	c #99917D",
"!# 	c #95907B",
"~# 	c #958F7C",
"{# 	c #79716A",
"]# 	c #342E2E",
"^# 	c #B1AA9D",
"/# 	c #A8A28F",
"(# 	c #9B937E",
"_# 	c #988F7B",
":# 	c #9A937F",
"<# 	c #98927E",
"[# 	c #9A937C",
"}# 	c #97927A",
"|# 	c #9F9983",
"1# 	c #8D867F",
"2# 	c #665E63",
"3# 	c #3B3436",
"4# 	c #857D73",
"5# 	c #AAA38B",
"6# 	c #9D9582",
"7# 	c #9C9480",
"8# 	c #9B937F",
"9# 	c #9A907A",
"0# 	c #968C76",
"a# 	c #978C77",
"b# 	c #978D78",
"c# 	c #978E79",
"d# 	c #978C79",
"e# 	c #9B937D",
"f# 	c #8A8277",
"g# 	c #1B161A",
"h# 	c #C9C3B7",
"i# 	c #D2CBB4",
"j# 	c #9A8F77",
"k# 	c #A3977E",
"l# 	c #A4987E",
"m# 	c #A79B81",
"n# 	c #A4977C",
"o# 	c #A69A80",
"p# 	c #A49980",
"q# 	c #A69C84",
"r# 	c #A39780",
"s# 	c #80766E",
"t# 	c #221B1D",
"u# 	c #C0B8A2",
"v# 	c #A89D80",
"w# 	c #A09478",
"x# 	c #9A8E75",
"y# 	c #998D73",
"z# 	c #988A70",
"A# 	c #998B72",
"B# 	c #95876E",
"C# 	c #998A70",
"D# 	c #9B8C74",
"E# 	c #9A8F85",
"F# 	c #A39886",
"G# 	c #A1977F",
"H# 	c #A0977E",
"I# 	c #A1977E",
"J# 	c #A2987F",
"K# 	c #A3987F",
"L# 	c #9D937C",
"M# 	c #9C937C",
"N# 	c #999079",
"O# 	c #958D79",
"P# 	c #8D8571",
"Q# 	c #6D655A",
"R# 	c #3A3130",
"S# 	c #ACA28D",
"T# 	c #9B9279",
"U# 	c #948A75",
"V# 	c #908671",
"W# 	c #998F76",
"X# 	c #A99E84",
"Y# 	c #A69C82",
"Z# 	c #A1977D",
"`# 	c #9F967C",
" $ 	c #9C957C",
".$ 	c #9D967D",
"+$ 	c #9B937A",
"@$ 	c #999279",
"#$ 	c #978F7D",
"$$ 	c #302729",
"%$ 	c #5D5751",
"&$ 	c #81796B",
"*$ 	c #766B61",
"=$ 	c #8D836F",
"-$ 	c #9D947C",
";$ 	c #9D947E",
">$ 	c #9E967E",
",$ 	c #9C957E",
"'$ 	c #9B947D",
")$ 	c #9C957F",
"!$ 	c #9A947F",
"~$ 	c #302A2A",
"{$ 	c #8A8476",
"]$ 	c #898272",
"^$ 	c #8D8575",
"/$ 	c #877F6E",
"($ 	c #867E6C",
"_$ 	c #908775",
":$ 	c #99937D",
"<$ 	c #97917B",
"[$ 	c #98937D",
"}$ 	c #98927D",
"|$ 	c #948E7B",
"1$ 	c #7D796D",
"2$ 	c #6B6464",
"3$ 	c #423B40",
"4$ 	c #80776F",
"5$ 	c #A69E89",
"6$ 	c #A19886",
"7$ 	c #9D9581",
"8$ 	c #978E78",
"9$ 	c #958C77",
"0$ 	c #928A76",
"a$ 	c #8C8473",
"b$ 	c #867F6F",
"c$ 	c #8B8472",
"d$ 	c #1E181C",
"e$ 	c #C8C3B3",
"f$ 	c #D3CAB0",
"g$ 	c #8F846F",
"h$ 	c #A79B83",
"i$ 	c #A99D81",
"j$ 	c #A89C81",
"k$ 	c #A59A7D",
"l$ 	c #A4987B",
"m$ 	c #A69B7F",
"n$ 	c #A69B81",
"o$ 	c #A3977C",
"p$ 	c #A4997D",
"q$ 	c #A0947A",
"r$ 	c #9F937A",
"s$ 	c #A1957D",
"t$ 	c #80796F",
"u$ 	c #231B1D",
"v$ 	c #BBB29D",
"w$ 	c #9D9179",
"x$ 	c #9C8F78",
"y$ 	c #9B8F75",
"z$ 	c #9C8E75",
"A$ 	c #9B8D72",
"B$ 	c #988C72",
"C$ 	c #978B71",
"D$ 	c #978B72",
"E$ 	c #968B73",
"F$ 	c #978D75",
"G$ 	c #978E7C",
"H$ 	c #C9BDAA",
"I$ 	c #AFA58C",
"J$ 	c #9F967A",
"K$ 	c #9F957C",
"L$ 	c #9F947B",
"M$ 	c #9C937A",
"N$ 	c #9B917B",
"O$ 	c #99907A",
"P$ 	c #8C8471",
"Q$ 	c #6B6257",
"R$ 	c #39302F",
"S$ 	c #A99F8B",
"T$ 	c #9A9178",
"U$ 	c #968D77",
"V$ 	c #938973",
"W$ 	c #968C73",
"X$ 	c #A39A80",
"Y$ 	c #A1987E",
"Z$ 	c #A29980",
"`$ 	c #A19880",
" % 	c #938C74",
".% 	c #908971",
"+% 	c #918978",
"@% 	c #372E30",
"#% 	c #4A4644",
"$% 	c #78746B",
"%% 	c #878473",
"&% 	c #6B655A",
"*% 	c #787162",
"=% 	c #9B947E",
"-% 	c #9F987F",
";% 	c #9A937D",
">% 	c #99947D",
",% 	c #9A957F",
"'% 	c #9A9580",
")% 	c #918B79",
"!% 	c #776E66",
"~% 	c #322C2D",
"{% 	c #7A7368",
"]% 	c #726A62",
"^% 	c #766D64",
"/% 	c #746B60",
"(% 	c #958D7B",
"_% 	c #8B826F",
":% 	c #8B8371",
"<% 	c #8A8371",
"[% 	c #8C8774",
"}% 	c #8E8879",
"|% 	c #7C7669",
"1% 	c #70695D",
"2% 	c #8E8A7C",
"3% 	c #9B9689",
"4% 	c #58514F",
"5% 	c #797269",
"6% 	c #99917F",
"7% 	c #958C79",
"8% 	c #8D8573",
"9% 	c #847D6D",
"0% 	c #867F6E",
"a% 	c #80786E",
"b% 	c #221C1F",
"c% 	c #C4BEAF",
"d% 	c #D2CAB1",
"e% 	c #8A7E6B",
"f% 	c #A89D85",
"g% 	c #AA9E82",
"h% 	c #AB9F80",
"i% 	c #A89C7E",
"j% 	c #A89C80",
"k% 	c #A69B80",
"l% 	c #A3967B",
"m% 	c #9E9278",
"n% 	c #A1957C",
"o% 	c #A59981",
"p% 	c #878074",
"q% 	c #251E1F",
"r% 	c #BAAF9D",
"s% 	c #9E927B",
"t% 	c #9D9079",
"u% 	c #9A8E76",
"v% 	c #9D8F77",
"w% 	c #9A8D73",
"x% 	c #988D73",
"y% 	c #978C72",
"z% 	c #978D74",
"A% 	c #9A9079",
"B% 	c #928976",
"C% 	c #C8BCA8",
"D% 	c #B2A68E",
"E% 	c #9F957D",
"F% 	c #9D947A",
"G% 	c #9E937E",
"H% 	c #A0967F",
"I% 	c #9C927C",
"J% 	c #9A8F7A",
"K% 	c #988C77",
"L% 	c #86806E",
"M% 	c #675F53",
"N% 	c #3A3131",
"O% 	c #ABA18C",
"P% 	c #9E947B",
"Q% 	c #908771",
"R% 	c #847C67",
"S% 	c #958F7B",
"T% 	c #A29B89",
"U% 	c #9C9580",
"V% 	c #938D76",
"W% 	c #918C75",
"X% 	c #8C8671",
"Y% 	c #8F8776",
"Z% 	c #42393B",
"`% 	c #74716B",
" & 	c #979583",
".& 	c #989780",
"+& 	c #736F67",
"@& 	c #6A645D",
"#& 	c #80796C",
"$& 	c #928D79",
"%& 	c #9D9781",
"&& 	c #A09A84",
"*& 	c #A39B85",
"=& 	c #9D9883",
"-& 	c #9B947F",
";& 	c #96917C",
">& 	c #928C79",
",& 	c #898371",
"'& 	c #6B625A",
")& 	c #45403F",
"!& 	c #847D70",
"~& 	c #80776E",
"{& 	c #6E665D",
"]& 	c #696159",
"^& 	c #9A9384",
"/& 	c #857E6F",
"(& 	c #867E6E",
"_& 	c #857D6A",
":& 	c #847B69",
"<& 	c #807966",
"[& 	c #86806D",
"}& 	c #847F6F",
"|& 	c #706B61",
"1& 	c #6F6961",
"2& 	c #878574",
"3& 	c #807D6C",
"4& 	c #514B48",
"5& 	c #99927E",
"6& 	c #918977",
"7& 	c #8F8977",
"8& 	c #938B77",
"9& 	c #968F7B",
"0& 	c #948E79",
"a& 	c #86806F",
"b& 	c #7F7868",
"c& 	c #777166",
"d& 	c #241D21",
"e& 	c #5C5651",
"f& 	c #5E554B",
"g& 	c #6E6258",
"h& 	c #A49985",
"i& 	c #AA9E83",
"j& 	c #A79A7F",
"k& 	c #AA9C81",
"l& 	c #A99E82",
"m& 	c #A79B7F",
"n& 	c #A2947B",
"o& 	c #9E9279",
"p& 	c #9F9379",
"q& 	c #A3977F",
"r& 	c #898274",
"s& 	c #261F20",
"t& 	c #A79D8E",
"u& 	c #928873",
"v& 	c #9B8F78",
"w& 	c #9B8F77",
"x& 	c #9A8E74",
"y& 	c #9B8F76",
"z& 	c #9A9077",
"A& 	c #928874",
"B& 	c #857C69",
"C& 	c #8A8171",
"D& 	c #C7BCA6",
"E& 	c #B0A58D",
"F& 	c #A0967C",
"G& 	c #9F967E",
"H& 	c #A0967E",
"I& 	c #9D917A",
"J& 	c #A0957D",
"K& 	c #AAA088",
"L& 	c #988E77",
"M& 	c #948A76",
"N& 	c #87816E",
"O& 	c #6A6357",
"P& 	c #362E2D",
"Q& 	c #A29984",
"R& 	c #9B937B",
"S& 	c #968F77",
"T& 	c #968D78",
"U& 	c #8B8470",
"V& 	c #837E6B",
"W& 	c #7D796A",
"X& 	c #7A766E",
"Y& 	c #8D8778",
"Z& 	c #9B957C",
"`& 	c #9D977F",
" * 	c #9A947D",
".* 	c #8F8974",
"+* 	c #453C3D",
"@* 	c #75716A",
"#* 	c #949180",
"$* 	c #8B8775",
"%* 	c #868173",
"&* 	c #857F71",
"** 	c #777266",
"=* 	c #6D685D",
"-* 	c #6F6B5F",
";* 	c #918C79",
">* 	c #A59E8B",
",* 	c #9E9884",
"'* 	c #99937F",
")* 	c #98917D",
"!* 	c #8B8773",
"~* 	c #958F7A",
"{* 	c #6D645B",
"]* 	c #453F3E",
"^* 	c #867E6B",
"/* 	c #897F6E",
"(* 	c #8A816F",
"_* 	c #8E8575",
":* 	c #908676",
"<* 	c #8A806F",
"[* 	c #8C8470",
"}* 	c #8C8370",
"|* 	c #8D8673",
"1* 	c #87816D",
"2* 	c #827D6D",
"3* 	c #807C6C",
"4* 	c #848070",
"5* 	c #898574",
"6* 	c #817D6E",
"7* 	c #534D4A",
"8* 	c #777067",
"9* 	c #908977",
"0* 	c #928B78",
"a* 	c #908976",
"b* 	c #938B78",
"c* 	c #8E8571",
"d* 	c #918874",
"e* 	c #948C78",
"f* 	c #918A76",
"g* 	c #918C77",
"h* 	c #8E8775",
"i* 	c #888270",
"j* 	c #756F64",
"k* 	c #2B2226",
"l* 	c #645C52",
"m* 	c #746A5A",
"n* 	c #A6997F",
"o* 	c #A1957B",
"p* 	c #9F927A",
"q* 	c #A1947D",
"r* 	c #A0947C",
"s* 	c #A1957E",
"t* 	c #878072",
"u* 	c #272122",
"v* 	c #887E71",
"w* 	c #716559",
"x* 	c #9D937F",
"y* 	c #9C9177",
"z* 	c #9D9178",
"A* 	c #9D9279",
"B* 	c #978C75",
"C* 	c #90866F",
"D* 	c #ABA28A",
"E* 	c #C6BBA5",
"F* 	c #ADA48A",
"G* 	c #998D75",
"H* 	c #A0967D",
"I* 	c #908874",
"J* 	c #8C8571",
"K* 	c #86806B",
"L* 	c #6E675B",
"M* 	c #48413F",
"N* 	c #ADA591",
"O* 	c #908B76",
"P* 	c #88836E",
"Q* 	c #85816C",
"R* 	c #8A8671",
"S* 	c #8A8473",
"T* 	c #817D72",
"U* 	c #837E70",
"V* 	c #928C78",
"W* 	c #A19B87",
"X* 	c #A19A84",
"Y* 	c #A8A089",
"Z* 	c #A29C85",
"`* 	c #ACA591",
" = 	c #564E4D",
".= 	c #746F69",
"+= 	c #8E8878",
"@= 	c #8F8878",
"#= 	c #8A8373",
"$= 	c #817C6C",
"%= 	c #817B6C",
"&= 	c #756F62",
"*= 	c #635E50",
"== 	c #6C6758",
"-= 	c #847D6F",
";= 	c #8C8673",
">= 	c #8D8873",
",= 	c #898470",
"'= 	c #8E8A77",
")= 	c #9B9984",
"!= 	c #97917D",
"~= 	c #6B6359",
"{= 	c #46403F",
"]= 	c #81786B",
"^= 	c #827A6D",
"/= 	c #908779",
"(= 	c #8B8476",
"_= 	c #8C8578",
":= 	c #8A8375",
"<= 	c #888171",
"[= 	c #888172",
"}= 	c #888273",
"|= 	c #878173",
"1= 	c #878374",
"2= 	c #868174",
"3= 	c #847F73",
"4= 	c #848174",
"5= 	c #838073",
"6= 	c #858275",
"7= 	c #504B49",
"8= 	c #99937E",
"9= 	c #99907C",
"0= 	c #968F7C",
"a= 	c #8A8471",
"b= 	c #8F8775",
"c= 	c #958C78",
"d= 	c #98917C",
"e= 	c #948E7A",
"f= 	c #8E8875",
"g= 	c #7B7469",
"h= 	c #2A2024",
"i= 	c #8C8472",
"j= 	c #A59A82",
"k= 	c #A5987E",
"l= 	c #A3957B",
"m= 	c #9C8F76",
"n= 	c #9C9078",
"o= 	c #9C9079",
"p= 	c #787165",
"q= 	c #363132",
"r= 	c #90877B",
"s= 	c #7C7264",
"t= 	c #8B806F",
"u= 	c #998E78",
"v= 	c #988C73",
"w= 	c #9B9076",
"x= 	c #9E927A",
"y= 	c #8F836C",
"z= 	c #8D836B",
"A= 	c #B5AB91",
"B= 	c #B3A98F",
"C= 	c #C5BAA4",
"D= 	c #ACA38A",
"E= 	c #928974",
"F= 	c #8F8774",
"G= 	c #8E8673",
"H= 	c #847C6A",
"I= 	c #6F665B",
"J= 	c #504948",
"K= 	c #AEA692",
"L= 	c #968E79",
"M= 	c #88826F",
"N= 	c #8B8673",
"O= 	c #8D8875",
"P= 	c #8F8B78",
"Q= 	c #8D8C76",
"R= 	c #908B7A",
"S= 	c #9E9885",
"T= 	c #A6A08A",
"U= 	c #A19C84",
"V= 	c #AEA893",
"W= 	c #544D4D",
"X= 	c #847E76",
"Y= 	c #999382",
"Z= 	c #958F7E",
"`= 	c #928E7D",
" - 	c #877E6F",
".- 	c #898373",
"+- 	c #7F786B",
"@- 	c #635D54",
"#- 	c #676056",
"$- 	c #716A5D",
"%- 	c #837E6F",
"&- 	c #898576",
"*- 	c #8E8A7B",
"=- 	c #8A8678",
"-- 	c #6D695F",
";- 	c #36312F",
">- 	c #1E181E",
",- 	c #3A3334",
"'- 	c #3E3738",
")- 	c #3F3A39",
"!- 	c #3B3735",
"~- 	c #3B3635",
"{- 	c #373232",
"]- 	c #322E2F",
"^- 	c #302B2B",
"/- 	c #2C2829",
"(- 	c #2B2829",
"_- 	c #2A2627",
":- 	c #2B2728",
"<- 	c #2B2929",
"[- 	c #252223",
"}- 	c #191418",
"|- 	c #1A131A",
"1- 	c #1A1317",
"2- 	c #5B544E",
"3- 	c #827C6A",
"4- 	c #8B8373",
"5- 	c #8A826F",
"6- 	c #888069",
"7- 	c #8F8772",
"8- 	c #8E8672",
"9- 	c #938D78",
"0- 	c #938D79",
"a- 	c #928C7A",
"b- 	c #857E73",
"c- 	c #281F22",
"d- 	c #968C78",
"e- 	c #A3977D",
"f- 	c #968A70",
"g- 	c #998C77",
"h- 	c #9B8E79",
"i- 	c #A69A86",
"j- 	c #8A8478",
"k- 	c #524F4C",
"l- 	c #CFC8B9",
"m- 	c #A29989",
"n- 	c #7C7364",
"o- 	c #7E7566",
"p- 	c #8B826D",
"q- 	c #8F856D",
"r- 	c #8F856E",
"s- 	c #8A8068",
"t- 	c #918770",
"u- 	c #948A72",
"v- 	c #837961",
"w- 	c #A69C86",
"x- 	c #A89F86",
"y- 	c #BCB19A",
"z- 	c #A59B82",
"A- 	c #8B8169",
"B- 	c #958C74",
"C- 	c #9A9179",
"D- 	c #918771",
"E- 	c #928973",
"F- 	c #8B836F",
"G- 	c #7F7669",
"H- 	c #524B49",
"I- 	c #ABA38F",
"J- 	c #928A75",
"K- 	c #938D77",
"L- 	c #938E77",
"M- 	c #938E78",
"N- 	c #918D79",
"O- 	c #8F8D78",
"P- 	c #9C9880",
"Q- 	c #A39C85",
"R- 	c #847E6D",
"S- 	c #7C7566",
"T- 	c #96907D",
"U- 	c #9C9682",
"V- 	c #453D3D",
"W- 	c #878177",
"X- 	c #968F7D",
"Y- 	c #908A7A",
"Z- 	c #908878",
"`- 	c #8C8374",
" ; 	c #8E8674",
".; 	c #8E8573",
"+; 	c #7B7669",
"@; 	c #6B685E",
"#; 	c #6A665E",
"$; 	c #6E6961",
"%; 	c #6C675F",
"&; 	c #5B5554",
"*; 	c #161016",
"=; 	c #0D0612",
"-; 	c #110817",
";; 	c #130A19",
">; 	c #120B19",
",; 	c #120A19",
"'; 	c #130A18",
"); 	c #120A17",
"!; 	c #110A16",
"~; 	c #140B17",
"{; 	c #140D19",
"]; 	c #140E19",
"^; 	c #130D19",
"/; 	c #140D1A",
"(; 	c #120C17",
"_; 	c #130A15",
":; 	c #1D141F",
"<; 	c #1B131B",
"[; 	c #4E4744",
"}; 	c #6A6256",
"|; 	c #7C7463",
"1; 	c #89816F",
"2; 	c #8D8473",
"3; 	c #8B8372",
"4; 	c #8A8172",
"5; 	c #89806E",
"6; 	c #8C846E",
"7; 	c #8F8771",
"8; 	c #918975",
"9; 	c #948D7A",
"0; 	c #8F8677",
"a; 	c #8B8474",
"b; 	c #877F76",
"c; 	c #251D21",
"d; 	c #9E9580",
"e; 	c #9C9377",
"f; 	c #8F836B",
"g; 	c #938770",
"h; 	c #9F937C",
"i; 	c #998D77",
"j; 	c #9B9179",
"k; 	c #948A73",
"l; 	c #99907F",
"m; 	c #79746D",
"n; 	c #4C4A47",
"o; 	c #C5C0AF",
"p; 	c #A09885",
"q; 	c #847B6A",
"r; 	c #8A816D",
"s; 	c #8E846D",
"t; 	c #7E7361",
"u; 	c #746959",
"v; 	c #776D5C",
"w; 	c #736857",
"x; 	c #867B68",
"y; 	c #9E9480",
"z; 	c #988D79",
"A; 	c #948A78",
"B; 	c #B7AC94",
"C; 	c #908670",
"D; 	c #978D76",
"E; 	c #928872",
"F; 	c #8C826C",
"G; 	c #8D8570",
"H; 	c #7C7367",
"I; 	c #A6A08E",
"J; 	c #96907C",
"K; 	c #98917B",
"L; 	c #98937C",
"M; 	c #9C967F",
"N; 	c #9F9A83",
"O; 	c #96907B",
"P; 	c #97937E",
"Q; 	c #9B957D",
"R; 	c #9F977E",
"S; 	c #857F6D",
"T; 	c #3F3736",
"U; 	c #848073",
"V; 	c #95907F",
"W; 	c #8F8673",
"X; 	c #8C826E",
"Y; 	c #8B816E",
"Z; 	c #887D6C",
"`; 	c #908672",
" > 	c #867C69",
".> 	c #736C5F",
"+> 	c #6C685F",
"@> 	c #6B665E",
"#> 	c #6A655E",
"$> 	c #6C6761",
"%> 	c #69665D",
"&> 	c #605B5A",
"*> 	c #201C20",
"=> 	c #625F5F",
"-> 	c #928F8E",
";> 	c #9A9896",
">> 	c #A5A29F",
",> 	c #B0AEA9",
"'> 	c #B8B6B1",
")> 	c #BAB8B3",
"!> 	c #BAB8B4",
"~> 	c #BDBBB7",
"{> 	c #BCBBB7",
"]> 	c #B8B9B3",
"^> 	c #B3B5AF",
"/> 	c #B1B1AC",
"(> 	c #AFADA9",
"_> 	c #AFADA7",
":> 	c #A09B95",
"<> 	c #615753",
"[> 	c #1A101B",
"}> 	c #19101A",
"|> 	c #514B46",
"1> 	c #726B5E",
"2> 	c #797263",
"3> 	c #847C6D",
"4> 	c #878171",
"5> 	c #877F72",
"6> 	c #857C6C",
"7> 	c #887E69",
"8> 	c #8C826D",
"9> 	c #8A7F6B",
"0> 	c #8B816D",
"a> 	c #8C8372",
"b> 	c #8D8477",
"c> 	c #241C21",
"d> 	c #9A9075",
"e> 	c #9B9079",
"f> 	c #8E856E",
"g> 	c #8E826C",
"h> 	c #968A73",
"i> 	c #998F78",
"j> 	c #9B917D",
"k> 	c #79756B",
"l> 	c #676563",
"m> 	c #413D3B",
"n> 	c #B7AFA0",
"o> 	c #9C9481",
"p> 	c #918673",
"q> 	c #8E8471",
"r> 	c #7C7160",
"s> 	c #736959",
"t> 	c #6F6757",
"u> 	c #7B7162",
"v> 	c #958A78",
"w> 	c #998F7C",
"x> 	c #A9A28C",
"y> 	c #938C78",
"z> 	c #8E846F",
"A> 	c #9E947E",
"B> 	c #A49B81",
"C> 	c #968C75",
"D> 	c #867C65",
"E> 	c #897F69",
"F> 	c #918870",
"G> 	c #797064",
"H> 	c #362F32",
"I> 	c #605A58",
"J> 	c #9C9780",
"K> 	c #9E9982",
"L> 	c #9A9480",
"M> 	c #8E8772",
"N> 	c #918B76",
"O> 	c #868171",
"P> 	c #736D66",
"Q> 	c #3B3435",
"R> 	c #7E7A6D",
"S> 	c #867A67",
"T> 	c #8A7D67",
"U> 	c #897A67",
"V> 	c #807566",
"W> 	c #857A6B",
"X> 	c #867C6D",
"Y> 	c #5E554E",
"Z> 	c #38332F",
"`> 	c #393633",
" , 	c #3C3835",
"., 	c #3C3935",
"+, 	c #3D3936",
"@, 	c #35322F",
"#, 	c #242120",
"$, 	c #0A0508",
"%, 	c #ADA8A1",
"&, 	c #EFECE5",
"*, 	c #F5F4EB",
"=, 	c #F7F6EC",
"-, 	c #F8F9ED",
";, 	c #F9FAEF",
">, 	c #F8F9F0",
",, 	c #F8F9F1",
"', 	c #F7FAF2",
"), 	c #F7FAF3",
"!, 	c #F6F9F3",
"~, 	c #F9FBF3",
"{, 	c #FBFAF0",
"], 	c #EDE9DE",
"^, 	c #9A8F7C",
"/, 	c #0B050E",
"(, 	c #0D0511",
"_, 	c #241F22",
":, 	c #3A3535",
"<, 	c #413B39",
"[, 	c #423C39",
"}, 	c #3D3836",
"|, 	c #3C3636",
"1, 	c #463F3C",
"2, 	c #7E7565",
"3, 	c #887F6C",
"4, 	c #887E6B",
"5, 	c #8B8170",
"6, 	c #8A8271",
"7, 	c #655C59",
"8, 	c #21181F",
"9, 	c #928B75",
"0, 	c #958B70",
"a, 	c #938871",
"b, 	c #867968",
"c, 	c #786B5E",
"d, 	c #766A5C",
"e, 	c #837966",
"f, 	c #988D76",
"g, 	c #9C9178",
"h, 	c #998E76",
"i, 	c #7A766F",
"j, 	c #656263",
"k, 	c #403C39",
"l, 	c #B9B1A2",
"m, 	c #A19885",
"n, 	c #968C79",
"o, 	c #938975",
"p, 	c #8F8570",
"q, 	c #8C816D",
"r, 	c #948976",
"s, 	c #9B907D",
"t, 	c #9C937F",
"u, 	c #938B76",
"v, 	c #77756B",
"w, 	c #645E56",
"x, 	c #938974",
"y, 	c #9F957E",
"z, 	c #8D836D",
"A, 	c #8E846C",
"B, 	c #8F8672",
"C, 	c #756C61",
"D, 	c #342E32",
"E, 	c #615C5C",
"F, 	c #58534E",
"G, 	c #9E9882",
"H, 	c #96917B",
"I, 	c #948F7A",
"J, 	c #8F8A77",
"K, 	c #8F8B75",
"L, 	c #817D6B",
"M, 	c #605B54",
"N, 	c #655F5A",
"O, 	c #393235",
"P, 	c #767266",
"Q, 	c #76715F",
"R, 	c #776D5E",
"S, 	c #817767",
"T, 	c #020002",
"U, 	c #040005",
"V, 	c #040108",
"W, 	c #09040F",
"X, 	c #090410",
"Y, 	c #0A0311",
"Z, 	c #0A0312",
"`, 	c #0A0211",
" ' 	c #08020F",
".' 	c #07020C",
"+' 	c #06010B",
"@' 	c #05010B",
"#' 	c #070208",
"$' 	c #958E89",
"%' 	c #F2EBEA",
"&' 	c #F1EDE3",
"*' 	c #DED9C0",
"=' 	c #E5E0C6",
"-' 	c #E9E3C9",
";' 	c #EBE5CB",
">' 	c #ECE6CC",
",' 	c #EBE6CD",
"'' 	c #E7E4CC",
")' 	c #EAE7CF",
"!' 	c #EBE7D1",
"~' 	c #E7E3CB",
"{' 	c #E3DFC7",
"]' 	c #F5F2E2",
"^' 	c #E5E1D2",
"/' 	c #8E7F70",
"(' 	c #09030D",
"_' 	c #0A0310",
":' 	c #0B0411",
"<' 	c #0C0513",
"[' 	c #0C0412",
"}' 	c #0B0312",
"|' 	c #0C0411",
"1' 	c #0C0410",
"2' 	c #0E060F",
"3' 	c #0D050B",
"4' 	c #120910",
"5' 	c #1C1317",
"6' 	c #453D36",
"7' 	c #8D8271",
"8' 	c #877E70",
"9' 	c #7F786E",
"0' 	c #5F5856",
"a' 	c #1C121B",
"b' 	c #766F62",
"c' 	c #817764",
"d' 	c #958B73",
"e' 	c #817664",
"f' 	c #827868",
"g' 	c #887E6C",
"h' 	c #8F856F",
"i' 	c #90846F",
"j' 	c #968975",
"k' 	c #989079",
"l' 	c #958B77",
"m' 	c #736F69",
"n' 	c #5F5D5F",
"o' 	c #3F3C38",
"p' 	c #B8B0A0",
"q' 	c #A29885",
"r' 	c #988D7A",
"s' 	c #948A77",
"t' 	c #918773",
"u' 	c #8D806E",
"v' 	c #8F826F",
"w' 	c #948772",
"x' 	c #968976",
"y' 	c #62605C",
"z' 	c #625D54",
"A' 	c #877D66",
"B' 	c #857B65",
"C' 	c #8C826A",
"D' 	c #908674",
"E' 	c #71675F",
"F' 	c #30292D",
"G' 	c #524B4E",
"H' 	c #595350",
"I' 	c #8E897A",
"J' 	c #7B7567",
"K' 	c #746C62",
"L' 	c #6D655C",
"M' 	c #676059",
"N' 	c #645E58",
"O' 	c #56514E",
"P' 	c #56504C",
"Q' 	c #5B554F",
"R' 	c #605C53",
"S' 	c #514D49",
"T' 	c #3F3A3E",
"U' 	c #393437",
"V' 	c #2A2329",
"W' 	c #4B4745",
"X' 	c #373432",
"Y' 	c #3D3737",
"Z' 	c #4A4543",
"`' 	c #4F4A4B",
" ) 	c #06020A",
".) 	c #0B040D",
"+) 	c #524E52",
"@) 	c #656266",
"#) 	c #6B6868",
"$) 	c #6E6C68",
"%) 	c #6F6D69",
"&) 	c #706E69",
"*) 	c #706E6A",
"=) 	c #716F6A",
"-) 	c #63615F",
";) 	c #180F1A",
">) 	c #07030A",
",) 	c #89817E",
"') 	c #F3EBEA",
")) 	c #EEEADC",
"!) 	c #CFC3A4",
"~) 	c #DBCEAE",
"{) 	c #DFD3B0",
"]) 	c #DFD4B1",
"^) 	c #E4D9B8",
"/) 	c #E2D8B8",
"() 	c #D7CCAE",
"_) 	c #D8CEB2",
":) 	c #DAD1B5",
"<) 	c #DAD1B4",
"[) 	c #F0ECD8",
"}) 	c #E2DCCB",
"|) 	c #857569",
"1) 	c #0A030D",
"2) 	c #0A040F",
"3) 	c #0F060E",
"4) 	c #211B1E",
"5) 	c #3C3639",
"6) 	c #4E4849",
"7) 	c #565351",
"8) 	c #5E5B5A",
"9) 	c #666261",
"0) 	c #6B6767",
"a) 	c #6E6A6A",
"b) 	c #716C6D",
"c) 	c #433E41",
"d) 	c #353030",
"e) 	c #534E49",
"f) 	c #4C4741",
"g) 	c #4A4541",
"h) 	c #4E4A48",
"i) 	c #3C363C",
"j) 	c #1B121F",
"k) 	c #2E2532",
"l) 	c #4A4146",
"m) 	c #5E5552",
"n) 	c #5F5652",
"o) 	c #655C55",
"p) 	c #756B5F",
"q) 	c #797062",
"r) 	c #7A6F62",
"s) 	c #7F7367",
"t) 	c #807468",
"u) 	c #82766A",
"v) 	c #857A6C",
"w) 	c #877B70",
"x) 	c #7F756B",
"y) 	c #756B65",
"z) 	c #6F6763",
"A) 	c #646166",
"B) 	c #515054",
"C) 	c #403D38",
"D) 	c #B6AF9A",
"E) 	c #A09781",
"F) 	c #988D78",
"G) 	c #948873",
"H) 	c #928671",
"I) 	c #938772",
"J) 	c #938672",
"K) 	c #928571",
"L) 	c #938777",
"M) 	c #8F8676",
"N) 	c #8B8370",
"O) 	c #807768",
"P) 	c #514F4A",
"Q) 	c #5D584F",
"R) 	c #8F856C",
"S) 	c #8A8067",
"T) 	c #867C64",
"U) 	c #8B8269",
"V) 	c #8E846E",
"W) 	c #88816B",
"X) 	c #A39E87",
"Y) 	c #ABA68D",
"Z) 	c #6E6760",
"`) 	c #322B2F",
" ! 	c #4E474A",
".! 	c #5A5551",
"+! 	c #7E796D",
"@! 	c #817C6F",
"#! 	c #837C6F",
"$! 	c #8C8576",
"%! 	c #918B7A",
"&! 	c #928D7B",
"*! 	c #989484",
"=! 	c #969383",
"-! 	c #8E8C7D",
";! 	c #8E8B7B",
">! 	c #8D8979",
",! 	c #8D8B7B",
"'! 	c #737068",
")! 	c #4D4849",
"!! 	c #312C31",
"~! 	c #251F26",
"{! 	c #1F1A20",
"]! 	c #0E0912",
"^! 	c #0B0510",
"/! 	c #0B0610",
"(! 	c #0C060F",
"_! 	c #6F6C6B",
":! 	c #C8C5B6",
"<! 	c #F2EDE8",
"[! 	c #F4F3F5",
"}! 	c #F5F6F4",
"|! 	c #F8F9F4",
"1! 	c #F9FAF4",
"2! 	c #FAFBF2",
"3! 	c #DED9CD",
"4! 	c #2E1E23",
"5! 	c #0B060E",
"6! 	c #706865",
"7! 	c #F2E9E3",
"8! 	c #F0EBD7",
"9! 	c #D6C9AB",
"0! 	c #DCCFB0",
"a! 	c #DCCFAF",
"b! 	c #E0D3B3",
"c! 	c #E0D5B7",
"d! 	c #E1D6B7",
"e! 	c #DDD2B2",
"f! 	c #DAD1B2",
"g! 	c #D8CFB1",
"h! 	c #D9D0B3",
"i! 	c #D4CBAF",
"j! 	c #EEE9D5",
"k! 	c #E1DACA",
"l! 	c #827068",
"m! 	c #0C040E",
"n! 	c #110A11",
"o! 	c #E8E6D8",
"p! 	c #EFEDE5",
"q! 	c #F2F1E7",
"r! 	c #F5F5EB",
"s! 	c #F7F7EC",
"t! 	c #F8F7EE",
"u! 	c #FAF8EF",
"v! 	c #FBF8EF",
"w! 	c #FBF7EE",
"x! 	c #94908B",
"y! 	c #110911",
"z! 	c #0D0911",
"A! 	c #0F0912",
"B! 	c #1A1520",
"C! 	c #393541",
"D! 	c #2D2833",
"E! 	c #251E2B",
"F! 	c #211925",
"G! 	c #564F4E",
"H! 	c #68615A",
"I! 	c #6C665A",
"J! 	c #70695E",
"K! 	c #726B60",
"L! 	c #7B7264",
"M! 	c #837869",
"N! 	c #8A806E",
"O! 	c #958A76",
"P! 	c #988E7C",
"Q! 	c #968B79",
"R! 	c #7D766F",
"S! 	c #5F595A",
"T! 	c #3A3632",
"U! 	c #958C76",
"V! 	c #938872",
"W! 	c #928673",
"X! 	c #898070",
"Y! 	c #867D6C",
"Z! 	c #746B5F",
"`! 	c #737265",
" ~ 	c #7B7867",
".~ 	c #938C76",
"+~ 	c #897E6B",
"@~ 	c #807563",
"#~ 	c #877D6B",
"$~ 	c #857C6A",
"%~ 	c #7F7665",
"&~ 	c #7F7664",
"*~ 	c #847C68",
"=~ 	c #837B65",
"-~ 	c #8D866F",
";~ 	c #857E6C",
">~ 	c #807C6F",
",~ 	c #847E71",
"'~ 	c #726D62",
")~ 	c #625C58",
"!~ 	c #504A49",
"~~ 	c #3B3535",
"{~ 	c #726D64",
"]~ 	c #928E7C",
"^~ 	c #918C76",
"/~ 	c #807969",
"(~ 	c #87826F",
"_~ 	c #888470",
":~ 	c #8B8574",
"<~ 	c #8B8576",
"[~ 	c #817D6F",
"}~ 	c #878373",
"|~ 	c #8A8877",
"1~ 	c #7D7B6E",
"2~ 	c #595550",
"3~ 	c #343032",
"4~ 	c #141018",
"5~ 	c #0E0A12",
"6~ 	c #09050E",
"7~ 	c #818284",
"8~ 	c #B6B6B4",
"9~ 	c #B8B5AE",
"0~ 	c #D0CCBE",
"a~ 	c #E6E3CA",
"b~ 	c #EDEAD4",
"c~ 	c #E6E5D5",
"d~ 	c #E7E6D6",
"e~ 	c #ECE9D7",
"f~ 	c #EDEAD7",
"g~ 	c #EEE9D3",
"h~ 	c #E9E5CE",
"i~ 	c #E9E5CC",
"j~ 	c #C3B9A3",
"k~ 	c #3E2D2F",
"l~ 	c #110B15",
"m~ 	c #685F5C",
"n~ 	c #EEE7D7",
"o~ 	c #EDE8CE",
"p~ 	c #DDD0B0",
"q~ 	c #DFD2B2",
"r~ 	c #DFD3B2",
"s~ 	c #DFD5B3",
"t~ 	c #E0D7B4",
"u~ 	c #E0D8B6",
"v~ 	c #DED6B5",
"w~ 	c #D8D0B1",
"x~ 	c #D7CEB4",
"y~ 	c #E9E4CF",
"z~ 	c #DDD7C4",
"A~ 	c #7D6B62",
"B~ 	c #0F0510",
"C~ 	c #1F191D",
"D~ 	c #E7E1C9",
"E~ 	c #E2DCC7",
"F~ 	c #E6E0CA",
"G~ 	c #EAE4CC",
"H~ 	c #EAE5CB",
"I~ 	c #E7E2C9",
"J~ 	c #E7E1C6",
"K~ 	c #E8E1C6",
"L~ 	c #A29A88",
"M~ 	c #857C6B",
"N~ 	c #897F6C",
"O~ 	c #918672",
"P~ 	c #2B2726",
"Q~ 	c #0F0B15",
"R~ 	c #0D0913",
"S~ 	c #100A13",
"T~ 	c #171016",
"U~ 	c #938D7B",
"V~ 	c #8D8874",
"W~ 	c #847D6E",
"X~ 	c #867D6D",
"Y~ 	c #847A6A",
"Z~ 	c #877D6C",
"`~ 	c #928672",
" { 	c #9B8F79",
".{ 	c #665D57",
"+{ 	c #484244",
"@{ 	c #262024",
"#{ 	c #554E47",
"${ 	c #574E47",
"%{ 	c #6E645E",
"&{ 	c #675E54",
"*{ 	c #695E57",
"={ 	c #6E625A",
"-{ 	c #70655C",
";{ 	c #70655B",
">{ 	c #6C6159",
",{ 	c #6A5E57",
"'{ 	c #695D58",
"){ 	c #685C57",
"!{ 	c #665B54",
"~{ 	c #635A51",
"{{ 	c #554C48",
"]{ 	c #373335",
"^{ 	c #353033",
"/{ 	c #423B3B",
"({ 	c #423B3A",
"_{ 	c #433B3A",
":{ 	c #4D4542",
"<{ 	c #534B47",
"[{ 	c #58504B",
"}{ 	c #5A514C",
"|{ 	c #5D554D",
"1{ 	c #574E50",
"2{ 	c #433D41",
"3{ 	c #474144",
"4{ 	c #423C41",
"5{ 	c #413A40",
"6{ 	c #373135",
"7{ 	c #847F6B",
"8{ 	c #827C6B",
"9{ 	c #7E7866",
"0{ 	c #8A836E",
"a{ 	c #8C8672",
"b{ 	c #817B69",
"c{ 	c #7C7664",
"d{ 	c #757060",
"e{ 	c #5F5B4F",
"f{ 	c #5A554D",
"g{ 	c #5E5956",
"h{ 	c #595553",
"i{ 	c #585456",
"j{ 	c #363337",
"k{ 	c #130F18",
"l{ 	c #0D0813",
"m{ 	c #0A060E",
"n{ 	c #0C0611",
"o{ 	c #9E9D9B",
"p{ 	c #E2E1D1",
"q{ 	c #ECECD0",
"r{ 	c #F4F2D6",
"s{ 	c #F7F5DB",
"t{ 	c #F9F5DB",
"u{ 	c #DED6B8",
"v{ 	c #D9CFB0",
"w{ 	c #DCD3B4",
"x{ 	c #DED5B7",
"y{ 	c #DFD6B6",
"z{ 	c #DAD2B2",
"A{ 	c #E2DBBE",
"B{ 	c #BDB29F",
"C{ 	c #4C3B3C",
"D{ 	c #160F18",
"E{ 	c #615656",
"F{ 	c #EFE7D6",
"G{ 	c #EEE7CC",
"H{ 	c #D6C9AA",
"I{ 	c #DBCEAD",
"J{ 	c #DDD0AF",
"K{ 	c #DED2B0",
"L{ 	c #DFD5B4",
"M{ 	c #DFD6B5",
"N{ 	c #DBD2B3",
"O{ 	c #D5CCB0",
"P{ 	c #D8D0B4",
"Q{ 	c #E4E0C6",
"R{ 	c #DBD5BD",
"S{ 	c #7D6C62",
"T{ 	c #110712",
"U{ 	c #282024",
"V{ 	c #B0A690",
"W{ 	c #E7DDBC",
"X{ 	c #D2C8A3",
"Y{ 	c #DACDAB",
"Z{ 	c #DACEAB",
"`{ 	c #DCD0AC",
" ] 	c #D4C8A4",
".] 	c #D8CDAA",
"+] 	c #DED3B1",
"@] 	c #E6DAB8",
"#] 	c #ECE1BB",
"$] 	c #EDE3B8",
"%] 	c #EDE2B9",
"&] 	c #69635A",
"*] 	c #060002",
"=] 	c #0A050A",
"-] 	c #100912",
";] 	c #56554F",
">] 	c #626159",
",] 	c #636059",
"'] 	c #706A5E",
")] 	c #776E60",
"!] 	c #7D7365",
"~] 	c #776B5E",
"{] 	c #73685A",
"]] 	c #7B7260",
"^] 	c #7D725F",
"/] 	c #827666",
"(] 	c #877A69",
"_] 	c #8D8472",
":] 	c #585150",
"<] 	c #3C353D",
"[] 	c #1A111B",
"}] 	c #4F4747",
"|] 	c #706861",
"1] 	c #9C9387",
"2] 	c #989082",
"3] 	c #857B6F",
"4] 	c #877C71",
"5] 	c #83786D",
"6] 	c #857C6F",
"7] 	c #867B6F",
"8] 	c #887D71",
"9] 	c #84796D",
"0] 	c #857A6E",
"a] 	c #857B70",
"b] 	c #857C6D",
"c] 	c #71695F",
"d] 	c #201B27",
"e] 	c #453F3C",
"f] 	c #7B7165",
"g] 	c #7E7367",
"h] 	c #817467",
"i] 	c #86786B",
"j] 	c #87796D",
"k] 	c #84766A",
"l] 	c #7E7066",
"m] 	c #72665D",
"n] 	c #6C6158",
"o] 	c #675E57",
"p] 	c #665D56",
"q] 	c #635953",
"r] 	c #5F5753",
"s] 	c #453D41",
"t] 	c #342D31",
"u] 	c #3E3B38",
"v] 	c #999482",
"w] 	c #87826E",
"x] 	c #84806D",
"y] 	c #89846D",
"z] 	c #8E8968",
"A] 	c #8F886B",
"B] 	c #86806A",
"C] 	c #777461",
"D] 	c #767360",
"E] 	c #686553",
"F] 	c #59564B",
"G] 	c #4C4749",
"H] 	c #484548",
"I] 	c #4C4A4E",
"J] 	c #302F34",
"K] 	c #0E0B13",
"L] 	c #8A8983",
"M] 	c #BEBDAC",
"N] 	c #D5CFC9",
"O] 	c #DFDCD6",
"P] 	c #F1ECE0",
"Q] 	c #F5F3DC",
"R] 	c #DFDBB5",
"S] 	c #DED5B1",
"T] 	c #DED4B0",
"U] 	c #DBCFAE",
"V] 	c #DBCFAF",
"W] 	c #DDD2B3",
"X] 	c #DED4B5",
"Y] 	c #DDD5B5",
"Z] 	c #DDD5B6",
"`] 	c #E4DDC3",
" ^ 	c #BEB4A2",
".^ 	c #64524F",
"+^ 	c #1A1218",
"@^ 	c #55494A",
"#^ 	c #EFE5D4",
"$^ 	c #EEE6C8",
"%^ 	c #DED1B0",
"&^ 	c #DDD0AE",
"*^ 	c #DFD3B1",
"=^ 	c #E0D6B5",
"-^ 	c #D9CFB2",
";^ 	c #D6CDB3",
">^ 	c #D7D0B3",
",^ 	c #D8D1B3",
"'^ 	c #E0DBC0",
")^ 	c #DAD2B9",
"!^ 	c #7C6C63",
"~^ 	c #140B15",
"{^ 	c #2A1F26",
"]^ 	c #E6DCBC",
"^^ 	c #D1C6A2",
"/^ 	c #DACDA9",
"(^ 	c #DBCFAC",
"_^ 	c #D8CEAB",
":^ 	c #D7CBA9",
"<^ 	c #D9CCAA",
"[^ 	c #DBD0AF",
"}^ 	c #DED3B2",
"|^ 	c #DED3B3",
"1^ 	c #EDE6C6",
"2^ 	c #F7F3D3",
"3^ 	c #F7F3D5",
"4^ 	c #EFEACD",
"5^ 	c #EEEBD2",
"6^ 	c #7A7770",
"7^ 	c #17111A",
"8^ 	c #0C070F",
"9^ 	c #2C2B2D",
"0^ 	c #3C3C3D",
"a^ 	c #534F4B",
"b^ 	c #97907A",
"c^ 	c #A79F82",
"d^ 	c #ABA386",
"e^ 	c #ACA58A",
"f^ 	c #B0AA8E",
"g^ 	c #B1AB90",
"h^ 	c #B2AC92",
"i^ 	c #B3AD94",
"j^ 	c #C0BBA1",
"k^ 	c #C1BBA1",
"l^ 	c #C6C0A6",
"m^ 	c #C5BFA5",
"n^ 	c #C7C3A7",
"o^ 	c #9C9A8B",
"p^ 	c #686265",
"q^ 	c #1F171A",
"r^ 	c #A69B8C",
"s^ 	c #B5A994",
"t^ 	c #E0D5B9",
"u^ 	c #E2D8BA",
"v^ 	c #E5DBBC",
"w^ 	c #E8DDBD",
"x^ 	c #E8DDBE",
"y^ 	c #EBE0C2",
"z^ 	c #ECE2C4",
"A^ 	c #EBE3C2",
"B^ 	c #EDE6C4",
"C^ 	c #EEE8C5",
"D^ 	c #F0E9C6",
"E^ 	c #EEE7C4",
"F^ 	c #D2CCB1",
"G^ 	c #342E3A",
"H^ 	c #978E82",
"I^ 	c #E3D5B5",
"J^ 	c #E2D3B1",
"K^ 	c #E0D0AF",
"L^ 	c #DECFAF",
"M^ 	c #DDCEAE",
"N^ 	c #DFD0B0",
"O^ 	c #E0D1B2",
"P^ 	c #E1D3B2",
"Q^ 	c #DED3B0",
"R^ 	c #DFD2B0",
"S^ 	c #D6CBAF",
"T^ 	c #6D635D",
"U^ 	c #494141",
"V^ 	c #9D9886",
"W^ 	c #87836E",
"X^ 	c #888471",
"Y^ 	c #878371",
"Z^ 	c #7A7965",
"`^ 	c #757862",
" / 	c #747A67",
"./ 	c #6B7067",
"+/ 	c #3F3D35",
"@/ 	c #47453E",
"#/ 	c #2A2724",
"$/ 	c #0B070E",
"%/ 	c #0B060F",
"&/ 	c #B4B0A6",
"*/ 	c #E7E0CC",
"=/ 	c #F3F2E5",
"-/ 	c #EEEDD8",
";/ 	c #E8E5CA",
">/ 	c #E7E0C2",
",/ 	c #D7CEA9",
"'/ 	c #D9CFAB",
")/ 	c #DAD0AC",
"!/ 	c #DCD1AE",
"~/ 	c #DDD2B0",
"{/ 	c #DCD4B2",
"]/ 	c #DDD5B4",
"^/ 	c #DCD5B5",
"// 	c #DDD6B8",
"(/ 	c #E6DEC6",
"_/ 	c #BDB3A2",
":/ 	c #6B5B55",
"</ 	c #181118",
"[/ 	c #4A3E40",
"}/ 	c #E9DECD",
"|/ 	c #EFE5C6",
"1/ 	c #E1D6B4",
"2/ 	c #E1D5B3",
"3/ 	c #E1D4B2",
"4/ 	c #E0D4B2",
"5/ 	c #E1D7B6",
"6/ 	c #D9D0B2",
"7/ 	c #D9D2B5",
"8/ 	c #D9D1B4",
"9/ 	c #D6CEB1",
"0/ 	c #DBD5BA",
"a/ 	c #D7D0B7",
"b/ 	c #7D6C63",
"c/ 	c #170E19",
"d/ 	c #584F4B",
"e/ 	c #B8AF94",
"f/ 	c #E2D9B8",
"g/ 	c #DAD0AE",
"h/ 	c #D9CFAD",
"i/ 	c #D7CCAB",
"j/ 	c #D8CDAC",
"k/ 	c #D5CAAA",
"l/ 	c #DDD2B1",
"m/ 	c #E2D7B4",
"n/ 	c #E2D8AE",
"o/ 	c #F3EAC6",
"p/ 	c #F5EFD0",
"q/ 	c #F0EDD4",
"r/ 	c #6F6C67",
"s/ 	c #150F18",
"t/ 	c #0D0710",
"u/ 	c #0B0812",
"v/ 	c #0C0812",
"w/ 	c #191517",
"x/ 	c #666254",
"y/ 	c #696455",
"z/ 	c #6C6856",
"A/ 	c #938D7A",
"B/ 	c #999381",
"C/ 	c #A39F89",
"D/ 	c #9D9984",
"E/ 	c #A4A28D",
"F/ 	c #A9A693",
"G/ 	c #A5A28D",
"H/ 	c #939282",
"I/ 	c #605C59",
"J/ 	c #2A2424",
"K/ 	c #C5BDAA",
"L/ 	c #BFB7A2",
"M/ 	c #9F9880",
"N/ 	c #A69E84",
"O/ 	c #B2A98E",
"P/ 	c #B4AB90",
"Q/ 	c #B8AD94",
"R/ 	c #BAAF95",
"S/ 	c #B0A98C",
"T/ 	c #B4AD90",
"U/ 	c #B0AA8C",
"V/ 	c #89826D",
"W/ 	c #918979",
"X/ 	c #554D4D",
"Y/ 	c #9C9282",
"Z/ 	c #C4B898",
"`/ 	c #BEB395",
" ( 	c #BDB294",
".( 	c #B8AD91",
"+( 	c #B7AD92",
"@( 	c #C3BA9F",
"#( 	c #C8BFA4",
"$( 	c #C4BBA1",
"%( 	c #C6BEA1",
"&( 	c #C4BC9C",
"*( 	c #C6BE9E",
"=( 	c #CBC3A3",
"-( 	c #C5BEA3",
";( 	c #6F6964",
">( 	c #4B4646",
",( 	c #44403E",
"'( 	c #9D9987",
")( 	c #8B8772",
"!( 	c #8C8875",
"~( 	c #8D8978",
"{( 	c #858371",
"]( 	c #767865",
"^( 	c #6C7364",
"/( 	c #636A6A",
"(( 	c #060209",
"_( 	c #08040B",
":( 	c #09060D",
"<( 	c #0B070F",
"[( 	c #0A0610",
"}( 	c #0A060F",
"|( 	c #6D5E5B",
"1( 	c #A68C80",
"2( 	c #EEE4CD",
"3( 	c #E0D6B6",
"4( 	c #CEC59E",
"5( 	c #D3CAA4",
"6( 	c #D6CCA8",
"7( 	c #D9CFAC",
"8( 	c #DCD2AF",
"9( 	c #DED5B4",
"0( 	c #D4C9AC",
"a( 	c #A99F85",
"b( 	c #E5DCC7",
"c( 	c #BCB1A3",
"d( 	c #73645E",
"e( 	c #120B14",
"f( 	c #4B3E40",
"g( 	c #C9BEAC",
"h( 	c #DBD0B0",
"i( 	c #E5DBB8",
"j( 	c #DFD5B1",
"k( 	c #E1D4B3",
"l( 	c #DDD6B9",
"m( 	c #DBD2B5",
"n( 	c #D5CEB4",
"o( 	c #D4CCB2",
"p( 	c #7E6D63",
"q( 	c #140C15",
"r( 	c #645C51",
"s( 	c #CDC3A3",
"t( 	c #E4DABA",
"u( 	c #E1D8B9",
"v( 	c #C0B696",
"w( 	c #BCB291",
"x( 	c #DBD1B0",
"y( 	c #E1D6B5",
"z( 	c #DFD3B3",
"A( 	c #DCCFAD",
"B( 	c #E4D8B5",
"C( 	c #E5DEC1",
"D( 	c #848171",
"E( 	c #1C171B",
"F( 	c #18121A",
"G( 	c #141118",
"H( 	c #100C15",
"I( 	c #0B070D",
"J( 	c #09060C",
"K( 	c #676463",
"L( 	c #66645C",
"M( 	c #69655B",
"N( 	c #746F63",
"O( 	c #767164",
"P( 	c #858072",
"Q( 	c #898573",
"R( 	c #837F6F",
"S( 	c #726F64",
"T( 	c #68655C",
"U( 	c #706D64",
"V( 	c #817E77",
"W( 	c #656061",
"X( 	c #302C2B",
"Y( 	c #CBC4AF",
"Z( 	c #C4BDA7",
"`( 	c #A29B84",
" _ 	c #A49C84",
"._ 	c #ABA188",
"+_ 	c #AEA28B",
"@_ 	c #AEA38B",
"#_ 	c #ACA388",
"$_ 	c #A49C82",
"%_ 	c #BBB39D",
"&_ 	c #A0967A",
"*_ 	c #A39A7D",
"=_ 	c #A49B80",
"-_ 	c #A59B81",
";_ 	c #A69D84",
">_ 	c #A39C83",
",_ 	c #A29882",
"'_ 	c #9E9682",
")_ 	c #9F9783",
"!_ 	c #968F79",
"~_ 	c #615B55",
"{_ 	c #474142",
"]_ 	c #494441",
"^_ 	c #9C9886",
"/_ 	c #817F72",
"(_ 	c #7F7D6F",
"__ 	c #828272",
":_ 	c #7C7D70",
"<_ 	c #3B3D3A",
"[_ 	c #101117",
"}_ 	c #908E97",
"|_ 	c #94929C",
"1_ 	c #9A999E",
"2_ 	c #A0A19D",
"3_ 	c #A5A59F",
"4_ 	c #A5A49D",
"5_ 	c #585757",
"6_ 	c #090812",
"7_ 	c #4E3F42",
"8_ 	c #826C62",
"9_ 	c #E5D1B9",
"0_ 	c #DCCAAC",
"a_ 	c #D1C7A4",
"b_ 	c #D5CBA6",
"c_ 	c #D7CDA7",
"d_ 	c #DBD1AE",
"e_ 	c #E1D9B9",
"f_ 	c #CCC3A7",
"g_ 	c #9F9580",
"h_ 	c #E1D9C5",
"i_ 	c #BAB1A1",
"j_ 	c #7C706C",
"k_ 	c #41373D",
"l_ 	c #C6B6A7",
"m_ 	c #D6CAAB",
"n_ 	c #E3D6B6",
"o_ 	c #E2D5B5",
"p_ 	c #E0D5B5",
"q_ 	c #DDD4B5",
"r_ 	c #DBD0B3",
"s_ 	c #D8CCB1",
"t_ 	c #D4CAB1",
"u_ 	c #CFC6AB",
"v_ 	c #7E7067",
"w_ 	c #110916",
"x_ 	c #625854",
"y_ 	c #CFC4A8",
"z_ 	c #DCD1B0",
"A_ 	c #D0C3A5",
"B_ 	c #B5A88B",
"C_ 	c #E0D5B4",
"D_ 	c #E0D4B3",
"E_ 	c #DED1B2",
"F_ 	c #E1D5B4",
"G_ 	c #E4DEC1",
"H_ 	c #918E82",
"I_ 	c #1F1B1E",
"J_ 	c #2A2628",
"K_ 	c #787571",
"L_ 	c #8B8982",
"M_ 	c #95928B",
"N_ 	c #98938D",
"O_ 	c #98938B",
"P_ 	c #797770",
"Q_ 	c #0C070D",
"R_ 	c #09040C",
"S_ 	c #5A584F",
"T_ 	c #68665A",
"U_ 	c #797466",
"V_ 	c #858270",
"W_ 	c #888577",
"X_ 	c #6D6A61",
"Y_ 	c #848179",
"Z_ 	c #676363",
"`_ 	c #342F2D",
" : 	c #C9C2AB",
".: 	c #BBB49B",
"+: 	c #A49B83",
"@: 	c #A59B83",
"#: 	c #A79D85",
"$: 	c #A89E85",
"%: 	c #A79D83",
"&: 	c #A89F85",
"*: 	c #A69D83",
"=: 	c #A19981",
"-: 	c #9B9280",
";: 	c #958E7D",
">: 	c #B7B29B",
",: 	c #8C8273",
"': 	c #A39A7F",
"): 	c #A59C82",
"!: 	c #A59D84",
"~: 	c #A49D84",
"{: 	c #A09884",
"]: 	c #A19986",
"^: 	c #9E9783",
"/: 	c #90897B",
"(: 	c #655F59",
"_: 	c #4B4545",
":: 	c #898577",
"<: 	c #837F74",
"[: 	c #817E73",
"}: 	c #817F75",
"|: 	c #77766E",
"1: 	c #6F706B",
"2: 	c #5E5D5A",
"3: 	c #110F14",
"4: 	c #000008",
"5: 	c #DEDFE9",
"6: 	c #F4F5FC",
"7: 	c #F7F7FB",
"8: 	c #F9F9F8",
"9: 	c #FBFBF5",
"0: 	c #FAFBF0",
"a: 	c #666664",
"b: 	c #0E0B15",
"c: 	c #262026",
"d: 	c #554B44",
"e: 	c #E8D6B8",
"f: 	c #DECEAD",
"g: 	c #D3C9A6",
"h: 	c #D5CBA7",
"i: 	c #D8CDA9",
"j: 	c #DACFAC",
"k: 	c #DFD4B5",
"l: 	c #BFB598",
"m: 	c #BEB49A",
"n: 	c #AEA38C",
"o: 	c #BBB29C",
"p: 	c #E2DAC6",
"q: 	c #BAB1A2",
"r: 	c #736865",
"s: 	c #110816",
"t: 	c #2E232A",
"u: 	c #75645B",
"v: 	c #A89B81",
"w: 	c #C7B99A",
"x: 	c #CBBE9F",
"y: 	c #CDBFA0",
"z: 	c #CDC0A0",
"A: 	c #C9BB9E",
"B: 	c #C8BB9D",
"C: 	c #CEC1A5",
"D: 	c #CCC0A4",
"E: 	c #C7BA9F",
"F: 	c #C0B298",
"G: 	c #B4A88D",
"H: 	c #4E403E",
"I: 	c #100811",
"J: 	c #716562",
"K: 	c #CBBEA3",
"L: 	c #D6CAAA",
"M: 	c #D6CBAB",
"N: 	c #D6CCAB",
"O: 	c #D8CCAD",
"P: 	c #DBCEB0",
"Q: 	c #DFD4B4",
"R: 	c #DAD0B2",
"S: 	c #E0D9B9",
"T: 	c #E2DAB7",
"U: 	c #D7D1BA",
"V: 	c #53514A",
"W: 	c #181319",
"X: 	c #575551",
"Y: 	c #EFEEDC",
"Z: 	c #F6F5E6",
"`: 	c #F8F9E8",
" < 	c #F8F9E9",
".< 	c #F9F9E7",
"+< 	c #C6C4B5",
"@< 	c #09050B",
"#< 	c #08030C",
"$< 	c #4B4946",
"%< 	c #565551",
"&< 	c #6B6660",
"*< 	c #797568",
"=< 	c #868272",
"-< 	c #7C7A6D",
";< 	c #6C6961",
">< 	c #726F67",
",< 	c #807D77",
"'< 	c #656162",
")< 	c #34302D",
"!< 	c #C5BEA7",
"~< 	c #A59C84",
"{< 	c #A59C83",
"]< 	c #A79E83",
"^< 	c #A69C83",
"/< 	c #928A78",
"(< 	c #87806F",
"_< 	c #8F8975",
":< 	c #928871",
"<< 	c #978D73",
"[< 	c #9F9780",
"}< 	c #9A9482",
"|< 	c #9B9582",
"1< 	c #989181",
"2< 	c #807B6F",
"3< 	c #605B56",
"4< 	c #484342",
"5< 	c #88847A",
"6< 	c #7E7C70",
"7< 	c #827F72",
"8< 	c #79766F",
"9< 	c #3F3F42",
"0< 	c #48474B",
"a< 	c #141119",
"b< 	c #595E65",
"c< 	c #798086",
"d< 	c #B6BBAC",
"e< 	c #D9D9C0",
"f< 	c #E0DFBE",
"g< 	c #E6E4C2",
"h< 	c #EDEDCB",
"i< 	c #F2F3DF",
"j< 	c #C2C0BC",
"k< 	c #999699",
"l< 	c #17111D",
"m< 	c #372E32",
"n< 	c #B5A89E",
"o< 	c #C3B6A0",
"p< 	c #D7CBA8",
"q< 	c #DBCEAC",
"r< 	c #DDD3B2",
"s< 	c #E2D6B8",
"t< 	c #CFC5A9",
"u< 	c #CBC1A5",
"v< 	c #D4CAB3",
"w< 	c #D6CDB6",
"x< 	c #DED6C3",
"y< 	c #BCB3A5",
"z< 	c #706665",
"A< 	c #100615",
"B< 	c #291F26",
"C< 	c #79675E",
"D< 	c #A7967D",
"E< 	c #CDBD9C",
"F< 	c #D4C5A4",
"G< 	c #D5C9A7",
"H< 	c #D3C8A8",
"I< 	c #CDC1A3",
"J< 	c #CDC1A5",
"K< 	c #D6CAAF",
"L< 	c #D3C7AC",
"M< 	c #D0C4A7",
"N< 	c #CEC2A6",
"O< 	c #887C6D",
"P< 	c #463B3B",
"Q< 	c #100711",
"R< 	c #766963",
"S< 	c #C5B89D",
"T< 	c #D2C8A7",
"U< 	c #D6CBAA",
"V< 	c #D4C9AA",
"W< 	c #D8CDAE",
"X< 	c #E0D4B6",
"Y< 	c #E1D4B7",
"Z< 	c #E1D5B7",
"`< 	c #DED3B4",
" [ 	c #DACFB1",
".[ 	c #D6CBAE",
"+[ 	c #DCD3B6",
"@[ 	c #C3BBA4",
"#[ 	c #7C776E",
"$[ 	c #19141A",
"%[ 	c #757272",
"&[ 	c #858280",
"*[ 	c #D2D0BE",
"=[ 	c #E7E6CB",
"-[ 	c #E7E6C4",
";[ 	c #E8E7C2",
">[ 	c #EBE9C4",
",[ 	c #C7C4AD",
"'[ 	c #7B7778",
")[ 	c #757274",
"![ 	c #09060A",
"~[ 	c #3E3C3E",
"{[ 	c #4B4746",
"][ 	c #615E55",
"^[ 	c #6E6C5F",
"/[ 	c #666357",
"([ 	c #7A786B",
"_[ 	c #827F74",
":[ 	c #858278",
"<[ 	c #88857D",
"[[ 	c #6F6B6A",
"}[ 	c #413D3A",
"|[ 	c #C7C0A9",
"1[ 	c #B8AF97",
"2[ 	c #A69D85",
"3[ 	c #A3997F",
"4[ 	c #A19780",
"5[ 	c #877F6D",
"6[ 	c #807867",
"7[ 	c #A39B82",
"8[ 	c #847C65",
"9[ 	c #847B66",
"0[ 	c #89806C",
"a[ 	c #A49C85",
"b[ 	c #A29A82",
"c[ 	c #9A917D",
"d[ 	c #9A9380",
"e[ 	c #9A927F",
"f[ 	c #98927F",
"g[ 	c #95907E",
"h[ 	c #7C766D",
"i[ 	c #534D4C",
"j[ 	c #7D7B6D",
"k[ 	c #706E64",
"l[ 	c #64635E",
"m[ 	c #37363D",
"n[ 	c #131219",
"o[ 	c #1B1C23",
"p[ 	c #E5ECF3",
"q[ 	c #EBEEEC",
"r[ 	c #E0DDBC",
"s[ 	c #DED4A9",
"t[ 	c #DFD5A7",
"u[ 	c #DFD3A7",
"v[ 	c #DDD3AB",
"w[ 	c #ECE4C5",
"x[ 	c #F3F2E0",
"y[ 	c #BAB7B8",
"z[ 	c #1E162B",
"A[ 	c #1F1721",
"B[ 	c #392D35",
"C[ 	c #B8AE9B",
"D[ 	c #D0C6A0",
"E[ 	c #D6CBA8",
"F[ 	c #DACEAC",
"G[ 	c #D4C8A8",
"H[ 	c #C1B697",
"I[ 	c #CEC2A4",
"J[ 	c #D5CCAE",
"K[ 	c #D2CBAD",
"L[ 	c #D6CEB3",
"M[ 	c #D7D0B6",
"N[ 	c #D9D2B8",
"O[ 	c #DFD8C2",
"P[ 	c #BBB3A4",
"Q[ 	c #6C6463",
"R[ 	c #0F0517",
"S[ 	c #140917",
"T[ 	c #3C3039",
"U[ 	c #58514D",
"V[ 	c #7B766B",
"W[ 	c #7B776A",
"X[ 	c #787267",
"Y[ 	c #787268",
"Z[ 	c #777168",
"`[ 	c #767066",
" } 	c #827C72",
".} 	c #847F72",
"+} 	c #6E6A5F",
"@} 	c #544F4C",
"#} 	c #241D23",
"$} 	c #7A7066",
"%} 	c #BFB399",
"&} 	c #DACFB0",
"*} 	c #D3C8A9",
"=} 	c #D4C9A9",
"-} 	c #D5C9AA",
";} 	c #D5C9AB",
">} 	c #D5C8AA",
",} 	c #C6B89B",
"'} 	c #C0B396",
")} 	c #DBD1B2",
"!} 	c #D7CDAE",
"~} 	c #DFD6BA",
"{} 	c #9F9687",
"]} 	c #2B262C",
"^} 	c #A9A6A3",
"/} 	c #E8E7DC",
"(} 	c #E6E4CC",
"_} 	c #E5DEBF",
":} 	c #DFD8B6",
"<} 	c #E0D7B7",
"[} 	c #E1D8B8",
"}} 	c #E7E3C7",
"|} 	c #FDFCF4",
"1} 	c #D7D5CF",
"2} 	c #130E11",
"3} 	c #0B080C",
"4} 	c #242025",
"5} 	c #4F4A4D",
"6} 	c #59554F",
"7} 	c #716D61",
"8} 	c #898778",
"9} 	c #8C8A7C",
"0} 	c #8F8D7E",
"a} 	c #908C7F",
"b} 	c #777370",
"c} 	c #4C4944",
"d} 	c #C9C3A8",
"e} 	c #B4AC93",
"f} 	c #9F9680",
"g} 	c #A29A84",
"h} 	c #A69C85",
"i} 	c #A49B82",
"j} 	c #9C9279",
"k} 	c #9B927B",
"l} 	c #8B846E",
"m} 	c #BEB69C",
"n} 	c #A9A088",
"o} 	c #918A75",
"p} 	c #867F6B",
"q} 	c #746E5A",
"r} 	c #A39B86",
"s} 	c #A09883",
"t} 	c #999380",
"u} 	c #948D7D",
"v} 	c #756E66",
"w} 	c #504B4B",
"x} 	c #757366",
"y} 	c #636157",
"z} 	c #3A3839",
"A} 	c #48474A",
"B} 	c #121218",
"C} 	c #86868C",
"D} 	c #8C8E93",
"E} 	c #C3C8C3",
"F} 	c #DBDABE",
"G} 	c #D9D1A5",
"H} 	c #D9CEA3",
"I} 	c #DACDA4",
"J} 	c #DBCDA6",
"K} 	c #D9CDA7",
"L} 	c #D6CAA5",
"M} 	c #DED8BE",
"N} 	c #CEC8BA",
"O} 	c #B7AEA1",
"P} 	c #463F3B",
"Q} 	c #372B35",
"R} 	c #B3A996",
"S} 	c #CDC39B",
"T} 	c #DDD1AF",
"U} 	c #DCD2B1",
"V} 	c #CBC19F",
"W} 	c #AC9F81",
"X} 	c #BEB193",
"Y} 	c #CDC4A5",
"Z} 	c #CBC2A5",
"`} 	c #D8D0B3",
" | 	c #DBD5B9",
".| 	c #C6C0AA",
"+| 	c #A19A92",
"@| 	c #88827E",
"#| 	c #494144",
"$| 	c #0E0416",
"%| 	c #110718",
"&| 	c #3F3341",
"*| 	c #3C3540",
"=| 	c #5E5A63",
"-| 	c #59555C",
";| 	c #514B53",
">| 	c #514C53",
",| 	c #544E57",
"'| 	c #57525B",
")| 	c #57545B",
"!| 	c #5A575F",
"~| 	c #5F5C61",
"{| 	c #625F66",
"]| 	c #4A4750",
"^| 	c #3B3743",
"/| 	c #0C0414",
"(| 	c #0C0514",
"_| 	c #544E4D",
":| 	c #BAAF98",
"<| 	c #CEC3A3",
"[| 	c #D0C6A4",
"}| 	c #D4C8A7",
"|| 	c #D3C6A5",
"1| 	c #CABC9B",
"2| 	c #A89979",
"3| 	c #9C8E6E",
"4| 	c #DACFAD",
"5| 	c #DFD4B2",
"6| 	c #D6CFAD",
"7| 	c #D5D1B4",
"8| 	c #8A8576",
"9| 	c #191318",
"0| 	c #403D3D",
"a| 	c #AAA7A5",
"b| 	c #ECEBDC",
"c| 	c #D7D4B4",
"d| 	c #DFD4B6",
"e| 	c #DED4B8",
"f| 	c #DCD5B6",
"g| 	c #E5DFBF",
"h| 	c #D3D1B7",
"i| 	c #B0AEA7",
"j| 	c #413E3C",
"k| 	c #110A13",
"l| 	c #1E1620",
"m| 	c #524B47",
"n| 	c #666252",
"o| 	c #7E7A6F",
"p| 	c #807E70",
"q| 	c #8B897A",
"r| 	c #8D887D",
"s| 	c #726E6B",
"t| 	c #312D2C",
"u| 	c #AAA68C",
"v| 	c #837F6C",
"w| 	c #908B77",
"x| 	c #A79C85",
"y| 	c #A2997F",
"z| 	c #9F967D",
"A| 	c #958E74",
"B| 	c #B0A68E",
"C| 	c #A19B84",
"D| 	c #867F6C",
"E| 	c #948B7A",
"F| 	c #968D7B",
"G| 	c #978F7C",
"H| 	c #948C7B",
"I| 	c #837D6E",
"J| 	c #5C554E",
"K| 	c #45423D",
"L| 	c #403C3C",
"M| 	c #262227",
"N| 	c #120F17",
"O| 	c #34343B",
"P| 	c #E3E7EC",
"Q| 	c #EAEEEB",
"R| 	c #E8EAD5",
"S| 	c #D8D1A9",
"T| 	c #D7CB9F",
"U| 	c #D8CAA0",
"V| 	c #D9CBA2",
"W| 	c #D9CBA6",
"X| 	c #D7CAA9",
"Y| 	c #D6CAAD",
"Z| 	c #D5C8AB",
"`| 	c #81776A",
" 1 	c #201620",
".1 	c #3B3630",
"+1 	c #A19377",
"@1 	c #D3C5A8",
"#1 	c #D5CBA9",
"$1 	c #C4BA99",
"%1 	c #CDC2A1",
"&1 	c #D0C6A7",
"*1 	c #D2C9AF",
"=1 	c #D9D4B9",
"-1 	c #DAD7BA",
";1 	c #C1BEA9",
">1 	c #7F797E",
",1 	c #5A535D",
"'1 	c #281F2C",
")1 	c #0D0317",
"!1 	c #0E0515",
"~1 	c #251C29",
"{1 	c #2B2530",
"]1 	c #39353F",
"^1 	c #37333D",
"/1 	c #37303D",
"(1 	c #38313E",
"_1 	c #38323E",
":1 	c #37323E",
"<1 	c #37323F",
"[1 	c #373240",
"}1 	c #353140",
"|1 	c #36313F",
"11 	c #37333F",
"21 	c #292533",
"31 	c #231F2D",
"41 	c #0B0313",
"51 	c #0B0213",
"61 	c #352B40",
"71 	c #584E4F",
"81 	c #B1A691",
"91 	c #C2B89A",
"01 	c #CAC1A1",
"a1 	c #CAC1A2",
"b1 	c #C4BA9C",
"c1 	c #BFB494",
"d1 	c #B1A584",
"e1 	c #ADA080",
"f1 	c #DBCFAD",
"g1 	c #E0D3AF",
"h1 	c #B1AA94",
"i1 	c #6C6862",
"j1 	c #2C272B",
"k1 	c #514D4B",
"l1 	c #CFCABB",
"m1 	c #CBC7AF",
"n1 	c #DFDCBF",
"o1 	c #DBD3B3",
"p1 	c #E1D6B8",
"q1 	c #E0D5B6",
"r1 	c #FAF8EC",
"s1 	c #F5F1E5",
"t1 	c #B8B39E",
"u1 	c #77706D",
"v1 	c #0B0513",
"w1 	c #262035",
"x1 	c #4E4D46",
"y1 	c #67655F",
"z1 	c #706D62",
"A1 	c #888578",
"B1 	c #868176",
"C1 	c #6C6866",
"D1 	c #2F292E",
"E1 	c #67625A",
"F1 	c #6B665C",
"G1 	c #6E6A62",
"H1 	c #898374",
"I1 	c #A39880",
"J1 	c #958D76",
"K1 	c #958D78",
"L1 	c #908774",
"M1 	c #BFB499",
"N1 	c #ACA489",
"O1 	c #9F9A80",
"P1 	c #9B967E",
"Q1 	c #948F79",
"R1 	c #908A78",
"S1 	c #88806F",
"T1 	c #8D8474",
"U1 	c #968D7C",
"V1 	c #968D7A",
"W1 	c #98907D",
"X1 	c #928B79",
"Y1 	c #6E675A",
"Z1 	c #4F4742",
"`1 	c #322F33",
" 2 	c #424043",
".2 	c #252028",
"+2 	c #646264",
"@2 	c #959491",
"#2 	c #A7A7AC",
"$2 	c #C1C4C5",
"%2 	c #D3D2BF",
"&2 	c #D1D1A8",
"*2 	c #D3C9A2",
"=2 	c #D5C7A0",
"-2 	c #D4C6A1",
";2 	c #CEBF9B",
">2 	c #D9CAA8",
",2 	c #D9CBAB",
"'2 	c #D7CAAB",
")2 	c #D9CCAC",
"!2 	c #938679",
"~2 	c #393034",
"{2 	c #170F15",
"]2 	c #725E54",
"^2 	c #7C6958",
"/2 	c #C0B694",
"(2 	c #D1C9A5",
"_2 	c #CEC6A4",
":2 	c #A09982",
"<2 	c #6C6460",
"[2 	c #4A424D",
"}2 	c #3D3944",
"|2 	c #3B3842",
"12 	c #37333C",
"22 	c #36313E",
"32 	c #312939",
"42 	c #271E2C",
"52 	c #0D0318",
"62 	c #0E0417",
"72 	c #2A2430",
"82 	c #2F2834",
"92 	c #342E3B",
"02 	c #332E3A",
"a2 	c #352F3D",
"b2 	c #36303D",
"c2 	c #35303D",
"d2 	c #36313D",
"e2 	c #34303B",
"f2 	c #34313D",
"g2 	c #2C2936",
"h2 	c #231E2D",
"i2 	c #0C0213",
"j2 	c #2A1F34",
"k2 	c #201829",
"l2 	c #312D45",
"m2 	c #2F2B3F",
"n2 	c #2D293B",
"o2 	c #2F2935",
"p2 	c #635E5E",
"q2 	c #A29C8B",
"r2 	c #D3CBAB",
"s2 	c #D0C7A6",
"t2 	c #DACEAD",
"u2 	c #969182",
"v2 	c #666562",
"w2 	c #100C14",
"x2 	c #706A66",
"y2 	c #DED4BD",
"z2 	c #D8CEAF",
"A2 	c #DAD0AF",
"B2 	c #DED0B2",
"C2 	c #E0D2B4",
"D2 	c #DDD0B2",
"E2 	c #DED2B4",
"F2 	c #E4DEC4",
"G2 	c #E5DDC4",
"H2 	c #E1DAC5",
"I2 	c #A79F97",
"J2 	c #40383C",
"K2 	c #0C0420",
"L2 	c #090512",
"M2 	c #4E4A4B",
"N2 	c #5B5650",
"O2 	c #7C776F",
"P2 	c #6F6B64",
"Q2 	c #5F5B5B",
"R2 	c #474242",
"S2 	c #A6A095",
"T2 	c #736D5F",
"U2 	c #7D776B",
"V2 	c #8F8877",
"W2 	c #A49A82",
"X2 	c #948C75",
"Y2 	c #8F8770",
"Z2 	c #8D856F",
"`2 	c #8E8675",
" 3 	c #8D8475",
".3 	c #9D957F",
"+3 	c #99937C",
"@3 	c #97927C",
"#3 	c #918B77",
"$3 	c #908A77",
"%3 	c #8C8674",
"&3 	c #958C7B",
"*3 	c #8E8876",
"=3 	c #7D7466",
"-3 	c #524B45",
";3 	c #27252A",
">3 	c #292832",
",3 	c #090614",
"'3 	c #AAA8A8",
")3 	c #C3C6AC",
"!3 	c #E4E6CE",
"~3 	c #E4E6CC",
"{3 	c #DAD7B6",
"]3 	c #D4C9A4",
"^3 	c #D4C6A0",
"/3 	c #CFC29C",
"(3 	c #B1A483",
"_3 	c #AA9D7F",
":3 	c #D9CBAE",
"<3 	c #D6CAAC",
"[3 	c #D4C9AB",
"}3 	c #D7CCAD",
"|3 	c #BAAC98",
"13 	c #645756",
"23 	c #100B13",
"33 	c #150C17",
"43 	c #776659",
"53 	c #CEC6A7",
"63 	c #CBC4A6",
"73 	c #ADA795",
"83 	c #807A79",
"93 	c #52495A",
"03 	c #463F50",
"a3 	c #444050",
"b3 	c #3C3747",
"c3 	c #393443",
"d3 	c #322B39",
"e3 	c #2A2232",
"f3 	c #0E031B",
"g3 	c #0E0419",
"h3 	c #18111E",
"i3 	c #26212B",
"j3 	c #2E2830",
"k3 	c #2D282F",
"l3 	c #302A32",
"m3 	c #2F2B32",
"n3 	c #2E2931",
"o3 	c #2C272F",
"p3 	c #2B252F",
"q3 	c #2A242E",
"r3 	c #28222B",
"s3 	c #231F29",
"t3 	c #211C28",
"u3 	c #1F1C27",
"v3 	c #1A1523",
"w3 	c #0C0313",
"x3 	c #20172A",
"y3 	c #1C1629",
"z3 	c #3A364E",
"A3 	c #38344D",
"B3 	c #36314C",
"C3 	c #302A3C",
"D3 	c #555154",
"E3 	c #625C5A",
"F3 	c #85807A",
"G3 	c #C5C0B2",
"H3 	c #B6B0A3",
"I3 	c #9D9791",
"J3 	c #231C2A",
"K3 	c #1C1628",
"L3 	c #3A3437",
"M3 	c #948B7B",
"N3 	c #D8CDAD",
"O3 	c #DACDAD",
"P3 	c #DED1B1",
"Q3 	c #E1D4B4",
"R3 	c #C5BAA0",
"S3 	c #C8BDA0",
"T3 	c #DCD1B3",
"U3 	c #DED3B6",
"V3 	c #E1D6BA",
"W3 	c #E7DFC7",
"X3 	c #FBF2E6",
"Y3 	c #D7CCBA",
"Z3 	c #BFB2A9",
"`3 	c #0A0009",
" 4 	c #08040D",
".4 	c #261C1F",
"+4 	c #453734",
"@4 	c #4E4149",
"#4 	c #5A5C6A",
"$4 	c #59555D",
"%4 	c #4B4542",
"&4 	c #AEA897",
"*4 	c #A09985",
"=4 	c #9D9681",
"-4 	c #98927A",
";4 	c #968E77",
">4 	c #A09980",
",4 	c #8A806A",
"'4 	c #868070",
")4 	c #857F6F",
"!4 	c #7B7466",
"~4 	c #92897A",
"{4 	c #918A79",
"]4 	c #99927D",
"^4 	c #98927B",
"/4 	c #928979",
"(4 	c #887F6F",
"_4 	c #847E6E",
":4 	c #6D665C",
"<4 	c #484241",
"[4 	c #0E0B1E",
"}4 	c #0E0C21",
"|4 	c #110F1D",
"14 	c #C2C4BB",
"24 	c #D8DAC4",
"34 	c #D6D5C0",
"44 	c #D5CFB4",
"54 	c #D0C49F",
"64 	c #BAAD8A",
"74 	c #C6B99A",
"84 	c #D5C7AB",
"94 	c #DACCB0",
"04 	c #D7CBAD",
"a4 	c #D5CAAB",
"b4 	c #D2C5B0",
"c4 	c #796E6C",
"d4 	c #1A151C",
"e4 	c #311D21",
"f4 	c #544D48",
"g4 	c #8A7F67",
"h4 	c #7C715F",
"i4 	c #3B353F",
"j4 	c #3A3443",
"k4 	c #352E40",
"l4 	c #363044",
"m4 	c #342F41",
"n4 	c #2C2839",
"o4 	c #2C2838",
"p4 	c #2E2838",
"q4 	c #181121",
"r4 	c #0D031B",
"s4 	c #0C0318",
"t4 	c #0C0217",
"u4 	c #0C0218",
"v4 	c #0F0419",
"w4 	c #0F041A",
"x4 	c #0E051B",
"y4 	c #0D041B",
"z4 	c #0E041B",
"A4 	c #0F051D",
"B4 	c #10041E",
"C4 	c #0D021B",
"D4 	c #0C0214",
"E4 	c #1C1326",
"F4 	c #171022",
"G4 	c #2F2C3E",
"H4 	c #302E41",
"I4 	c #302C43",
"J4 	c #2E2943",
"K4 	c #312D49",
"L4 	c #37324F",
"M4 	c #514E56",
"N4 	c #D5D4CF",
"O4 	c #A3A2A0",
"P4 	c #605E63",
"Q4 	c #0B0611",
"R4 	c #8C867E",
"S4 	c #D2C9A9",
"T4 	c #DBCEAF",
"U4 	c #8F8273",
"V4 	c #9D907F",
"W4 	c #CBBFA4",
"X4 	c #DCD1B4",
"Y4 	c #DED2B6",
"Z4 	c #DBD2B6",
"`4 	c #E3D9C3",
" 5 	c #E1D3BD",
".5 	c #564845",
"+5 	c #23191D",
"@5 	c #0A050C",
"#5 	c #0D050D",
"$5 	c #47434C",
"%5 	c #5E616C",
"&5 	c #514E5A",
"*5 	c #4C4745",
"=5 	c #B4AE9D",
"-5 	c #A69F89",
";5 	c #867C67",
">5 	c #8A806B",
",5 	c #847B6C",
"'5 	c #847C6F",
")5 	c #867E71",
"!5 	c #958E7A",
"~5 	c #908A76",
"{5 	c #948D78",
"]5 	c #82796A",
"^5 	c #80796B",
"/5 	c #645F54",
"(5 	c #363035",
"_5 	c #191320",
":5 	c #0A0726",
"<5 	c #090823",
"[5 	c #201E29",
"}5 	c #CBCAC1",
"|5 	c #F0EEE0",
"15 	c #EFEBDD",
"25 	c #D8CFB5",
"35 	c #DACFB4",
"45 	c #C6BBA0",
"55 	c #ADA185",
"65 	c #C1B69A",
"75 	c #E3D8BA",
"85 	c #DED2B3",
"95 	c #DCCFB3",
"05 	c #DBCDB2",
"a5 	c #D8CDAF",
"b5 	c #D5CAAC",
"c5 	c #DACEAF",
"d5 	c #D9CEB2",
"e5 	c #76716B",
"f5 	c #59545D",
"g5 	c #1E1019",
"h5 	c #413B3E",
"i5 	c #695E58",
"j5 	c #544C4A",
"k5 	c #36303F",
"l5 	c #393242",
"m5 	c #312C3D",
"n5 	c #353044",
"o5 	c #363143",
"p5 	c #332F40",
"q5 	c #343142",
"r5 	c #373242",
"s5 	c #11091C",
"t5 	c #0A0217",
"u5 	c #0A0314",
"v5 	c #0C0216",
"w5 	c #0C0117",
"x5 	c #0D0316",
"y5 	c #0D0319",
"z5 	c #0D0218",
"A5 	c #0C0116",
"B5 	c #160E21",
"C5 	c #231D31",
"D5 	c #2F2E43",
"E5 	c #33334A",
"F5 	c #35334B",
"G5 	c #302E46",
"H5 	c #2D2A42",
"I5 	c #302C44",
"J5 	c #211D32",
"K5 	c #3C384D",
"L5 	c #2E2B3B",
"M5 	c #2E2A34",
"N5 	c #09020F",
"O5 	c #140B18",
"P5 	c #B7B0A1",
"Q5 	c #D9D0AA",
"R5 	c #DFD1B2",
"S5 	c #DCCEB0",
"T5 	c #DBD0AE",
"U5 	c #DED4B2",
"V5 	c #B2A692",
"W5 	c #AEA190",
"X5 	c #BAAE96",
"Y5 	c #D8CDB1",
"Z5 	c #D5CBB0",
"`5 	c #DDD1B8",
" 6 	c #E7D9BE",
".6 	c #51433D",
"+6 	c #20151B",
"@6 	c #0C0510",
"#6 	c #56555E",
"$6 	c #2F3142",
"%6 	c #2C293D",
"&6 	c #4E4947",
"*6 	c #B4AD9C",
"=6 	c #A49C87",
"-6 	c #9D967E",
";6 	c #9D927D",
">6 	c #948A74",
",6 	c #857A66",
"'6 	c #8B806D",
")6 	c #867C6B",
"!6 	c #898071",
"~6 	c #887F70",
"{6 	c #8B8675",
"]6 	c #938A76",
"^6 	c #918A74",
"/6 	c #908872",
"(6 	c #938B75",
"_6 	c #948C76",
":6 	c #928C75",
"<6 	c #928C76",
"[6 	c #7F796A",
"}6 	c #7D7667",
"|6 	c #7B7465",
"16 	c #756F65",
"26 	c #4D4843",
"36 	c #373437",
"46 	c #181520",
"56 	c #0B0725",
"66 	c #090723",
"76 	c #23222B",
"86 	c #686668",
"96 	c #9E9997",
"06 	c #CECABE",
"a6 	c #D3CCB2",
"b6 	c #DDD2B8",
"c6 	c #D9CDB3",
"d6 	c #C4B99F",
"e6 	c #CFC5AB",
"f6 	c #DCD2B6",
"g6 	c #D5CBAE",
"h6 	c #D3C8AC",
"i6 	c #D8CCAF",
"j6 	c #DACCB1",
"k6 	c #D6C9AD",
"l6 	c #DCCFAE",
"m6 	c #878076",
"n6 	c #47434F",
"o6 	c #100815",
"p6 	c #120914",
"q6 	c #231E2A",
"r6 	c #342D3C",
"s6 	c #373040",
"t6 	c #383140",
"u6 	c #393340",
"v6 	c #251F29",
"w6 	c #090115",
"x6 	c #080116",
"y6 	c #070215",
"z6 	c #090314",
"A6 	c #0A0216",
"B6 	c #190416",
"C6 	c #190515",
"D6 	c #180415",
"E6 	c #1C0415",
"F6 	c #1E0415",
"G6 	c #230618",
"H6 	c #240719",
"I6 	c #0F0412",
"J6 	c #180315",
"K6 	c #230316",
"L6 	c #1A0416",
"M6 	c #1D0616",
"N6 	c #1B0718",
"O6 	c #1C0819",
"P6 	c #270E1B",
"Q6 	c #270E1C",
"R6 	c #220B17",
"S6 	c #0F0313",
"T6 	c #0C0316",
"U6 	c #0C0215",
"V6 	c #0B0315",
"W6 	c #0B0215",
"X6 	c #0B0214",
"Y6 	c #0B0311",
"Z6 	c #191524",
"`6 	c #242039",
" 7 	c #201C32",
".7 	c #29233A",
"+7 	c #221B2E",
"@7 	c #090210",
"#7 	c #241E2C",
"$7 	c #B5B0A1",
"%7 	c #CBC1A3",
"&7 	c #E2D5B6",
"*7 	c #DDCFB1",
"=7 	c #DACFAE",
"-7 	c #BBAF99",
";7 	c #C8BCA6",
">7 	c #D7CCB4",
",7 	c #D7CDB5",
"'7 	c #D5CCB3",
")7 	c #D8D0B7",
"!7 	c #C1B6A1",
"~7 	c #B7A999",
"{7 	c #221A1D",
"]7 	c #120B13",
"^7 	c #0E0811",
"/7 	c #211F27",
"(7 	c #151022",
"_7 	c #29263A",
":7 	c #3A3533",
"<7 	c #8D8676",
"[7 	c #908673",
"}7 	c #918873",
"|7 	c #908773",
"17 	c #8F8675",
"27 	c #8E8574",
"37 	c #877E6D",
"47 	c #878070",
"57 	c #8B8575",
"67 	c #7F7A6A",
"77 	c #928B72",
"87 	c #938B74",
"97 	c #918B75",
"07 	c #8D8872",
"a7 	c #8B866F",
"b7 	c #827C6C",
"c7 	c #767063",
"d7 	c #6D6664",
"e7 	c #2D2829",
"f7 	c #1B181C",
"g7 	c #3C3B3F",
"h7 	c #504F53",
"i7 	c #5A5857",
"j7 	c #4C4849",
"k7 	c #252029",
"l7 	c #221D24",
"m7 	c #D2CEBC",
"n7 	c #E1DDBF",
"o7 	c #E1D8BD",
"p7 	c #D6CAB1",
"q7 	c #D5C8AF",
"r7 	c #CFC1A7",
"s7 	c #C1B599",
"t7 	c #CCC1A5",
"u7 	c #D2C6AA",
"v7 	c #D7C9AD",
"w7 	c #B6AB96",
"x7 	c #605651",
"y7 	c #3A313A",
"z7 	c #302736",
"A7 	c #0F0712",
"B7 	c #231F2A",
"C7 	c #2C2836",
"D7 	c #100818",
"E7 	c #100916",
"F7 	c #100917",
"G7 	c #0D0614",
"H7 	c #090117",
"I7 	c #080213",
"J7 	c #0B0117",
"K7 	c #3C0D22",
"L7 	c #471022",
"M7 	c #440F22",
"N7 	c #4A0D22",
"O7 	c #4A0E22",
"P7 	c #56192E",
"Q7 	c #541D33",
"R7 	c #160514",
"S7 	c #300A17",
"T7 	c #5A131E",
"U7 	c #551C26",
"V7 	c #622C33",
"W7 	c #4C1F27",
"X7 	c #461C27",
"Y7 	c #4D1E28",
"Z7 	c #411A23",
"`7 	c #38181E",
" 8 	c #120413",
".8 	c #1C1728",
"+8 	c #221D2E",
"@8 	c #2A2535",
"#8 	c #221C2A",
"$8 	c #272136",
"%8 	c #645D5E",
"&8 	c #A29A8F",
"*8 	c #E9E2C7",
"=8 	c #D9CFB3",
"-8 	c #D9CBB1",
";8 	c #D7CBAF",
">8 	c #D7CCB0",
",8 	c #D6CAB3",
"'8 	c #D8CCB7",
")8 	c #D4C9B3",
"!8 	c #D5CCB4",
"~8 	c #D6CCB4",
"{8 	c #D2CBB3",
"]8 	c #52423C",
"^8 	c #282025",
"/8 	c #2B2628",
"(8 	c #474341",
"_8 	c #5F5B5A",
":8 	c #423E40",
"<8 	c #0F0814",
"[8 	c #1A1622",
"}8 	c #36322F",
"|8 	c #7E7666",
"18 	c #867B69",
"28 	c #988F76",
"38 	c #968D76",
"48 	c #968C74",
"58 	c #938A75",
"68 	c #918A77",
"78 	c #8D8774",
"88 	c #756D65",
"98 	c #837D6B",
"08 	c #9B947B",
"a8 	c #8A826D",
"b8 	c #89826E",
"c8 	c #8A8572",
"d8 	c #7E7967",
"e8 	c #747061",
"f8 	c #746F60",
"g8 	c #706B62",
"h8 	c #524D4B",
"i8 	c #2D292B",
"j8 	c #141013",
"k8 	c #505156",
"l8 	c #EAEAF2",
"m8 	c #EEEFED",
"n8 	c #F1F3E6",
"o8 	c #BDBBAE",
"p8 	c #716C68",
"q8 	c #1B1317",
"r8 	c #827E78",
"s8 	c #908C7D",
"t8 	c #D0C8B2",
"u8 	c #D9CCB2",
"v8 	c #D7CBB1",
"w8 	c #CEC2A8",
"x8 	c #CBC0A6",
"y8 	c #CABEA3",
"z8 	c #CABFA3",
"A8 	c #C2B59B",
"B8 	c #AFA693",
"C8 	c #A59C8F",
"D8 	c #635A5B",
"E8 	c #39303E",
"F8 	c #322A37",
"G8 	c #0E0712",
"H8 	c #19131E",
"I8 	c #1C1823",
"J8 	c #090412",
"K8 	c #0E0314",
"L8 	c #120315",
"M8 	c #130314",
"N8 	c #1B0618",
"O8 	c #250B1C",
"P8 	c #1E0718",
"Q8 	c #100317",
"R8 	c #100619",
"S8 	c #3F1725",
"T8 	c #4D1C25",
"U8 	c #441724",
"V8 	c #381320",
"W8 	c #321221",
"X8 	c #472029",
"Y8 	c #421C29",
"Z8 	c #170818",
"`8 	c #3A141C",
" 9 	c #631E24",
".9 	c #592128",
"+9 	c #5E2C34",
"@9 	c #48202A",
"#9 	c #47212B",
"$9 	c #59272F",
"%9 	c #4B1D27",
"&9 	c #3F1B21",
"*9 	c #140513",
"=9 	c #0E0315",
"-9 	c #1F0616",
";9 	c #240716",
">9 	c #200617",
",9 	c #100413",
"'9 	c #0D0311",
")9 	c #0A0212",
"!9 	c #0A0313",
"~9 	c #160E1E",
"{9 	c #150D1D",
"]9 	c #120A1A",
"^9 	c #0C0212",
"/9 	c #0B0310",
"(9 	c #271E35",
"_9 	c #3C3440",
":9 	c #7B7475",
"<9 	c #B6B0A8",
"[9 	c #BCB5A9",
"}9 	c #CAC0AD",
"|9 	c #DBCDB6",
"19 	c #D7C9B0",
"29 	c #D3C6AD",
"39 	c #D4CAB2",
"49 	c #D3C9B1",
"59 	c #A79E8B",
"69 	c #958D80",
"79 	c #4B433F",
"89 	c #3F3430",
"99 	c #9A9582",
"09 	c #D3D3B8",
"a9 	c #F1F2DB",
"b9 	c #FCF9EF",
"c9 	c #B0ADA9",
"d9 	c #0C040D",
"e9 	c #302B2C",
"f9 	c #766D5F",
"g9 	c #89806A",
"h9 	c #918972",
"i9 	c #918872",
"j9 	c #8E856F",
"k9 	c #978F77",
"l9 	c #918973",
"m9 	c #8E8671",
"n9 	c #7F7767",
"o9 	c #3E363A",
"p9 	c #605755",
"q9 	c #716760",
"r9 	c #675E58",
"s9 	c #5B514D",
"t9 	c #5C5251",
"u9 	c #5C5351",
"v9 	c #595150",
"w9 	c #4C4546",
"x9 	c #494444",
"y9 	c #514B4B",
"z9 	c #4F4949",
"A9 	c #352F33",
"B9 	c #191317",
"C9 	c #1C1719",
"D9 	c #353840",
"E9 	c #E6EAF6",
"F9 	c #EFF0F0",
"G9 	c #F2F3EC",
"H9 	c #F4F5E6",
"I9 	c #C1BEB2",
"J9 	c #1C161A",
"K9 	c #1E161B",
"L9 	c #403B3A",
"M9 	c #C8C1B1",
"N9 	c #CEC3AA",
"O9 	c #D7CDB2",
"P9 	c #D7CBB2",
"Q9 	c #D5C9AE",
"R9 	c #D0C4AB",
"S9 	c #CDC2A8",
"T9 	c #CCC0A7",
"U9 	c #B9AF9E",
"V9 	c #4F464E",
"W9 	c #4C454F",
"X9 	c #423C45",
"Y9 	c #322A38",
"Z9 	c #2D2633",
"`9 	c #0F0813",
" 0 	c #0A0410",
".0 	c #09030F",
"+0 	c #08030F",
"@0 	c #11040F",
"#0 	c #150510",
"$0 	c #2D0B1C",
"%0 	c #380E22",
"&0 	c #390F22",
"*0 	c #3A1020",
"=0 	c #481426",
"-0 	c #39101F",
";0 	c #150516",
">0 	c #150818",
",0 	c #5D272A",
"'0 	c #75312C",
")0 	c #692C2C",
"!0 	c #642E2F",
"~0 	c #5D2E31",
"{0 	c #713737",
"]0 	c #6B3338",
"^0 	c #230B18",
"/0 	c #5A2124",
"(0 	c #842D28",
"_0 	c #712523",
":0 	c #84302C",
"<0 	c #7A2E2A",
"[0 	c #6E2D2A",
"}0 	c #893A33",
"|0 	c #6F2C29",
"10 	c #5B2A28",
"20 	c #1A0813",
"30 	c #130416",
"40 	c #441520",
"50 	c #4F141F",
"60 	c #43141E",
"70 	c #260F1A",
"80 	c #290E1D",
"90 	c #160415",
"00 	c #0C0315",
"a0 	c #0C0311",
"b0 	c #251E32",
"c0 	c #2E2839",
"d0 	c #3B3547",
"e0 	c #3E3545",
"f0 	c #6C646C",
"g0 	c #B3ABA0",
"h0 	c #DDD3B9",
"i0 	c #D7CBB0",
"j0 	c #D5C7AE",
"k0 	c #D1C3AB",
"l0 	c #D2C8AF",
"m0 	c #CFC5AC",
"n0 	c #D7CDB6",
"o0 	c #898074",
"p0 	c #322628",
"q0 	c #382C2A",
"r0 	c #877E6B",
"s0 	c #D2CDB0",
"t0 	c #EFF0D3",
"u0 	c #F2F5DA",
"v0 	c #F6F6E4",
"w0 	c #A4A097",
"x0 	c #262121",
"y0 	c #140E16",
"z0 	c #2A2224",
"A0 	c #4F4744",
"B0 	c #4D4642",
"C0 	c #4D4440",
"D0 	c #4D413F",
"E0 	c #504542",
"F0 	c #514641",
"G0 	c #524740",
"H0 	c #544A42",
"I0 	c #564B43",
"J0 	c #574D46",
"K0 	c #5A504A",
"L0 	c #5D544D",
"M0 	c #60574F",
"N0 	c #564B48",
"O0 	c #4F4A44",
"P0 	c #90887A",
"Q0 	c #958F7F",
"R0 	c #928C7E",
"S0 	c #958E81",
"T0 	c #928B7E",
"U0 	c #878174",
"V0 	c #817B6F",
"W0 	c #6C6462",
"X0 	c #3C3C42",
"Y0 	c #39383D",
"Z0 	c #211D23",
"`0 	c #434041",
" a 	c #EDEAE6",
".a 	c #D7D7D2",
"+a 	c #EAEDE3",
"@a 	c #CFCDB7",
"#a 	c #DED8C2",
"$a 	c #DFD8C0",
"%a 	c #E5DDC5",
"&a 	c #DED5C4",
"*a 	c #665E5D",
"=a 	c #312B2F",
"-a 	c #1C171A",
";a 	c #888176",
">a 	c #D6CCB3",
",a 	c #D5C9B0",
"'a 	c #D1C5AD",
")a 	c #D1C4AB",
"!a 	c #D2C6AF",
"~a 	c #A89F94",
"{a 	c #8C8783",
"]a 	c #403A48",
"^a 	c #393441",
"/a 	c #2D2A32",
"(a 	c #25202D",
"_a 	c #231E2B",
":a 	c #0D0713",
"<a 	c #0A0411",
"[a 	c #0B040F",
"}a 	c #2A0A18",
"|a 	c #370E1C",
"1a 	c #3B111D",
"2a 	c #451221",
"3a 	c #451122",
"4a 	c #441421",
"5a 	c #511826",
"6a 	c #41141F",
"7a 	c #170716",
"8a 	c #170919",
"9a 	c #702F2C",
"0a 	c #8E362B",
"aa 	c #803129",
"ba 	c #7B3026",
"ca 	c #722B25",
"da 	c #7C2F26",
"ea 	c #792F2A",
"fa 	c #2F101A",
"ga 	c #652424",
"ha 	c #8F2E26",
"ia 	c #782B24",
"ja 	c #8E3127",
"ka 	c #87302B",
"la 	c #7B302B",
"ma 	c #953F30",
"na 	c #7D3329",
"oa 	c #68312C",
"pa 	c #200B15",
"qa 	c #160818",
"ra 	c #44151F",
"sa 	c #52151C",
"ta 	c #48151D",
"ua 	c #30121E",
"va 	c #361320",
"wa 	c #220818",
"xa 	c #0D0412",
"ya 	c #0D0313",
"za 	c #0D0314",
"Aa 	c #231C2C",
"Ba 	c #261F2D",
"Ca 	c #312B39",
"Da 	c #3C3544",
"Ea 	c #3F3847",
"Fa 	c #666260",
"Ga 	c #A6A092",
"Ha 	c #D3C7AD",
"Ia 	c #D1C3AA",
"Ja 	c #CEC0A8",
"Ka 	c #CEC3A9",
"La 	c #B5AA95",
"Ma 	c #797065",
"Na 	c #534844",
"Oa 	c #6F665E",
"Pa 	c #C5BBA7",
"Qa 	c #DBD1B6",
"Ra 	c #DCD4B7",
"Sa 	c #DFD2B4",
"Ta 	c #E3D8BE",
"Ua 	c #F5EDD8",
"Va 	c #3D3A36",
"Wa 	c #0A040B",
"Xa 	c #272124",
"Ya 	c #474141",
"Za 	c #87837A",
"`a 	c #918E7D",
" b 	c #A39E8D",
".b 	c #AFA797",
"+b 	c #B2AB99",
"@b 	c #B3AE9B",
"#b 	c #B4AE9B",
"$b 	c #B3AB98",
"%b 	c #B3AC9A",
"&b 	c #B1AA99",
"*b 	c #AFAA98",
"=b 	c #B0AA97",
"-b 	c #A6A08F",
";b 	c #B8B3A0",
">b 	c #BCB49D",
",b 	c #B3AC92",
"'b 	c #B6B095",
")b 	c #B5AF96",
"!b 	c #B6B098",
"~b 	c #B1AC92",
"{b 	c #AFAA90",
"]b 	c #AAA58A",
"^b 	c #A9A489",
"/b 	c #948E7D",
"(b 	c #555557",
"_b 	c #545458",
":b 	c #242227",
"<b 	c #2A2A2B",
"[b 	c #DFDEDA",
"}b 	c #E6E2D2",
"|b 	c #D4CDB0",
"1b 	c #CBC1A2",
"2b 	c #DACEB4",
"3b 	c #DBCFB6",
"4b 	c #DFD5B8",
"5b 	c #ACA396",
"6b 	c #534A4A",
"7b 	c #211A1E",
"8b 	c #716A68",
"9b 	c #938A7B",
"0b 	c #D8CFB7",
"ab 	c #D7CAB2",
"bb 	c #C7BCA8",
"cb 	c #787576",
"db 	c #413C54",
"eb 	c #2F293E",
"fb 	c #282334",
"gb 	c #15101E",
"hb 	c #060110",
"ib 	c #080211",
"jb 	c #1F0715",
"kb 	c #200714",
"lb 	c #1F0814",
"mb 	c #37111B",
"nb 	c #41151D",
"ob 	c #45181E",
"pb 	c #5D2226",
"qb 	c #5C2226",
"rb 	c #592224",
"sb 	c #783128",
"tb 	c #652323",
"ub 	c #1C0917",
"vb 	c #180A18",
"wb 	c #843B2A",
"xb 	c #AF482E",
"yb 	c #A1422C",
"zb 	c #9C402D",
"Ab 	c #8F382B",
"Bb 	c #893929",
"Cb 	c #933D30",
"Db 	c #351219",
"Eb 	c #793429",
"Fb 	c #AA462E",
"Gb 	c #843525",
"Hb 	c #AD4F32",
"Ib 	c #A24532",
"Jb 	c #903D2E",
"Kb 	c #B1573A",
"Lb 	c #95412F",
"Mb 	c #7B3B35",
"Nb 	c #260F19",
"Ob 	c #1B0A18",
"Pb 	c #652022",
"Qb 	c #7E2A21",
"Rb 	c #742625",
"Sb 	c #451823",
"Tb 	c #4C1A21",
"Ub 	c #44171F",
"Vb 	c #3B1521",
"Wb 	c #3A1420",
"Xb 	c #160815",
"Yb 	c #0E0414",
"Zb 	c #0C0312",
"`b 	c #12091A",
" c 	c #0F0714",
".c 	c #2C2531",
"+c 	c #332D3A",
"@c 	c #373241",
"#c 	c #46414D",
"$c 	c #5C4E50",
"%c 	c #C8BBA7",
"&c 	c #D0C2A8",
"*c 	c #CCBFA4",
"=c 	c #C3B8A0",
"-c 	c #786D61",
";c 	c #35282B",
">c 	c #5F544F",
",c 	c #A39887",
"'c 	c #DED4B4",
")c 	c #DDD3B0",
"!c 	c #DBD1AD",
"~c 	c #D6C9A9",
"{c 	c #EBDFC6",
"]c 	c #26201D",
"^c 	c #0A0408",
"/c 	c #393336",
"(c 	c #A7A497",
"_c 	c #B9B49F",
":c 	c #C8C1AB",
"<c 	c #D0C9AE",
"[c 	c #D3CCB0",
"}c 	c #D6D0B3",
"|c 	c #DAD3B7",
"1c 	c #DCD5B8",
"2c 	c #DED7BB",
"3c 	c #DFD7BC",
"4c 	c #DFD8BB",
"5c 	c #C8C0A5",
"6c 	c #BDB6A4",
"7c 	c #B2AA97",
"8c 	c #928A77",
"9c 	c #8F8872",
"0c 	c #8C8570",
"ac 	c #7C7465",
"bc 	c #7A7165",
"cc 	c #746D68",
"dc 	c #161217",
"ec 	c #37353A",
"fc 	c #ADABB1",
"gc 	c #ACACAF",
"hc 	c #DBD8CD",
"ic 	c #CDC09B",
"jc 	c #CEC1A2",
"kc 	c #D8CCB2",
"lc 	c #DACEB5",
"mc 	c #D6CAB0",
"nc 	c #DAD0B1",
"oc 	c #CBC1A8",
"pc 	c #807970",
"qc 	c #1E181A",
"rc 	c #5B5452",
"sc 	c #B9AE95",
"tc 	c #C9B89D",
"uc 	c #B0A28E",
"vc 	c #3C3945",
"wc 	c #3B3947",
"xc 	c #282537",
"yc 	c #171321",
"zc 	c #1C1923",
"Ac 	c #1C1824",
"Bc 	c #070111",
"Cc 	c #0E0412",
"Dc 	c #300F1D",
"Ec 	c #3B0F19",
"Fc 	c #3A0E18",
"Gc 	c #4D161B",
"Hc 	c #5E1B1F",
"Ic 	c #641B1F",
"Jc 	c #7E2D2A",
"Kc 	c #7F2E2C",
"Lc 	c #762C28",
"Mc 	c #9C4530",
"Nc 	c #7C2B23",
"Oc 	c #240916",
"Pc 	c #1E0B15",
"Qc 	c #95452C",
"Rc 	c #BC552E",
"Sc 	c #A4452B",
"Tc 	c #99402B",
"Uc 	c #903B2D",
"Vc 	c #9F4730",
"Wc 	c #AA4E33",
"Xc 	c #3D191A",
"Yc 	c #86402A",
"Zc 	c #BE5835",
"`c 	c #873C29",
" d 	c #BB5A39",
".d 	c #AD4C35",
"+d 	c #933D2C",
"@d 	c #BA5E3D",
"#d 	c #9E4531",
"$d 	c #8D4137",
"%d 	c #2E111A",
"&d 	c #1F0D19",
"*d 	c #6E201E",
"=d 	c #8E3122",
"-d 	c #852C27",
";d 	c #561F25",
">d 	c #622024",
",d 	c #541E20",
"'d 	c #3D161F",
")d 	c #3B161F",
"!d 	c #190A14",
"~d 	c #0F0511",
"{d 	c #0E0410",
"]d 	c #241E2A",
"^d 	c #231D2B",
"/d 	c #262131",
"(d 	c #2F2A3C",
"_d 	c #4C4658",
":d 	c #524B5A",
"<d 	c #CABDA9",
"[d 	c #D8CBA8",
"}d 	c #BAAD96",
"|d 	c #7C7469",
"1d 	c #322729",
"2d 	c #392C29",
"3d 	c #DFD5B2",
"4d 	c #D6CCA9",
"5d 	c #D6CAA7",
"6d 	c #D9CEB0",
"7d 	c #DBCEB5",
"8d 	c #827872",
"9d 	c #B1ADA3",
"0d 	c #0E090C",
"ad 	c #5C6169",
"bd 	c #646B73",
"cd 	c #858376",
"dd 	c #9B957E",
"ed 	c #9C967E",
"fd 	c #9F9981",
"gd 	c #B8AF99",
"hd 	c #C0B8A6",
"id 	c #B0AA96",
"jd 	c #908978",
"kd 	c #8D8775",
"ld 	c #80796A",
"md 	c #756E61",
"nd 	c #746D5F",
"od 	c #726B65",
"pd 	c #161319",
"qd 	c #2F2F34",
"rd 	c #E5E6ED",
"sd 	c #ECEBED",
"td 	c #D1C39F",
"ud 	c #CDBF9D",
"vd 	c #CCBFA0",
"wd 	c #D9CBB0",
"xd 	c #DFD1B7",
"yd 	c #DBCDB3",
"zd 	c #D7C9AE",
"Ad 	c #DCD1B5",
"Bd 	c #DACFB2",
"Cd 	c #A8A08F",
"Dd 	c #958B84",
"Ed 	c #150C14",
"Fd 	c #29242B",
"Gd 	c #7A736C",
"Hd 	c #706965",
"Id 	c #6A6968",
"Jd 	c #414255",
"Kd 	c #373446",
"Ld 	c #2F2C39",
"Md 	c #14101B",
"Nd 	c #08010F",
"Od 	c #080110",
"Pd 	c #070211",
"Qd 	c #2F1422",
"Rd 	c #35141C",
"Sd 	c #3B161C",
"Td 	c #481B1F",
"Ud 	c #3B151B",
"Vd 	c #561E20",
"Wd 	c #6D2224",
"Xd 	c #6F2221",
"Yd 	c #87342D",
"Zd 	c #88332C",
"`d 	c #7E342C",
" e 	c #AC5838",
".e 	c #974230",
"+e 	c #2D0A12",
"@e 	c #230C15",
"#e 	c #A35132",
"$e 	c #CB6137",
"%e 	c #A74C2F",
"&e 	c #B15935",
"*e 	c #A74F33",
"=e 	c #A94C31",
"-e 	c #B55537",
";e 	c #481A1C",
">e 	c #90442D",
",e 	c #C76134",
"'e 	c #8F4329",
")e 	c #C3613D",
"!e 	c #B35437",
"~e 	c #98442F",
"{e 	c #C47243",
"]e 	c #A55536",
"^e 	c #914736",
"/e 	c #31151A",
"(e 	c #210D1A",
"_e 	c #7B291F",
":e 	c #A9432B",
"<e 	c #9E3F30",
"[e 	c #692B25",
"}e 	c #853A2D",
"|e 	c #6A2E2A",
"1e 	c #441D21",
"2e 	c #562F2F",
"3e 	c #3C1D22",
"4e 	c #3A181F",
"5e 	c #2B111B",
"6e 	c #0D0310",
"7e 	c #0B0211",
"8e 	c #0A0210",
"9e 	c #0A0415",
"0e 	c #2A273A",
"ae 	c #232036",
"be 	c #434255",
"ce 	c #514F63",
"de 	c #68666E",
"ee 	c #626065",
"fe 	c #1D1B3A",
"ge 	c #1D1836",
"he 	c #322A2B",
"ie 	c #A79C88",
"je 	c #D3C8A4",
"ke 	c #D5C9A4",
"le 	c #D4C7A4",
"me 	c #D5C8A6",
"ne 	c #D8CBAB",
"oe 	c #D6CBAC",
"pe 	c #D2C7A9",
"qe 	c #CFC4A7",
"re 	c #E7DFC8",
"se 	c #DFDAC5",
"te 	c #0C030A",
"ue 	c #575E68",
"ve 	c #5F6876",
"we 	c #87857C",
"xe 	c #96907E",
"ye 	c #95907D",
"ze 	c #96917E",
"Ae 	c #95917E",
"Be 	c #959080",
"Ce 	c #938E7E",
"De 	c #B2AA95",
"Ee 	c #C4BDAA",
"Fe 	c #AEA994",
"Ge 	c #8D8776",
"He 	c #766F64",
"Ie 	c #736B66",
"Je 	c #18151A",
"Ke 	c #222129",
"Le 	c #DEDDE5",
"Me 	c #E6E5DB",
"Ne 	c #D2C6A2",
"Oe 	c #D2C39F",
"Pe 	c #CEC09E",
"Qe 	c #BBAD8F",
"Re 	c #CBBDA2",
"Se 	c #DFD2B8",
"Te 	c #DBCEB3",
"Ue 	c #D8CAAF",
"Ve 	c #DDD1B5",
"We 	c #DBD0B4",
"Xe 	c #DCD2B7",
"Ye 	c #D5CAB7",
"Ze 	c #13080F",
"`e 	c #110B17",
" f 	c #0F0A1B",
".f 	c #2C2E49",
"+f 	c #23263E",
"@f 	c #1E1D37",
"#f 	c #110E20",
"$f 	c #16111E",
"%f 	c #0C0713",
"&f 	c #080210",
"*f 	c #0D0312",
"=f 	c #210B18",
"-f 	c #190715",
";f 	c #2E121D",
">f 	c #3F1419",
",f 	c #4D1A1C",
"'f 	c #632424",
")f 	c #4A171B",
"!f 	c #682421",
"~f 	c #7F2824",
"{f 	c #7D2823",
"]f 	c #AA543B",
"^f 	c #AB5239",
"/f 	c #8B3F2F",
"(f 	c #BF6B3F",
"_f 	c #A7532F",
":f 	c #310D0F",
"<f 	c #250E16",
"[f 	c #A75532",
"}f 	c #D56A3A",
"|f 	c #B05430",
"1f 	c #BB5F34",
"2f 	c #B05431",
"3f 	c #AA4D31",
"4f 	c #B55738",
"5f 	c #4F1E20",
"6f 	c #944831",
"7f 	c #CD683C",
"8f 	c #974A2D",
"9f 	c #CA673E",
"0f 	c #BB5B3A",
"af 	c #9D492E",
"bf 	c #CD7D46",
"cf 	c #AE5D39",
"df 	c #964B37",
"ef 	c #34161A",
"ff 	c #230D1A",
"gf 	c #802D20",
"hf 	c #B24C2E",
"if 	c #A94933",
"jf 	c #763427",
"kf 	c #97452F",
"lf 	c #7B362D",
"mf 	c #582B26",
"nf 	c #72403B",
"of 	c #442023",
"pf 	c #2D141A",
"qf 	c #1F0B15",
"rf 	c #130610",
"sf 	c #190A17",
"tf 	c #08010E",
"uf 	c #080314",
"vf 	c #242132",
"wf 	c #1D1B2E",
"xf 	c #1C1C35",
"yf 	c #22213E",
"zf 	c #2B2849",
"Af 	c #1E1A39",
"Bf 	c #1B1735",
"Cf 	c #B8B197",
"Df 	c #CFC3A2",
"Ef 	c #D2C5A0",
"Ff 	c #D1C5A0",
"Gf 	c #D5C7A6",
"Hf 	c #D8CBAC",
"If 	c #D0C5A7",
"Jf 	c #CFC4A5",
"Kf 	c #CBC0A2",
"Lf 	c #BBB096",
"Mf 	c #E9E1CA",
"Nf 	c #D4CDBA",
"Of 	c #040006",
"Pf 	c #0C080F",
"Qf 	c #555B65",
"Rf 	c #5C636E",
"Sf 	c #8F8C82",
"Tf 	c #999481",
"Uf 	c #979280",
"Vf 	c #969280",
"Wf 	c #979381",
"Xf 	c #95917F",
"Yf 	c #95927F",
"Zf 	c #959181",
"`f 	c #959182",
" g 	c #AFA894",
".g 	c #BAB3A0",
"+g 	c #A8A28E",
"@g 	c #86816F",
"#g 	c #76706E",
"$g 	c #474344",
"%g 	c #5E5C5F",
"&g 	c #818381",
"*g 	c #DFE0DE",
"=g 	c #E8E6D3",
"-g 	c #D7CAA6",
";g 	c #D5C6A3",
">g 	c #B5A688",
",g 	c #CFC1A6",
"'g 	c #DBCFB3",
")g 	c #DDD3B5",
"!g 	c #E3D9B8",
"~g 	c #E5D9C1",
"{g 	c #635C5B",
"]g 	c #575055",
"^g 	c #0D0714",
"/g 	c #1F1E32",
"(g 	c #1B1A32",
"_g 	c #3C3E53",
":g 	c #272739",
"<g 	c #080313",
"[g 	c #09020E",
"}g 	c #130514",
"|g 	c #34111D",
"1g 	c #361521",
"2g 	c #39161E",
"3g 	c #4A1720",
"4g 	c #531C21",
"5g 	c #692523",
"6g 	c #551C1E",
"7g 	c #7A3126",
"8g 	c #923728",
"9g 	c #8E322A",
"0g 	c #B95C3D",
"ag 	c #B55938",
"bg 	c #8F442D",
"cg 	c #C16C3E",
"dg 	c #AC5833",
"eg 	c #320F12",
"fg 	c #261116",
"gg 	c #AD5C35",
"hg 	c #DE743D",
"ig 	c #BC6036",
"jg 	c #BF6236",
"kg 	c #B85E34",
"lg 	c #B95F3A",
"mg 	c #C86A43",
"ng 	c #59211D",
"og 	c #974B32",
"pg 	c #D26E42",
"qg 	c #9C4D2E",
"rg 	c #CE6B3E",
"sg 	c #C05F3A",
"tg 	c #A04B2D",
"ug 	c #CF8146",
"vg 	c #B8683C",
"wg 	c #9E513C",
"xg 	c #371819",
"yg 	c #260E17",
"zg 	c #893523",
"Ag 	c #BA5533",
"Bg 	c #BB5736",
"Cg 	c #984730",
"Dg 	c #A64F35",
"Eg 	c #883F31",
"Fg 	c #6A342C",
"Gg 	c #82453B",
"Hg 	c #63312F",
"Ig 	c #492025",
"Jg 	c #3D171F",
"Kg 	c #240D14",
"Lg 	c #29101A",
"Mg 	c #240F1C",
"Ng 	c #090313",
"Og 	c #141025",
"Pg 	c #292842",
"Qg 	c #27253D",
"Rg 	c #29253E",
"Sg 	c #10071F",
"Tg 	c #302933",
"Ug 	c #A29A8C",
"Vg 	c #CEC2A2",
"Wg 	c #D3C7A2",
"Xg 	c #D2C5A1",
"Yg 	c #CFC3A0",
"Zg 	c #D2C4A4",
"`g 	c #D4C5A6",
" h 	c #CDC2A2",
".h 	c #C9BEA0",
"+h 	c #C8BDA4",
"@h 	c #DDD3BC",
"#h 	c #CFC5B3",
"$h 	c #6A5C58",
"%h 	c #645555",
"&h 	c #1E1D24",
"*h 	c #16161F",
"=h 	c #6D696E",
"-h 	c #848077",
";h 	c #959180",
">h 	c #969180",
",h 	c #938F7E",
"'h 	c #95927E",
")h 	c #7E7A6C",
"!h 	c #A7A38F",
"~h 	c #AFAA97",
"{h 	c #A29C89",
"]h 	c #8E8977",
"^h 	c #8A8574",
"/h 	c #8C8776",
"(h 	c #787369",
"_h 	c #716D6E",
":h 	c #1E1B25",
"<h 	c #0A0714",
"[h 	c #878A8C",
"}h 	c #AAAFA7",
"|h 	c #E8E5D3",
"1h 	c #EAE5CA",
"2h 	c #DACCA9",
"3h 	c #D7C8A6",
"4h 	c #D6C8A7",
"5h 	c #D5C7A9",
"6h 	c #D4C7AA",
"7h 	c #D3C7AB",
"8h 	c #CABDA2",
"9h 	c #DACEB1",
"0h 	c #CBBC99",
"ah 	c #CEB99A",
"bh 	c #565156",
"ch 	c #0D0512",
"dh 	c #0B0515",
"eh 	c #0E0619",
"fh 	c #090213",
"gh 	c #120613",
"hh 	c #210A1A",
"ih 	c #110814",
"jh 	c #32111C",
"kh 	c #3F1724",
"lh 	c #52191F",
"mh 	c #581D20",
"nh 	c #6C2724",
"oh 	c #581E20",
"ph 	c #873D29",
"qh 	c #A1452B",
"rh 	c #98392B",
"sh 	c #C06041",
"th 	c #B75B3B",
"uh 	c #924730",
"vh 	c #C77145",
"wh 	c #B25D3A",
"xh 	c #320E12",
"yh 	c #291115",
"zh 	c #B15F38",
"Ah 	c #E0783D",
"Bh 	c #BB6132",
"Ch 	c #C26537",
"Dh 	c #BD6136",
"Eh 	c #BE6536",
"Fh 	c #CE713E",
"Gh 	c #63251C",
"Hh 	c #9A4E32",
"Ih 	c #D47242",
"Jh 	c #9E4F2F",
"Kh 	c #D26E40",
"Lh 	c #C26239",
"Mh 	c #9E4C2D",
"Nh 	c #D2824A",
"Oh 	c #C16F3D",
"Ph 	c #A6583D",
"Qh 	c #3A1A19",
"Rh 	c #280F16",
"Sh 	c #923920",
"Th 	c #BB562E",
"Uh 	c #BC5733",
"Vh 	c #9E472D",
"Wh 	c #A95036",
"Xh 	c #8F4232",
"Yh 	c #793A2E",
"Zh 	c #A0533E",
"`h 	c #7D3A31",
" i 	c #4D2122",
".i 	c #461F21",
"+i 	c #250F17",
"@i 	c #31141C",
"#i 	c #381822",
"$i 	c #291421",
"%i 	c #160B19",
"&i 	c #090214",
"*i 	c #0B0619",
"=i 	c #131023",
"-i 	c #120B1E",
";i 	c #0D0417",
">i 	c #150C1F",
",i 	c #565051",
"'i 	c #CEC1AB",
")i 	c #D2C6A0",
"!i 	c #CFC19E",
"~i 	c #CEC0A1",
"{i 	c #CDBFA1",
"]i 	c #CFC2A4",
"^i 	c #C8BC9E",
"/i 	c #C6BB9D",
"(i 	c #C9BE9F",
"_i 	c #C8BC9F",
":i 	c #C5BAA1",
"<i 	c #D8CEB6",
"[i 	c #D6CAB4",
"}i 	c #9F8A75",
"|i 	c #7B6A64",
"1i 	c #09040E",
"2i 	c #66666D",
"3i 	c #706E6B",
"4i 	c #918D7D",
"5i 	c #94907F",
"6i 	c #948F7E",
"7i 	c #938E7C",
"8i 	c #8A8677",
"9i 	c #847E73",
"0i 	c #AFAB98",
"ai 	c #928B7C",
"bi 	c #8B8776",
"ci 	c #85806F",
"di 	c #79756A",
"ei 	c #706C6E",
"fi 	c #1A1620",
"gi 	c #0C0816",
"hi 	c #7B7D80",
"ii 	c #9DA092",
"ji 	c #E0DBBC",
"ki 	c #E7DEBB",
"li 	c #DBCCA8",
"mi 	c #D8C8A7",
"ni 	c #D4C7A9",
"oi 	c #CFC2A6",
"pi 	c #B4A98D",
"qi 	c #CEC3A7",
"ri 	c #CDC1A4",
"si 	c #BAAE94",
"ti 	c #77726B",
"ui 	c #2D2733",
"vi 	c #221B2A",
"wi 	c #0C0415",
"xi 	c #110715",
"yi 	c #150611",
"zi 	c #1F0B19",
"Ai 	c #190B16",
"Bi 	c #4B1D24",
"Ci 	c #591F23",
"Di 	c #632023",
"Ei 	c #6A2222",
"Fi 	c #702725",
"Gi 	c #812D2A",
"Hi 	c #5F2122",
"Ii 	c #96462C",
"Ji 	c #B65430",
"Ki 	c #A2442C",
"Li 	c #C76741",
"Mi 	c #94472F",
"Ni 	c #CD7747",
"Oi 	c #B4603C",
"Pi 	c #310D10",
"Qi 	c #2A1013",
"Ri 	c #B3613A",
"Si 	c #E0783E",
"Ti 	c #BA6031",
"Ui 	c #C76A3B",
"Vi 	c #C06234",
"Wi 	c #BE6434",
"Xi 	c #D37743",
"Yi 	c #68281F",
"Zi 	c #9B5134",
"`i 	c #D87846",
" j 	c #9E4F31",
".j 	c #D47144",
"+j 	c #C6653C",
"@j 	c #9F4C2F",
"#j 	c #D3824C",
"$j 	c #C4703F",
"%j 	c #AA5A3B",
"&j 	c #3E1C1A",
"*j 	c #2A0F18",
"=j 	c #9B3E23",
"-j 	c #C05B30",
";j 	c #C05934",
">j 	c #A24A2F",
",j 	c #AC5436",
"'j 	c #954734",
")j 	c #84402F",
"!j 	c #C26442",
"~j 	c #913E2C",
"{j 	c #652621",
"]j 	c #55211F",
"^j 	c #2D0F14",
"/j 	c #441D23",
"(j 	c #4C2027",
"_j 	c #25111A",
":j 	c #200D1A",
"<j 	c #110618",
"[j 	c #080316",
"}j 	c #0B0416",
"|j 	c #180D21",
"1j 	c #2E2438",
"2j 	c #4D4649",
"3j 	c #CABDA4",
"4j 	c #D1C4A4",
"5j 	c #CDC1A1",
"6j 	c #C2B495",
"7j 	c #BEAF92",
"8j 	c #C3B598",
"9j 	c #C7B99C",
"0j 	c #C9BC9E",
"aj 	c #C8BD9F",
"bj 	c #C6BB9E",
"cj 	c #C9BDA2",
"dj 	c #C6BCA2",
"ej 	c #D0C3AA",
"fj 	c #9F8C72",
"gj 	c #73635C",
"hj 	c #0B040C",
"ij 	c #6B6970",
"jj 	c #6C6B68",
"kj 	c #8D897B",
"lj 	c #8C8778",
"mj 	c #928D7D",
"nj 	c #928C7C",
"oj 	c #8D8878",
"pj 	c #9A9685",
"qj 	c #A09A8B",
"rj 	c #8D887A",
"sj 	c #B0AC9B",
"tj 	c #A09C8A",
"uj 	c #8F8A7A",
"vj 	c #898475",
"wj 	c #838070",
"xj 	c #6A6761",
"yj 	c #646165",
"zj 	c #17131E",
"Aj 	c #0D0919",
"Bj 	c #45454A",
"Cj 	c #575658",
"Dj 	c #D3C6A1",
"Ej 	c #DACBA4",
"Fj 	c #D8C7A5",
"Gj 	c #D5C5A4",
"Hj 	c #D3C4A4",
"Ij 	c #D2C3A5",
"Jj 	c #D0C2A6",
"Kj 	c #BEB297",
"Lj 	c #B2A88D",
"Mj 	c #C6BB9F",
"Nj 	c #C3B7A7",
"Oj 	c #483F4D",
"Pj 	c #494253",
"Qj 	c #342D3D",
"Rj 	c #312A39",
"Sj 	c #17101D",
"Tj 	c #090212",
"Uj 	c #0D0414",
"Vj 	c #2F1525",
"Wj 	c #2E111F",
"Xj 	c #1D0915",
"Yj 	c #1A0A16",
"Zj 	c #4B181B",
"`j 	c #64201D",
" k 	c #752422",
".k 	c #772520",
"+k 	c #7F2B21",
"@k 	c #973828",
"#k 	c #6E2620",
"$k 	c #9D482E",
"%k 	c #C05933",
"&k 	c #AA4830",
"*k 	c #CC6944",
"=k 	c #BF613E",
"-k 	c #984A2F",
";k 	c #CF7C45",
">k 	c #B7643E",
",k 	c #310C10",
"'k 	c #2A1014",
")k 	c #B56337",
"!k 	c #E27A3D",
"~k 	c #C06232",
"{k 	c #C96E38",
"]k 	c #C46734",
"^k 	c #C46937",
"/k 	c #D67A46",
"(k 	c #6E291F",
"_k 	c #A05638",
":k 	c #DD7D48",
"<k 	c #9D4E2E",
"[k 	c #D47344",
"}k 	c #C9673E",
"|k 	c #A34E30",
"1k 	c #D4834B",
"2k 	c #C6723F",
"3k 	c #AD5D3C",
"4k 	c #401C1A",
"5k 	c #2B0F17",
"6k 	c #9D4025",
"7k 	c #C36032",
"8k 	c #C56037",
"9k 	c #A84C2F",
"0k 	c #AF5634",
"ak 	c #984932",
"bk 	c #8D422F",
"ck 	c #CB6640",
"dk 	c #964029",
"ek 	c #6B2923",
"fk 	c #592420",
"gk 	c #2E1115",
"hk 	c #4B1F23",
"ik 	c #57252A",
"jk 	c #3B1E25",
"kk 	c #431F26",
"lk 	c #27121E",
"mk 	c #0A0315",
"nk 	c #1D1527",
"ok 	c #211A2C",
"pk 	c #453F48",
"qk 	c #A59D95",
"rk 	c #A09787",
"sk 	c #C2B297",
"tk 	c #B2A287",
"uk 	c #BCAE91",
"vk 	c #C6B99B",
"wk 	c #C7BA9D",
"xk 	c #C4B99D",
"yk 	c #CCC1A6",
"zk 	c #D0C5AA",
"Ak 	c #A29785",
"Bk 	c #6A5D51",
"Ck 	c #493E3F",
"Dk 	c #67646C",
"Ek 	c #595859",
"Fk 	c #837F76",
"Gk 	c #868175",
"Hk 	c #888376",
"Ik 	c #8C8879",
"Jk 	c #8E8777",
"Kk 	c #A8A290",
"Lk 	c #A9A38E",
"Mk 	c #A09B8B",
"Nk 	c #A7A395",
"Ok 	c #8C8779",
"Pk 	c #8B867A",
"Qk 	c #878274",
"Rk 	c #827E72",
"Sk 	c #524E4D",
"Tk 	c #0F0911",
"Uk 	c #0F0816",
"Vk 	c #0E091B",
"Wk 	c #14111D",
"Xk 	c #1B1621",
"Yk 	c #8C867B",
"Zk 	c #ACA087",
"`k 	c #D5C4A0",
" l 	c #D6C5A4",
".l 	c #D4C4A5",
"+l 	c #CFC1A5",
"@l 	c #CABEA4",
"#l 	c #C0B79C",
"$l 	c #C9BEA2",
"%l 	c #D0C6AB",
"&l 	c #C7BDAF",
"*l 	c #443C4A",
"=l 	c #3B3642",
"-l 	c #2F2A36",
";l 	c #26212D",
">l 	c #1A1421",
",l 	c #0E0210",
"'l 	c #160613",
")l 	c #331320",
"!l 	c #33111D",
"~l 	c #250C19",
"{l 	c #1A0A15",
"]l 	c #511E1C",
"^l 	c #772A22",
"/l 	c #893327",
"(l 	c #7B2D22",
"_l 	c #893625",
":l 	c #A9472C",
"<l 	c #782C1D",
"[l 	c #A04D2D",
"}l 	c #C45F33",
"|l 	c #AF4B2F",
"1l 	c #CF6D42",
"2l 	c #C4673D",
"3l 	c #A05333",
"4l 	c #D07E48",
"5l 	c #B8663F",
"6l 	c #350E12",
"7l 	c #2A1012",
"8l 	c #B76437",
"9l 	c #E27B3C",
"0l 	c #C26231",
"al 	c #CB7038",
"bl 	c #C76934",
"cl 	c #C46936",
"dl 	c #D97E47",
"el 	c #752A1C",
"fl 	c #A25936",
"gl 	c #DD8147",
"hl 	c #9F4F2E",
"il 	c #D67545",
"jl 	c #CA6A3C",
"kl 	c #A64F2D",
"ll 	c #D6864D",
"ml 	c #C77340",
"nl 	c #AE5D3A",
"ol 	c #431D19",
"pl 	c #2D0F17",
"ql 	c #9C3F23",
"rl 	c #C76433",
"sl 	c #C76336",
"tl 	c #AB4F2E",
"ul 	c #B05734",
"vl 	c #9A4B33",
"wl 	c #93462E",
"xl 	c #CD693E",
"yl 	c #9A4229",
"zl 	c #702D25",
"Al 	c #5C2622",
"Bl 	c #311316",
"Cl 	c #71362D",
"Dl 	c #873C32",
"El 	c #4F2023",
"Fl 	c #4D2127",
"Gl 	c #220E19",
"Hl 	c #0D0415",
"Il 	c #140B1E",
"Jl 	c #191223",
"Kl 	c #312D41",
"Ll 	c #3A3350",
"Ml 	c #858076",
"Nl 	c #CABFA1",
"Ol 	c #C7B89D",
"Pl 	c #B7A78D",
"Ql 	c #C0B295",
"Rl 	c #C9BC9F",
"Sl 	c #C8BCA0",
"Tl 	c #C6BA9E",
"Ul 	c #A49A87",
"Vl 	c #8A8275",
"Wl 	c #21161D",
"Xl 	c #180C1B",
"Yl 	c #0C0416",
"Zl 	c #0D071A",
"`l 	c #1B171F",
" m 	c #7E7976",
".m 	c #847F74",
"+m 	c #878276",
"@m 	c #888475",
"#m 	c #817A6E",
"$m 	c #9E9788",
"%m 	c #A7A28F",
"&m 	c #A6A08C",
"*m 	c #A39F8D",
"=m 	c #64605D",
"-m 	c #645F5D",
";m 	c #6D6865",
">m 	c #817D74",
",m 	c #827F71",
"'m 	c #848273",
")m 	c #807C70",
"!m 	c #55504F",
"~m 	c #3B3738",
"{m 	c #76716A",
"]m 	c #736E68",
"^m 	c #1F1620",
"/m 	c #1D131D",
"(m 	c #8F8474",
"_m 	c #D6C99F",
":m 	c #D6C9A4",
"<m 	c #D4C4A1",
"[m 	c #D4C4A3",
"}m 	c #D2C5AA",
"|m 	c #D0C7B0",
"1m 	c #C4BBA2",
"2m 	c #C0B5A2",
"3m 	c #898175",
"4m 	c #8C8683",
"5m 	c #3A3747",
"6m 	c #363640",
"7m 	c #292733",
"8m 	c #080111",
"9m 	c #08020D",
"0m 	c #34141E",
"am 	c #3A161E",
"bm 	c #43151F",
"cm 	c #3E141D",
"dm 	c #2D0E1B",
"em 	c #1D0B16",
"fm 	c #672922",
"gm 	c #8F371E",
"hm 	c #A54427",
"im 	c #913825",
"jm 	c #A0462B",
"km 	c #B24F2F",
"lm 	c #792E1D",
"mm 	c #A4502E",
"nm 	c #C76337",
"om 	c #B24E2F",
"pm 	c #CC6C3F",
"qm 	c #BE6238",
"rm 	c #A15332",
"sm 	c #CF7F47",
"tm 	c #B8683E",
"um 	c #361011",
"vm 	c #B76738",
"wm 	c #E07D3B",
"xm 	c #BF612D",
"ym 	c #CC7137",
"zm 	c #C66A30",
"Am 	c #C86E38",
"Bm 	c #DA8048",
"Cm 	c #78291A",
"Dm 	c #A55C3A",
"Em 	c #DC834A",
"Fm 	c #A1502E",
"Gm 	c #D57845",
"Hm 	c #CA6D3D",
"Im 	c #AA522F",
"Jm 	c #D7894F",
"Km 	c #C67440",
"Lm 	c #B05C3A",
"Mm 	c #451E1A",
"Nm 	c #2B0E14",
"Om 	c #9F4123",
"Pm 	c #C86433",
"Qm 	c #C96434",
"Rm 	c #AC4E2E",
"Sm 	c #B25636",
"Tm 	c #A04E33",
"Um 	c #9A472F",
"Vm 	c #CB693B",
"Wm 	c #9D4328",
"Xm 	c #742F24",
"Ym 	c #5D2623",
"Zm 	c #341416",
"`m 	c #7D3D2E",
" n 	c #954230",
".n 	c #5D2222",
"+n 	c #62292A",
"@n 	c #3A1A1F",
"#n 	c #3E2028",
"$n 	c #140613",
"%n 	c #0B0115",
"&n 	c #39345D",
"*n 	c #312A53",
"=n 	c #696663",
"-n 	c #8F887B",
";n 	c #AB9E88",
">n 	c #BCAF91",
",n 	c #C1B496",
"'n 	c #C3B698",
")n 	c #C6BCA1",
"!n 	c #CBC2A8",
"~n 	c #7A7268",
"{n 	c #33282E",
"]n 	c #271C23",
"^n 	c #241B22",
"/n 	c #211A21",
"(n 	c #1B1421",
"_n 	c #241A29",
":n 	c #0F081D",
"<n 	c #342F36",
"[n 	c #807C78",
"}n 	c #817E74",
"|n 	c #868273",
"1n 	c #898476",
"2n 	c #898477",
"3n 	c #817C73",
"4n 	c #A49E8D",
"5n 	c #A7A18F",
"6n 	c #A59F8D",
"7n 	c #A29E8D",
"8n 	c #5F5A5A",
"9n 	c #646060",
"0n 	c #77736F",
"an 	c #78746D",
"bn 	c #716E67",
"cn 	c #77746C",
"dn 	c #6E6963",
"en 	c #4A4447",
"fn 	c #251D25",
"gn 	c #6C6661",
"hn 	c #E2DCCA",
"in 	c #C3BCA6",
"jn 	c #989289",
"kn 	c #A19A95",
"ln 	c #645E5D",
"mn 	c #3A3132",
"nn 	c #463E36",
"on 	c #4A4337",
"pn 	c #8E8069",
"qn 	c #B9A586",
"rn 	c #D1C6B1",
"sn 	c #DED8C4",
"tn 	c #D3CBB6",
"un 	c #C6C0B0",
"vn 	c #635F5F",
"wn 	c #534C57",
"xn 	c #322D3E",
"yn 	c #2C2A36",
"zn 	c #272330",
"An 	c #090111",
"Bn 	c #090110",
"Cn 	c #3A141F",
"Dn 	c #481A1F",
"En 	c #4C1A22",
"Fn 	c #41171F",
"Gn 	c #2E101B",
"Hn 	c #1D0B15",
"In 	c #6C2921",
"Jn 	c #963A21",
"Kn 	c #A84828",
"Ln 	c #973C26",
"Mn 	c #A74A2F",
"Nn 	c #BB5734",
"On 	c #7D2F1E",
"Pn 	c #A75331",
"Qn 	c #CA6739",
"Rn 	c #B35231",
"Sn 	c #CE7544",
"Tn 	c #C26839",
"Un 	c #AB5835",
"Vn 	c #D07F49",
"Wn 	c #BA6A3F",
"Xn 	c #371011",
"Yn 	c #260E11",
"Zn 	c #BA6A39",
"`n 	c #E2803C",
" o 	c #C3642F",
".o 	c #CE7439",
"+o 	c #C56930",
"@o 	c #CB703A",
"#o 	c #DA8148",
"$o 	c #A65F3C",
"%o 	c #D9824A",
"&o 	c #A2512F",
"*o 	c #D57945",
"=o 	c #CB6F3F",
"-o 	c #AC552E",
";o 	c #DC8E53",
">o 	c #CF7D48",
",o 	c #B4623E",
"'o 	c #48211C",
")o 	c #2B0E13",
"!o 	c #A34525",
"~o 	c #CC6836",
"{o 	c #AB4D2B",
"]o 	c #B35835",
"^o 	c #A45033",
"/o 	c #9E482F",
"(o 	c #CD6B3B",
"_o 	c #A04529",
":o 	c #773125",
"<o 	c #5D2824",
"[o 	c #361515",
"}o 	c #854230",
"|o 	c #9D4B35",
"1o 	c #662C26",
"2o 	c #743734",
"3o 	c #441C21",
"4o 	c #391C22",
"5o 	c #1C0915",
"6o 	c #100114",
"7o 	c #1D1736",
"8o 	c #2C2541",
"9o 	c #362E4A",
"0o 	c #40374F",
"ao 	c #A69A88",
"bo 	c #C5B997",
"co 	c #C2B695",
"do 	c #C3B696",
"eo 	c #B5AA8D",
"fo 	c #8E8473",
"go 	c #5C554F",
"ho 	c #3D3634",
"io 	c #372C30",
"jo 	c #292024",
"ko 	c #908A7E",
"lo 	c #AAA48B",
"mo 	c #B1A68E",
"no 	c #C0B29C",
"oo 	c #958980",
"po 	c #11091B",
"qo 	c #26202B",
"ro 	c #4F4B4E",
"so 	c #777371",
"to 	c #817C72",
"uo 	c #928C7F",
"vo 	c #A7A18E",
"wo 	c #A59F8B",
"xo 	c #A29E8B",
"yo 	c #88837B",
"zo 	c #8B8880",
"Ao 	c #7D7A74",
"Bo 	c #74716C",
"Co 	c #534F50",
"Do 	c #565054",
"Eo 	c #1B1717",
"Fo 	c #1D161D",
"Go 	c #322A30",
"Ho 	c #66605C",
"Io 	c #F2EBDB",
"Jo 	c #EEE8D1",
"Ko 	c #DCD5C5",
"Lo 	c #D4CCBD",
"Mo 	c #C0B8B2",
"No 	c #A39C96",
"Oo 	c #7E7671",
"Po 	c #302524",
"Qo 	c #554F42",
"Ro 	c #685E50",
"So 	c #534B46",
"To 	c #A8A298",
"Uo 	c #716A5F",
"Vo 	c #686058",
"Wo 	c #474246",
"Xo 	c #3D3643",
"Yo 	c #30293B",
"Zo 	c #0E0818",
"`o 	c #0B0413",
" p 	c #160716",
".p 	c #47171F",
"+p 	c #602725",
"@p 	c #632624",
"#p 	c #511E22",
"$p 	c #35141D",
"%p 	c #1C0E16",
"&p 	c #702D1F",
"*p 	c #9F3F22",
"=p 	c #B14E2C",
"-p 	c #A2442B",
";p 	c #AE4F31",
">p 	c #BF5B35",
",p 	c #7E311E",
"'p 	c #A95532",
")p 	c #CC693A",
"!p 	c #B85533",
"~p 	c #D37C47",
"{p 	c #CA703B",
"]p 	c #AE5B34",
"^p 	c #D07E49",
"/p 	c #B9693F",
"(p 	c #391011",
"_p 	c #220C0E",
":p 	c #BB6C39",
"<p 	c #E5843E",
"[p 	c #C5652F",
"}p 	c #D37940",
"|p 	c #C56932",
"1p 	c #CB6F3A",
"2p 	c #D98147",
"3p 	c #792A1A",
"4p 	c #A7603C",
"5p 	c #DA834B",
"6p 	c #A5542F",
"7p 	c #D97D47",
"8p 	c #CC7240",
"9p 	c #AE572D",
"0p 	c #E09156",
"ap 	c #CC7B44",
"bp 	c #B76640",
"cp 	c #4A241D",
"dp 	c #2A0E14",
"ep 	c #A84A26",
"fp 	c #D06D34",
"gp 	c #D06D37",
"hp 	c #AC4E2B",
"ip 	c #B75D39",
"jp 	c #A65134",
"kp 	c #A0492F",
"lp 	c #CF6D3C",
"mp 	c #A24729",
"np 	c #793226",
"op 	c #5E2924",
"pp 	c #3A1617",
"qp 	c #8F4533",
"rp 	c #A44B35",
"sp 	c #733329",
"tp 	c #90473C",
"up 	c #692E2B",
"vp 	c #55231F",
"wp 	c #4F2324",
"xp 	c #1B0417",
"yp 	c #0C0118",
"zp 	c #0B031A",
"Ap 	c #2A223A",
"Bp 	c #342B45",
"Cp 	c #383046",
"Dp 	c #6B635D",
"Ep 	c #8F8670",
"Fp 	c #A89D7B",
"Gp 	c #ACA17E",
"Hp 	c #6F6A5E",
"Ip 	c #504C46",
"Jp 	c #2F2C2D",
"Kp 	c #2F2829",
"Lp 	c #8C847E",
"Mp 	c #9D958F",
"Np 	c #D6CEBC",
"Op 	c #E5DEC2",
"Pp 	c #E8E1C1",
"Qp 	c #C4B294",
"Rp 	c #8B7B70",
"Sp 	c #130B1E",
"Tp 	c #1E1426",
"Up 	c #292030",
"Vp 	c #746F6F",
"Wp 	c #7D7970",
"Xp 	c #858172",
"Yp 	c #888274",
"Zp 	c #A7A18C",
"`p 	c #A59F8C",
" q 	c #979382",
".q 	c #AFAB9B",
"+q 	c #A19F8E",
"@q 	c #75726B",
"#q 	c #75716E",
"$q 	c #555155",
"%q 	c #575358",
"&q 	c #120E14",
"*q 	c #1A1119",
"=q 	c #413438",
"-q 	c #6A5F59",
";q 	c #F1E7D7",
">q 	c #EFE6CF",
",q 	c #E8DFC6",
"'q 	c #F0E8D3",
")q 	c #DBD4BA",
"!q 	c #C5BDA8",
"~q 	c #726A64",
"{q 	c #645955",
"]q 	c #534748",
"^q 	c #292129",
"/q 	c #524F4E",
"(q 	c #454040",
"_q 	c #271F27",
":q 	c #2A232F",
"<q 	c #2D2934",
"[q 	c #2D2737",
"}q 	c #120B1B",
"|q 	c #100513",
"1q 	c #100516",
"2q 	c #1E0615",
"3q 	c #4B1820",
"4q 	c #612425",
"5q 	c #642525",
"6q 	c #591E21",
"7q 	c #3D151E",
"8q 	c #1C0D15",
"9q 	c #733121",
"0q 	c #AA4A26",
"aq 	c #BD5731",
"bq 	c #A94A2B",
"cq 	c #B25230",
"dq 	c #C45E35",
"eq 	c #7F3420",
"fq 	c #A85732",
"gq 	c #CE6C39",
"hq 	c #B75630",
"iq 	c #DB844C",
"jq 	c #D37B40",
"kq 	c #B05C31",
"lq 	c #D2834C",
"mq 	c #BF7246",
"nq 	c #3D1210",
"oq 	c #200C0E",
"pq 	c #BA6E3B",
"qq 	c #E68841",
"rq 	c #C46630",
"sq 	c #D2793F",
"tq 	c #C76B33",
"uq 	c #C97039",
"vq 	c #D88246",
"wq 	c #792B17",
"xq 	c #A5603A",
"yq 	c #D9874C",
"zq 	c #A7562D",
"Aq 	c #DC8048",
"Bq 	c #D07541",
"Cq 	c #B0592F",
"Dq 	c #E09355",
"Eq 	c #CE7E43",
"Fq 	c #BF6E44",
"Gq 	c #4B251C",
"Hq 	c #270E13",
"Iq 	c #AC4F26",
"Jq 	c #D37132",
"Kq 	c #D57137",
"Lq 	c #AE512B",
"Mq 	c #BF673D",
"Nq 	c #AA5435",
"Oq 	c #A1492E",
"Pq 	c #D16F3C",
"Qq 	c #A64A28",
"Rq 	c #793124",
"Sq 	c #612A26",
"Tq 	c #3E1717",
"Uq 	c #964834",
"Vq 	c #AB4E37",
"Wq 	c #7B3529",
"Xq 	c #974A3D",
"Yq 	c #77342D",
"Zq 	c #6C2D26",
"`q 	c #622C2A",
" r 	c #160314",
".r 	c #2C243B",
"+r 	c #2F263E",
"@r 	c #372D3C",
"#r 	c #372F30",
"$r 	c #372E29",
"%r 	c #4B4235",
"&r 	c #4E4537",
"*r 	c #2F2B2B",
"=r 	c #211C20",
"-r 	c #3E3839",
";r 	c #35302F",
">r 	c #312E2A",
",r 	c #C8C5B8",
"'r 	c #F0EEDF",
")r 	c #F3F0E3",
"!r 	c #F6F3E7",
"~r 	c #F7F1DE",
"{r 	c #B19E86",
"]r 	c #6C5950",
"^r 	c #1B0F24",
"/r 	c #201628",
"(r 	c #2F2833",
"_r 	c #706969",
":r 	c #857F73",
"<r 	c #8D8677",
"[r 	c #958F79",
"}r 	c #8F8976",
"|r 	c #777368",
"1r 	c #AEAA99",
"2r 	c #9F9D8B",
"3r 	c #85827A",
"4r 	c #83807B",
"5r 	c #504F52",
"6r 	c #575459",
"7r 	c #110D14",
"8r 	c #251B20",
"9r 	c #63534F",
"0r 	c #79685C",
"ar 	c #E8D9BE",
"br 	c #DACCAA",
"cr 	c #DBCBA6",
"dr 	c #DDCFA9",
"er 	c #E5D8B4",
"fr 	c #F3E9CA",
"gr 	c #F4EBCF",
"hr 	c #F4EACE",
"ir 	c #EEE4C9",
"jr 	c #B3A99E",
"kr 	c #413B42",
"lr 	c #130E15",
"mr 	c #18131A",
"nr 	c #1D1424",
"or 	c #211A29",
"pr 	c #211B28",
"qr 	c #110A1B",
"rr 	c #130617",
"sr 	c #391422",
"tr 	c #4A1A25",
"ur 	c #411822",
"vr 	c #521A20",
"wr 	c #783630",
"xr 	c #7C372E",
"yr 	c #702F2B",
"zr 	c #491E23",
"Ar 	c #1D0D16",
"Br 	c #773526",
"Cr 	c #AF4F29",
"Dr 	c #C15C31",
"Er 	c #AB4B2B",
"Fr 	c #B25231",
"Gr 	c #C86137",
"Hr 	c #7E3523",
"Ir 	c #A85932",
"Jr 	c #CF6E38",
"Kr 	c #B65530",
"Lr 	c #DE864D",
"Mr 	c #D57D43",
"Nr 	c #B05D32",
"Or 	c #D28C53",
"Pr 	c #C07649",
"Qr 	c #3E0F0E",
"Rr 	c #1F0C0D",
"Sr 	c #BB703D",
"Tr 	c #E88A43",
"Ur 	c #C36731",
"Vr 	c #D17A40",
"Wr 	c #C56C33",
"Xr 	c #CB733B",
"Yr 	c #D98345",
"Zr 	c #782B17",
"`r 	c #A36039",
" s 	c #DA8A4D",
".s 	c #AF5C31",
"+s 	c #E0844B",
"@s 	c #D27742",
"#s 	c #B25A30",
"$s 	c #E29554",
"%s 	c #D28245",
"&s 	c #C87749",
"*s 	c #4C271D",
"=s 	c #250D12",
"-s 	c #B3552B",
";s 	c #D87335",
">s 	c #D77439",
",s 	c #B0552F",
"'s 	c #C56B40",
")s 	c #B05838",
"!s 	c #A34A2E",
"~s 	c #D3713E",
"{s 	c #A84B29",
"]s 	c #7D3226",
"^s 	c #672E29",
"/s 	c #401817",
"(s 	c #9B4D38",
"_s 	c #AE5136",
":s 	c #813827",
"<s 	c #9D4C3A",
"[s 	c #81372C",
"}s 	c #823A2D",
"|s 	c #7A392F",
"1s 	c #401218",
"2s 	c #46161E",
"3s 	c #2C0F19",
"4s 	c #0B0418",
"5s 	c #1E162D",
"6s 	c #292038",
"7s 	c #2A2230",
"8s 	c #251F22",
"9s 	c #221D1E",
"0s 	c #1F1B1C",
"as 	c #1B1419",
"bs 	c #373434",
"cs 	c #D7D3CA",
"ds 	c #EBE9D5",
"es 	c #EEEDD9",
"fs 	c #F7F4E2",
"gs 	c #D9D7BC",
"hs 	c #CCC7A7",
"is 	c #CFC8AA",
"js 	c #DAD2B4",
"ks 	c #A8957F",
"ls 	c #614D47",
"ms 	c #1F1128",
"ns 	c #211628",
"os 	c #352E37",
"ps 	c #6C6565",
"qs 	c #746D6A",
"rs 	c #837E72",
"ss 	c #847D72",
"ts 	c #8F8979",
"us 	c #817A6C",
"vs 	c #7C7668",
"ws 	c #78766C",
"xs 	c #88867A",
"ys 	c #827F73",
"zs 	c #86837A",
"As 	c #83817A",
"Bs 	c #504F51",
"Cs 	c #454248",
"Ds 	c #0F0A13",
"Es 	c #665F5F",
"Fs 	c #DBCFC0",
"Gs 	c #DACDB4",
"Hs 	c #EADDBF",
"Is 	c #D8CBA9",
"Js 	c #CCBF9D",
"Ks 	c #CFC2A0",
"Ls 	c #D2C4A1",
"Ms 	c #DCCEAD",
"Ns 	c #DDD1AE",
"Os 	c #EEE9CE",
"Ps 	c #DDD6BC",
"Qs 	c #C9C4B6",
"Rs 	c #B2ACA9",
"Ss 	c #403332",
"Ts 	c #3D2E30",
"Us 	c #0D0515",
"Vs 	c #0F0719",
"Ws 	c #11091E",
"Xs 	c #0E061B",
"Ys 	c #0D0519",
"Zs 	c #160A19",
"`s 	c #37131D",
" t 	c #591C23",
".t 	c #571E22",
"+t 	c #5A1D21",
"@t 	c #954B39",
"#t 	c #964835",
"$t 	c #853C2E",
"%t 	c #532725",
"&t 	c #1D0D18",
"*t 	c #743726",
"=t 	c #B3532A",
"-t 	c #C56133",
";t 	c #AD4D2E",
">t 	c #B35432",
",t 	c #C96237",
"'t 	c #7E3525",
")t 	c #AA5B34",
"!t 	c #D17139",
"~t 	c #B45430",
"{t 	c #DF884F",
"]t 	c #D67D45",
"^t 	c #AD5A2F",
"/t 	c #D19052",
"(t 	c #BE7749",
"_t 	c #400C0F",
":t 	c #1D0C0E",
"<t 	c #BC723F",
"[t 	c #EA8C45",
"}t 	c #BF6434",
"|t 	c #D07940",
"1t 	c #C36C33",
"2t 	c #CD763B",
"3t 	c #DB8345",
"4t 	c #772B18",
"5t 	c #A3613C",
"6t 	c #DD8C50",
"7t 	c #B46033",
"8t 	c #E3884D",
"9t 	c #D67B45",
"0t 	c #B75F34",
"at 	c #E69956",
"bt 	c #D38445",
"ct 	c #CD7E4D",
"dt 	c #502D20",
"et 	c #240E12",
"ft 	c #B85B2F",
"gt 	c #DC7638",
"ht 	c #DA753A",
"it 	c #C86E41",
"jt 	c #B55C3B",
"kt 	c #A84D2E",
"lt 	c #D6733B",
"mt 	c #AB4C2B",
"nt 	c #7F3226",
"ot 	c #6A3128",
"pt 	c #411B19",
"qt 	c #9C4F38",
"rt 	c #AD5236",
"st 	c #853B2A",
"tt 	c #A04E36",
"ut 	c #873A2D",
"vt 	c #883D2D",
"wt 	c #823E2C",
"xt 	c #501617",
"yt 	c #4F181A",
"zt 	c #270C13",
"At 	c #0D0418",
"Bt 	c #110620",
"Ct 	c #130824",
"Dt 	c #190F27",
"Et 	c #10071B",
"Ft 	c #130B1C",
"Gt 	c #363232",
"Ht 	c #C4BEAD",
"It 	c #D1CBB7",
"Jt 	c #D6D1B9",
"Kt 	c #D9D4B6",
"Lt 	c #D5CDB0",
"Mt 	c #CEC7AA",
"Nt 	c #CCC3A5",
"Ot 	c #B09E87",
"Pt 	c #857065",
"Qt 	c #241327",
"Rt 	c #231528",
"St 	c #383038",
"Tt 	c #676061",
"Ut 	c #696362",
"Vt 	c #827D73",
"Wt 	c #837D72",
"Xt 	c #90897A",
"Yt 	c #7F786C",
"Zt 	c #7C7467",
"`t 	c #79766C",
" u 	c #6A6664",
".u 	c #6B6864",
"+u 	c #85837A",
"@u 	c #838279",
"#u 	c #4E4F50",
"$u 	c #454449",
"%u 	c #0D080F",
"&u 	c #676062",
"*u 	c #DCD2C4",
"=u 	c #D9CEB5",
"-u 	c #E7DCBE",
";u 	c #CABD9E",
">u 	c #CFC2A1",
",u 	c #DFD5B9",
"'u 	c #E3DABF",
")u 	c #ECE4CA",
"!u 	c #E8E1D2",
"~u 	c #645049",
"{u 	c #5F4544",
"]u 	c #120515",
"^u 	c #0D0518",
"/u 	c #0D0619",
"(u 	c #0D0516",
"_u 	c #250C18",
":u 	c #45171C",
"<u 	c #601F23",
"[u 	c #611F24",
"}u 	c #5D1F20",
"|u 	c #9A4F3A",
"1u 	c #984935",
"2u 	c #894031",
"3u 	c #572927",
"4u 	c #1C0D16",
"5u 	c #753826",
"6u 	c #B7542B",
"7u 	c #C86335",
"8u 	c #AE4F2F",
"9u 	c #B35532",
"0u 	c #CB6336",
"au 	c #783224",
"bu 	c #A95C34",
"cu 	c #D27236",
"du 	c #B1542F",
"eu 	c #DE8B4E",
"fu 	c #D27C40",
"gu 	c #A75527",
"hu 	c #D5944E",
"iu 	c #BF7B47",
"ju 	c #440F10",
"ku 	c #BB7442",
"lu 	c #ED9249",
"mu 	c #C06534",
"nu 	c #D27C42",
"ou 	c #C46D35",
"pu 	c #CD773E",
"qu 	c #DC8346",
"ru 	c #752816",
"su 	c #A4643F",
"tu 	c #E08F51",
"uu 	c #B65D30",
"vu 	c #E58C50",
"wu 	c #D87F46",
"xu 	c #BE6637",
"yu 	c #E9A05A",
"zu 	c #D58847",
"Au 	c #D1854C",
"Bu 	c #583524",
"Cu 	c #240D10",
"Du 	c #BD5F30",
"Eu 	c #DC7637",
"Fu 	c #D97539",
"Gu 	c #AF552F",
"Hu 	c #C7703E",
"Iu 	c #B56038",
"Ju 	c #A94F2B",
"Ku 	c #D57235",
"Lu 	c #A64A2A",
"Mu 	c #7B3125",
"Nu 	c #6C3125",
"Ou 	c #411B1A",
"Pu 	c #9A4F34",
"Qu 	c #AC5335",
"Ru 	c #853C2D",
"Su 	c #A14E35",
"Tu 	c #863A2C",
"Uu 	c #89402B",
"Vu 	c #813E2B",
"Wu 	c #531918",
"Xu 	c #541C1D",
"Yu 	c #240A11",
"Zu 	c #0F0418",
"`u 	c #0D0416",
" v 	c #0E0617",
".v 	c #867F71",
"+v 	c #A6A08B",
"@v 	c #E3DCBF",
"#v 	c #E6DFBC",
"$v 	c #E5DCB8",
"%v 	c #C6BA9C",
"&v 	c #B29F86",
"*v 	c #96806F",
"=v 	c #281524",
"-v 	c #241328",
";v 	c #383138",
">v 	c #615B5B",
",v 	c #5E5859",
"'v 	c #827C73",
")v 	c #837D70",
"!v 	c #888272",
"~v 	c #7B796F",
"{v 	c #5C5B58",
"]v 	c #676561",
"^v 	c #7F7E74",
"/v 	c #817F76",
"(v 	c #4C4B4D",
"_v 	c #444247",
":v 	c #0B080E",
"<v 	c #5A5457",
"[v 	c #D5CABE",
"}v 	c #D5CAB1",
"|v 	c #E5DABC",
"1v 	c #D2C5A8",
"2v 	c #C2B598",
"3v 	c #C9BC9D",
"4v 	c #CCBC9F",
"5v 	c #C7B89B",
"6v 	c #CBC0A4",
"7v 	c #DCD5C2",
"8v 	c #594D4A",
"9v 	c #614D4F",
"0v 	c #31202A",
"av 	c #190D1D",
"bv 	c #0B0617",
"cv 	c #0C0617",
"dv 	c #110615",
"ev 	c #250D18",
"fv 	c #2E1018",
"gv 	c #351019",
"hv 	c #34121A",
"iv 	c #39121A",
"jv 	c #5A2925",
"kv 	c #5A2724",
"lv 	c #542625",
"mv 	c #36171B",
"nv 	c #1A0E16",
"ov 	c #623026",
"pv 	c #92462B",
"qv 	c #9E5132",
"rv 	c #8C432E",
"sv 	c #8E452F",
"tv 	c #A15133",
"uv 	c #5B2A25",
"vv 	c #7C4730",
"wv 	c #A05935",
"xv 	c #83422C",
"yv 	c #A16740",
"zv 	c #995B33",
"Av 	c #814626",
"Bv 	c #BB8450",
"Cv 	c #A7724A",
"Dv 	c #340C0F",
"Ev 	c #1E0A10",
"Fv 	c #B97645",
"Gv 	c #EF964A",
"Hv 	c #C36935",
"Iv 	c #D77F46",
"Jv 	c #C76E36",
"Kv 	c #D47D41",
"Lv 	c #DF8647",
"Mv 	c #732614",
"Nv 	c #A5653F",
"Ov 	c #E19051",
"Pv 	c #BB5D31",
"Qv 	c #E28B4F",
"Rv 	c #DA8047",
"Sv 	c #C16837",
"Tv 	c #EBA35C",
"Uv 	c #D58545",
"Vv 	c #D58A4F",
"Wv 	c #5A3725",
"Xv 	c #230E12",
"Yv 	c #A0552E",
"Zv 	c #AC592F",
"`v 	c #A55532",
" w 	c #8D432E",
".w 	c #9F5838",
"+w 	c #8D4A2F",
"@w 	c #7F3C26",
"#w 	c #9A5330",
"$w 	c #793725",
"%w 	c #5D2721",
"&w 	c #592B25",
"*w 	c #3A1A1A",
"=w 	c #743B29",
"-w 	c #884131",
";w 	c #682D27",
">w 	c #78362E",
",w 	c #612426",
"'w 	c #622923",
")w 	c #5A2622",
"!w 	c #391217",
"~w 	c #381318",
"{w 	c #190614",
"]w 	c #0D0514",
"^w 	c #16101C",
"/w 	c #3F3945",
"(w 	c #625A56",
"_w 	c #CFC3A8",
":w 	c #DED0AF",
"<w 	c #E3D6B1",
"[w 	c #CBBD9A",
"}w 	c #C5B594",
"|w 	c #C8B798",
"1w 	c #C9B99A",
"2w 	c #C9B89A",
"3w 	c #C8B99A",
"4w 	c #C7B89A",
"5w 	c #C4B598",
"6w 	c #C3B597",
"7w 	c #B29E82",
"8w 	c #9B8572",
"9w 	c #2D1728",
"0w 	c #231126",
"aw 	c #342D35",
"bw 	c #5B5657",
"cw 	c #554F52",
"dw 	c #7D786E",
"ew 	c #7E796B",
"fw 	c #8E8979",
"gw 	c #837F73",
"hw 	c #393538",
"iw 	c #4D494B",
"jw 	c #565251",
"kw 	c #534F4E",
"lw 	c #29262B",
"mw 	c #252228",
"nw 	c #544E50",
"ow 	c #D2C8BB",
"pw 	c #D4C8B0",
"qw 	c #E4D9BB",
"rw 	c #C7BA9E",
"sw 	c #CCBEA2",
"tw 	c #C0B296",
"uw 	c #C7B99D",
"vw 	c #C8BA9F",
"ww 	c #C0B39A",
"xw 	c #D6CDBB",
"yw 	c #5A4E4B",
"zw 	c #5A4C4F",
"Aw 	c #1F121F",
"Bw 	c #14091A",
"Cw 	c #0D0615",
"Dw 	c #0E0616",
"Ew 	c #100816",
"Fw 	c #110914",
"Gw 	c #140C17",
"Hw 	c #170D19",
"Iw 	c #190E19",
"Jw 	c #1B0E19",
"Kw 	c #1C0F1A",
"Lw 	c #1A0D18",
"Mw 	c #1D0E17",
"Nw 	c #1D0F17",
"Ow 	c #1D1017",
"Pw 	c #1D0E1A",
"Qw 	c #1F0F19",
"Rw 	c #1F1018",
"Sw 	c #1B1017",
"Tw 	c #1F1017",
"Uw 	c #251119",
"Vw 	c #1F0F17",
"Ww 	c #211117",
"Xw 	c #211217",
"Yw 	c #211317",
"Zw 	c #231115",
"`w 	c #1D0E15",
" x 	c #1C0910",
".x 	c #270810",
"+x 	c #B67849",
"@x 	c #F09D4B",
"#x 	c #C36C36",
"$x 	c #DB844A",
"%x 	c #C46C35",
"&x 	c #D68240",
"*x 	c #DE8646",
"=x 	c #702214",
"-x 	c #A56640",
";x 	c #E29151",
">x 	c #BB5E32",
",x 	c #DA844A",
"'x 	c #E9A25B",
")x 	c #7B4728",
"!x 	c #6D402C",
"~x 	c #211115",
"{x 	c #170D17",
"]x 	c #1C111A",
"^x 	c #1D121B",
"/x 	c #1F131B",
"(x 	c #21131B",
"_x 	c #23141B",
":x 	c #22141B",
"<x 	c #21141C",
"[x 	c #20131C",
"}x 	c #21121A",
"|x 	c #211119",
"1x 	c #211219",
"2x 	c #271219",
"3x 	c #28121A",
"4x 	c #26111B",
"5x 	c #240F1A",
"6x 	c #220D1A",
"7x 	c #1F0C17",
"8x 	c #1A0A14",
"9x 	c #150913",
"0x 	c #120814",
"ax 	c #100618",
"bx 	c #0F041B",
"cx 	c #0F0316",
"dx 	c #18121E",
"ex 	c #48414C",
"fx 	c #645B56",
"gx 	c #BFAF91",
"hx 	c #BFAC91",
"ix 	c #C0AC92",
"jx 	c #C1AF92",
"kx 	c #C3B194",
"lx 	c #C4B398",
"mx 	c #C4B397",
"nx 	c #C7B598",
"ox 	c #C7B69B",
"px 	c #C0B095",
"qx 	c #BFB195",
"rx 	c #B09B82",
"sx 	c #9E8673",
"tx 	c #301828",
"ux 	c #211024",
"vx 	c #27202A",
"wx 	c #4A444B",
"xx 	c #494248",
"yx 	c #78726C",
"zx 	c #817A6F",
"Ax 	c #807A6D",
"Bx 	c #867F72",
"Cx 	c #868072",
"Dx 	c #736E65",
"Ex 	c #696563",
"Fx 	c #65625F",
"Gx 	c #686461",
"Hx 	c #65605D",
"Ix 	c #2A2428",
"Jx 	c #221C24",
"Kx 	c #09060E",
"Lx 	c #4C4649",
"Mx 	c #CFC5B7",
"Nx 	c #D2C7AD",
"Ox 	c #D3C6A8",
"Px 	c #C9BBA0",
"Qx 	c #C8BB9F",
"Rx 	c #C2B599",
"Sx 	c #BFB196",
"Tx 	c #C0B297",
"Ux 	c #BCAF93",
"Vx 	c #BAAC95",
"Wx 	c #CDC3B3",
"Xx 	c #56494F",
"Yx 	c #130919",
"Zx 	c #1D1921",
"`x 	c #413F41",
" y 	c #565450",
".y 	c #666460",
"+y 	c #7D7C75",
"@y 	c #8C8C83",
"#y 	c #94948A",
"$y 	c #9A9B8F",
"%y 	c #A1A094",
"&y 	c #A7A598",
"*y 	c #ADAA9E",
"=y 	c #B3B0A6",
"-y 	c #B5B1A7",
";y 	c #B3B0A4",
">y 	c #B1AFA3",
",y 	c #B0AFA2",
"'y 	c #AEACA0",
")y 	c #ACAB9E",
"!y 	c #A7A69A",
"~y 	c #A4A398",
"{y 	c #A4A297",
"]y 	c #A3A296",
"^y 	c #A4A397",
"/y 	c #ABABA1",
"(y 	c #B4B3AC",
"_y 	c #BBBAB5",
":y 	c #C0BDB9",
"<y 	c #C0BFBB",
"[y 	c #727071",
"}y 	c #170610",
"|y 	c #985E3E",
"1y 	c #E08B42",
"2y 	c #B96035",
"3y 	c #E18B4E",
"4y 	c #C06834",
"5y 	c #D68241",
"6y 	c #DB8445",
"7y 	c #6E2114",
"8y 	c #A66740",
"9y 	c #E69555",
"0y 	c #BC5F35",
"ay 	c #D8834A",
"by 	c #D87C44",
"cy 	c #BC6230",
"dy 	c #DE9C57",
"ey 	c #26100E",
"fy 	c #626466",
"gy 	c #969998",
"hy 	c #9F9F9E",
"iy 	c #A6A7A2",
"jy 	c #A8A9A1",
"ky 	c #AAA9A1",
"ly 	c #ADABA2",
"my 	c #B1AEA6",
"ny 	c #B6B2A9",
"oy 	c #B7B2A9",
"py 	c #B6B0A6",
"qy 	c #B1ADA0",
"ry 	c #B0AB9E",
"sy 	c #AFAA9C",
"ty 	c #AFAA9B",
"uy 	c #AAA597",
"vy 	c #A29F90",
"wy 	c #A3A192",
"xy 	c #A09D90",
"yy 	c #9B998E",
"zy 	c #93948A",
"Ay 	c #94978E",
"By 	c #949990",
"Cy 	c #979D95",
"Dy 	c #999E99",
"Ey 	c #808586",
"Fy 	c #55565F",
"Gy 	c #0B0212",
"Hy 	c #4C4550",
"Iy 	c #625753",
"Jy 	c #C1B39B",
"Ky 	c #B8AA91",
"Ly 	c #B9A790",
"My 	c #B7A58E",
"Ny 	c #BCAA8F",
"Oy 	c #BFAD92",
"Py 	c #BFAE94",
"Qy 	c #BFAE92",
"Ry 	c #C0AE92",
"Sy 	c #C3B297",
"Ty 	c #B8A98E",
"Uy 	c #BAAC92",
"Vy 	c #AD9980",
"Wy 	c #9D8672",
"Xy 	c #321927",
"Yy 	c #1F0E22",
"Zy 	c #1D1623",
"`y 	c #413946",
" z 	c #403742",
".z 	c #453E3E",
"+z 	c #48413E",
"@z 	c #514946",
"#z 	c #524A46",
"$z 	c #4C443E",
"%z 	c #443C3A",
"&z 	c #B6B4A5",
"*z 	c #A4A18E",
"=z 	c #A39F8E",
"-z 	c #979588",
";z 	c #454141",
">z 	c #302A31",
",z 	c #0A060D",
"'z 	c #423D3F",
")z 	c #D2C6B4",
"!z 	c #E5D8B9",
"~z 	c #D2C4A7",
"{z 	c #C7B99E",
"]z 	c #C2B499",
"^z 	c #C3B59A",
"/z 	c #C2B59A",
"(z 	c #B8AD96",
"_z 	c #C5BBAB",
":z 	c #5F5551",
"<z 	c #54484F",
"[z 	c #140919",
"}z 	c #120818",
"|z 	c #575556",
"1z 	c #8F928A",
"2z 	c #8D9184",
"3z 	c #9A9E92",
"4z 	c #A5A99C",
"5z 	c #B1B5A6",
"6z 	c #BFC2B0",
"7z 	c #C1C4B0",
"8z 	c #C1C3AF",
"9z 	c #BFC0AC",
"0z 	c #C0C1AB",
"az 	c #C5C6AD",
"bz 	c #C8C9AF",
"cz 	c #CBCCB2",
"dz 	c #CCCDB3",
"ez 	c #CFD2B7",
"fz 	c #D3D5BB",
"gz 	c #DBDDC3",
"hz 	c #E0E1C9",
"iz 	c #E2E2CB",
"jz 	c #E0E2CB",
"kz 	c #E0E2CA",
"lz 	c #E1E3CA",
"mz 	c #DFE2CA",
"nz 	c #DDE1CC",
"oz 	c #DBE0CB",
"pz 	c #D8DEC3",
"qz 	c #D3D5C1",
"rz 	c #302D30",
"sz 	c #10070D",
"tz 	c #62382C",
"uz 	c #AB5935",
"vz 	c #AA5934",
"wz 	c #E49150",
"xz 	c #BF6933",
"yz 	c #D98445",
"zz 	c #DA8145",
"Az 	c #6C2015",
"Bz 	c #A66940",
"Cz 	c #E89A57",
"Dz 	c #BE5F36",
"Ez 	c #D98448",
"Fz 	c #D67B41",
"Gz 	c #AD5635",
"Hz 	c #865D43",
"Iz 	c #11070C",
"Jz 	c #8C8E90",
"Kz 	c #D5DAD8",
"Lz 	c #D6DDD3",
"Mz 	c #D5DCCD",
"Nz 	c #D3D8C8",
"Oz 	c #D7DAC9",
"Pz 	c #D8DAC8",
"Qz 	c #D8D9C8",
"Rz 	c #D3D3C3",
"Sz 	c #CFCFBC",
"Tz 	c #CDCDBA",
"Uz 	c #CBCBB6",
"Vz 	c #CAC8B3",
"Wz 	c #C9C8B3",
"Xz 	c #CAC9B4",
"Yz 	c #CCCBB6",
"Zz 	c #C7C8B4",
"`z 	c #C9CBB7",
" A 	c #C7CBB7",
".A 	c #C4CBB7",
"+A 	c #BFC7B8",
"@A 	c #BEC6BC",
"#A 	c #BBC7BC",
"$A 	c #B6C5B9",
"%A 	c #B7C5BC",
"&A 	c #B3C1BE",
"*A 	c #8B939E",
"=A 	c #07030E",
"-A 	c #16101A",
";A 	c #4D464F",
">A 	c #5F5550",
",A 	c #BCAE99",
"'A 	c #B5A790",
")A 	c #B2A48C",
"!A 	c #B0A189",
"~A 	c #BAAA8F",
"{A 	c #BAAA90",
"]A 	c #BCAC91",
"^A 	c #BBAB90",
"/A 	c #BDAD93",
"(A 	c #BEAE95",
"_A 	c #B9AB92",
":A 	c #BFB199",
"<A 	c #AE9C82",
"[A 	c #9D8774",
"}A 	c #321C29",
"|A 	c #1E0E21",
"1A 	c #1C1523",
"2A 	c #554C5A",
"3A 	c #524B51",
"4A 	c #A5A291",
"5A 	c #B2AE9C",
"6A 	c #B8B49D",
"7A 	c #BAB49C",
"8A 	c #BAB59C",
"9A 	c #B5B097",
"0A 	c #9B998B",
"aA 	c #908C7E",
"bA 	c #433E3F",
"cA 	c #302A30",
"dA 	c #0A050D",
"eA 	c #3C3638",
"fA 	c #D1C5B1",
"gA 	c #E6DABB",
"hA 	c #C5B89C",
"iA 	c #AFA187",
"jA 	c #B7A98F",
"kA 	c #BCAF94",
"lA 	c #C3B69B",
"mA 	c #C6B89F",
"nA 	c #A2957E",
"oA 	c #A89C87",
"pA 	c #B1A694",
"qA 	c #BEB3A5",
"rA 	c #655D5A",
"sA 	c #594E57",
"tA 	c #160B1B",
"uA 	c #120717",
"vA 	c #2B2831",
"wA 	c #42434D",
"xA 	c #393945",
"yA 	c #3F404B",
"zA 	c #474853",
"AA 	c #494B54",
"BA 	c #494C53",
"CA 	c #494C54",
"DA 	c #484A53",
"EA 	c #4A4B55",
"FA 	c #4A4D56",
"GA 	c #4C4E58",
"HA 	c #4F5359",
"IA 	c #51575B",
"JA 	c #4E5559",
"KA 	c #4F5458",
"LA 	c #4F5358",
"MA 	c #525559",
"NA 	c #55565B",
"OA 	c #585859",
"PA 	c #56585A",
"QA 	c #55585C",
"RA 	c #54575B",
"SA 	c #54565B",
"TA 	c #535660",
"UA 	c #525764",
"VA 	c #505864",
"WA 	c #757B86",
"XA 	c #9FA4AB",
"YA 	c #585A60",
"ZA 	c #2C1010",
"`A 	c #732F23",
" B 	c #8C472E",
".B 	c #E39152",
"+B 	c #BF6833",
"@B 	c #DD8849",
"#B 	c #DB8246",
"$B 	c #6D2117",
"%B 	c #A76A41",
"&B 	c #EA9C59",
"*B 	c #BF5F36",
"=B 	c #DA8448",
"-B 	c #CD7642",
";B 	c #813828",
">B 	c #1A0910",
",B 	c #3A3F3D",
"'B 	c #708783",
")B 	c #617174",
"!B 	c #555E61",
"~B 	c #51595B",
"{B 	c #505358",
"]B 	c #515157",
"^B 	c #535358",
"/B 	c #4D4E53",
"(B 	c #4D4F56",
"_B 	c #4F5257",
":B 	c #4E5256",
"<B 	c #4E5356",
"[B 	c #4F5457",
"}B 	c #4F5357",
"|B 	c #4E5255",
"1B 	c #4F5256",
"2B 	c #4B4E54",
"3B 	c #4B4D53",
"4B 	c #4A4D53",
"5B 	c #474B52",
"6B 	c #41454D",
"7B 	c #424753",
"8B 	c #444856",
"9B 	c #444654",
"0B 	c #444852",
"aB 	c #4B515A",
"bB 	c #484956",
"cB 	c #08030D",
"dB 	c #151018",
"eB 	c #504950",
"fB 	c #5F5450",
"gB 	c #B9AB95",
"hB 	c #AEA08A",
"iB 	c #A79885",
"jB 	c #A99A86",
"kB 	c #B8A88F",
"lB 	c #BAA990",
"mB 	c #BBAB92",
"nB 	c #BBAB93",
"oB 	c #BBAD94",
"pB 	c #C2B49C",
"qB 	c #C3B6A1",
"rB 	c #B19D85",
"sB 	c #9B8673",
"tB 	c #321D29",
"uB 	c #191120",
"vB 	c #554C5B",
"wB 	c #4D464C",
"xB 	c #8A8B7E",
"yB 	c #858473",
"zB 	c #989684",
"AB 	c #999680",
"BB 	c #999580",
"CB 	c #96917D",
"DB 	c #9D9A8E",
"EB 	c #949187",
"FB 	c #79766E",
"GB 	c #433E40",
"HB 	c #322D33",
"IB 	c #352E31",
"JB 	c #CBBDAE",
"KB 	c #CBBCA4",
"LB 	c #E7DBC0",
"MB 	c #CCC0A9",
"NB 	c #BCAE9A",
"OB 	c #BDB19B",
"PB 	c #C4B8A3",
"QB 	c #C6B9A6",
"RB 	c #BDB19F",
"SB 	c #B7AB9B",
"TB 	c #B8AE9D",
"UB 	c #B8AFA1",
"VB 	c #78716E",
"WB 	c #5D535D",
"XB 	c #170E1C",
"YB 	c #100817",
"ZB 	c #211F2C",
"`B 	c #39394B",
" C 	c #353445",
".C 	c #373646",
"+C 	c #363646",
"@C 	c #373746",
"#C 	c #3B3B46",
"$C 	c #949297",
"%C 	c #918E92",
"&C 	c #474550",
"*C 	c #474A55",
"=C 	c #494B58",
"-C 	c #4A4C59",
";C 	c #4C505C",
">C 	c #4D515D",
",C 	c #4C4F5B",
"'C 	c #606066",
")C 	c #A8A7A1",
"!C 	c #6C6969",
"~C 	c #4A4853",
"{C 	c #494D5E",
"]C 	c #4B4C5C",
"^C 	c #4E4D5D",
"/C 	c #4C4D5D",
"(C 	c #8F8E8E",
"_C 	c #7F7E83",
":C 	c #6A7079",
"<C 	c #7D858D",
"[C 	c #6B6F7E",
"}C 	c #291821",
"|C 	c #14050D",
"1C 	c #4B2F23",
"2C 	c #E09053",
"3C 	c #BF6632",
"4C 	c #E08948",
"5C 	c #D98144",
"6C 	c #6F2117",
"7C 	c #A96E41",
"8C 	c #EC9F59",
"9C 	c #C16034",
"0C 	c #DF884D",
"aC 	c #744A32",
"bC 	c #12040D",
"cC 	c #454548",
"dC 	c #586561",
"eC 	c #5B7977",
"fC 	c #707A7A",
"gC 	c #ADB2A0",
"hC 	c #898A7D",
"iC 	c #49414B",
"jC 	c #4D4A56",
"kC 	c #4E4C58",
"lC 	c #434451",
"mC 	c #606169",
"nC 	c #A5A5A6",
"oC 	c #52515B",
"pC 	c #4C4F57",
"qC 	c #4B4E55",
"rC 	c #4D4F57",
"sC 	c #4E4F58",
"tC 	c #4D4E58",
"uC 	c #4D4F59",
"vC 	c #53545A",
"wC 	c #95908E",
"xC 	c #736E70",
"yC 	c #41404E",
"zC 	c #444454",
"AC 	c #424253",
"BC 	c #424250",
"CC 	c #414350",
"DC 	c #393949",
"EC 	c #06040C",
"FC 	c #161017",
"GC 	c #544C51",
"HC 	c #B4A690",
"IC 	c #AE9F8B",
"JC 	c #AE9F8D",
"KC 	c #B8A893",
"LC 	c #BCAC96",
"MC 	c #C0B09B",
"NC 	c #C4B59F",
"OC 	c #BDB19C",
"PC 	c #CBBFAB",
"QC 	c #CCBFAC",
"RC 	c #B6A38C",
"SC 	c #9B8772",
"TC 	c #341F2A",
"UC 	c #1E0E22",
"VC 	c #150E1C",
"WC 	c #534A58",
"XC 	c #4E484D",
"YC 	c #888B7E",
"ZC 	c #8C8C7C",
"`C 	c #959483",
" D 	c #8F8F7D",
".D 	c #8B8C7A",
"+D 	c #8B8B77",
"@D 	c #898874",
"#D 	c #959389",
"$D 	c #8D8A81",
"%D 	c #7C7972",
"&D 	c #797772",
"*D 	c #342F34",
"=D 	c #0A060C",
"-D 	c #726363",
";D 	c #74655C",
">D 	c #B5AA98",
",D 	c #AEA291",
"'D 	c #AA9D8D",
")D 	c #AFA492",
"!D 	c #B4A897",
"~D 	c #B8AC9B",
"{D 	c #B9AE9E",
"]D 	c #B9AF9F",
"^D 	c #A9A190",
"/D 	c #AEA798",
"(D 	c #6F6966",
"_D 	c #4F444F",
":D 	c #211725",
"<D 	c #0F0717",
"[D 	c #1F1E2A",
"}D 	c #363648",
"|D 	c #313041",
"1D 	c #313140",
"2D 	c #31313F",
"3D 	c #31323E",
"4D 	c #35343C",
"5D 	c #DADAD6",
"6D 	c #CCCCC3",
"7D 	c #49484F",
"8D 	c #3D3E4C",
"9D 	c #3D3F4C",
"0D 	c #3F414E",
"aD 	c #41424F",
"bD 	c #40414D",
"cD 	c #3B3B45",
"dD 	c #8E8D88",
"eD 	c #B8B8A5",
"fD 	c #8D8A83",
"gD 	c #36343F",
"hD 	c #474A5A",
"iD 	c #49495A",
"jD 	c #3C3C49",
"kD 	c #58585E",
"lD 	c #D8D4BF",
"mD 	c #B4ADA0",
"nD 	c #53545E",
"oD 	c #595F72",
"pD 	c #5C647D",
"qD 	c #524453",
"rD 	c #14040E",
"sD 	c #4A2D23",
"tD 	c #E29354",
"uD 	c #C16830",
"vD 	c #E18B49",
"wD 	c #D88045",
"xD 	c #6B2116",
"yD 	c #AB7041",
"zD 	c #EEA056",
"AD 	c #C36232",
"BD 	c #DE894D",
"CD 	c #653E2E",
"DD 	c #0C060D",
"ED 	c #484E50",
"FD 	c #566463",
"GD 	c #596D6F",
"HD 	c #9A9E96",
"ID 	c #A8AD96",
"JD 	c #9EA292",
"KD 	c #362E36",
"LD 	c #4A4754",
"MD 	c #484753",
"ND 	c #3B3B48",
"OD 	c #939396",
"PD 	c #76747A",
"QD 	c #36363F",
"RD 	c #3B3B44",
"SD 	c #3B3C46",
"TD 	c #3C3D47",
"UD 	c #3D3E48",
"VD 	c #3E3E4A",
"WD 	c #33343F",
"XD 	c #888886",
"YD 	c #BDBAAD",
"ZD 	c #A09A91",
"`D 	c #3B3945",
" E 	c #3C3C48",
".E 	c #3C3B48",
"+E 	c #3D3C47",
"@E 	c #3E3F4A",
"#E 	c #363746",
"$E 	c #06030D",
"%E 	c #160F17",
"&E 	c #534B4D",
"*E 	c #AFA291",
"=E 	c #AC9E8B",
"-E 	c #A59884",
";E 	c #A49883",
">E 	c #A89B87",
",E 	c #AA9D8C",
"'E 	c #AB9E8D",
")E 	c #A49987",
"!E 	c #A69B8A",
"~E 	c #AAA090",
"{E 	c #A89B8D",
"]E 	c #8D7D6A",
"^E 	c #827262",
"/E 	c #2B1C27",
"(E 	c #190C20",
"_E 	c #140B1A",
":E 	c #534957",
"<E 	c #4F494E",
"[E 	c #83887C",
"}E 	c #88897B",
"|E 	c #919182",
"1E 	c #8C8E7C",
"2E 	c #8C8E7B",
"3E 	c #8B8C79",
"4E 	c #878875",
"5E 	c #8F8E87",
"6E 	c #88857E",
"7E 	c #7D7A73",
"8E 	c #7B7974",
"9E 	c #423F41",
"0E 	c #342F35",
"aE 	c #0E0711",
"bE 	c #67595B",
"cE 	c #736460",
"dE 	c #8A7E72",
"eE 	c #7C7064",
"fE 	c #82776A",
"gE 	c #867A6D",
"hE 	c #8B7F71",
"iE 	c #8E8274",
"jE 	c #938879",
"kE 	c #958B7C",
"lE 	c #978E80",
"mE 	c #8B827D",
"nE 	c #504749",
"oE 	c #4B404D",
"pE 	c #261C2A",
"qE 	c #373749",
"rE 	c #303040",
"sE 	c #30303F",
"tE 	c #30303E",
"uE 	c #2E2E3E",
"vE 	c #262634",
"wE 	c #5C5F65",
"xE 	c #404248",
"yE 	c #373847",
"zE 	c #3E3E4C",
"AE 	c #3A3D4A",
"BE 	c #3B3D4A",
"CE 	c #3D3D4A",
"DE 	c #3B3B47",
"EE 	c #373643",
"FE 	c #353539",
"GE 	c #3B3C3D",
"HE 	c #48474E",
"IE 	c #484752",
"JE 	c #474A57",
"KE 	c #464756",
"LE 	c #333243",
"ME 	c #606164",
"NE 	c #A09D94",
"OE 	c #7F7B79",
"PE 	c #38384A",
"QE 	c #52566A",
"RE 	c #505B70",
"SE 	c #584B54",
"TE 	c #15040C",
"UE 	c #44281D",
"VE 	c #E09250",
"WE 	c #C46D31",
"XE 	c #E38D4A",
"YE 	c #D98246",
"ZE 	c #692117",
"`E 	c #AB6F42",
" F 	c #ED9E57",
".F 	c #C46333",
"+F 	c #DC894D",
"@F 	c #5B3526",
"#F 	c #0B050B",
"$F 	c #4D5752",
"%F 	c #54615D",
"&F 	c #586069",
"*F 	c #313033",
"=F 	c #585756",
"-F 	c #4D4D4C",
";F 	c #332B35",
">F 	c #464550",
",F 	c #444550",
"'F 	c #606267",
")F 	c #727678",
"!F 	c #4C4E5F",
"~F 	c #31303B",
"{F 	c #393843",
"]F 	c #3A3A46",
"^F 	c #3B3C47",
"/F 	c #3C3D48",
"(F 	c #3C3B49",
"_F 	c #3D3B47",
":F 	c #302E34",
"<F 	c #605E5D",
"[F 	c #575355",
"}F 	c #393543",
"|F 	c #3A3744",
"1F 	c #3B3946",
"2F 	c #3E3F4B",
"3F 	c #383847",
"4F 	c #07020E",
"5F 	c #130C16",
"6F 	c #4F4647",
"7F 	c #7F7469",
"8F 	c #ADA28D",
"9F 	c #A99E89",
"0F 	c #A69A85",
"aF 	c #A39782",
"bF 	c #A29582",
"cF 	c #A09381",
"dF 	c #998C7A",
"eF 	c #8C816F",
"fF 	c #887C6C",
"gF 	c #85786A",
"hF 	c #786A5B",
"iF 	c #746660",
"jF 	c #180D1F",
"kF 	c #13081E",
"lF 	c #150C1D",
"mF 	c #524856",
"nF 	c #4F484E",
"oF 	c #7D8278",
"pF 	c #7F8073",
"qF 	c #909082",
"rF 	c #8C8E7E",
"sF 	c #8B8E7B",
"tF 	c #8A8C78",
"uF 	c #868775",
"vF 	c #96958F",
"wF 	c #8A8881",
"xF 	c #7D7B74",
"yF 	c #7C7B76",
"zF 	c #423F42",
"AF 	c #363037",
"BF 	c #0D070F",
"CF 	c #100913",
"DF 	c #20151E",
"EF 	c #382C2F",
"FF 	c #594E4C",
"GF 	c #5A4F4C",
"HF 	c #645A57",
"IF 	c #685E59",
"JF 	c #6A605A",
"KF 	c #6C625B",
"LF 	c #6D645D",
"MF 	c #6E655E",
"NF 	c #5D5451",
"OF 	c #534A4E",
"PF 	c #2F2630",
"QF 	c #271F2A",
"RF 	c #120617",
"SF 	c #1E1D28",
"TF 	c #363647",
"UF 	c #2F2F3F",
"VF 	c #2F2F3D",
"WF 	c #2D2B3C",
"XF 	c #2A2838",
"YF 	c #252531",
"ZF 	c #292834",
"`F 	c #2D2E3A",
" G 	c #343643",
".G 	c #383946",
"+G 	c #3A3A47",
"@G 	c #393946",
"#G 	c #393944",
"$G 	c #353441",
"%G 	c #2D2B38",
"&G 	c #22202B",
"*G 	c #2F2C37",
"=G 	c #41414E",
"-G 	c #424452",
";G 	c #3C3D4F",
">G 	c #27283A",
",G 	c #100D1A",
"'G 	c #1D1D2A",
")G 	c #3F4154",
"!G 	c #55576A",
"~G 	c #4D4D64",
"{G 	c #4D4756",
"]G 	c #130710",
"^G 	c #3F241A",
"/G 	c #D98B49",
"(G 	c #C86F34",
"_G 	c #E58F4A",
":G 	c #DB8447",
"<G 	c #662117",
"[G 	c #AB6F43",
"}G 	c #C46534",
"|G 	c #D9864A",
"1G 	c #5C3526",
"2G 	c #0A030C",
"3G 	c #4E5452",
"4G 	c #4A5352",
"5G 	c #525962",
"6G 	c #43424F",
"7G 	c #322E3C",
"8G 	c #1F1821",
"9G 	c #3B3440",
"0G 	c #42414E",
"aG 	c #43434F",
"bG 	c #41414D",
"cG 	c #282633",
"dG 	c #211F2B",
"eG 	c #24212C",
"fG 	c #373540",
"gG 	c #393742",
"hG 	c #3C3A44",
"iG 	c #3D3B46",
"jG 	c #3B3A46",
"kG 	c #3A3945",
"lG 	c #35343F",
"mG 	c #2B2A33",
"nG 	c #24232C",
"oG 	c #2B2934",
"pG 	c #373442",
"qG 	c #393542",
"rG 	c #3B3744",
"sG 	c #383949",
"tG 	c #070310",
"uG 	c #090411",
"vG 	c #1C151C",
"wG 	c #231C20",
"xG 	c #433A39",
"yG 	c #71665F",
"zG 	c #857A70",
"AG 	c #82786E",
"BG 	c #82776D",
"CG 	c #81766C",
"DG 	c #7F756A",
"EG 	c #7E736A",
"FG 	c #71665E",
"GG 	c #5E524C",
"HG 	c #4D4240",
"IG 	c #33292B",
"JG 	c #201920",
"KG 	c #11071B",
"LG 	c #11061B",
"MG 	c #180F1F",
"NG 	c #514954",
"OG 	c #4F4A50",
"PG 	c #797C73",
"QG 	c #78796D",
"RG 	c #8F8F84",
"SG 	c #949584",
"TG 	c #8F907D",
"UG 	c #8D8E7B",
"VG 	c #8C8C7A",
"WG 	c #94948E",
"XG 	c #878680",
"YG 	c #7C7A76",
"ZG 	c #423E41",
"`G 	c #0D0810",
" H 	c #100813",
".H 	c #180E19",
"+H 	c #241A20",
"@H 	c #2C2126",
"#H 	c #2F2228",
"$H 	c #312128",
"%H 	c #312029",
"&H 	c #2F1F28",
"*H 	c #2E1E27",
"=H 	c #2F2029",
"-H 	c #30212B",
";H 	c #31222D",
">H 	c #2F222C",
",H 	c #261B28",
"'H 	c #130718",
")H 	c #100617",
"!H 	c #0F0515",
"~H 	c #0C0314",
"{H 	c #1D1B26",
"]H 	c #353645",
"^H 	c #2F3040",
"/H 	c #343541",
"(H 	c #343342",
"_H 	c #393847",
":H 	c #3B3B49",
"<H 	c #3C3D4A",
"[H 	c #393A47",
"}H 	c #393947",
"|H 	c #3E3E48",
"1H 	c #3F3F48",
"2H 	c #404049",
"3H 	c #3F4047",
"4H 	c #3C3C45",
"5H 	c #3A3943",
"6H 	c #3C3B45",
"7H 	c #42414B",
"8H 	c #43434E",
"9H 	c #43444F",
"0H 	c #41434F",
"aH 	c #414351",
"bH 	c #404151",
"cH 	c #3F3E4A",
"dH 	c #42424E",
"eH 	c #434353",
"fH 	c #3A384B",
"gH 	c #03010A",
"hH 	c #050207",
"iH 	c #39181D",
"jH 	c #4A241A",
"kH 	c #D67F41",
"lH 	c #CB6C34",
"mH 	c #E68F4B",
"nH 	c #DC8748",
"oH 	c #682118",
"pH 	c #A76C42",
"qH 	c #EA9B57",
"rH 	c #C46535",
"sH 	c #D98349",
"tH 	c #714330",
"uH 	c #351F1F",
"vH 	c #09060B",
"wH 	c #323539",
"xH 	c #4D545C",
"yH 	c #4D515C",
"zH 	c #4A4C57",
"AH 	c #44434F",
"BH 	c #41404F",
"CH 	c #434352",
"DH 	c #444351",
"EH 	c #3E3E4B",
"FH 	c #3D3D49",
"GH 	c #3F3E4C",
"HH 	c #454552",
"IH 	c #3C3C4A",
"JH 	c #3A3B45",
"KH 	c #393844",
"LH 	c #393744",
"MH 	c #3B3844",
"NH 	c #41404A",
"OH 	c #3A3B49",
"PH 	c #261B27",
"QH 	c #33262E",
"RH 	c #3A2D31",
"SH 	c #3C2D31",
"TH 	c #3D2E33",
"UH 	c #3D2E34",
"VH 	c #3C2D34",
"WH 	c #392A30",
"XH 	c #36262C",
"YH 	c #34232A",
"ZH 	c #291923",
"`H 	c #180B1C",
" I 	c #130917",
".I 	c #11081B",
"+I 	c #180F21",
"@I 	c #241B2D",
"#I 	c #504B51",
"$I 	c #75766F",
"%I 	c #727267",
"&I 	c #8B8B7F",
"*I 	c #929381",
"=I 	c #8D8E7C",
"-I 	c #8A8B79",
";I 	c #918F7E",
">I 	c #8F918C",
",I 	c #83837D",
"'I 	c #7A7871",
")I 	c #797572",
"!I 	c #3E3A3E",
"~I 	c #2F2C33",
"{I 	c #0D0A13",
"]I 	c #3E3A34",
"^I 	c #B0AA95",
"/I 	c #CCC7B6",
"(I 	c #D7D3C5",
"_I 	c #DFD9CC",
":I 	c #E2DED2",
"<I 	c #E0DCD0",
"[I 	c #D7D5CB",
"}I 	c #D1CFC5",
"|I 	c #CCCAC0",
"1I 	c #C8C6BE",
"2I 	c #C3C0B9",
"3I 	c #C0BAB2",
"4I 	c #A9A29B",
"5I 	c #3F3733",
"6I 	c #211721",
"7I 	c #0E0316",
"8I 	c #1E1D27",
"9I 	c #3B3D4B",
"0I 	c #373948",
"aI 	c #393A49",
"bI 	c #424150",
"cI 	c #464656",
"dI 	c #4A4A5A",
"eI 	c #4C4C5C",
"fI 	c #4D4D5B",
"gI 	c #4E4E5B",
"hI 	c #4D4D5A",
"iI 	c #4F4D57",
"jI 	c #4F4E58",
"kI 	c #4C4C56",
"lI 	c #494A53",
"mI 	c #4D4C56",
"nI 	c #53525C",
"oI 	c #525059",
"pI 	c #4F4F57",
"qI 	c #4F4D58",
"rI 	c #4F4D59",
"sI 	c #4D4D58",
"tI 	c #4C4C58",
"uI 	c #494756",
"vI 	c #363446",
"wI 	c #130F20",
"xI 	c #230E14",
"yI 	c #A6533A",
"zI 	c #974529",
"AI 	c #D97E40",
"BI 	c #CC6F39",
"CI 	c #E18948",
"DI 	c #DE884B",
"EI 	c #682015",
"FI 	c #A46B40",
"GI 	c #E79956",
"HI 	c #C36535",
"II 	c #DE8549",
"JI 	c #B25F34",
"KI 	c #703124",
"LI 	c #160309",
"MI 	c #302D31",
"NI 	c #4F4E57",
"OI 	c #565662",
"PI 	c #565661",
"QI 	c #4F515B",
"RI 	c #4F515C",
"SI 	c #4F505C",
"TI 	c #4E4D5A",
"UI 	c #4B4B58",
"VI 	c #4D4C5B",
"WI 	c #4D4D5C",
"XI 	c #4D4E5D",
"YI 	c #4D505F",
"ZI 	c #4F5163",
"`I 	c #515266",
" J 	c #505568",
".J 	c #53586A",
"+J 	c #515666",
"@J 	c #4A4F5F",
"#J 	c #4D525E",
"$J 	c #4D525C",
"%J 	c #4B505C",
"&J 	c #494C56",
"*J 	c #4D4F5A",
"=J 	c #525661",
"-J 	c #505460",
";J 	c #423F4E",
">J 	c #0C0512",
",J 	c #252129",
"'J 	c #3D3940",
")J 	c #5B5755",
"!J 	c #AAA59C",
"~J 	c #CAC6BE",
"{J 	c #D2CEC4",
"]J 	c #D5D0C6",
"^J 	c #D6D0C6",
"/J 	c #D5CFC5",
"(J 	c #D2CDC3",
"_J 	c #D0CBC2",
":J 	c #D0CBC0",
"<J 	c #CEC8B7",
"[J 	c #D4CEBB",
"}J 	c #9A9084",
"|J 	c #5B4948",
"1J 	c #48393E",
"2J 	c #110818",
"3J 	c #201729",
"4J 	c #271D30",
"5J 	c #4D4752",
"6J 	c #504B53",
"7J 	c #75756F",
"8J 	c #717067",
"9J 	c #8A8A7D",
"0J 	c #909280",
"aJ 	c #888A7A",
"bJ 	c #878878",
"cJ 	c #938E7F",
"dJ 	c #6B6C6A",
"eJ 	c #6B6A66",
"fJ 	c #7C7A73",
"gJ 	c #797671",
"hJ 	c #403B3E",
"iJ 	c #2F2B33",
"jJ 	c #0F0A15",
"kJ 	c #59534D",
"lJ 	c #E7DEC1",
"mJ 	c #F6F1DA",
"nJ 	c #F7F4E0",
"oJ 	c #F8F5E2",
"pJ 	c #F9F6E3",
"qJ 	c #FBF8E6",
"rJ 	c #FBF9E8",
"sJ 	c #FBFAE7",
"tJ 	c #FAF9E5",
"uJ 	c #FAF8E5",
"vJ 	c #F9F8E5",
"wJ 	c #FAF7E4",
"xJ 	c #F6F1DD",
"yJ 	c #695E54",
"zJ 	c #392F33",
"AJ 	c #0E031A",
"BJ 	c #130F1D",
"CJ 	c #23222F",
"DJ 	c #242331",
"EJ 	c #252433",
"FJ 	c #282635",
"GJ 	c #292736",
"HJ 	c #2A2736",
"IJ 	c #2A2739",
"JJ 	c #292738",
"KJ 	c #2B2839",
"LJ 	c #2C2A3A",
"MJ 	c #2D2C39",
"NJ 	c #2F2E3B",
"OJ 	c #312E3D",
"PJ 	c #302C3C",
"QJ 	c #2E2A3B",
"RJ 	c #2B2937",
"SJ 	c #292735",
"TJ 	c #272432",
"UJ 	c #262332",
"VJ 	c #26222F",
"WJ 	c #27232F",
"XJ 	c #2A2533",
"YJ 	c #2C2634",
"ZJ 	c #2D2734",
"`J 	c #2E2935",
" K 	c #2D2A35",
".K 	c #292530",
"+K 	c #0F071C",
"@K 	c #62362A",
"#K 	c #B5572C",
"$K 	c #D97D41",
"%K 	c #CD713A",
"&K 	c #DF8648",
"*K 	c #E0894D",
"=K 	c #6A2116",
"-K 	c #A4693F",
";K 	c #E59754",
">K 	c #C36739",
",K 	c #DF874B",
"'K 	c #CE743A",
")K 	c #933D22",
"!K 	c #7D3C2C",
"~K 	c #12060C",
"{K 	c #130E17",
"]K 	c #18141C",
"^K 	c #1C1920",
"/K 	c #201D25",
"(K 	c #27252B",
"_K 	c #2E2B32",
":K 	c #2C2932",
"<K 	c #2F2C35",
"[K 	c #312D37",
"}K 	c #332F39",
"|K 	c #36313B",
"1K 	c #36313C",
"2K 	c #38333F",
"3K 	c #332F3A",
"4K 	c #302E3A",
"5K 	c #302D3B",
"6K 	c #2D2A39",
"7K 	c #2F2D3A",
"8K 	c #302F3B",
"9K 	c #2F2D39",
"0K 	c #2F2D38",
"aK 	c #32303A",
"bK 	c #302F3A",
"cK 	c #1F1B2A",
"dK 	c #0E0615",
"eK 	c #53515A",
"fK 	c #73747C",
"gK 	c #86867F",
"hK 	c #F0EDD9",
"iK 	c #F0EBD9",
"jK 	c #EDE9D5",
"kK 	c #EFEAD5",
"lK 	c #EEEBD6",
"mK 	c #EFECD8",
"nK 	c #F1EEDA",
"oK 	c #F3EFDC",
"pK 	c #F3F0DB",
"qK 	c #F3F0D8",
"rK 	c #F2EED5",
"sK 	c #CCC0AB",
"tK 	c #7B655B",
"uK 	c #5D4A4E",
"vK 	c #2A2034",
"wK 	c #4E4855",
"xK 	c #524F55",
"yK 	c #75746E",
"zK 	c #78786D",
"AK 	c #8A897E",
"BK 	c #8B8C7C",
"CK 	c #878978",
"DK 	c #878676",
"EK 	c #8E887A",
"FK 	c #514F50",
"GK 	c #5E5C59",
"HK 	c #7B7971",
"IK 	c #78746E",
"JK 	c #413C3D",
"KK 	c #312C34",
"LK 	c #100A16",
"MK 	c #5A534F",
"NK 	c #CFC0A4",
"OK 	c #E7DCBD",
"PK 	c #D8CEAC",
"QK 	c #D2C7A5",
"RK 	c #C2BA9B",
"SK 	c #D9CEAC",
"TK 	c #D4C9A8",
"UK 	c #D2C7A8",
"VK 	c #908474",
"WK 	c #6F6157",
"XK 	c #403538",
"YK 	c #0D041A",
"ZK 	c #0E0319",
"`K 	c #100319",
" L 	c #100417",
".L 	c #120516",
"+L 	c #1B0717",
"@L 	c #1A0717",
"#L 	c #180717",
"$L 	c #130616",
"%L 	c #110717",
"&L 	c #160819",
"*L 	c #1A0718",
"=L 	c #1A0817",
"-L 	c #190717",
";L 	c #1A0716",
">L 	c #1B0916",
",L 	c #240D17",
"'L 	c #220E18",
")L 	c #240D16",
"!L 	c #270E15",
"~L 	c #311217",
"{L 	c #270D15",
"]L 	c #0D050F",
"^L 	c #1B0C19",
"/L 	c #A7633D",
"(L 	c #D27338",
"_L 	c #C46430",
":L 	c #D97C41",
"<L 	c #CF743D",
"[L 	c #DB8245",
"}L 	c #E0874C",
"|L 	c #6C2318",
"1L 	c #A5693F",
"2L 	c #E49653",
"3L 	c #C3673B",
"4L 	c #DD864A",
"5L 	c #D4783B",
"6L 	c #B5542A",
"7L 	c #BC6439",
"8L 	c #61291C",
"9L 	c #4A1916",
"0L 	c #0E040C",
"aL 	c #2A121A",
"bL 	c #32131A",
"cL 	c #2E1119",
"dL 	c #230F16",
"eL 	c #1D0E16",
"fL 	c #1B0C16",
"gL 	c #190C15",
"hL 	c #170B15",
"iL 	c #110A17",
"jL 	c #110714",
"kL 	c #1B0816",
"lL 	c #190818",
"mL 	c #140619",
"nL 	c #120618",
"oL 	c #11051A",
"pL 	c #10061A",
"qL 	c #0E0418",
"rL 	c #0E0517",
"sL 	c #6B6B75",
"tL 	c #83817C",
"uL 	c #EDE6CF",
"vL 	c #D9CEB3",
"wL 	c #CEC3A6",
"xL 	c #CFC3A7",
"yL 	c #CDC1A2",
"zL 	c #C9BD9D",
"AL 	c #C4B998",
"BL 	c #C4B69C",
"CL 	c #7C655A",
"DL 	c #614C50",
"EL 	c #281F32",
"FL 	c #2E243A",
"GL 	c #555258",
"HL 	c #6F6F68",
"IL 	c #707066",
"JL 	c #84847A",
"KL 	c #878777",
"LL 	c #878576",
"ML 	c #8B8477",
"NL 	c #646161",
"OL 	c #6D6A65",
"PL 	c #7C7A70",
"QL 	c #77736D",
"RL 	c #302C33",
"SL 	c #100B16",
"TL 	c #5B5651",
"UL 	c #CEBDA3",
"VL 	c #CDBC9D",
"WL 	c #E3D9B9",
"XL 	c #D9CDAC",
"YL 	c #B3A78E",
"ZL 	c #72645E",
"`L 	c #A49685",
" M 	c #DDD3BA",
".M 	c #8E8376",
"+M 	c #6C6157",
"@M 	c #473B3B",
"#M 	c #200916",
"$M 	c #2C0F18",
"%M 	c #43161B",
"&M 	c #511F22",
"*M 	c #672825",
"=M 	c #5C2120",
"-M 	c #521C1E",
";M 	c #2F0F18",
">M 	c #170B14",
",M 	c #491B1C",
"'M 	c #762B22",
")M 	c #732A23",
"!M 	c #6B2521",
"~M 	c #6D2720",
"{M 	c #752D24",
"]M 	c #471E1B",
"^M 	c #562520",
"/M 	c #7D372B",
"(M 	c #662720",
"_M 	c #772D24",
":M 	c #732A20",
"<M 	c #6F2A21",
"[M 	c #95432C",
"}M 	c #873F2B",
"|M 	c #1D070D",
"1M 	c #BD6C41",
"2M 	c #D8793A",
"3M 	c #C86931",
"4M 	c #D77B41",
"5M 	c #D1753D",
"6M 	c #DB7F44",
"7M 	c #E2884C",
"8M 	c #6D2418",
"9M 	c #A86C40",
"0M 	c #E39451",
"aM 	c #BE6639",
"bM 	c #DD864B",
"cM 	c #DA7D40",
"dM 	c #C5622F",
"eM 	c #D3814A",
"fM 	c #AC5632",
"gM 	c #812B1D",
"hM 	c #190810",
"iM 	c #170F16",
"jM 	c #6D2A26",
"kM 	c #882E27",
"lM 	c #822E29",
"mM 	c #662826",
"nM 	c #6C2828",
"oM 	c #5C2224",
"pM 	c #5E2124",
"qM 	c #6D2C2B",
"rM 	c #4D1F21",
"sM 	c #501D1C",
"tM 	c #491F1E",
"uM 	c #1E0E13",
"vM 	c #4E1F22",
"wM 	c #602228",
"xM 	c #421721",
"yM 	c #4D1A23",
"zM 	c #40151E",
"AM 	c #371119",
"BM 	c #3B1119",
"CM 	c #320D19",
"DM 	c #310C18",
"EM 	c #280A15",
"FM 	c #110518",
"GM 	c #0E031C",
"HM 	c #47454F",
"IM 	c #696871",
"JM 	c #85837C",
"KM 	c #EBE4CC",
"LM 	c #DACDB3",
"MM 	c #CDC2A4",
"NM 	c #D0C5A8",
"OM 	c #CCC0A1",
"PM 	c #CABEA0",
"QM 	c #C3B59D",
"RM 	c #7C645A",
"SM 	c #634E51",
"TM 	c #160B17",
"UM 	c #2A2033",
"VM 	c #2F263A",
"WM 	c #514D59",
"XM 	c #575457",
"YM 	c #6D6F67",
"ZM 	c #6A6B63",
"`M 	c #7F7E73",
" N 	c #868676",
".N 	c #898979",
"+N 	c #888575",
"@N 	c #72706D",
"#N 	c #716D66",
"$N 	c #413D3E",
"%N 	c #100C17",
"&N 	c #59534F",
"*N 	c #C9B79C",
"=N 	c #C9B79A",
"-N 	c #E3D9BB",
";N 	c #C5B9A0",
">N 	c #9A9185",
",N 	c #B6AC99",
"'N 	c #D8CBAD",
")N 	c #D0C4A8",
"!N 	c #CCC1A3",
"~N 	c #DACFB7",
"{N 	c #8A8072",
"]N 	c #6A6056",
"^N 	c #4A4040",
"/N 	c #150718",
"(N 	c #320D1A",
"_N 	c #2C1015",
":N 	c #371317",
"<N 	c #571D1E",
"[N 	c #561C21",
"}N 	c #602120",
"|N 	c #7C2E26",
"1N 	c #6B251F",
"2N 	c #60221F",
"3N 	c #3C131B",
"4N 	c #1A0B16",
"5N 	c #612A21",
"6N 	c #9A3F27",
"7N 	c #893223",
"8N 	c #812D1F",
"9N 	c #903B28",
"0N 	c #521D19",
"aN 	c #662B21",
"bN 	c #95432F",
"cN 	c #7E3221",
"dN 	c #9E4C34",
"eN 	c #98472F",
"fN 	c #8C3F2A",
"gN 	c #C67748",
"hN 	c #A95B38",
"iN 	c #2E0F16",
"jN 	c #220E12",
"kN 	c #BF6E3C",
"lN 	c #DD7D3D",
"mN 	c #CC6D36",
"nN 	c #D6793F",
"oN 	c #D1733C",
"pN 	c #D87B41",
"qN 	c #E2874A",
"rN 	c #6F271A",
"sN 	c #AB6E40",
"tN 	c #E49451",
"uN 	c #BA653A",
"vN 	c #DC844A",
"wN 	c #DA7B40",
"xN 	c #C86532",
"yN 	c #DD9157",
"zN 	c #D07F4A",
"AN 	c #B15D3B",
"BN 	c #2F1214",
"CN 	c #201318",
"DN 	c #88422E",
"EN 	c #A44C31",
"FN 	c #853727",
"GN 	c #984731",
"HN 	c #893B2C",
"IN 	c #853625",
"JN 	c #A55038",
"KN 	c #773227",
"LN 	c #692720",
"MN 	c #642C23",
"NN 	c #251015",
"ON 	c #6F392F",
"PN 	c #8F4135",
"QN 	c #6E2B25",
"RN 	c #702F2A",
"SN 	c #572120",
"TN 	c #4C181A",
"UN 	c #521B1E",
"VN 	c #3E0F19",
"WN 	c #3B0D19",
"XN 	c #330C19",
"YN 	c #15061B",
"ZN 	c #10051E",
"`N 	c #0F051B",
" O 	c #3F3D47",
".O 	c #67656D",
"+O 	c #8A857E",
"@O 	c #E8E0C9",
"#O 	c #D0C3A7",
"$O 	c #CCC0A3",
"%O 	c #CABD9F",
"&O 	c #D1C6A7",
"*O 	c #7B635A",
"=O 	c #634E50",
"-O 	c #30273B",
";O 	c #524D59",
">O 	c #575558",
",O 	c #6E6F69",
"'O 	c #6E6E68",
")O 	c #838378",
"!O 	c #8C8C7B",
"~O 	c #8C8A7B",
"{O 	c #7C7874",
"]O 	c #78756E",
"^O 	c #757169",
"/O 	c #76706B",
"(O 	c #423D3E",
"_O 	c #0F0C17",
":O 	c #534C48",
"<O 	c #C3B096",
"[O 	c #C5B396",
"}O 	c #E2D6BC",
"|O 	c #D2C7AA",
"1O 	c #D6CBB1",
"2O 	c #DFD5BC",
"3O 	c #D7CDB4",
"4O 	c #CCC1A4",
"5O 	c #CEC0A5",
"6O 	c #CCC0A6",
"7O 	c #D8CDB7",
"8O 	c #685E55",
"9O 	c #4B4143",
"0O 	c #120619",
"aO 	c #11041C",
"bO 	c #180719",
"cO 	c #3E161D",
"dO 	c #3B181B",
"eO 	c #552520",
"fO 	c #752E27",
"gO 	c #6C2C24",
"hO 	c #844033",
"iO 	c #B1593E",
"jO 	c #954232",
"kO 	c #4C191E",
"lO 	c #1E0D16",
"mO 	c #733528",
"nO 	c #B7562D",
"oO 	c #BE5C32",
"pO 	c #B04D2B",
"qO 	c #B4512F",
"rO 	c #D47241",
"sO 	c #7A3A25",
"tO 	c #A6674A",
"uO 	c #CC754D",
"vO 	c #A24B2F",
"wO 	c #CC7B4B",
"xO 	c #C07044",
"yO 	c #A15635",
"zO 	c #DC8D4C",
"AO 	c #B96C40",
"BO 	c #381013",
"CO 	c #261014",
"DO 	c #BE6E3C",
"EO 	c #DE7F3D",
"FO 	c #CC6D35",
"GO 	c #D7783E",
"HO 	c #D0713A",
"IO 	c #D6773E",
"JO 	c #E28549",
"KO 	c #722A1B",
"LO 	c #AD6F40",
"MO 	c #E2924F",
"NO 	c #B56339",
"OO 	c #DB8449",
"PO 	c #DA7941",
"QO 	c #C86432",
"RO 	c #E49859",
"SO 	c #D88A50",
"TO 	c #BB6740",
"UO 	c #3A1918",
"VO 	c #23131A",
"WO 	c #A35B35",
"XO 	c #CF7136",
"YO 	c #C76A34",
"ZO 	c #AC522E",
"`O 	c #CB6E41",
" P 	c #AC5332",
".P 	c #9F4226",
"+P 	c #C9683D",
"@P 	c #933D29",
"#P 	c #7C2D21",
"$P 	c #743629",
"%P 	c #31171B",
"&P 	c #814536",
"*P 	c #AD563D",
"=P 	c #8F3C2A",
"-P 	c #9C4B33",
";P 	c #803A2B",
">P 	c #752E23",
",P 	c #81392E",
"'P 	c #571918",
")P 	c #561A1A",
"!P 	c #461418",
"~P 	c #1A071A",
"{P 	c #12071F",
"]P 	c #10061D",
"^P 	c #3A3643",
"/P 	c #8C867D",
"(P 	c #E1D6C0",
"_P 	c #D3C6AC",
":P 	c #CFBFA3",
"<P 	c #CFBFA2",
"[P 	c #CCBFA1",
"}P 	c #CCBEA1",
"|P 	c #CABC9F",
"1P 	c #D0C2A5",
"2P 	c #BFB19A",
"3P 	c #775F56",
"4P 	c #5E4B4D",
"5P 	c #130A16",
"6P 	c #31283C",
"7P 	c #524D5A",
"8P 	c #58565A",
"9P 	c #747571",
"0P 	c #757470",
"aP 	c #8B8A7F",
"bP 	c #91907F",
"cP 	c #8E8C7A",
"dP 	c #817E72",
"eP 	c #86827A",
"fP 	c #78736D",
"gP 	c #0D0A16",
"hP 	c #BEAC91",
"iP 	c #C2B395",
"jP 	c #E3D6BC",
"kP 	c #CFC2A7",
"lP 	c #CDC0A4",
"mP 	c #CABEA2",
"nP 	c #CCBFA5",
"oP 	c #D6CAB6",
"pP 	c #877D6F",
"qP 	c #494042",
"rP 	c #160A1D",
"sP 	c #12051D",
"tP 	c #44181C",
"uP 	c #43191B",
"vP 	c #662824",
"wP 	c #823128",
"xP 	c #752C24",
"yP 	c #954733",
"zP 	c #C0603E",
"AP 	c #AB5038",
"BP 	c #8A3829",
"CP 	c #582120",
"DP 	c #220C13",
"EP 	c #753629",
"FP 	c #BC5C34",
"GP 	c #C36036",
"HP 	c #B4502C",
"IP 	c #BD5A34",
"JP 	c #DC7944",
"KP 	c #813A21",
"LP 	c #A96943",
"MP 	c #D17C49",
"NP 	c #B15533",
"OP 	c #D3804B",
"PP 	c #C87845",
"QP 	c #AA5F39",
"RP 	c #DB8B48",
"SP 	c #C07141",
"TP 	c #411513",
"UP 	c #291215",
"VP 	c #BC6D39",
"WP 	c #E3813E",
"XP 	c #CE6D36",
"YP 	c #D6783E",
"ZP 	c #CE6F38",
"`P 	c #D5763D",
" Q 	c #E18549",
".Q 	c #742D1C",
"+Q 	c #B07240",
"@Q 	c #E1934D",
"#Q 	c #B4643B",
"$Q 	c #DC8449",
"%Q 	c #DC7B41",
"&Q 	c #C76331",
"*Q 	c #E39554",
"=Q 	c #D5864C",
"-Q 	c #BA6842",
";Q 	c #3C1C1B",
">Q 	c #28111A",
",Q 	c #AD5D35",
"'Q 	c #D57035",
")Q 	c #CB6B36",
"!Q 	c #B05631",
"~Q 	c #CE7040",
"{Q 	c #B05432",
"]Q 	c #A4472B",
"^Q 	c #CA6A3F",
"/Q 	c #943C2A",
"(Q 	c #792C20",
"_Q 	c #723226",
":Q 	c #3A181B",
"<Q 	c #8A4A36",
"[Q 	c #B45B3D",
"}Q 	c #99452E",
"|Q 	c #A34F34",
"1Q 	c #893F2C",
"2Q 	c #7C3121",
"3Q 	c #873A2B",
"4Q 	c #66201A",
"5Q 	c #651F1A",
"6Q 	c #541617",
"7Q 	c #1E0819",
"8Q 	c #130820",
"9Q 	c #12071E",
"0Q 	c #322E3A",
"aQ 	c #666369",
"bQ 	c #8B857C",
"cQ 	c #DDD1B9",
"dQ 	c #CDBEA1",
"eQ 	c #CABB9E",
"fQ 	c #CABC9E",
"gQ 	c #C9BA9D",
"hQ 	c #C9BB9D",
"iQ 	c #C8BA9D",
"jQ 	c #CEC1A4",
"kQ 	c #BEAF99",
"lQ 	c #735D55",
"mQ 	c #594748",
"nQ 	c #271E30",
"oQ 	c #2E273B",
"pQ 	c #504C59",
"qQ 	c #555359",
"rQ 	c #757571",
"sQ 	c #777670",
"tQ 	c #8E8D81",
"uQ 	c #92907F",
"vQ 	c #868474",
"wQ 	c #878675",
"xQ 	c #838173",
"yQ 	c #928F85",
"zQ 	c #88857B",
"AQ 	c #7F7C73",
"BQ 	c #7D7973",
"CQ 	c #2E2B33",
"DQ 	c #0D0A15",
"EQ 	c #49413F",
"FQ 	c #BBAA91",
"GQ 	c #BFB293",
"HQ 	c #E2D4BB",
"IQ 	c #CBBCA3",
"JQ 	c #C5B79C",
"KQ 	c #CABCA1",
"LQ 	c #CDBFA4",
"MQ 	c #CBBEA4",
"NQ 	c #C9BDA3",
"OQ 	c #C8BAA1",
"PQ 	c #D3C7B2",
"QQ 	c #857C6E",
"RQ 	c #685E56",
"SQ 	c #483E42",
"TQ 	c #190D1F",
"UQ 	c #1B0918",
"VQ 	c #441A1B",
"WQ 	c #6D2A25",
"XQ 	c #863528",
"YQ 	c #783026",
"ZQ 	c #9C4E38",
"`Q 	c #C46741",
" R 	c #B05738",
".R 	c #8C3C2C",
"+R 	c #592421",
"@R 	c #240F13",
"#R 	c #864534",
"$R 	c #C36339",
"%R 	c #CB6A3C",
"&R 	c #BA582F",
"*R 	c #C26137",
"=R 	c #DD7A45",
"-R 	c #883C22",
";R 	c #AE6C46",
">R 	c #D27F4E",
",R 	c #B55A36",
"'R 	c #D6814E",
")R 	c #CF7E48",
"!R 	c #AC603A",
"~R 	c #DC8B4E",
"{R 	c #C47444",
"]R 	c #441616",
"^R 	c #2C1316",
"/R 	c #BA6A37",
"(R 	c #E7833C",
"_R 	c #CE6D35",
":R 	c #D7783F",
"<R 	c #CE6D37",
"[R 	c #D4733C",
"}R 	c #E38449",
"|R 	c #762F1E",
"1R 	c #B27342",
"2R 	c #DF9249",
"3R 	c #B2623C",
"4R 	c #DD8448",
"5R 	c #D97E3F",
"6R 	c #BD5E2B",
"7R 	c #E09252",
"8R 	c #D3834C",
"9R 	c #B66541",
"0R 	c #3D1D1C",
"aR 	c #2A1219",
"bR 	c #B76035",
"cR 	c #D67134",
"dR 	c #CE6D39",
"eR 	c #B45A34",
"fR 	c #D0703F",
"gR 	c #B15632",
"hR 	c #A84E2C",
"iR 	c #D07241",
"jR 	c #9E472F",
"kR 	c #793024",
"lR 	c #743529",
"mR 	c #401A1B",
"nR 	c #8F4B38",
"oR 	c #B65C3D",
"pR 	c #9C4931",
"qR 	c #A75239",
"rR 	c #8F4432",
"sR 	c #823728",
"tR 	c #873B2C",
"uR 	c #6D251E",
"vR 	c #6A221B",
"wR 	c #5B191A",
"xR 	c #230717",
"yR 	c #2D2935",
"zR 	c #676368",
"AR 	c #898179",
"BR 	c #DACDB5",
"CR 	c #D1C1A5",
"DR 	c #CDBFA2",
"ER 	c #CBBDA0",
"FR 	c #C9B99C",
"GR 	c #C8B99C",
"HR 	c #C7B79B",
"IR 	c #C7B79A",
"JR 	c #C8B99D",
"KR 	c #BEAF9A",
"LR 	c #6D5951",
"MR 	c #534344",
"NR 	c #110815",
"OR 	c #241D2E",
"PR 	c #2D263B",
"QR 	c #4D4B58",
"RR 	c #515058",
"SR 	c #747471",
"TR 	c #75736D",
"UR 	c #8C8A7D",
"VR 	c #908E7C",
"WR 	c #8C8A79",
"XR 	c #8F8D7C",
"YR 	c #8A887F",
"ZR 	c #7A776E",
"`R 	c #87847A",
" S 	c #827F77",
".S 	c #2D2933",
"+S 	c #0C0914",
"@S 	c #473E3D",
"#S 	c #BFB394",
"$S 	c #CCBDA5",
"%S 	c #C6B8A0",
"&S 	c #C5B79D",
"*S 	c #C9BBA1",
"=S 	c #CBBCA1",
"-S 	c #CABDA1",
";S 	c #C3B59B",
">S 	c #CFC2AF",
",S 	c #81786C",
"'S 	c #685E57",
")S 	c #463B40",
"!S 	c #1B0D20",
"~S 	c #12061B",
"{S 	c #44181B",
"]S 	c #47191B",
"^S 	c #6F2A25",
"/S 	c #8B372A",
"(S 	c #7C3228",
"_S 	c #A15039",
":S 	c #CA6A44",
"<S 	c #B55A3C",
"[S 	c #8C3D2E",
"}S 	c #572421",
"|S 	c #271014",
"1S 	c #884731",
"2S 	c #C9683B",
"3S 	c #D67441",
"4S 	c #C25F36",
"5S 	c #C6643A",
"6S 	c #DD7B45",
"7S 	c #8D3F22",
"8S 	c #B36F4B",
"9S 	c #D17F4F",
"0S 	c #B85B37",
"aS 	c #D7814D",
"bS 	c #D17E48",
"cS 	c #AB5E39",
"dS 	c #DB8A4D",
"eS 	c #C77646",
"fS 	c #471918",
"gS 	c #2D1217",
"hS 	c #BA6937",
"iS 	c #E8843C",
"jS 	c #CB6A34",
"kS 	c #D4733B",
"lS 	c #CE6C36",
"mS 	c #D5733C",
"nS 	c #E68649",
"oS 	c #76331F",
"pS 	c #B47644",
"qS 	c #E1934A",
"rS 	c #A95934",
"sS 	c #D87F43",
"tS 	c #D97D3D",
"uS 	c #B65728",
"vS 	c #E39253",
"wS 	c #D4814A",
"xS 	c #BA6A45",
"yS 	c #401F1C",
"zS 	c #2B1218",
"AS 	c #BB6434",
"BS 	c #D06E39",
"CS 	c #B85C35",
"DS 	c #D27140",
"ES 	c #B25834",
"FS 	c #AC532F",
"GS 	c #D47842",
"HS 	c #A24C2C",
"IS 	c #7A2F23",
"JS 	c #77352A",
"KS 	c #904C39",
"LS 	c #B75D3F",
"MS 	c #9E4935",
"NS 	c #A7533A",
"OS 	c #934632",
"PS 	c #8B3D2B",
"QS 	c #89392A",
"RS 	c #71281F",
"SS 	c #6C221B",
"TS 	c #5C1A1A",
"US 	c #270718",
"VS 	c #140720",
"WS 	c #14081F",
"XS 	c #2C2635",
"YS 	c #676267",
"ZS 	c #C9B89B",
"`S 	c #CAB89C",
" T 	c #C8B89C",
".T 	c #C5B699",
"+T 	c #BCAD97",
"@T 	c #6A564F",
"#T 	c #504042",
"$T 	c #231B2D",
"%T 	c #2B253B",
"&T 	c #4B4956",
"*T 	c #4D4C55",
"=T 	c #737370",
"-T 	c #75746D",
";T 	c #8F8E80",
">T 	c #979481",
",T 	c #989581",
"'T 	c #9C9984",
")T 	c #767472",
"!T 	c #787670",
"~T 	c #858279",
"{T 	c #7F7B74",
"]T 	c #353233",
"^T 	c #211D28",
"/T 	c #0C0A14",
"(T 	c #413939",
"_T 	c #B9A88F",
":T 	c #BBAE90",
"<T 	c #E0D2B9",
"[T 	c #CBBDA4",
"}T 	c #C5B7A0",
"|T 	c #C7B99F",
"1T 	c #BFB198",
"2T 	c #C5B89E",
"3T 	c #C5B59A",
"4T 	c #C4B79C",
"5T 	c #C6B89E",
"6T 	c #CDC0AD",
"7T 	c #82786D",
"8T 	c #695E5A",
"9T 	c #45383F",
"0T 	c #1B0C20",
"aT 	c #1C0A18",
"bT 	c #44171B",
"cT 	c #48191B",
"dT 	c #6F2923",
"eT 	c #8F392B",
"fT 	c #A14E38",
"gT 	c #CB6A43",
"hT 	c #B95D3D",
"iT 	c #8A3D2F",
"jT 	c #542220",
"kT 	c #2A1116",
"lT 	c #8D4A34",
"mT 	c #C56538",
"nT 	c #D4723E",
"oT 	c #B3522B",
"pT 	c #BD5C36",
"qT 	c #D87744",
"rT 	c #8E3F22",
"sT 	c #B8744C",
"tT 	c #D17F4A",
"uT 	c #BA5C37",
"vT 	c #D9824D",
"wT 	c #D37F49",
"xT 	c #AB5C38",
"yT 	c #DA884B",
"zT 	c #C77545",
"AT 	c #4A1B19",
"BT 	c #2D1115",
"CT 	c #BA6838",
"DT 	c #EC863F",
"ET 	c #CA6833",
"FT 	c #DA763F",
"GT 	c #D26E38",
"HT 	c #E68547",
"IT 	c #75331F",
"JT 	c #B27442",
"KT 	c #E09046",
"LT 	c #A0532F",
"MT 	c #DC8043",
"NT 	c #E08042",
"OT 	c #B75729",
"PT 	c #E4914F",
"QT 	c #D48045",
"RT 	c #BB6943",
"ST 	c #3F1E1A",
"TT 	c #2C1116",
"UT 	c #C16736",
"VT 	c #DA7336",
"WT 	c #D4723B",
"XT 	c #B95D34",
"YT 	c #D37341",
"ZT 	c #B05834",
"`T 	c #AB5230",
" U 	c #D37742",
".U 	c #A14B2C",
"+U 	c #782F22",
"@U 	c #77382A",
"#U 	c #431C1A",
"$U 	c #945039",
"%U 	c #BB603F",
"&U 	c #9F4A34",
"*U 	c #A55238",
"=U 	c #944632",
"-U 	c #8D3E28",
";U 	c #883825",
">U 	c #742A20",
",U 	c #6C231A",
"'U 	c #5D1B18",
")U 	c #2B0918",
"!U 	c #160820",
"~U 	c #160920",
"{U 	c #2D2736",
"]U 	c #878075",
"^U 	c #BCAE95",
"/U 	c #A89A83",
"(U 	c #A59680",
"_U 	c #CABDA5",
":U 	c #C8B9A2",
"<U 	c #BFAF9A",
"[U 	c #B8A992",
"}U 	c #C4B69D",
"|U 	c #D0C2A9",
"1U 	c #67534D",
"2U 	c #4B3A3F",
"3U 	c #0E0512",
"4U 	c #221A2C",
"5U 	c #2A253A",
"6U 	c #4A4755",
"7U 	c #4A4953",
"8U 	c #727170",
"9U 	c #76746D",
"0U 	c #979380",
"aU 	c #9B9884",
"bU 	c #888676",
"cU 	c #3A373C",
"dU 	c #48454C",
"eU 	c #4F4D50",
"fU 	c #48454B",
"gU 	c #1D1925",
"hU 	c #151020",
"iU 	c #0C0712",
"jU 	c #362F2F",
"kU 	c #DFD3BB",
"lU 	c #C7BAA3",
"mU 	c #C8BBA4",
"nU 	c #C1B59C",
"oU 	c #C4B79D",
"pU 	c #C5B59B",
"qU 	c #C5B69D",
"rU 	c #C5B99F",
"sU 	c #C9BFAA",
"tU 	c #867D73",
"uU 	c #6A615F",
"vU 	c #48393F",
"wU 	c #190B1E",
"xU 	c #0F0519",
"yU 	c #1B0917",
"zU 	c #431318",
"AU 	c #4A181A",
"BU 	c #6C2821",
"CU 	c #903A2A",
"DU 	c #7B3429",
"EU 	c #9C4B35",
"FU 	c #CA6A40",
"GU 	c #BA5E3C",
"HU 	c #8B3E2E",
"IU 	c #542321",
"JU 	c #2E1316",
"KU 	c #924E36",
"LU 	c #C56838",
"MU 	c #D57442",
"NU 	c #AD512B",
"OU 	c #B4562F",
"PU 	c #D07240",
"QU 	c #8E3E21",
"RU 	c #BA754A",
"SU 	c #D07D48",
"TU 	c #B85A35",
"UU 	c #D7804B",
"VU 	c #D3804A",
"WU 	c #AA5C37",
"XU 	c #DB874B",
"YU 	c #C87644",
"ZU 	c #4A1C17",
"`U 	c #2B1315",
" V 	c #EC853F",
".V 	c #C96630",
"+V 	c #E7823F",
"@V 	c #D17438",
"#V 	c #C06C38",
"$V 	c #D07D44",
"%V 	c #703428",
"&V 	c #9E6541",
"*V 	c #C9814A",
"=V 	c #914C33",
"-V 	c #D17C45",
";V 	c #D67838",
">V 	c #B6582A",
",V 	c #E18F4B",
"'V 	c #D17C41",
")V 	c #B9663F",
"!V 	c #3D1D19",
"~V 	c #C96935",
"{V 	c #DA7234",
"]V 	c #D3723B",
"^V 	c #BB6135",
"/V 	c #AC5733",
"(V 	c #A8512E",
"_V 	c #D27844",
":V 	c #9E4A2D",
"<V 	c #762E23",
"[V 	c #73372A",
"}V 	c #471E1C",
"|V 	c #984E38",
"1V 	c #B95F3D",
"2V 	c #9F4D34",
"3V 	c #A45036",
"4V 	c #954531",
"5V 	c #8A3D29",
"6V 	c #752B21",
"7V 	c #6D231D",
"8V 	c #5D1A17",
"9V 	c #310A17",
"0V 	c #17081F",
"aV 	c #160A21",
"bV 	c #2B2633",
"cV 	c #676367",
"dV 	c #898177",
"eV 	c #BAAB95",
"fV 	c #AB9E8B",
"gV 	c #AA9D8A",
"hV 	c #CEC2AE",
"iV 	c #B2A492",
"jV 	c #A29481",
"kV 	c #B5A78F",
"lV 	c #C6B9A0",
"mV 	c #D6CAB2",
"nV 	c #BFB19D",
"oV 	c #4D3C41",
"pV 	c #0D0411",
"qV 	c #261F32",
"rV 	c #2E283B",
"sV 	c #46444E",
"tV 	c #74716E",
"uV 	c #838175",
"vV 	c #8E8A78",
"wV 	c #858170",
"xV 	c #8A8778",
"yV 	c #646159",
"zV 	c #666561",
"AV 	c #616057",
"BV 	c #737366",
"CV 	c #75746A",
"DV 	c #41403E",
"EV 	c #27232D",
"FV 	c #0A0711",
"GV 	c #221A1E",
"HV 	c #A09283",
"IV 	c #9F9481",
"JV 	c #D2C7B1",
"KV 	c #BFB49C",
"LV 	c #BAAE98",
"MV 	c #BAAD97",
"NV 	c #BAAD94",
"OV 	c #BEB096",
"PV 	c #BEB097",
"QV 	c #C9BEA8",
"RV 	c #6C6564",
"SV 	c #4A3B43",
"TV 	c #1D0C20",
"UV 	c #40121B",
"VV 	c #4F181B",
"WV 	c #682821",
"XV 	c #923E2C",
"YV 	c #7E372B",
"ZV 	c #9D4935",
"`V 	c #CE693E",
" W 	c #BC5E3C",
".W 	c #8B402F",
"+W 	c #522220",
"@W 	c #954F37",
"#W 	c #C46836",
"$W 	c #D7763F",
"%W 	c #B45931",
"&W 	c #B35730",
"*W 	c #CE7241",
"=W 	c #924022",
"-W 	c #BB7246",
";W 	c #D07A46",
">W 	c #B65732",
",W 	c #D7804C",
"'W 	c #AA5B36",
")W 	c #DA874B",
"!W 	c #C87645",
"~W 	c #491C17",
"{W 	c #B7663B",
"]W 	c #F18741",
"^W 	c #D77238",
"/W 	c #EF8F41",
"(W 	c #B47242",
"_W 	c #15090E",
":W 	c #170C12",
"<W 	c #150B15",
"[W 	c #170A12",
"}W 	c #180B1A",
"|W 	c #BA8D67",
"1W 	c #E3A163",
"2W 	c #B35729",
"3W 	c #E28D4A",
"4W 	c #D37B41",
"5W 	c #BE6840",
"6W 	c #3E1D19",
"7W 	c #2F1114",
"8W 	c #CC6B38",
"9W 	c #DB7234",
"0W 	c #BE6538",
"aW 	c #DC8046",
"bW 	c #AD5B31",
"cW 	c #A7522F",
"dW 	c #D47747",
"eW 	c #70291E",
"fW 	c #7D3C2B",
"gW 	c #55201A",
"hW 	c #9C4F3A",
"iW 	c #B85E3D",
"jW 	c #9C4A31",
"kW 	c #A34F35",
"lW 	c #934431",
"mW 	c #8B3E2A",
"nW 	c #833626",
"oW 	c #762C22",
"pW 	c #6D241D",
"qW 	c #5C1A15",
"rW 	c #360A17",
"sW 	c #282430",
"tW 	c #676366",
"uW 	c #8A8377",
"vW 	c #C7BB9F",
"wW 	c #B7AB96",
"xW 	c #B6AA95",
"yW 	c #AEA18D",
"zW 	c #B6A995",
"AW 	c #B3A693",
"BW 	c #ADA08D",
"CW 	c #B6A992",
"DW 	c #CDC0AB",
"EW 	c #B4A594",
"FW 	c #65514D",
"GW 	c #47363C",
"HW 	c #2B2539",
"IW 	c #2A2438",
"JW 	c #3E3B49",
"KW 	c #514D4F",
"LW 	c #5C5854",
"MW 	c #5A5450",
"NW 	c #5B5550",
"OW 	c #57514D",
"PW 	c #4F4A48",
"QW 	c #3F3A3B",
"RW 	c #ABAB9D",
"SW 	c #9F9F8A",
"TW 	c #929180",
"UW 	c #898A79",
"VW 	c #54534D",
"WW 	c #090711",
"XW 	c #140914",
"YW 	c #74665F",
"ZW 	c #716357",
"`W 	c #BBB09C",
" X 	c #A99F88",
".X 	c #B8AC93",
"+X 	c #BDAE96",
"@X 	c #C0B299",
"#X 	c #BEB197",
"$X 	c #C1B39A",
"%X 	c #C6BA9F",
"&X 	c #C9BFA8",
"*X 	c #8D857C",
"=X 	c #6D6666",
"-X 	c #463841",
";X 	c #1E0C22",
">X 	c #1E0917",
",X 	c #45131B",
"'X 	c #56191C",
")X 	c #682722",
"!X 	c #96402D",
"~X 	c #82392E",
"{X 	c #994632",
"]X 	c #D46E42",
"^X 	c #C46440",
"/X 	c #8D412E",
"(X 	c #512220",
"_X 	c #2F1416",
":X 	c #974E37",
"<X 	c #C56837",
"[X 	c #D4713C",
"}X 	c #B35531",
"|X 	c #CD7141",
"1X 	c #954122",
"2X 	c #BC7044",
"3X 	c #D17944",
"4X 	c #B55732",
"5X 	c #D77F4B",
"6X 	c #A95A34",
"7X 	c #D9864B",
"8X 	c #C67544",
"9X 	c #481A17",
"0X 	c #281215",
"aX 	c #B86635",
"bX 	c #F2893C",
"cX 	c #D1743B",
"dX 	c #AF723E",
"eX 	c #835B3F",
"fX 	c #6E6F76",
"gX 	c #99A5AA",
"hX 	c #94A3A6",
"iX 	c #939DA3",
"jX 	c #959BA1",
"kX 	c #8A8F99",
"lX 	c #332A27",
"mX 	c #47372A",
"nX 	c #984826",
"oX 	c #DB8341",
"pX 	c #D2783E",
"qX 	c #BF6840",
"rX 	c #401D19",
"sX 	c #311113",
"tX 	c #CE6D38",
"uX 	c #DB7435",
"vX 	c #C06538",
"wX 	c #DE8145",
"xX 	c #AD5B32",
"yX 	c #A85533",
"zX 	c #D37547",
"AX 	c #97442A",
"BX 	c #6E281E",
"CX 	c #7E3A28",
"DX 	c #5E241A",
"EX 	c #A35139",
"FX 	c #BC5E3E",
"GX 	c #9E4A32",
"HX 	c #A34F36",
"IX 	c #914230",
"JX 	c #883D29",
"KX 	c #823626",
"LX 	c #782C23",
"MX 	c #6F251E",
"NX 	c #5C1914",
"OX 	c #3A0B17",
"PX 	c #17071F",
"QX 	c #15091F",
"RX 	c #282330",
"SX 	c #646163",
"TX 	c #8A8276",
"UX 	c #C7BCA1",
"VX 	c #BAAE97",
"WX 	c #B7AD96",
"XX 	c #B6AC95",
"YX 	c #B2A58F",
"ZX 	c #B1A58E",
"`X 	c #AFA38D",
" Y 	c #ACA08A",
".Y 	c #B2A48E",
"+Y 	c #A4917D",
"@Y 	c #826E5F",
"#Y 	c #53403E",
"$Y 	c #34252B",
"%Y 	c #0C0612",
"&Y 	c #332E43",
"*Y 	c #2A2436",
"=Y 	c #59565C",
"-Y 	c #A7A496",
";Y 	c #AEAB96",
">Y 	c #B3AE98",
",Y 	c #B8B19B",
"'Y 	c #BDB5A0",
")Y 	c #BFB8A2",
"!Y 	c #B7B29C",
"~Y 	c #A6A698",
"{Y 	c #9F9D8E",
"]Y 	c #7C7A6F",
"^Y 	c #4D4B48",
"/Y 	c #2F2C32",
"(Y 	c #0A0812",
"_Y 	c #130815",
":Y 	c #544845",
"<Y 	c #62554D",
"[Y 	c #B0A695",
"}Y 	c #AEA38E",
"|Y 	c #B1A58D",
"1Y 	c #B2A58D",
"2Y 	c #AEA38A",
"3Y 	c #A89D84",
"4Y 	c #AB9F88",
"5Y 	c #AFA48C",
"6Y 	c #B1AA95",
"7Y 	c #746E6A",
"8Y 	c #625A60",
"9Y 	c #3B2A37",
"0Y 	c #1A0A21",
"aY 	c #100519",
"bY 	c #230A16",
"cY 	c #481319",
"dY 	c #5B1A1C",
"eY 	c #6B2621",
"fY 	c #98402D",
"gY 	c #873C2E",
"hY 	c #954430",
"iY 	c #D06D41",
"jY 	c #C4633E",
"kY 	c #8E422E",
"lY 	c #522321",
"mY 	c #301416",
"nY 	c #994F35",
"oY 	c #C76A37",
"pY 	c #B1542C",
"qY 	c #B2542E",
"rY 	c #CA6F3F",
"sY 	c #974424",
"tY 	c #BD6E44",
"uY 	c #CF7741",
"vY 	c #B45633",
"wY 	c #D8814B",
"xY 	c #D47E4A",
"yY 	c #AA5832",
"zY 	c #DA864B",
"AY 	c #C37342",
"BY 	c #461A18",
"CY 	c #261213",
"DY 	c #BD6835",
"EY 	c #F08D38",
"FY 	c #B66835",
"GY 	c #201218",
"HY 	c #170D16",
"IY 	c #8A8D92",
"JY 	c #DBE9EC",
"KY 	c #DFEBEA",
"LY 	c #E1ECE9",
"MY 	c #E2EAE8",
"NY 	c #B5BAC1",
"OY 	c #171217",
"PY 	c #54291E",
"QY 	c #96542F",
"RY 	c #C66C3C",
"SY 	c #BC673F",
"TY 	c #431E17",
"UY 	c #321111",
"VY 	c #D2713A",
"WY 	c #DC7536",
"XY 	c #BF6539",
"YY 	c #AD5C34",
"ZY 	c #AA5A38",
"`Y 	c #CD7144",
" Z 	c #914027",
".Z 	c #6D2A1F",
"+Z 	c #813C2B",
"@Z 	c #65281D",
"#Z 	c #A75438",
"$Z 	c #BB603C",
"%Z 	c #9D4B33",
"&Z 	c #A24F35",
"*Z 	c #91432F",
"=Z 	c #8B3D2A",
"-Z 	c #843727",
";Z 	c #772D23",
">Z 	c #70271F",
",Z 	c #5B1A16",
"'Z 	c #400F19",
")Z 	c #17061B",
"!Z 	c #2B2730",
"~Z 	c #5D595A",
"{Z 	c #716861",
"]Z 	c #A19482",
"^Z 	c #A19382",
"/Z 	c #A99D89",
"(Z 	c #A99D88",
"_Z 	c #ACA28B",
":Z 	c #B4A790",
"<Z 	c #B9AD95",
"[Z 	c #BBB099",
"}Z 	c #B3A78F",
"|Z 	c #9B856F",
"1Z 	c #786155",
"2Z 	c #2B1C22",
"3Z 	c #160918",
"4Z 	c #3C3648",
"5Z 	c #3B3643",
"6Z 	c #737270",
"7Z 	c #6F6D67",
"8Z 	c #AAA896",
"9Z 	c #ACA992",
"0Z 	c #A8A48D",
"aZ 	c #A9A58E",
"bZ 	c #AAA690",
"cZ 	c #A9A58D",
"dZ 	c #A8A58D",
"eZ 	c #A6A699",
"fZ 	c #9F9C8F",
"gZ 	c #7E7D72",
"hZ 	c #7D7D71",
"iZ 	c #484644",
"jZ 	c #2F2B31",
"kZ 	c #0E0A15",
"lZ 	c #150A17",
"mZ 	c #251522",
"nZ 	c #302026",
"oZ 	c #5A4945",
"pZ 	c #4E3C37",
"qZ 	c #443530",
"rZ 	c #453631",
"sZ 	c #463732",
"tZ 	c #4B3C37",
"uZ 	c #53433C",
"vZ 	c #564740",
"wZ 	c #54473E",
"xZ 	c #574B43",
"yZ 	c #59504B",
"zZ 	c #2E2932",
"AZ 	c #2F2734",
"BZ 	c #1B0C1C",
"CZ 	c #11061C",
"DZ 	c #100419",
"EZ 	c #270C15",
"FZ 	c #481518",
"GZ 	c #591C1C",
"HZ 	c #692820",
"IZ 	c #94412C",
"JZ 	c #8B3D2D",
"KZ 	c #93412E",
"LZ 	c #CA6940",
"MZ 	c #C3623B",
"NZ 	c #904530",
"OZ 	c #522320",
"PZ 	c #311315",
"QZ 	c #9C5035",
"RZ 	c #C76A35",
"SZ 	c #D06F39",
"TZ 	c #B45530",
"UZ 	c #CB6E3F",
"VZ 	c #994728",
"WZ 	c #BA6940",
"XZ 	c #CF773F",
"YZ 	c #B25632",
"ZZ 	c #D67F4A",
"`Z 	c #D67E49",
" ` 	c #AB5630",
".` 	c #DB874C",
"+` 	c #C67644",
"@` 	c #421816",
"#` 	c #201014",
"$` 	c #AF6641",
"%` 	c #9E643D",
"&` 	c #6B4634",
"*` 	c #857C7A",
"=` 	c #968E80",
"-` 	c #908B85",
";` 	c #B2B8B8",
">` 	c #A2A9AB",
",` 	c #A6AEAF",
"'` 	c #ABB2B4",
")` 	c #868B91",
"!` 	c #A9B1BA",
"~` 	c #969AA7",
"{` 	c #15101A",
"]` 	c #291521",
"^` 	c #894A32",
"/` 	c #B05C3B",
"(` 	c #401A18",
"_` 	c #341311",
":` 	c #D5753D",
"<` 	c #E0783A",
"[` 	c #D4743D",
"}` 	c #BD6439",
"|` 	c #DC7E44",
"1` 	c #AE5D36",
"2` 	c #CB7243",
"3` 	c #903F29",
"4` 	c #6B2A1E",
"5` 	c #823B2B",
"6` 	c #66281D",
"7` 	c #A8563A",
"8` 	c #BA613B",
"9` 	c #9B4A31",
"0` 	c #9F4D32",
"a` 	c #90422E",
"b` 	c #8C3C29",
"c` 	c #70281F",
"d` 	c #5B1A18",
"e` 	c #45111A",
"f` 	c #180619",
"g` 	c #0F061B",
"h` 	c #100819",
"i` 	c #2C272D",
"j` 	c #3F3738",
"k` 	c #5A4F49",
"l` 	c #5D514C",
"m` 	c #5C514C",
"n` 	c #5A4E4A",
"o` 	c #574B47",
"p` 	c #554844",
"q` 	c #574843",
"r` 	c #5A4C45",
"s` 	c #584C43",
"t` 	c #4E4139",
"u` 	c #322324",
"v` 	c #15091C",
"w` 	c #0C0613",
"x` 	c #3E3749",
"y` 	c #3A3240",
"z` 	c #6B6A69",
"A` 	c #696664",
"B` 	c #9C998A",
"C` 	c #A29F8B",
"D` 	c #A19D88",
"E` 	c #A6A18B",
"F` 	c #A5A08A",
"G` 	c #A49E86",
"H` 	c #A3A087",
"I` 	c #A5A495",
"J` 	c #9E9A8C",
"K` 	c #7E7D75",
"L` 	c #7F7F74",
"M` 	c #494746",
"N` 	c #302B31",
"O` 	c #0E0B16",
"P` 	c #160B18",
"Q` 	c #1F121B",
"R` 	c #271A20",
"S` 	c #332728",
"T` 	c #332627",
"U` 	c #342526",
"V` 	c #352625",
"W` 	c #362725",
"X` 	c #3A2A28",
"Y` 	c #3C2D2B",
"Z` 	c #3A2C29",
"`` 	c #342726",
"  .	c #251720",
". .	c #160B1D",
"+ .	c #130817",
"@ .	c #0F0516",
"# .	c #0F0617",
"$ .	c #100517",
"% .	c #2B0E16",
"& .	c #491519",
"* .	c #581C1D",
"= .	c #6C2A23",
"- .	c #95422E",
"; .	c #8E3E2E",
"> .	c #C66741",
", .	c #C5613C",
"' .	c #301315",
") .	c #9F5336",
"! .	c #C86B38",
"~ .	c #A84D29",
"{ .	c #B85834",
"] .	c #D7784A",
"^ .	c #974427",
"/ .	c #BA683E",
"( .	c #D47A42",
"_ .	c #B35733",
": .	c #D57D49",
"< .	c #AA5430",
"[ .	c #DA884D",
"} .	c #CA7845",
"| .	c #461C18",
"1 .	c #1B0F13",
"2 .	c #9A513D",
"3 .	c #4B221B",
"4 .	c #100C0F",
"5 .	c #A39C94",
"6 .	c #7A7167",
"7 .	c #696972",
"8 .	c #3C4055",
"9 .	c #36354B",
"0 .	c #353243",
"a .	c #A5AEB5",
"b .	c #8D9095",
"c .	c #58575E",
"d .	c #1A1322",
"e .	c #704031",
"f .	c #A95537",
"g .	c #3E1919",
"h .	c #361511",
"i .	c #E27A3C",
"j .	c #D67640",
"k .	c #BD633A",
"l .	c #AB5B36",
"m .	c #A75A36",
"n .	c #CB7042",
"o .	c #93402B",
"p .	c #6B2B20",
"q .	c #843E2D",
"r .	c #AA583B",
"s .	c #BA613C",
"t .	c #9A4B32",
"u .	c #A04E34",
"v .	c #8F422D",
"w .	c #8A3C29",
"x .	c #853928",
"y .	c #772E24",
"z .	c #702820",
"A .	c #5B1A19",
"B .	c #461219",
"C .	c #180519",
"D .	c #120815",
"E .	c #291F25",
"F .	c #362C2F",
"G .	c #3F3635",
"H .	c #473C3A",
"I .	c #4D4140",
"J .	c #524744",
"K .	c #504440",
"L .	c #483C39",
"M .	c #433434",
"N .	c #3E302F",
"O .	c #3E2F30",
"P .	c #1E111A",
"Q .	c #17081C",
"R .	c #0C0515",
"S .	c #352D41",
"T .	c #362C3D",
"U .	c #676464",
"V .	c #9A9588",
"W .	c #9F9B87",
"X .	c #9B9782",
"Y .	c #A39E89",
"Z .	c #A09C87",
"` .	c #9E9A87",
" ..	c #A1A090",
"...	c #9C9889",
"+..	c #7C7C75",
"@..	c #7D7C73",
"#..	c #494646",
"$..	c #2E292F",
"%..	c #0E0A16",
"&..	c #3A3434",
"*..	c #A79681",
"=..	c #C0B69F",
"-..	c #EAE3D7",
";..	c #EBE3D7",
">..	c #EAE3D4",
",..	c #EBE4D3",
"'..	c #EEE6D4",
")..	c #EFE8D4",
"!..	c #F0EAD5",
"~..	c #F0EAD4",
"{..	c #F0EAD2",
"]..	c #F0EAD0",
"^..	c #E4DAC8",
"/..	c #625857",
"(..	c #564E53",
"_..	c #1E1520",
":..	c #120816",
"<..	c #110617",
"[..	c #2E0F17",
"}..	c #4A151B",
"|..	c #5C1E1F",
"1..	c #752C25",
"2..	c #98422E",
"3..	c #903F2E",
"4..	c #94432F",
"5..	c #C1633F",
"6..	c #C2603B",
"7..	c #934532",
"8..	c #51201F",
"9..	c #2F1215",
"0..	c #A15538",
"a..	c #C76A38",
"b..	c #CC6C38",
"c..	c #A74C29",
"d..	c #B95B36",
"e..	c #DB7D4E",
"f..	c #964326",
"g..	c #B9673C",
"h..	c #D37941",
"i..	c #D8814C",
"j..	c #D67F4B",
"k..	c #AA5532",
"l..	c #DA874D",
"m..	c #4A201A",
"n..	c #1B1012",
"o..	c #974F39",
"p..	c #572820",
"q..	c #120D11",
"r..	c #908982",
"s..	c #6A605F",
"t..	c #504E5A",
"u..	c #4A4B57",
"v..	c #353440",
"w..	c #23202A",
"x..	c #26232A",
"y..	c #84888C",
"z..	c #82858B",
"A..	c #1D1822",
"B..	c #683A30",
"C..	c #A54F33",
"D..	c #3B1817",
"E..	c #381713",
"F..	c #D97840",
"G..	c #E37C40",
"H..	c #D67641",
"I..	c #BD643B",
"J..	c #DD8149",
"K..	c #A95B36",
"L..	c #A55935",
"M..	c #CD7143",
"N..	c #95412C",
"O..	c #6D2E22",
"P..	c #692B1F",
"Q..	c #A85639",
"R..	c #B85E3B",
"S..	c #994A31",
"T..	c #A05035",
"U..	c #90432E",
"V..	c #863A2A",
"W..	c #793026",
"X..	c #6F2720",
"Y..	c #581918",
"Z..	c #451319",
"`..	c #19061A",
" +.	c #10061C",
".+.	c #241C28",
"++.	c #685E61",
"@+.	c #766D65",
"#+.	c #E2DACE",
"$+.	c #EAE4D6",
"%+.	c #EDEAD6",
"&+.	c #EFEDD8",
"*+.	c #F1EDD8",
"=+.	c #F3EEDA",
"-+.	c #F2EED8",
";+.	c #F0EDD7",
">+.	c #EFEBD7",
",+.	c #ECE7D1",
"'+.	c #E8E2CA",
")+.	c #A1998A",
"!+.	c #675757",
"~+.	c #3F333B",
"{+.	c #0C0615",
"]+.	c #362C42",
"^+.	c #3B2E42",
"/+.	c #636061",
"(+.	c #969285",
"_+.	c #938F80",
":+.	c #928D7F",
"<+.	c #8C8677",
"[+.	c #8A8475",
"}+.	c #9B9A8A",
"|+.	c #949082",
"1+.	c #797871",
"2+.	c #7A7872",
"3+.	c #494647",
"4+.	c #302D32",
"5+.	c #100B18",
"6+.	c #484240",
"7+.	c #AF9E87",
"8+.	c #C0B194",
"9+.	c #F4ECDB",
"0+.	c #E8E0CE",
"a+.	c #E6E0CC",
"b+.	c #E7E1CB",
"c+.	c #EBE4CA",
"d+.	c #ECE6CD",
"e+.	c #EDE7CD",
"f+.	c #F0ECD1",
"g+.	c #F7F3DB",
"h+.	c #8A817A",
"i+.	c #736A6B",
"j+.	c #31272F",
"k+.	c #140818",
"l+.	c #2F0E18",
"m+.	c #49161C",
"n+.	c #5E1E1F",
"o+.	c #782C24",
"p+.	c #97432D",
"q+.	c #91402F",
"r+.	c #944331",
"s+.	c #BE603D",
"t+.	c #BF603A",
"u+.	c #974835",
"v+.	c #532121",
"w+.	c #2D1114",
"x+.	c #A25739",
"y+.	c #C86A3A",
"z+.	c #CC6D3C",
"A+.	c #A84B2A",
"B+.	c #B85E36",
"C+.	c #DB814F",
"D+.	c #944425",
"E+.	c #B8673A",
"F+.	c #D17742",
"G+.	c #B55631",
"H+.	c #D37B47",
"I+.	c #CE7643",
"J+.	c #A75130",
"K+.	c #D5834B",
"L+.	c #4E241D",
"M+.	c #1C0F13",
"N+.	c #8F482E",
"O+.	c #5C2C1F",
"P+.	c #140E14",
"Q+.	c #797471",
"R+.	c #817B72",
"S+.	c #4F484D",
"T+.	c #0A0417",
"U+.	c #0A0317",
"V+.	c #0A0416",
"W+.	c #0D061A",
"X+.	c #4C4B55",
"Y+.	c #717279",
"Z+.	c #717278",
"`+.	c #613A30",
" @.	c #9C4B2D",
".@.	c #371717",
"+@.	c #3A1816",
"@@.	c #DA7742",
"#@.	c #E27D40",
"$@.	c #D67843",
"%@.	c #BB633A",
"&@.	c #DD814A",
"*@.	c #A85D37",
"=@.	c #A25635",
"-@.	c #CF7147",
";@.	c #6C2C20",
">@.	c #894130",
",@.	c #A65638",
"'@.	c #B55E3B",
")@.	c #9A4A33",
"!@.	c #9F5035",
"~@.	c #8F432E",
"{@.	c #85392B",
"]@.	c #762D23",
"^@.	c #70261F",
"/@.	c #551919",
"(@.	c #43131B",
"_@.	c #19071A",
":@.	c #13071F",
"<@.	c #302834",
"[@.	c #7E7672",
"}@.	c #8C8575",
"|@.	c #E7E3CF",
"1@.	c #E1DBC1",
"2@.	c #DCD6B8",
"3@.	c #DBD6B7",
"4@.	c #DED8B8",
"5@.	c #E0D9BB",
"6@.	c #E0D8BB",
"7@.	c #E0D9BC",
"8@.	c #E1D9BD",
"9@.	c #E3DCBE",
"0@.	c #E4DDC0",
"a@.	c #B1A793",
"b@.	c #6D5A54",
"c@.	c #493C40",
"d@.	c #372D42",
"e@.	c #3D3244",
"f@.	c #615E5F",
"g@.	c #696764",
"h@.	c #918E81",
"i@.	c #918E7F",
"j@.	c #918C7E",
"k@.	c #8B8677",
"l@.	c #888375",
"m@.	c #949384",
"n@.	c #8E8A7E",
"o@.	c #767770",
"p@.	c #787772",
"q@.	c #4A4748",
"r@.	c #333035",
"s@.	c #110B18",
"t@.	c #403937",
"u@.	c #B09C85",
"v@.	c #B6A588",
"w@.	c #E8DEC3",
"x@.	c #CBBD9F",
"y@.	c #CFC1A0",
"z@.	c #CEBF9F",
"A@.	c #CFC0A0",
"B@.	c #CFC1A1",
"C@.	c #D7CFB6",
"D@.	c #746B65",
"E@.	c #696163",
"F@.	c #362B33",
"G@.	c #190D1B",
"H@.	c #170A19",
"I@.	c #300E19",
"J@.	c #5F1F1F",
"K@.	c #7A2E23",
"L@.	c #97422D",
"M@.	c #92422F",
"N@.	c #BE603B",
"O@.	c #974735",
"P@.	c #532122",
"Q@.	c #A3583A",
"R@.	c #C6673A",
"S@.	c #CA693C",
"T@.	c #A84B2D",
"U@.	c #B95E36",
"V@.	c #DA804D",
"W@.	c #934426",
"X@.	c #B8663B",
"Y@.	c #D07441",
"Z@.	c #D47D4A",
"`@.	c #CF7645",
" #.	c #A85231",
".#.	c #D4824B",
"+#.	c #C16F41",
"@#.	c #4B221C",
"##.	c #1C1013",
"$#.	c #934A30",
"%#.	c #643023",
"&#.	c #140E13",
"*#.	c #676264",
"=#.	c #6E6867",
"-#.	c #433C42",
";#.	c #0B0417",
">#.	c #0E051C",
",#.	c #4A4A56",
"'#.	c #666771",
")#.	c #64656D",
"!#.	c #1A161D",
"~#.	c #5D372C",
"{#.	c #94482C",
"]#.	c #331718",
"^#.	c #381616",
"/#.	c #E07D40",
"(#.	c #D67741",
"_#.	c #B96239",
":#.	c #DA7F48",
"<#.	c #A75D37",
"[#.	c #A55736",
"}#.	c #CF7046",
"|#.	c #94402B",
"1#.	c #6B2B1F",
"2#.	c #88422F",
"3#.	c #672B1F",
"4#.	c #A45538",
"5#.	c #B45D3C",
"6#.	c #994B34",
"7#.	c #9E5036",
"8#.	c #8E422F",
"9#.	c #883D2B",
"0#.	c #7F3628",
"a#.	c #722B22",
"b#.	c #541818",
"c#.	c #41141B",
"d#.	c #19071B",
"e#.	c #150821",
"f#.	c #322A36",
"g#.	c #7E7670",
"h#.	c #8C8676",
"i#.	c #E6E1C8",
"j#.	c #DBD0B1",
"k#.	c #CFC09F",
"l#.	c #D0C19F",
"m#.	c #DDCEAC",
"n#.	c #DBCCAA",
"o#.	c #D1C2A1",
"p#.	c #D0C0A0",
"q#.	c #CDBD9E",
"r#.	c #D0C2A3",
"s#.	c #D7CCAF",
"t#.	c #6E5B56",
"u#.	c #392F44",
"v#.	c #3E3445",
"w#.	c #5F5C5D",
"x#.	c #696763",
"y#.	c #908D7F",
"z#.	c #908D7D",
"A#.	c #928F80",
"B#.	c #8B8879",
"C#.	c #888576",
"D#.	c #888675",
"E#.	c #878575",
"F#.	c #8B8A7D",
"G#.	c #87857A",
"H#.	c #777772",
"I#.	c #4B494A",
"J#.	c #353136",
"K#.	c #38312F",
"L#.	c #B29D87",
"M#.	c #B5A488",
"N#.	c #E2D9BD",
"O#.	c #CDBEA0",
"P#.	c #CCBDA0",
"Q#.	c #CBBE9E",
"R#.	c #CEBFA0",
"S#.	c #CFC0A2",
"T#.	c #C9BCA0",
"U#.	c #BCB096",
"V#.	c #CFC6AE",
"W#.	c #7B726C",
"X#.	c #6A6267",
"Y#.	c #392F37",
"Z#.	c #1C0F1E",
"`#.	c #180A19",
" $.	c #300E18",
".$.	c #4A161C",
"+$.	c #60211F",
"@$.	c #793023",
"#$.	c #96432D",
"$$.	c #8F3E2C",
"%$.	c #B9603C",
"&$.	c #BD5F3C",
"*$.	c #954535",
"=$.	c #542223",
"-$.	c #9F5437",
";$.	c #C36438",
">$.	c #C6653A",
",$.	c #A5472B",
"'$.	c #B85D35",
")$.	c #D87E4C",
"!$.	c #8F4225",
"~$.	c #B8653C",
"{$.	c #CC6F3E",
"]$.	c #B0532E",
"^$.	c #D57D4A",
"/$.	c #CF7545",
"($.	c #D4814B",
"_$.	c #C06E42",
":$.	c #461E19",
"<$.	c #1A1013",
"[$.	c #94482F",
"}$.	c #6B3326",
"|$.	c #130C12",
"1$.	c #5B575B",
"2$.	c #625D5F",
"3$.	c #3F3A40",
"4$.	c #140B1D",
"5$.	c #0B0316",
"6$.	c #0A0214",
"7$.	c #4C4C55",
"8$.	c #61626C",
"9$.	c #62636D",
"0$.	c #1B181E",
"a$.	c #5D362C",
"b$.	c #93472E",
"c$.	c #32161A",
"d$.	c #341517",
"e$.	c #CB6B37",
"f$.	c #E17F41",
"g$.	c #D87942",
"h$.	c #B86239",
"i$.	c #DC8049",
"j$.	c #A95D38",
"k$.	c #A55735",
"l$.	c #D17146",
"m$.	c #913D28",
"n$.	c #6B2C1F",
"o$.	c #84402C",
"p$.	c #652A1F",
"q$.	c #A35539",
"r$.	c #974A35",
"s$.	c #9D4F37",
"t$.	c #8F4331",
"u$.	c #7E3528",
"v$.	c #712A22",
"w$.	c #6E2621",
"x$.	c #541919",
"y$.	c #40141C",
"z$.	c #19071C",
"A$.	c #170923",
"B$.	c #342A37",
"C$.	c #7C746E",
"D$.	c #8C8675",
"E$.	c #E6DFC6",
"F$.	c #CDBE9D",
"G$.	c #CBBC9A",
"H$.	c #D8C8A9",
"I$.	c #CDBE9E",
"J$.	c #CCBC9D",
"K$.	c #6A5752",
"L$.	c #483940",
"M$.	c #0E0618",
"N$.	c #3B3146",
"O$.	c #423748",
"P$.	c #625F62",
"Q$.	c #8F8C7A",
"R$.	c #8E8C7C",
"S$.	c #8B8979",
"T$.	c #8A8879",
"U$.	c #8B8978",
"V$.	c #8C8A7A",
"W$.	c #939286",
"X$.	c #898880",
"Y$.	c #797973",
"Z$.	c #7B7A74",
"`$.	c #4D4A4C",
" %.	c #332F35",
".%.	c #120B16",
"+%.	c #2E2525",
"@%.	c #B7A48E",
"#%.	c #B6A78B",
"$%.	c #DFD6BB",
"%%.	c #C7B99B",
"&%.	c #CCBEA0",
"*%.	c #CABCA0",
"=%.	c #D4C9AF",
"-%.	c #837972",
";%.	c #39333B",
">%.	c #1D1020",
",%.	c #180B19",
"'%.	c #4A181B",
")%.	c #632320",
"!%.	c #95432E",
"~%.	c #8C3E2D",
"{%.	c #924130",
"]%.	c #B9603D",
"^%.	c #BB5F3B",
"/%.	c #914232",
"(%.	c #562424",
"_%.	c #2C1114",
":%.	c #BF6239",
"<%.	c #C2633A",
"[%.	c #A0452A",
"}%.	c #B65935",
"|%.	c #D37749",
"1%.	c #904227",
"2%.	c #B6633B",
"3%.	c #C86D3C",
"4%.	c #AD522E",
"5%.	c #D57C4B",
"6%.	c #CE7446",
"7%.	c #A95431",
"8%.	c #D47F4A",
"9%.	c #C16E42",
"0%.	c #461F1B",
"a%.	c #191011",
"b%.	c #98462E",
"c%.	c #7A3426",
"d%.	c #130C11",
"e%.	c #322E33",
"f%.	c #464046",
"g%.	c #484049",
"h%.	c #766D79",
"i%.	c #575562",
"j%.	c #4A4D5C",
"k%.	c #4A4A5B",
"l%.	c #545264",
"m%.	c #515261",
"n%.	c #4C4E5B",
"o%.	c #4E4D5B",
"p%.	c #5F3B2E",
"q%.	c #974F34",
"r%.	c #2F181A",
"s%.	c #2F1617",
"t%.	c #C26735",
"u%.	c #E07E41",
"v%.	c #D67740",
"w%.	c #B8613A",
"x%.	c #DB7F49",
"y%.	c #A25636",
"z%.	c #D07248",
"A%.	c #8F3C29",
"B%.	c #692C20",
"C%.	c #803F2C",
"D%.	c #5E281E",
"E%.	c #A45638",
"F%.	c #B45C3C",
"G%.	c #974934",
"H%.	c #883C2C",
"I%.	c #82382B",
"J%.	c #712922",
"K%.	c #6E2720",
"L%.	c #551B19",
"M%.	c #3E131C",
"N%.	c #17081A",
"O%.	c #170B25",
"P%.	c #332B38",
"Q%.	c #7B736E",
"R%.	c #8A8472",
"S%.	c #E5DEC3",
"T%.	c #D9CEAF",
"U%.	c #CABB9A",
"V%.	c #C5B697",
"W%.	c #938367",
"X%.	c #928267",
"Y%.	c #CABB9D",
"Z%.	c #CBBC9D",
"`%.	c #C8BA9C",
" &.	c #C2B498",
".&.	c #A89A86",
"+&.	c #473740",
"@&.	c #0E0719",
"#&.	c #3C3248",
"$&.	c #41384A",
"%&.	c #656465",
"&&.	c #71716E",
"*&.	c #8F8F7F",
"=&.	c #8C8B7B",
"-&.	c #8C8B7C",
";&.	c #8D8C7C",
">&.	c #8D8B79",
",&.	c #97978B",
"'&.	c #86857C",
")&.	c #76756F",
"!&.	c #797870",
"~&.	c #4A484A",
"{&.	c #2E2B31",
"]&.	c #120B15",
"^&.	c #B2A08B",
"/&.	c #B6A68A",
"(&.	c #DED4B9",
"_&.	c #C4B79A",
":&.	c #CABA9D",
"<&.	c #CBBC9F",
"[&.	c #DAD0B0",
"}&.	c #8B8077",
"|&.	c #666165",
"1&.	c #3B363F",
"2&.	c #1D1121",
"3&.	c #4B191A",
"4&.	c #672521",
"5&.	c #7B3326",
"6&.	c #8A3C2C",
"7&.	c #934231",
"8&.	c #B95E3B",
"9&.	c #572627",
"0&.	c #2A1115",
"a&.	c #974C35",
"b&.	c #BC5F3B",
"c&.	c #C1633C",
"d&.	c #A3492F",
"e&.	c #B65938",
"f&.	c #C96C42",
"g&.	c #8A3F23",
"h&.	c #B4623A",
"i&.	c #C66C3D",
"j&.	c #AC522F",
"k&.	c #D47A4A",
"l&.	c #CB7246",
"m&.	c #A75431",
"n&.	c #BE6A40",
"o&.	c #441D1B",
"p&.	c #1D0F12",
"q&.	c #A34A32",
"r&.	c #903C29",
"s&.	c #140910",
"t&.	c #484148",
"u&.	c #3F373C",
"v&.	c #918C8E",
"w&.	c #7D8087",
"x&.	c #7D8693",
"y&.	c #7E8592",
"z&.	c #797D8C",
"A&.	c #595F6F",
"B&.	c #4A5060",
"C&.	c #0F0715",
"D&.	c #14050E",
"E&.	c #60392F",
"F&.	c #995137",
"G&.	c #2F181B",
"H&.	c #2D1617",
"I&.	c #D77841",
"J&.	c #B76038",
"K&.	c #D77946",
"L&.	c #A95B39",
"M&.	c #A15536",
"N&.	c #D17348",
"O&.	c #8D3B28",
"P&.	c #6B2E22",
"Q&.	c #7F3E2E",
"R&.	c #5B251C",
"S&.	c #A55739",
"T&.	c #B55D3C",
"U&.	c #9B4E35",
"V&.	c #883C2B",
"W&.	c #83382B",
"X&.	c #6F2820",
"Y&.	c #6D251F",
"Z&.	c #561B19",
"`&.	c #3B111C",
" *.	c #17091A",
".*.	c #180D26",
"+*.	c #342C3A",
"@*.	c #79716D",
"#*.	c #E3DDC1",
"$*.	c #C8B999",
"%*.	c #A99A81",
"&*.	c #A7977F",
"**.	c #C5B698",
"=*.	c #A69885",
"-*.	c #67534C",
";*.	c #10081A",
">*.	c #3C3249",
",*.	c #666667",
"'*.	c #70706E",
")*.	c #8D8D7E",
"!*.	c #8D8C7D",
"~*.	c #8B8B7C",
"{*.	c #8A897A",
"]*.	c #8D8B7A",
"^*.	c #98958A",
"/*.	c #89887D",
"(*.	c #73726C",
"_*.	c #302A33",
":*.	c #110B16",
"<*.	c #251E21",
"[*.	c #B7A691",
"}*.	c #B8A78C",
"|*.	c #DFD4BA",
"1*.	c #C7BAA1",
"2*.	c #C1B398",
"3*.	c #C9B89E",
"4*.	c #CABB9F",
"5*.	c #8D837A",
"6*.	c #656063",
"7*.	c #3D3740",
"8*.	c #2C0F15",
"9*.	c #4D1B1A",
"0*.	c #6A2722",
"a*.	c #7E3329",
"b*.	c #964230",
"c*.	c #8B3C2D",
"d*.	c #954231",
"e*.	c #BC5F3E",
"f*.	c #B85F3D",
"g*.	c #8F4234",
"h*.	c #58282A",
"i*.	c #291216",
"j*.	c #934733",
"k*.	c #B45B36",
"l*.	c #B95F38",
"m*.	c #A24A2D",
"n*.	c #AF5433",
"o*.	c #C66940",
"p*.	c #883E23",
"q*.	c #B35F37",
"r*.	c #C5693A",
"s*.	c #AB502D",
"t*.	c #D3794A",
"u*.	c #C96F44",
"v*.	c #A55231",
"w*.	c #CE7846",
"x*.	c #BA663F",
"y*.	c #431C1B",
"z*.	c #210F16",
"A*.	c #B15431",
"B*.	c #C86539",
"C*.	c #89432F",
"D*.	c #1F1117",
"E*.	c #231D23",
"F*.	c #322A31",
"G*.	c #777278",
"H*.	c #5F606F",
"I*.	c #5E6476",
"J*.	c #5C5F72",
"K*.	c #565B6E",
"L*.	c #070614",
"M*.	c #2F1420",
"N*.	c #6B2324",
"O*.	c #813826",
"P*.	c #9D533A",
"Q*.	c #31181B",
"R*.	c #2B1516",
"S*.	c #BB6238",
"T*.	c #DF7D3F",
"U*.	c #B86037",
"V*.	c #D57745",
"W*.	c #A95A3B",
"X*.	c #A05435",
"Y*.	c #D17447",
"Z*.	c #6D2F23",
"`*.	c #803F2F",
" =.	c #59231B",
".=.	c #A45738",
"+=.	c #B55D3D",
"@=.	c #954833",
"#=.	c #994C34",
"$=.	c #8F432F",
"%=.	c #883B2B",
"&=.	c #82372A",
"*=.	c #6E251F",
"==.	c #581C1A",
"-=.	c #39101B",
";=.	c #16081B",
">=.	c #180D25",
",=.	c #352D39",
"'=.	c #7A736D",
")=.	c #878170",
"!=.	c #BEB095",
"~=.	c #C4B69B",
"{=.	c #A69785",
"]=.	c #66514B",
"^=.	c #44343E",
"/=.	c #0F081C",
"(=.	c #3B3349",
"_=.	c #403748",
":=.	c #676768",
"<=.	c #6F706E",
"[=.	c #8C8C7E",
"}=.	c #8F8E7F",
"|=.	c #8B8C7D",
"1=.	c #8C8B7A",
"2=.	c #969589",
"3=.	c #89897F",
"4=.	c #6A6862",
"5=.	c #6B6A62",
"6=.	c #494648",
"7=.	c #302B35",
"8=.	c #100B15",
"9=.	c #231C1F",
"0=.	c #BBAC95",
"a=.	c #BAA98C",
"b=.	c #DED1B7",
"c=.	c #C3B69D",
"d=.	c #C6B79B",
"e=.	c #C8BA9E",
"f=.	c #CBBCA0",
"g=.	c #CFC4AC",
"h=.	c #807670",
"i=.	c #635C60",
"j=.	c #3D363F",
"k=.	c #1B101E",
"l=.	c #170A1A",
"m=.	c #2A0D16",
"n=.	c #4F1B1B",
"o=.	c #6E2923",
"p=.	c #7E3228",
"q=.	c #8D3D2E",
"r=.	c #954432",
"s=.	c #BB613F",
"t=.	c #B35B3C",
"u=.	c #8C3F32",
"v=.	c #562728",
"w=.	c #251116",
"x=.	c #914833",
"y=.	c #B45934",
"z=.	c #B95E37",
"A=.	c #A0472D",
"B=.	c #AA4F32",
"C=.	c #C2643E",
"D=.	c #863E25",
"E=.	c #B35E37",
"F=.	c #C6693A",
"G=.	c #AA4F2C",
"H=.	c #D17748",
"I=.	c #C66D42",
"J=.	c #A65333",
"K=.	c #BA643F",
"L=.	c #431B1A",
"M=.	c #231016",
"N=.	c #B85B30",
"O=.	c #E97D3B",
"P=.	c #B2502D",
"Q=.	c #26090E",
"R=.	c #1E0F18",
"S=.	c #251C2C",
"T=.	c #30283F",
"U=.	c #27203F",
"V=.	c #292644",
"W=.	c #31304A",
"X=.	c #1A0A1A",
"Y=.	c #3B171F",
"Z=.	c #6E231E",
"`=.	c #8B3B27",
" -.	c #9D5139",
".-.	c #311718",
"+-.	c #2D1515",
"@-.	c #B65E38",
"#-.	c #DD7A40",
"$-.	c #D57640",
"%-.	c #B85E35",
"&-.	c #D27643",
"*-.	c #A85939",
"=-.	c #A05234",
"--.	c #923F2A",
";-.	c #83402F",
">-.	c #56221A",
",-.	c #A35639",
"'-.	c #944530",
")-.	c #974A32",
"!-.	c #8C412F",
"~-.	c #853929",
"{-.	c #803528",
"]-.	c #702720",
"^-.	c #6F261F",
"/-.	c #5C1D1B",
"(-.	c #340F19",
"_-.	c #160A1C",
":-.	c #180E25",
"<-.	c #37303C",
"[-.	c #7C7570",
"}-.	c #DFD6B9",
"|-.	c #D3C7A8",
"1-.	c #CABA9E",
"2-.	c #CCBEA5",
"3-.	c #BDB094",
"4-.	c #B8AA90",
"5-.	c #B6A88F",
"6-.	c #C1B49A",
"7-.	c #A69786",
"8-.	c #644F4B",
"9-.	c #42323B",
"0-.	c #0F0819",
"a-.	c #393047",
"b-.	c #3E3548",
"c-.	c #676668",
"d-.	c #6E6E6C",
"e-.	c #8F8F81",
"f-.	c #90907F",
"g-.	c #8A8A7A",
"h-.	c #8C8B79",
"i-.	c #898878",
"j-.	c #868576",
"k-.	c #8A8A7E",
"l-.	c #85847B",
"m-.	c #71706B",
"n-.	c #6F6E68",
"o-.	c #4C494B",
"p-.	c #312D38",
"q-.	c #20191C",
"r-.	c #B0A18C",
"s-.	c #B3A388",
"t-.	c #D9CAB2",
"u-.	c #C3B59C",
"v-.	c #BAAB93",
"w-.	c #B2A58B",
"x-.	c #AEA086",
"y-.	c #9A8D77",
"z-.	c #7B6F63",
"A-.	c #786C65",
"B-.	c #6A5F5F",
"C-.	c #645A61",
"D-.	c #3D353E",
"E-.	c #180E1B",
"F-.	c #290C16",
"G-.	c #511C1B",
"H-.	c #712924",
"I-.	c #7F3127",
"J-.	c #96422F",
"K-.	c #8D3E2E",
"L-.	c #B9633F",
"M-.	c #AE583C",
"N-.	c #883D2F",
"O-.	c #552725",
"P-.	c #251118",
"Q-.	c #8C4633",
"R-.	c #B45733",
"S-.	c #B95C36",
"T-.	c #9D452B",
"U-.	c #A64E30",
"V-.	c #BF623E",
"W-.	c #813A23",
"X-.	c #B05C35",
"Y-.	c #A74D2A",
"Z-.	c #D07647",
"`-.	c #C46940",
" ;.	c #A45131",
".;.	c #CF7948",
"+;.	c #B86440",
"@;.	c #411A19",
"#;.	c #221215",
"$;.	c #B75D34",
"%;.	c #EB8040",
"&;.	c #B75530",
"*;.	c #713C35",
"=;.	c #120817",
"-;.	c #110915",
";;.	c #110B14",
">;.	c #0F0616",
",;.	c #240A14",
"';.	c #4A0C15",
");.	c #742A25",
"!;.	c #943B27",
"~;.	c #A0442C",
"{;.	c #9D5039",
"];.	c #371B1A",
"^;.	c #311416",
"/;.	c #B05836",
"(;.	c #D97740",
"_;.	c #D2713D",
":;.	c #B75C33",
"<;.	c #D07542",
"[;.	c #A85836",
"};.	c #A05031",
"|;.	c #D67749",
"1;.	c #964229",
"2;.	c #753424",
"3;.	c #853F2E",
"4;.	c #53211B",
"5;.	c #A15639",
"6;.	c #B55C3E",
"7;.	c #954830",
"8;.	c #883E2D",
"9;.	c #823828",
"0;.	c #82352A",
"a;.	c #601F1D",
"b;.	c #2F0E17",
"c;.	c #140A1B",
"d;.	c #38303D",
"e;.	c #7B7471",
"f;.	c #DBD3B4",
"g;.	c #9E8F7D",
"h;.	c #928274",
"i;.	c #B0A18E",
"j;.	c #B7A890",
"k;.	c #B2A48B",
"l;.	c #B7AA91",
"m;.	c #BEB29B",
"n;.	c #A69887",
"o;.	c #634D4C",
"p;.	c #413139",
"q;.	c #0E0716",
"r;.	c #382E46",
"s;.	c #3C3246",
"t;.	c #646366",
"u;.	c #6A6A69",
"v;.	c #8D8C7E",
"w;.	c #8F907E",
"x;.	c #8E8E7D",
"y;.	c #848274",
"z;.	c #8D8D81",
"A;.	c #86847C",
"B;.	c #7A7873",
"C;.	c #787771",
"D;.	c #4B4949",
"E;.	c #0F0914",
"F;.	c #1C1518",
"G;.	c #AB9C8C",
"H;.	c #B2A28A",
"I;.	c #D3C6AF",
"J;.	c #C1B59D",
"K;.	c #BAAB94",
"L;.	c #B5A68E",
"M;.	c #AA9B86",
"N;.	c #978873",
"O;.	c #BCB099",
"P;.	c #B5A992",
"Q;.	c #928576",
"R;.	c #8E8378",
"S;.	c #726666",
"T;.	c #645960",
"U;.	c #3D343F",
"V;.	c #160C1A",
"W;.	c #150919",
"X;.	c #290C15",
"Y;.	c #541D1D",
"Z;.	c #732923",
"`;.	c #7E3128",
" >.	c #944030",
".>.	c #8B3C2E",
"+>.	c #8E3D2E",
"@>.	c #B55F3D",
"#>.	c #AA553B",
"$>.	c #843A2E",
"%>.	c #532522",
"&>.	c #251117",
"*>.	c #874233",
"=>.	c #B35833",
"->.	c #B65B36",
";>.	c #984229",
">>.	c #A34E31",
",>.	c #BD633F",
"'>.	c #7E3822",
")>.	c #AE5C36",
"!>.	c #C46639",
"~>.	c #A84B2B",
"{>.	c #D17448",
"]>.	c #C46840",
"^>.	c #D07947",
"/>.	c #B86640",
"(>.	c #3F1A1A",
"_>.	c #211215",
":>.	c #B76137",
"<>.	c #ED8640",
"[>.	c #AF5A33",
"}>.	c #954B35",
"|>.	c #824C3B",
"1>.	c #541F1E",
"2>.	c #531E1F",
"3>.	c #190B12",
"4>.	c #421316",
"5>.	c #301316",
"6>.	c #5E1618",
"7>.	c #AC552F",
"8>.	c #A0543A",
"9>.	c #3C1D1C",
"0>.	c #321316",
"a>.	c #A85332",
"b>.	c #D7753D",
"c>.	c #CE6D3B",
"d>.	c #B85B33",
"e>.	c #CC713F",
"f>.	c #A65735",
"g>.	c #A04F31",
"h>.	c #D67849",
"i>.	c #9A442C",
"j>.	c #7B3728",
"k>.	c #83402D",
"l>.	c #511F1B",
"m>.	c #A0553A",
"n>.	c #B35B3E",
"o>.	c #934430",
"p>.	c #954632",
"q>.	c #893D2F",
"r>.	c #84372A",
"s>.	c #823529",
"t>.	c #722620",
"u>.	c #70241E",
"v>.	c #64211F",
"w>.	c #2D0C15",
"x>.	c #15091B",
"y>.	c #170E24",
"z>.	c #7A756F",
"A>.	c #817968",
"B>.	c #DACDB0",
"C>.	c #D0C0A3",
"D>.	c #C5B69A",
"E>.	c #C5B79B",
"F>.	c #9F907C",
"G>.	c #A29382",
"H>.	c #9D8E7D",
"I>.	c #B4A68F",
"J>.	c #B1A38A",
"K>.	c #B4A68D",
"L>.	c #A69886",
"M>.	c #634E4C",
"N>.	c #403139",
"O>.	c #372E48",
"P>.	c #3A3146",
"Q>.	c #636265",
"R>.	c #686766",
"S>.	c #8C8B7D",
"T>.	c #8E8F7C",
"U>.	c #8E8F7D",
"V>.	c #929080",
"W>.	c #7C796C",
"X>.	c #78756A",
"Y>.	c #9B9A8F",
"Z>.	c #8E8D84",
"`>.	c #7A7974",
" ,.	c #7A7972",
".,.	c #494747",
"+,.	c #302C37",
"@,.	c #1B1417",
"#,.	c #B2A396",
"$,.	c #AFA189",
"%,.	c #CFC3AC",
"&,.	c #C2B69E",
"*,.	c #A89A85",
"=,.	c #8C7D6A",
"-,.	c #D4C8B3",
";,.	c #C7BCA7",
">,.	c #B2A591",
",,.	c #B6AA9A",
"',.	c #7C706E",
"),.	c #655A61",
"!,.	c #3C333D",
"~,.	c #140A19",
"{,.	c #290C14",
"],.	c #732924",
"^,.	c #7E3229",
"/,.	c #964132",
"(,.	c #8D3D30",
"_,.	c #8E3D2F",
":,.	c #B45D3D",
"<,.	c #A75439",
"[,.	c #813A2D",
"},.	c #532523",
"|,.	c #251016",
"1,.	c #824032",
"2,.	c #B55A35",
"3,.	c #98422A",
"4,.	c #A34D31",
"5,.	c #BD613E",
"6,.	c #AC5C36",
"7,.	c #AA4C2B",
"8,.	c #D07146",
"9,.	c #C3653E",
"0,.	c #A45032",
"a,.	c #C97144",
"b,.	c #B2613E",
"c,.	c #3E181A",
"d,.	c #1E1113",
"e,.	c #B66237",
"f,.	c #ED8740",
"g,.	c #CF6F41",
"h,.	c #D27F53",
"i,.	c #A15A40",
"j,.	c #6C2721",
"k,.	c #5C221D",
"l,.	c #1C0B13",
"m,.	c #471C1B",
"n,.	c #6F2623",
"o,.	c #602525",
"p,.	c #8C4336",
"q,.	c #9F4938",
"r,.	c #A15139",
"s,.	c #BD683E",
"t,.	c #B35D35",
"u,.	c #A3573B",
"v,.	c #3F1E1B",
"w,.	c #331417",
"x,.	c #D2713B",
"y,.	c #CA6937",
"z,.	c #B55831",
"A,.	c #A85936",
"B,.	c #A14E31",
"C,.	c #D57849",
"D,.	c #9C462B",
"E,.	c #7F3928",
"F,.	c #813F2C",
"G,.	c #4E1D1A",
"H,.	c #9D5239",
"I,.	c #B1583D",
"J,.	c #924331",
"K,.	c #954633",
"L,.	c #873B2D",
"M,.	c #813428",
"N,.	c #72251F",
"O,.	c #71241D",
"P,.	c #682221",
"Q,.	c #290A14",
"R,.	c #16091C",
"S,.	c #180F24",
"T,.	c #36303B",
"U,.	c #79756E",
"V,.	c #817868",
"W,.	c #D7C9AC",
"X,.	c #CCBB9F",
"Y,.	c #C2B597",
"Z,.	c #D0C3A8",
"`,.	c #D8CAB2",
" '.	c #B7A794",
".'.	c #A49481",
"+'.	c #AD9F87",
"@'.	c #AFA188",
"#'.	c #BEB09A",
"$'.	c #A89988",
"%'.	c #634D4B",
"&'.	c #0D0715",
"*'.	c #362E47",
"='.	c #3B3247",
"-'.	c #626164",
";'.	c #686867",
">'.	c #929183",
",'.	c #959583",
"''.	c #949483",
")'.	c #979686",
"!'.	c #7B796B",
"~'.	c #777567",
"{'.	c #727064",
"]'.	c #A19E93",
"^'.	c #929287",
"/'.	c #7F7E78",
"('.	c #7C7D77",
"_'.	c #4A4A4B",
":'.	c #302C36",
"<'.	c #0F0A11",
"['.	c #1D1618",
"}'.	c #B7AA9D",
"|'.	c #B2A68F",
"1'.	c #C3B79F",
"2'.	c #BDAF96",
"3'.	c #B3A58D",
"4'.	c #AFA28A",
"5'.	c #BFB49D",
"6'.	c #BFB39D",
"7'.	c #B1A590",
"8'.	c #B6AA96",
"9'.	c #B9AE9C",
"0'.	c #817670",
"a'.	c #655B60",
"b'.	c #3C313C",
"c'.	c #130819",
"d'.	c #702923",
"e'.	c #7A2E28",
"f'.	c #953F31",
"g'.	c #8E3E31",
"h'.	c #8E3E2F",
"i'.	c #B65E3F",
"j'.	c #AA573B",
"k'.	c #7E392A",
"l'.	c #4F2322",
"m'.	c #7E4032",
"n'.	c #B45734",
"o'.	c #B55935",
"p'.	c #99432B",
"q'.	c #A24B30",
"r'.	c #BF633F",
"s'.	c #803C25",
"t'.	c #AF5D35",
"u'.	c #C66639",
"v'.	c #AC4D2B",
"w'.	c #CE7244",
"x'.	c #C3663F",
"y'.	c #CB7648",
"z'.	c #B26240",
"A'.	c #381519",
"B'.	c #1C1113",
"C'.	c #B46136",
"D'.	c #E9833F",
"E'.	c #C16335",
"F'.	c #CA7449",
"G'.	c #A6563C",
"H'.	c #A5583B",
"I'.	c #AE6A53",
"J'.	c #2E1117",
"K'.	c #6D3D2F",
"L'.	c #A2533B",
"M'.	c #893E2E",
"N'.	c #AC583E",
"O'.	c #BB6041",
"P'.	c #AB5634",
"Q'.	c #B66137",
"R'.	c #A5593C",
"S'.	c #3F1E18",
"T'.	c #311413",
"U'.	c #9B4C2C",
"V'.	c #C96A38",
"W'.	c #B3562E",
"X'.	c #C86E3E",
"Y'.	c #AB5C36",
"Z'.	c #A15032",
"`'.	c #9F482B",
" ).	c #833C27",
".).	c #7D3D2B",
"+).	c #4B1C1A",
"@).	c #9B4E37",
"#).	c #B0563B",
"$).	c #934330",
"%).	c #984733",
"&).	c #7F3126",
"*).	c #73251D",
"=).	c #74251E",
"-).	c #6B2522",
";).	c #250914",
">).	c #16091B",
",).	c #170E22",
"').	c #7D7771",
")).	c #877C6C",
"!).	c #BDAD90",
"~).	c #BDAE94",
"{).	c #BDB098",
"]).	c #B8AA96",
"^).	c #9A8976",
"/).	c #968572",
"().	c #A0917B",
"_).	c #AB9D85",
":).	c #C0B29B",
"<).	c #ADA08F",
"[).	c #604C4A",
"}).	c #41313A",
"|).	c #362D47",
"1).	c #605F62",
"2).	c #696967",
"3).	c #989789",
"4).	c #9A9987",
"5).	c #979685",
"6).	c #7B796A",
"7).	c #807F6E",
"8).	c #7F7D6E",
"9).	c #A5A397",
"0).	c #97968B",
"a).	c #818179",
"b).	c #7F7F79",
"c).	c #4C4B4C",
"d).	c #312E37",
"e).	c #0F0910",
"f).	c #1F191A",
"g).	c #B7AB9F",
"h).	c #B2A691",
"i).	c #CFC2AB",
"j).	c #C3B69F",
"k).	c #BDAF97",
"l).	c #BBAD95",
"m).	c #B3A48E",
"n).	c #B4A590",
"o).	c #B3A591",
"p).	c #B8AD99",
"q).	c #7F746D",
"r).	c #655A60",
"s).	c #3C303B",
"t).	c #100717",
"u).	c #2D0D15",
"v).	c #702723",
"w).	c #792C26",
"x).	c #943F31",
"y).	c #8D3C30",
"z).	c #B45C3D",
"A).	c #AB563B",
"B).	c #7F392B",
"C).	c #4F2223",
"D).	c #241015",
"E).	c #7C3E2F",
"F).	c #B35632",
"G).	c #B65835",
"H).	c #9A452D",
"I).	c #A14B30",
"J).	c #813F28",
"K).	c #B05F38",
"L).	c #C7683A",
"M).	c #AB4D2D",
"N).	c #CD6F43",
"O).	c #C1643D",
"P).	c #CC7848",
"Q).	c #B26342",
"R).	c #371417",
"S).	c #1D1013",
"T).	c #B36137",
"U).	c #E7803F",
"V).	c #BD6032",
"W).	c #C7724A",
"X).	c #AB5939",
"Y).	c #BD663D",
"Z).	c #CF7850",
"`).	c #53201E",
" !.	c #935235",
".!.	c #D57342",
"+!.	c #CE703F",
"@!.	c #D87A47",
"#!.	c #B05733",
"$!.	c #C16C3F",
"%!.	c #B76238",
"&!.	c #A5593B",
"*!.	c #3E1D17",
"=!.	c #2E1311",
"-!.	c #99492A",
";!.	c #CF6C3A",
">!.	c #C76837",
",!.	c #AF512A",
"'!.	c #C76B3B",
")!.	c #AC5B36",
"!!.	c #A25131",
"~!.	c #D47748",
"{!.	c #893E29",
"]!.	c #7F3D2D",
"^!.	c #481A19",
"/!.	c #984C34",
"(!.	c #AE5439",
"_!.	c #91412E",
":!.	c #9A4833",
"<!.	c #904031",
"[!.	c #823427",
"}!.	c #883B2C",
"|!.	c #75261E",
"1!.	c #76271F",
"2!.	c #6E2724",
"3!.	c #220614",
"4!.	c #15081A",
"5!.	c #150C20",
"6!.	c #332E39",
"7!.	c #8A8070",
"8!.	c #D6C9AC",
"9!.	c #C6B79C",
"0!.	c #BDAE92",
"a!.	c #BCAC94",
"b!.	c #998771",
"c!.	c #937F6D",
"d!.	c #968371",
"e!.	c #988572",
"f!.	c #9E8E79",
"g!.	c #AA9B84",
"h!.	c #C1B29B",
"i!.	c #AD9F8E",
"j!.	c #5E4A49",
"k!.	c #41323B",
"l!.	c #352D45",
"m!.	c #3A3147",
"n!.	c #5F5E61",
"o!.	c #676766",
"p!.	c #98978A",
"q!.	c #999987",
"r!.	c #969484",
"s!.	c #898677",
"t!.	c #94927F",
"u!.	c #8D8A7A",
"v!.	c #929087",
"w!.	c #7F7F77",
"x!.	c #807F78",
"y!.	c #4B4A4A",
"z!.	c #322E38",
"A!.	c #0E0810",
"B!.	c #221B1E",
"C!.	c #AC9E93",
"D!.	c #A69684",
"E!.	c #B7A893",
"F!.	c #B4A58E",
"G!.	c #BBAD93",
"H!.	c #B5A690",
"I!.	c #B3A58F",
"J!.	c #B3A490",
"K!.	c #B2A48F",
"L!.	c #B3A893",
"M!.	c #766A65",
"N!.	c #62565D",
"O!.	c #3C303A",
"P!.	c #0E0715",
"Q!.	c #100714",
"R!.	c #2F0D16",
"S!.	c #571C1E",
"T!.	c #6E2623",
"U!.	c #772926",
"V!.	c #903B30",
"W!.	c #87382F",
"X!.	c #883A2D",
"Y!.	c #B2583A",
"Z!.	c #A75237",
"`!.	c #843B2D",
" ~.	c #512223",
".~.	c #7C3C2E",
"+~.	c #B25331",
"@~.	c #B55535",
"#~.	c #9B452F",
"$~.	c #9F4930",
"%~.	c #7D3B27",
"&~.	c #C46738",
"*~.	c #AB4D2E",
"=~.	c #CD6E43",
"-~.	c #BE633A",
";~.	c #9F4D2F",
">~.	c #CB7746",
",~.	c #B16243",
"'~.	c #3A1417",
")~.	c #1D0F13",
"!~.	c #B36237",
"~~.	c #E37D3D",
"{~.	c #BE6135",
"]~.	c #C9744A",
"^~.	c #AE5A39",
"/~.	c #C06640",
"(~.	c #D0764E",
"_~.	c #5C211E",
":~.	c #965337",
"<~.	c #D67342",
"[~.	c #CC6E3E",
"}~.	c #C96B3B",
"|~.	c #AB5232",
"1~.	c #C16D3D",
"2~.	c #A5583A",
"3~.	c #3C1B15",
"4~.	c #2F1512",
"5~.	c #9B4E2E",
"6~.	c #CE6D3A",
"7~.	c #C86837",
"8~.	c #AB4E29",
"9~.	c #C76B3C",
"0~.	c #AA5833",
"a~.	c #A1502F",
"b~.	c #D17646",
"c~.	c #A44C2E",
"d~.	c #7E3C2B",
"e~.	c #451919",
"f~.	c #914831",
"g~.	c #A85238",
"h~.	c #8D3F2E",
"i~.	c #964934",
"j~.	c #8D4131",
"k~.	c #893A2B",
"l~.	c #76251E",
"m~.	c #77261F",
"n~.	c #702624",
"o~.	c #210613",
"p~.	c #140618",
"q~.	c #2B2534",
"r~.	c #706B67",
"s~.	c #776E63",
"t~.	c #AD9F8B",
"u~.	c #AC9E89",
"v~.	c #AEA088",
"w~.	c #AFA18A",
"x~.	c #9C8B76",
"y~.	c #998775",
"z~.	c #998876",
"A~.	c #998976",
"B~.	c #9F917C",
"C~.	c #ADA08C",
"D~.	c #AEA18F",
"E~.	c #92877A",
"F~.	c #594847",
"G~.	c #3B2F38",
"H~.	c #0B0713",
"I~.	c #342C43",
"J~.	c #383045",
"K~.	c #5E5C62",
"L~.	c #616163",
"M~.	c #959487",
"N~.	c #969684",
"O~.	c #939180",
"P~.	c #8F8C7B",
"Q~.	c #8F8B7A",
"R~.	c #908C7A",
"S~.	c #7D786C",
"T~.	c #4B484A",
"U~.	c #4C4A4B",
"V~.	c #575753",
"W~.	c #585854",
"X~.	c #3B3A3B",
"Y~.	c #302D36",
"Z~.	c #0C0810",
"`~.	c #1A1318",
" {.	c #8E7D75",
".{.	c #90796C",
"+{.	c #B3A08F",
"@{.	c #B8A994",
"#{.	c #BFB298",
"${.	c #C3B49D",
"%{.	c #C2B49E",
"&{.	c #BCAD99",
"*{.	c #B7A995",
"={.	c #B4A692",
"-{.	c #B3A590",
";{.	c #B3A692",
">{.	c #6A5D5A",
",{.	c #594C54",
"'{.	c #392D37",
"){.	c #340E16",
"!{.	c #59191A",
"~{.	c #661E1F",
"{{.	c #6A2320",
"]{.	c #86352B",
"^{.	c #7C312A",
"/{.	c #7F362A",
"({.	c #AC5336",
"_{.	c #A44C33",
":{.	c #87392B",
"<{.	c #512122",
"[{.	c #221116",
"}{.	c #793B2E",
"|{.	c #A94C2C",
"1{.	c #AF4F30",
"2{.	c #98412C",
"3{.	c #964129",
"4{.	c #BB5D3A",
"5{.	c #7A3A27",
"6{.	c #A45533",
"7{.	c #C06034",
"8{.	c #A2462A",
"9{.	c #CA693E",
"0{.	c #BD6237",
"a{.	c #9F4B2C",
"b{.	c #CD7947",
"c{.	c #AF6042",
"d{.	c #3B1518",
"e{.	c #1E0E14",
"f{.	c #B15F3A",
"g{.	c #DC763D",
"h{.	c #B85C33",
"i{.	c #C16E43",
"j{.	c #AD5936",
"k{.	c #BF663F",
"l{.	c #CB714C",
"m{.	c #5C221C",
"n{.	c #985436",
"o{.	c #D57443",
"p{.	c #B25532",
"q{.	c #CA6B3F",
"r{.	c #C6693D",
"s{.	c #A75234",
"t{.	c #C26E3F",
"u{.	c #B86437",
"v{.	c #A75B39",
"w{.	c #3E1C16",
"x{.	c #311613",
"y{.	c #9A4F30",
"z{.	c #CF6F3B",
"A{.	c #AA4B29",
"B{.	c #C86C3C",
"C{.	c #A95731",
"D{.	c #9E4D2B",
"E{.	c #CC7244",
"F{.	c #A1472B",
"G{.	c #93422D",
"H{.	c #793A28",
"I{.	c #421A1A",
"J{.	c #7B3725",
"K{.	c #83392B",
"L{.	c #813A2C",
"M{.	c #752D22",
"N{.	c #853628",
"O{.	c #72221E",
"P{.	c #75251D",
"Q{.	c #712624",
"R{.	c #220512",
"S{.	c #120418",
"T{.	c #27212F",
"U{.	c #656668",
"V{.	c #675F5D",
"W{.	c #958877",
"X{.	c #A69784",
"Y{.	c #AB9D8A",
"Z{.	c #AA9C88",
"`{.	c #9D8D7B",
" ].	c #9A8B79",
".].	c #998B78",
"+].	c #A09582",
"@].	c #B2A995",
"#].	c #8D8479",
"$].	c #655A5A",
"%].	c #584D4D",
"&].	c #4C4142",
"*].	c #2E242E",
"=].	c #342C40",
"-].	c #362E42",
";].	c #48444D",
">].	c #49474B",
",].	c #77766B",
"'].	c #838273",
")].	c #7E7C6E",
"!].	c #898875",
"~].	c #787768",
"{].	c #534F53",
"]].	c #524D51",
"^].	c #5D5A58",
"/].	c #615F5D",
"(].	c #3D3B3D",
"_].	c #0B0811",
":].	c #5B4B48",
"<].	c #654C48",
"[].	c #867069",
"}].	c #7B6A5E",
"|].	c #817263",
"1].	c #837364",
"2].	c #807263",
"3].	c #7C6E5F",
"4].	c #77685B",
"5].	c #776A5B",
"6].	c #746558",
"7].	c #77685E",
"8].	c #483A3D",
"9].	c #4F424C",
"0].	c #2A202B",
"a].	c #360E18",
"b].	c #5B1819",
"c].	c #5D181A",
"d].	c #5C1B1A",
"e].	c #7F3026",
"f].	c #6E261F",
"g].	c #702D22",
"h].	c #A24F34",
"i].	c #994631",
"j].	c #84382D",
"k].	c #522122",
"l].	c #1F0E15",
"m].	c #773B2E",
"n].	c #9F4526",
"o].	c #A4492B",
"p].	c #90412A",
"q].	c #B25A38",
"r].	c #773C2A",
"s].	c #984F32",
"t].	c #B75B36",
"u].	c #95412B",
"v].	c #C16840",
"w].	c #BB613B",
"x].	c #9E4B2F",
"y].	c #CC7847",
"z].	c #A85D40",
"A].	c #351416",
"B].	c #1C0E14",
"C].	c #AB5A37",
"D].	c #D8723B",
"E].	c #B65933",
"F].	c #BE6C41",
"G].	c #AF5A35",
"H].	c #BF6540",
"I].	c #C96F4B",
"J].	c #5C221A",
"K].	c #995334",
"L].	c #D37343",
"M].	c #AF5332",
"N].	c #C7663E",
"O].	c #C36439",
"P].	c #A64F30",
"Q].	c #BE6A3C",
"R].	c #AB6041",
"S].	c #311714",
"T].	c #985132",
"U].	c #C76E39",
"V].	c #C26937",
"W].	c #9C4627",
"X].	c #B86539",
"Y].	c #984D2D",
"Z].	c #8C4429",
"`].	c #C47344",
" ^.	c #9C482C",
".^.	c #90412B",
"+^.	c #6F3527",
"@^.	c #3B1718",
"#^.	c #94412D",
"$^.	c #8C422F",
"%^.	c #7E362C",
"&^.	c #702B22",
"*^.	c #7B2D24",
"=^.	c #6D221D",
"-^.	c #6C221C",
";^.	c #662220",
">^.	c #250613",
",^.	c #110317",
"'^.	c #140E1B",
")^.	c #3B3A48",
"!^.	c #50494F",
"~^.	c #7E7166",
"{^.	c #7A6A5E",
"]^.	c #7B6D61",
"^^.	c #7F7164",
"/^.	c #827166",
"(^.	c #847367",
"_^.	c #847665",
":^.	c #918574",
"<^.	c #A09686",
"[^.	c #7E746C",
"}^.	c #73676A",
"|^.	c #574B4F",
"1^.	c #34292F",
"2^.	c #190F1C",
"3^.	c #0B0514",
"4^.	c #312A3D",
"5^.	c #332C3F",
"6^.	c #413C47",
"7^.	c #403B43",
"8^.	c #534E4C",
"9^.	c #57524F",
"0^.	c #595352",
"a^.	c #5D5655",
"b^.	c #5E5A54",
"c^.	c #55514F",
"d^.	c #989583",
"e^.	c #7D7B6B",
"f^.	c #79766A",
"g^.	c #312D36",
"h^.	c #1E1320",
"i^.	c #2B1F2B",
"j^.	c #40353C",
"k^.	c #41383D",
"l^.	c #463D41",
"m^.	c #4A3F42",
"n^.	c #4B4041",
"o^.	c #4D4141",
"p^.	c #4E4241",
"q^.	c #4E4440",
"r^.	c #4C3E3B",
"s^.	c #4C403E",
"t^.	c #251821",
"u^.	c #221822",
"v^.	c #0F0414",
"w^.	c #0F0615",
"x^.	c #140716",
"y^.	c #1C0916",
"z^.	c #210C16",
"A^.	c #2A1017",
"B^.	c #34151B",
"C^.	c #2A1215",
"D^.	c #311619",
"E^.	c #3F1F1E",
"F^.	c #3B1B1B",
"G^.	c #3A1B1C",
"H^.	c #271214",
"I^.	c #160D11",
"J^.	c #4A261E",
"K^.	c #5E281D",
"L^.	c #58231B",
"M^.	c #4D1C18",
"N^.	c #51231C",
"O^.	c #623024",
"P^.	c #48211E",
"Q^.	c #50281D",
"R^.	c #5C281E",
"S^.	c #57241D",
"T^.	c #713C28",
"U^.	c #693122",
"V^.	c #562219",
"W^.	c #8F573C",
"X^.	c #65392F",
"Y^.	c #220D15",
"Z^.	c #1C0E13",
"`^.	c #A45632",
" /.	c #D87139",
"./.	c #B85A31",
"+/.	c #C06B43",
"@/.	c #AE5A37",
"#/.	c #BE643F",
"$/.	c #C86E4B",
"%/.	c #5C1F1A",
"&/.	c #9A5334",
"*/.	c #D37342",
"=/.	c #A94F2E",
"-/.	c #C26039",
";/.	c #C36137",
">/.	c #A54C2D",
",/.	c #B96237",
"'/.	c #9F5433",
")/.	c #5F2C21",
"!/.	c #1B0B0E",
"~/.	c #1B0F0D",
"{/.	c #4E291D",
"]/.	c #653623",
"^/.	c #5B2C1F",
"//.	c #451F17",
"(/.	c #482317",
"_/.	c #421C16",
":/.	c #381615",
"</.	c #562B1E",
"[/.	c #4B1D18",
"}/.	c #52241E",
"|/.	c #3F1C17",
"1/.	c #1E0E11",
"2/.	c #592C24",
"3/.	c #653022",
"4/.	c #5F2A20",
"5/.	c #612C21",
"6/.	c #4F221F",
"7/.	c #38151A",
"8/.	c #321217",
"9/.	c #2B1016",
"0/.	c #250D16",
"a/.	c #1F0A14",
"b/.	c #130413",
"c/.	c #0D0315",
"d/.	c #0C0317",
"e/.	c #0B0415",
"f/.	c #0B0615",
"g/.	c #382F31",
"h/.	c #32272A",
"i/.	c #33282C",
"j/.	c #34282E",
"k/.	c #35282F",
"l/.	c #372B32",
"m/.	c #403536",
"n/.	c #433B39",
"o/.	c #3A3134",
"p/.	c #201621",
"q/.	c #0C0413",
"r/.	c #0D0215",
"s/.	c #2F2838",
"t/.	c #2E2737",
"u/.	c #4B474D",
"v/.	c #4C484B",
"w/.	c #928F83",
"x/.	c #A19D8E",
"y/.	c #A8A396",
"z/.	c #B0AD98",
"A/.	c #B1AD99",
"B/.	c #AEAA97",
"C/.	c #A39F8C",
"D/.	c #9D9A82",
"E/.	c #9A967D",
"F/.	c #95927B",
"G/.	c #353239",
"H/.	c #0C0711",
"I/.	c #18151B",
"J/.	c #786F69",
"K/.	c #8C8379",
"L/.	c #989189",
"M/.	c #978E86",
"N/.	c #948B83",
"O/.	c #928981",
"P/.	c #928880",
"Q/.	c #91877D",
"R/.	c #90867A",
"S/.	c #91877B",
"T/.	c #92877B",
"U/.	c #8A8075",
"V/.	c #776E67",
"W/.	c #23161E",
"X/.	c #1A0F1A",
"Y/.	c #15111B",
"Z/.	c #2F3134",
"`/.	c #3C3F41",
" (.	c #46484A",
".(.	c #424345",
"+(.	c #38383D",
"@(.	c #332F34",
"#(.	c #302B2F",
"$(.	c #322D31",
"%(.	c #322D2F",
"&(.	c #2F2A2C",
"*(.	c #2F292C",
"=(.	c #342F33",
"-(.	c #333033",
";(.	c #312D30",
">(.	c #2C282A",
",(.	c #272126",
"'(.	c #242026",
")(.	c #282226",
"!(.	c #2E282C",
"~(.	c #322F30",
"{(.	c #373435",
"](.	c #3D3939",
"^(.	c #423F3F",
"/(.	c #464344",
"((.	c #383536",
"_(.	c #180D15",
":(.	c #190D14",
"<(.	c #A05531",
"[(.	c #D66F36",
"}(.	c #B95A32",
"|(.	c #B75F3A",
"1(.	c #AA5332",
"2(.	c #BD633D",
"3(.	c #C76C49",
"4(.	c #5B1D19",
"5(.	c #985232",
"6(.	c #D37441",
"7(.	c #A44A2C",
"8(.	c #BF5E37",
"9(.	c #C36035",
"0(.	c #A54B2B",
"a(.	c #B15C32",
"b(.	c #80452E",
"c(.	c #3C2E2E",
"d(.	c #413E3F",
"e(.	c #3B3839",
"f(.	c #3A3737",
"g(.	c #3A3636",
"h(.	c #383434",
"i(.	c #322F31",
"j(.	c #343133",
"k(.	c #353234",
"l(.	c #312E32",
"m(.	c #312E33",
"n(.	c #2E2C30",
"o(.	c #2C292C",
"p(.	c #2B282C",
"q(.	c #2A272D",
"r(.	c #29262D",
"s(.	c #2B282E",
"t(.	c #323034",
"u(.	c #363538",
"v(.	c #3B393C",
"w(.	c #404042",
"x(.	c #38383F",
"y(.	c #090315",
"z(.	c #3C383D",
"A(.	c #4A4544",
"B(.	c #B3AEA1",
"C(.	c #BAB4A6",
"D(.	c #BBB4A4",
"E(.	c #B1AA9A",
"F(.	c #9D9388",
"G(.	c #948A81",
"H(.	c #92887E",
"I(.	c #8A8177",
"J(.	c #8F857D",
"K(.	c #6D645F",
"L(.	c #382A2B",
"M(.	c #291C25",
"N(.	c #423C4D",
"O(.	c #433D4B",
"P(.	c #8A8882",
"Q(.	c #858379",
"R(.	c #C0BEA8",
"S(.	c #C6C3A9",
"T(.	c #C5C1A8",
"U(.	c #C4C1A5",
"V(.	c #C2BFA3",
"W(.	c #C2BFA4",
"X(.	c #BEBCA1",
"Y(.	c #9F9D8F",
"Z(.	c #8A8675",
"`(.	c #444143",
" _.	c #353237",
"._.	c #393638",
"+_.	c #DAD1B1",
"@_.	c #F1E9D1",
"#_.	c #F4ECD4",
"$_.	c #F4EED6",
"%_.	c #F4EFD5",
"&_.	c #F5EFD6",
"*_.	c #F4EFD2",
"=_.	c #F3EDD0",
"-_.	c #F4EDCE",
";_.	c #F3ECCC",
">_.	c #F2ECCB",
",_.	c #EEE8CF",
"'_.	c #635A57",
")_.	c #574C50",
"!_.	c #0B0414",
"~_.	c #71747A",
"{_.	c #B6C0C0",
"]_.	c #B9C3C0",
"^_.	c #BBC3C1",
"/_.	c #C2C6C5",
"(_.	c #C2C4C5",
"__.	c #C4C6C3",
":_.	c #C8CAC3",
"<_.	c #CED1C8",
"[_.	c #D5D3CB",
"}_.	c #D8D6CF",
"|_.	c #D9D9D1",
"1_.	c #DDDCD6",
"2_.	c #E2DEDB",
"3_.	c #E1DEDA",
"4_.	c #E0DFD9",
"5_.	c #DBDCD4",
"6_.	c #D6D9D2",
"7_.	c #D4D8D2",
"8_.	c #D3D7D2",
"9_.	c #D2D5D0",
"0_.	c #D3D6D0",
"a_.	c #D7DCD6",
"b_.	c #DADFD9",
"c_.	c #DCE1DA",
"d_.	c #DFE5DE",
"e_.	c #E1E7E0",
"f_.	c #D8DBD6",
"g_.	c #4A4749",
"h_.	c #10060D",
"i_.	c #884B31",
"j_.	c #D3713A",
"k_.	c #BD5E31",
"l_.	c #BA613D",
"m_.	c #A95232",
"n_.	c #BD623B",
"o_.	c #C66B47",
"p_.	c #571B1A",
"q_.	c #94502F",
"r_.	c #CF733C",
"s_.	c #A0472B",
"t_.	c #BA5C34",
"u_.	c #C36034",
"v_.	c #9E462B",
"w_.	c #754027",
"x_.	c #361F18",
"y_.	c #716F68",
"z_.	c #D4D3C5",
"A_.	c #D7D5C9",
"B_.	c #DAD8CB",
"C_.	c #DBDACA",
"D_.	c #DCDACA",
"E_.	c #DED9CB",
"F_.	c #DDDACC",
"G_.	c #DDDCCF",
"H_.	c #E0DED3",
"I_.	c #E2E0D6",
"J_.	c #E3E0D7",
"K_.	c #E0DFD7",
"L_.	c #DDDDD5",
"M_.	c #DADCD4",
"N_.	c #D6D7D1",
"O_.	c #CFD2CC",
"P_.	c #CDD0CB",
"Q_.	c #CBCCC8",
"R_.	c #C8CBC6",
"S_.	c #C8CBC4",
"T_.	c #C8CDC5",
"U_.	c #CAD2C7",
"V_.	c #CCD5C7",
"W_.	c #CFD9C9",
"X_.	c #CEDBC7",
"Y_.	c #AAB3AB",
"Z_.	c #050211",
"`_.	c #060011",
" :.	c #736E6C",
".:.	c #EEE8CE",
"+:.	c #F2EBD1",
"@:.	c #F4EFD4",
"#:.	c #F5F1D6",
"$:.	c #F7F2D8",
"%:.	c #F6F1D7",
"&:.	c #F1ECD0",
"*:.	c #EFE8CD",
"=:.	c #E7DFC4",
"-:.	c #EADFC5",
";:.	c #735B52",
">:.	c #4F3B3F",
",:.	c #0E0516",
"':.	c #3C3749",
"):.	c #3E3849",
"!:.	c #5F5B5C",
"~:.	c #605D5A",
"{:.	c #88867B",
"]:.	c #8E8D7D",
"^:.	c #878476",
"/:.	c #838372",
"(:.	c #828271",
"_:.	c #9D9C8F",
"::.	c #908E83",
"<:.	c #7C7B74",
"[:.	c #77756F",
"}:.	c #3F3D40",
"|:.	c #353238",
"1:.	c #D0C3B0",
"2:.	c #D4C8AA",
"3:.	c #E1D5B8",
"4:.	c #CBBEA0",
"5:.	c #C8B99B",
"6:.	c #CEBE9C",
"7:.	c #D2C29F",
"8:.	c #D6C6A3",
"9:.	c #D7C7A4",
"0:.	c #D7C5A3",
"a:.	c #D5C3A2",
"b:.	c #E3D6BE",
"c:.	c #7B7065",
"d:.	c #685C59",
"e:.	c #110513",
"f:.	c #63656D",
"g:.	c #8C949A",
"h:.	c #7F8689",
"i:.	c #81878A",
"j:.	c #898B8F",
"k:.	c #8E8F92",
"l:.	c #929393",
"m:.	c #989996",
"n:.	c #9C9D9A",
"o:.	c #989A96",
"p:.	c #979894",
"q:.	c #979893",
"r:.	c #959691",
"s:.	c #969590",
"t:.	c #95958F",
"u:.	c #969790",
"v:.	c #949690",
"w:.	c #959893",
"x:.	c #9A9D98",
"y:.	c #969A96",
"z:.	c #8E908A",
"A:.	c #858680",
"B:.	c #81847E",
"C:.	c #868985",
"D:.	c #8B8E8A",
"E:.	c #8E938F",
"F:.	c #8F9590",
"G:.	c #979D99",
"H:.	c #7D7B7C",
"I:.	c #0B0408",
"J:.	c #1E070B",
"K:.	c #7E3123",
"L:.	c #BE6642",
"M:.	c #A95132",
"N:.	c #BE633D",
"O:.	c #551A19",
"P:.	c #904D2E",
"Q:.	c #CE723B",
"R:.	c #A1482B",
"S:.	c #BD5D34",
"T:.	c #C16438",
"U:.	c #853D2D",
"V:.	c #150910",
"W:.	c #1E1A1B",
"X:.	c #85847D",
"Y:.	c #A1A098",
"Z:.	c #979691",
"`:.	c #92918C",
" <.	c #94948D",
".<.	c #9A9992",
"+<.	c #9D9C95",
"@<.	c #9E9D96",
"#<.	c #9F9F98",
"$<.	c #A09F97",
"%<.	c #9D9D94",
"&<.	c #A09E98",
"*<.	c #A2A099",
"=<.	c #A1A199",
"-<.	c #9F9F97",
";<.	c #9A9B95",
"><.	c #999995",
",<.	c #969593",
"'<.	c #91938F",
")<.	c #898E8A",
"!<.	c #8E938D",
"~<.	c #91978F",
"{<.	c #949A92",
"]<.	c #7A7B7D",
"^<.	c #090216",
"/<.	c #080214",
"(<.	c #817B78",
"_<.	c #E0D6B8",
":<.	c #D4C8A9",
"<<.	c #CFC2A2",
"[<.	c #D2C19F",
"}<.	c #D3C29E",
"|<.	c #D5C29F",
"1<.	c #D7C6A2",
"2<.	c #D9C8A5",
"3<.	c #E1D0AD",
"4<.	c #DBCBAA",
"5<.	c #E4D8BA",
"6<.	c #8C7366",
"7<.	c #554145",
"8<.	c #0E0718",
"9<.	c #3C364A",
"0<.	c #3E384C",
"a<.	c #5E5A5E",
"b<.	c #63605E",
"c<.	c #8E8E7E",
"d<.	c #90907D",
"e<.	c #91907E",
"f<.	c #918F7D",
"g<.	c #8F8D7B",
"h<.	c #898876",
"i<.	c #9A998C",
"j<.	c #8E8D82",
"k<.	c #7E7F78",
"l<.	c #434044",
"m<.	c #36333B",
"n<.	c #423B3F",
"o<.	c #BAAD9D",
"p<.	c #B3A48A",
"q<.	c #D0C3A9",
"r<.	c #C3B399",
"s<.	c #C6B599",
"t<.	c #CEBC9D",
"u<.	c #CEBD9D",
"v<.	c #D0BF9E",
"w<.	c #CEBB98",
"x<.	c #C7B392",
"y<.	c #C7B393",
"z<.	c #C7B496",
"A<.	c #D0BFAB",
"B<.	c #7B6F62",
"C<.	c #685B58",
"D<.	c #170B19",
"E<.	c #353642",
"F<.	c #444959",
"G<.	c #3E4050",
"H<.	c #424352",
"I<.	c #434452",
"J<.	c #444453",
"K<.	c #444452",
"L<.	c #434350",
"M<.	c #44454F",
"N<.	c #464551",
"O<.	c #474652",
"P<.	c #494955",
"Q<.	c #4B4A55",
"R<.	c #484651",
"S<.	c #423F49",
"T<.	c #454152",
"U<.	c #484154",
"V<.	c #464252",
"W<.	c #474353",
"X<.	c #494653",
"Y<.	c #4F4E59",
"Z<.	c #55565E",
"`<.	c #6B6F73",
" [.	c #898A85",
".[.	c #8D8B85",
"+[.	c #2C252E",
"@[.	c #210411",
"#[.	c #341613",
"$[.	c #C06C49",
"%[.	c #A54E2F",
"&[.	c #C66A45",
"*[.	c #531919",
"=[.	c #89482A",
"-[.	c #9E4A29",
";[.	c #BB6034",
">[.	c #8A543D",
",[.	c #5E5E64",
"'[.	c #6E6E70",
")[.	c #8F8F8E",
"![.	c #626166",
"~[.	c #616069",
"{[.	c #5F5F66",
"][.	c #545461",
"^[.	c #4E4C62",
"/[.	c #49485D",
"([.	c #464557",
"_[.	c #444353",
":[.	c #3F3E4E",
"<[.	c #424255",
"[[.	c #43455B",
"}[.	c #40455A",
"|[.	c #3E455A",
"1[.	c #40465B",
"2[.	c #40445B",
"3[.	c #3D405A",
"4[.	c #393D59",
"5[.	c #32334D",
"6[.	c #3C3A4F",
"7[.	c #3A3852",
"8[.	c #3B3953",
"9[.	c #3F3B51",
"0[.	c #403D52",
"a[.	c #3F3E50",
"b[.	c #404052",
"c[.	c #3C3A4C",
"d[.	c #0A041A",
"e[.	c #6F666A",
"f[.	c #72675C",
"g[.	c #D2C7AF",
"h[.	c #C8BCA2",
"i[.	c #BFB29A",
"j[.	c #D9C9AB",
"k[.	c #D9C8AA",
"l[.	c #D4C3A5",
"m[.	c #CAB99D",
"n[.	c #C2AF96",
"o[.	c #A09284",
"p[.	c #66504B",
"q[.	c #3C2B32",
"r[.	c #0D0817",
"s[.	c #3C374B",
"t[.	c #3F394D",
"u[.	c #625E62",
"v[.	c #6A6765",
"w[.	c #939284",
"x[.	c #939381",
"y[.	c #908E7E",
"z[.	c #8E8D7B",
"A[.	c #898777",
"B[.	c #98988B",
"C[.	c #7D7B78",
"D[.	c #464346",
"E[.	c #38353B",
"F[.	c #0C0912",
"G[.	c #3F383B",
"H[.	c #A69A8F",
"I[.	c #A49782",
"J[.	c #C2B496",
"K[.	c #B2A58A",
"L[.	c #605554",
"M[.	c #726563",
"N[.	c #CAB99F",
"O[.	c #C3AF92",
"P[.	c #C1AE92",
"Q[.	c #C0AF94",
"R[.	c #C6B7A4",
"S[.	c #7A6E63",
"T[.	c #645855",
"U[.	c #1B111C",
"V[.	c #2B2A39",
"W[.	c #383A4C",
"X[.	c #373748",
"Y[.	c #363546",
"Z[.	c #383546",
"`[.	c #383749",
" }.	c #45464E",
".}.	c #9A9184",
"+}.	c #9F9786",
"@}.	c #4C474D",
"#}.	c #403F4E",
"$}.	c #40414A",
"%}.	c #41424B",
"&}.	c #43444E",
"*}.	c #464651",
"=}.	c #413F49",
"-}.	c #A3A099",
";}.	c #C8C4B6",
">}.	c #676362",
",}.	c #3E3A47",
"'}.	c #474351",
")}.	c #46444F",
"!}.	c #44424C",
"~}.	c #454144",
"{}.	c #D7D3BD",
"]}.	c #C3C2A9",
"^}.	c #47484A",
"/}.	c #6E7072",
"(}.	c #7D7E7E",
"_}.	c #444653",
":}.	c #070510",
"<}.	c #271610",
"[}.	c #C5754E",
"}}.	c #A34D2E",
"|}.	c #BD5D3C",
"1}.	c #C76748",
"2}.	c #4F1818",
"3}.	c #854528",
"4}.	c #CE733B",
"5}.	c #9A472A",
"6}.	c #B25B3A",
"7}.	c #6C4037",
"8}.	c #09030B",
"9}.	c #707375",
"0}.	c #5F6163",
"a}.	c #606167",
"b}.	c #49444D",
"c}.	c #B8B5AA",
"d}.	c #C5C3B9",
"e}.	c #39393E",
"f}.	c #4C4A5D",
"g}.	c #454458",
"h}.	c #3B3A49",
"i}.	c #7C7E82",
"j}.	c #9DA29E",
"k}.	c #515359",
"l}.	c #3D3E54",
"m}.	c #3E3F55",
"n}.	c #3F4054",
"o}.	c #404055",
"p}.	c #3F4055",
"q}.	c #3C3C54",
"r}.	c #3B3A54",
"s}.	c #8C8B81",
"t}.	c #B9B49E",
"u}.	c #5F5A5F",
"v}.	c #3B374D",
"w}.	c #3B384B",
"x}.	c #3C394D",
"y}.	c #3D3A4B",
"z}.	c #3F3E4D",
"A}.	c #3B3948",
"B}.	c #0A051C",
"C}.	c #665F63",
"D}.	c #726860",
"E}.	c #CEC5AE",
"F}.	c #C4B9A1",
"G}.	c #BEB19C",
"H}.	c #C0B39E",
"I}.	c #998D79",
"J}.	c #968A77",
"K}.	c #B4A88F",
"L}.	c #B7AA90",
"M}.	c #A99A84",
"N}.	c #A79780",
"O}.	c #8E7E6E",
"P}.	c #564645",
"Q}.	c #342731",
"R}.	c #0D0818",
"S}.	c #3C364D",
"T}.	c #3F3A4D",
"U}.	c #646063",
"V}.	c #706D69",
"W}.	c #969585",
"X}.	c #949381",
"Y}.	c #959381",
"Z}.	c #949280",
"`}.	c #8A877A",
" |.	c #97978A",
".|.	c #909084",
"+|.	c #807E78",
"@|.	c #7D7B77",
"#|.	c #464447",
"$|.	c #39363C",
"%|.	c #0C0913",
"&|.	c #352E33",
"*|.	c #9A8C83",
"=|.	c #9C8F7B",
"-|.	c #BEAF96",
";|.	c #B8AB92",
">|.	c #786E6D",
",|.	c #7C716F",
"'|.	c #C4B99E",
")|.	c #B9AA8D",
"!|.	c #B9AA8F",
"~|.	c #BFB09E",
"{|.	c #786C61",
"]|.	c #615553",
"^|.	c #1E131F",
"/|.	c #39384A",
"(|.	c #383547",
"_|.	c #353245",
":|.	c #515155",
"<|.	c #838376",
"[|.	c #847F70",
"}|.	c #534E50",
"||.	c #3B3A47",
"1|.	c #3D3D48",
"2|.	c #3D3C4A",
"3|.	c #35333F",
"4|.	c #989993",
"5|.	c #A4A698",
"6|.	c #696766",
"7|.	c #3F3848",
"8|.	c #484252",
"9|.	c #46424F",
"0|.	c #413D4A",
"a|.	c #E3DFCA",
"b|.	c #D3D1BA",
"c|.	c #34323A",
"d|.	c #575963",
"e|.	c #0B0A12",
"f|.	c #2D1912",
"g|.	c #CA7751",
"h|.	c #A24A2E",
"i|.	c #BD5C3C",
"j|.	c #C26144",
"k|.	c #4D1717",
"l|.	c #834428",
"m|.	c #CC713A",
"n|.	c #98492C",
"o|.	c #AC5A3C",
"p|.	c #653D35",
"q|.	c #0A040C",
"r|.	c #686B6E",
"s|.	c #52535C",
"t|.	c #54534E",
"u|.	c #CCCDB9",
"v|.	c #BCBDB1",
"w|.	c #282730",
"x|.	c #413E52",
"y|.	c #3F3C4D",
"z|.	c #322D3B",
"A|.	c #797F81",
"B|.	c #9CA49C",
"C|.	c #757879",
"D|.	c #3E3F51",
"E|.	c #3D3F50",
"F|.	c #3C3E4F",
"G|.	c #39394D",
"H|.	c #2E2D43",
"I|.	c #787D75",
"J|.	c #A5A794",
"K|.	c #636264",
"L|.	c #39364A",
"M|.	c #393548",
"N|.	c #393649",
"O|.	c #403D4B",
"P|.	c #3A3745",
"Q|.	c #0C051E",
"R|.	c #110B1C",
"S|.	c #625C60",
"T|.	c #6E6560",
"U|.	c #C6BDA8",
"V|.	c #BCB09B",
"W|.	c #B6A994",
"X|.	c #A69A87",
"Y|.	c #594B3F",
"Z|.	c #615447",
"`|.	c #A69B82",
" 1.	c #B6A990",
".1.	c #AB9C86",
"+1.	c #A79781",
"@1.	c #A6957F",
"#1.	c #908170",
"$1.	c #524242",
"%1.	c #322631",
"&1.	c #0C0819",
"*1.	c #403A4D",
"=1.	c #656164",
"-1.	c #716F6B",
";1.	c #868478",
">1.	c #96958A",
",1.	c #8D8C81",
"'1.	c #7E7C76",
")1.	c #797774",
"!1.	c #474447",
"~1.	c #0D0914",
"{1.	c #2E282E",
"]1.	c #968880",
"^1.	c #9A8B78",
"/1.	c #C9B8A1",
"(1.	c #BDAC94",
"_1.	c #B7A891",
":1.	c #B4A78E",
"<1.	c #D9CCB9",
"[1.	c #D1C4AE",
"}1.	c #B8AB8F",
"|1.	c #B6A68E",
"11.	c #B8A791",
"21.	c #B2A38C",
"31.	c #BBAD9C",
"41.	c #776B62",
"51.	c #5F5454",
"61.	c #211522",
"71.	c #130A1D",
"81.	c #333344",
"91.	c #333142",
"01.	c #313141",
"a1.	c #312F41",
"b1.	c #2E2B3D",
"c1.	c #46474C",
"d1.	c #424247",
"e1.	c #333340",
"f1.	c #383747",
"g1.	c #3A3846",
"h1.	c #3A3844",
"i1.	c #383545",
"j1.	c #34323F",
"k1.	c #322F37",
"l1.	c #433F4C",
"m1.	c #433E4D",
"n1.	c #423D4B",
"o1.	c #3F3A49",
"p1.	c #484645",
"q1.	c #343134",
"r1.	c #3B3847",
"s1.	c #3F404E",
"t1.	c #4E4F5B",
"u1.	c #363644",
"v1.	c #0D0B14",
"w1.	c #3A221D",
"x1.	c #C4714B",
"y1.	c #BA5A3A",
"z1.	c #BF5F42",
"A1.	c #4E1818",
"B1.	c #86482D",
"C1.	c #CB713D",
"D1.	c #98472B",
"E1.	c #A8583A",
"F1.	c #653E36",
"G1.	c #0C040F",
"H1.	c #57555B",
"I1.	c #48474D",
"J1.	c #50515A",
"K1.	c #403D43",
"L1.	c #252125",
"M1.	c #262328",
"N1.	c #272434",
"O1.	c #3E3A4F",
"P1.	c #3B3848",
"Q1.	c #383542",
"R1.	c #4C4E52",
"S1.	c #5F6567",
"T1.	c #3B3A4B",
"U1.	c #3C3C4D",
"V1.	c #3B3C4E",
"W1.	c #3A3B4D",
"X1.	c #393B4D",
"Y1.	c #383A4D",
"Z1.	c #27273F",
"`1.	c #2E2F38",
" 2.	c #474851",
".2.	c #2B2939",
"+2.	c #343044",
"@2.	c #373245",
"#2.	c #3A3547",
"$2.	c #3E3949",
"%2.	c #423D47",
"&2.	c #3C3744",
"*2.	c #15111F",
"=2.	c #6B615E",
"-2.	c #BBB39F",
";2.	c #B4A793",
">2.	c #ADA08A",
",2.	c #B0A38F",
"'2.	c #A39785",
")2.	c #A69A89",
"!2.	c #B0A48D",
"~2.	c #AB9C85",
"{2.	c #A69580",
"]2.	c #A4957E",
"^2.	c #A1927C",
"/2.	c #918373",
"(2.	c #50403F",
"_2.	c #322530",
":2.	c #0B0718",
"<2.	c #3E364B",
"[2.	c #413A4C",
"}2.	c #676364",
"|2.	c #716E6A",
"12.	c #919082",
"22.	c #8F8E7D",
"32.	c #918F7F",
"42.	c #8F8D7D",
"52.	c #8A8878",
"62.	c #868473",
"72.	c #8D8E84",
"82.	c #8A8B80",
"92.	c #474648",
"02.	c #39373C",
"a2.	c #0E0915",
"b2.	c #262027",
"c2.	c #978981",
"d2.	c #9B8D79",
"e2.	c #C5B49C",
"f2.	c #BCAB93",
"g2.	c #B6A690",
"h2.	c #B4A58B",
"i2.	c #B3A48B",
"j2.	c #B3A38D",
"k2.	c #AC9D86",
"l2.	c #B7AA99",
"m2.	c #766A61",
"n2.	c #5C5151",
"o2.	c #281D29",
"p2.	c #120B1D",
"q2.	c #252231",
"r2.	c #302D3F",
"s2.	c #333143",
"t2.	c #302D43",
"u2.	c #2B293E",
"v2.	c #2B2A3E",
"w2.	c #353444",
"x2.	c #373543",
"y2.	c #363443",
"z2.	c #343240",
"A2.	c #343140",
"B2.	c #2F2B3A",
"C2.	c #312C3A",
"D2.	c #393540",
"E2.	c #403B49",
"F2.	c #3F3B49",
"G2.	c #36333F",
"H2.	c #262232",
"I2.	c #201B2C",
"J2.	c #333140",
"K2.	c #3A3942",
"L2.	c #05020D",
"M2.	c #13070F",
"N2.	c #492B25",
"O2.	c #BC6542",
"P2.	c #B35738",
"Q2.	c #BB5C40",
"R2.	c #4D1919",
"S2.	c #86482F",
"T2.	c #CC6F3D",
"U2.	c #944429",
"V2.	c #A25135",
"W2.	c #6B3F35",
"X2.	c #2C1017",
"Y2.	c #0C030C",
"Z2.	c #0E0812",
"`2.	c #52525B",
" 3.	c #16101E",
".3.	c #191623",
"+3.	c #312F3F",
"@3.	c #3C3A4D",
"#3.	c #393748",
"$3.	c #2A2833",
"%3.	c #1B1722",
"&3.	c #343144",
"*3.	c #363346",
"=3.	c #343546",
"-3.	c #353647",
";3.	c #363649",
">3.	c #312F44",
",3.	c #221E2F",
"'3.	c #1E182B",
")3.	c #342D40",
"!3.	c #393140",
"~3.	c #3D3542",
"{3.	c #433A45",
"]3.	c #484046",
"^3.	c #403944",
"/3.	c #0C041D",
"(3.	c #1C1724",
"_3.	c #5E595F",
":3.	c #B8AF9D",
"<3.	c #B4A694",
"[3.	c #AA9B87",
"}3.	c #A59881",
"|3.	c #A4957F",
"13.	c #A4937D",
"23.	c #A1907B",
"33.	c #A2927C",
"43.	c #928374",
"53.	c #4D3E3D",
"63.	c #322431",
"73.	c #3D364B",
"83.	c #413B4C",
"93.	c #686666",
"03.	c #8D8A7D",
"a3.	c #858375",
"b3.	c #878475",
"c3.	c #7F7C6F",
"d3.	c #7A7C74",
"e3.	c #888A80",
"f3.	c #7C7E74",
"g3.	c #787974",
"h3.	c #474849",
"i3.	c #39363B",
"j3.	c #0F0815",
"k3.	c #1E1820",
"l3.	c #998B83",
"m3.	c #9C8E7B",
"n3.	c #BEAE96",
"o3.	c #B5A48C",
"p3.	c #B09F89",
"q3.	c #B3A389",
"r3.	c #AFA086",
"s3.	c #AE9E85",
"t3.	c #B09F88",
"u3.	c #B2A28C",
"v3.	c #B0A28B",
"w3.	c #AA9D85",
"x3.	c #B3A796",
"y3.	c #756A61",
"z3.	c #5B4F4F",
"A3.	c #2D222D",
"B3.	c #110B1D",
"C3.	c #2F2B38",
"D3.	c #413D4C",
"E3.	c #3E3C49",
"F3.	c #423F4D",
"G3.	c #454150",
"H3.	c #413D4B",
"I3.	c #43404D",
"J3.	c #44404D",
"K3.	c #463F4C",
"L3.	c #473F4C",
"M3.	c #46404A",
"N3.	c #47414B",
"O3.	c #49424C",
"P3.	c #49434D",
"Q3.	c #48444E",
"R3.	c #444148",
"S3.	c #434046",
"T3.	c #47434A",
"U3.	c #48434B",
"V3.	c #49444C",
"W3.	c #49464E",
"X3.	c #4B4751",
"Y3.	c #4D4952",
"Z3.	c #4D4C53",
"`3.	c #504E57",
" 4.	c #514D57",
".4.	c #46424D",
"+4.	c #2F2D36",
"@4.	c #24212A",
"#4.	c #562626",
"$4.	c #763429",
"%4.	c #B45A38",
"&4.	c #9F4931",
"*4.	c #AB5435",
"=4.	c #B6583C",
"-4.	c #4C1919",
";4.	c #84462F",
">4.	c #CC6D3E",
",4.	c #924129",
"'4.	c #A55337",
")4.	c #A0573B",
"!4.	c #7C372D",
"~4.	c #1F060F",
"{4.	c #0D0510",
"]4.	c #36363D",
"^4.	c #545765",
"/4.	c #505266",
"(4.	c #4E4F62",
"_4.	c #494959",
":4.	c #454355",
"<4.	c #413F52",
"[4.	c #454455",
"}4.	c #525163",
"|4.	c #505062",
"14.	c #524D63",
"24.	c #4E495E",
"34.	c #4B4759",
"44.	c #494456",
"54.	c #473F51",
"64.	c #483E4F",
"74.	c #453D47",
"84.	c #463D44",
"94.	c #473D46",
"04.	c #453B46",
"a4.	c #463C47",
"b4.	c #494047",
"c4.	c #4D464A",
"d4.	c #52494C",
"e4.	c #524A4D",
"f4.	c #473F49",
"g4.	c #0C041C",
"h4.	c #1D1824",
"i4.	c #5C575C",
"j4.	c #615B59",
"k4.	c #B6AD9B",
"l4.	c #B4A492",
"m4.	c #A89985",
"n4.	c #A69783",
"o4.	c #A69881",
"p4.	c #A2947D",
"q4.	c #A3927D",
"r4.	c #A2917B",
"s4.	c #9F8E79",
"t4.	c #938474",
"u4.	c #4B3D3D",
"v4.	c #322332",
"w4.	c #0C0516",
"x4.	c #423D52",
"y4.	c #433F4F",
"z4.	c #686767",
"A4.	c #706E68",
"B4.	c #8C887D",
"C4.	c #837F71",
"D4.	c #898575",
"E4.	c #878573",
"F4.	c #95978E",
"G4.	c #84867C",
"H4.	c #797A71",
"I4.	c #0E0714",
"J4.	c #9B8D84",
"K4.	c #AE9D87",
"L4.	c #AF9E85",
"M4.	c #AE9D85",
"N4.	c #AD9D85",
"O4.	c #AD9E88",
"P4.	c #AFA08A",
"Q4.	c #AC9E87",
"R4.	c #A79A86",
"S4.	c #B0A596",
"T4.	c #756962",
"U4.	c #5E5353",
"V4.	c #332832",
"W4.	c #3D3947",
"X4.	c #3A3543",
"Y4.	c #35313E",
"Z4.	c #34303D",
"`4.	c #363240",
" 5.	c #3B3343",
".5.	c #3D3644",
"+5.	c #413B47",
"@5.	c #413A46",
"#5.	c #3C3642",
"$5.	c #38323D",
"%5.	c #38313C",
"&5.	c #39313C",
"*5.	c #38313A",
"=5.	c #39333D",
"-5.	c #3F3842",
";5.	c #423D44",
">5.	c #433F46",
",5.	c #454048",
"'5.	c #413C45",
")5.	c #120616",
"!5.	c #43221D",
"~5.	c #884132",
"{5.	c #AB5037",
"]5.	c #9F4B33",
"^5.	c #A95237",
"/5.	c #B0543C",
"(5.	c #49191A",
"_5.	c #834530",
":5.	c #C86A3F",
"<5.	c #8E402A",
"[5.	c #A85538",
"}5.	c #B55F3C",
"|5.	c #903F2B",
"15.	c #501B1D",
"25.	c #410E1C",
"35.	c #353542",
"45.	c #3A3B4C",
"55.	c #353446",
"65.	c #343042",
"75.	c #322E42",
"85.	c #2F2A3F",
"95.	c #3A384A",
"05.	c #3D3A4D",
"a5.	c #3F3C50",
"b5.	c #423D53",
"c5.	c #433D54",
"d5.	c #433C52",
"e5.	c #413A50",
"f5.	c #3E374C",
"g5.	c #3B3347",
"h5.	c #3A3243",
"i5.	c #38303F",
"j5.	c #382F3E",
"k5.	c #382F3C",
"l5.	c #3A2F3D",
"m5.	c #3F3741",
"n5.	c #463E47",
"o5.	c #4B444B",
"p5.	c #4E464D",
"q5.	c #1D1722",
"r5.	c #5B565A",
"s5.	c #5E5755",
"t5.	c #B5AA99",
"u5.	c #B0A18F",
"v5.	c #A79884",
"w5.	c #A69782",
"x5.	c #A49580",
"y5.	c #A2937F",
"z5.	c #A2917E",
"A5.	c #A08F7C",
"B5.	c #9D8D79",
"C5.	c #908374",
"D5.	c #493A3C",
"E5.	c #30222F",
"F5.	c #464055",
"G5.	c #433E4F",
"H5.	c #6F6E67",
"I5.	c #828071",
"J5.	c #848172",
"K5.	c #868375",
"L5.	c #86877D",
"M5.	c #777870",
"N5.	c #70716E",
"O5.	c #434345",
"P5.	c #0E0614",
"Q5.	c #1A101A",
"R5.	c #968980",
"S5.	c #958676",
"T5.	c #B6A793",
"U5.	c #AC9B84",
"V5.	c #A99883",
"W5.	c #AA9A82",
"X5.	c #AC9B83",
"Y5.	c #AF9F87",
"Z5.	c #AA9B85",
"`5.	c #A1937C",
" 6.	c #A49683",
".6.	c #AEA294",
"+6.	c #71655E",
"@6.	c #5F5354",
"#6.	c #382D36",
"$6.	c #090414",
"%6.	c #090317",
"&6.	c #0A0219",
"*6.	c #0A021B",
"=6.	c #0B031C",
"-6.	c #0C051C",
";6.	c #0C051A",
">6.	c #0B051A",
",6.	c #0C0519",
"'6.	c #0F0619",
")6.	c #12081B",
"!6.	c #14081D",
"~6.	c #16091E",
"{6.	c #160A1E",
"]6.	c #170A1E",
"^6.	c #17091B",
"/6.	c #15081C",
"(6.	c #16081C",
"_6.	c #14081B",
":6.	c #11061A",
"<6.	c #0F0618",
"[6.	c #0E0514",
"}6.	c #140916",
"|6.	c #733C2E",
"16.	c #AD5539",
"26.	c #9B4532",
"36.	c #A34A33",
"46.	c #9E4730",
"56.	c #AA5038",
"66.	c #431919",
"76.	c #7F432F",
"86.	c #C5663F",
"96.	c #A85338",
"06.	c #B55C3A",
"a6.	c #97412D",
"b6.	c #A54730",
"c6.	c #6A2620",
"d6.	c #16030C",
"e6.	c #0B051C",
"f6.	c #13061C",
"g6.	c #1E0C1F",
"h6.	c #1D0D21",
"i6.	c #14081C",
"j6.	c #14091C",
"k6.	c #11081A",
"l6.	c #0E0518",
"m6.	c #0E061A",
"n6.	c #0B051B",
"o6.	c #0D0419",
"p6.	c #0C0418",
"q6.	c #0B0318",
"r6.	c #1B161F",
"s6.	c #5A5558",
"t6.	c #B2A696",
"u6.	c #AA9B89",
"v6.	c #A29380",
"w6.	c #A1927E",
"x6.	c #A0917D",
"y6.	c #9D8E7B",
"z6.	c #9D8D7A",
"A6.	c #9D8C79",
"B6.	c #9E8C79",
"C6.	c #9B8B78",
"D6.	c #908274",
"E6.	c #47383B",
"F6.	c #2F212C",
"G6.	c #474257",
"H6.	c #3F3B4B",
"I6.	c #656462",
"J6.	c #6E6D66",
"K6.	c #918F80",
"L6.	c #757364",
"M6.	c #7C7A6A",
"N6.	c #8B8678",
"O6.	c #8E9084",
"P6.	c #838579",
"Q6.	c #6F7069",
"R6.	c #6B6B68",
"S6.	c #28252B",
"T6.	c #160F16",
"U6.	c #8B7D77",
"V6.	c #817264",
"W6.	c #AFA08E",
"X6.	c #A2917C",
"Y6.	c #A1907D",
"Z6.	c #AA9A81",
"`6.	c #AF9F86",
" 7.	c #A99982",
".7.	c #A3947F",
"+7.	c #A0937C",
"@7.	c #AA9E91",
"#7.	c #6C6059",
"$7.	c #5C5053",
"%7.	c #382D3A",
"&7.	c #150717",
"*7.	c #1D0818",
"=7.	c #1C091A",
"-7.	c #281021",
";7.	c #25101F",
">7.	c #271021",
",7.	c #471729",
"'7.	c #451627",
")7.	c #3C1124",
"!7.	c #21091A",
"~7.	c #3A111E",
"{7.	c #471421",
"]7.	c #45131F",
"^7.	c #471420",
"/7.	c #4A1420",
"(7.	c #4A1620",
"_7.	c #37151D",
":7.	c #3A151B",
"<7.	c #542027",
"[7.	c #39171D",
"}7.	c #4B1C23",
"|7.	c #4A1922",
"17.	c #3F191B",
"27.	c #522B29",
"37.	c #4D2927",
"47.	c #1A0918",
"57.	c #1C0B18",
"67.	c #7C4030",
"77.	c #AF583A",
"87.	c #9C4A33",
"97.	c #A04933",
"07.	c #9C452F",
"a7.	c #9E4831",
"b7.	c #A34D35",
"c7.	c #3F1819",
"d7.	c #7D422E",
"e7.	c #C0643F",
"f7.	c #873C2A",
"g7.	c #A75238",
"h7.	c #B3583A",
"i7.	c #9D432F",
"j7.	c #B45532",
"k7.	c #943A29",
"l7.	c #672C25",
"m7.	c #160612",
"n7.	c #40141F",
"o7.	c #5B1B21",
"p7.	c #541A23",
"q7.	c #3A141E",
"r7.	c #4D191F",
"s7.	c #471721",
"t7.	c #411820",
"u7.	c #491A22",
"v7.	c #371219",
"w7.	c #39131E",
"x7.	c #38151F",
"y7.	c #150B13",
"z7.	c #3A1520",
"A7.	c #461622",
"B7.	c #36161F",
"C7.	c #3B1522",
"D7.	c #301120",
"E7.	c #210B1B",
"F7.	c #220A1C",
"G7.	c #1C0A1A",
"H7.	c #1A0719",
"I7.	c #0C041B",
"J7.	c #19141E",
"K7.	c #565053",
"L7.	c #554A4B",
"M7.	c #A99D8D",
"N7.	c #A39482",
"O7.	c #9F8E7A",
"P7.	c #9E8E7A",
"Q7.	c #9C8B7A",
"R7.	c #9A8978",
"S7.	c #8F7E6D",
"T7.	c #8F7E6C",
"U7.	c #907F6C",
"V7.	c #917F6D",
"W7.	c #8E7B6B",
"X7.	c #7C6C60",
"Y7.	c #443638",
"Z7.	c #2B1E29",
"`7.	c #0B0511",
" 8.	c #494356",
".8.	c #3D3949",
"+8.	c #626160",
"@8.	c #686660",
"#8.	c #827F78",
"$8.	c #838075",
"%8.	c #908D7E",
"&8.	c #9A9683",
"*8.	c #928F82",
"=8.	c #929387",
"-8.	c #88897D",
";8.	c #6B6B66",
">8.	c #686764",
",8.	c #3D3A3D",
"'8.	c #272329",
")8.	c #100910",
"!8.	c #877B76",
"~8.	c #7F7166",
"{8.	c #A2927E",
"]8.	c #A4947F",
"^8.	c #AA9982",
"/8.	c #AC9C83",
"(8.	c #AA9B81",
"_8.	c #A69880",
":8.	c #A49681",
"<8.	c #A29583",
"[8.	c #A69B8E",
"}8.	c #564A4E",
"|8.	c #332836",
"18.	c #0E0415",
"28.	c #110516",
"38.	c #270E1F",
"48.	c #2F0E20",
"58.	c #28101F",
"68.	c #3E1728",
"78.	c #351523",
"88.	c #2E1323",
"98.	c #571B2B",
"08.	c #581928",
"a8.	c #491725",
"b8.	c #280D1B",
"c8.	c #632125",
"d8.	c #5B1E23",
"e8.	c #4B161D",
"f8.	c #51171E",
"g8.	c #5A1921",
"h8.	c #41161E",
"i8.	c #41161D",
"j8.	c #5B2026",
"k8.	c #441A21",
"l8.	c #561E24",
"m8.	c #511B20",
"n8.	c #46191D",
"o8.	c #612D29",
"p8.	c #65332E",
"q8.	c #1E0A17",
"r8.	c #1D0C18",
"s8.	c #7E4031",
"t8.	c #AE5639",
"u8.	c #984631",
"v8.	c #994530",
"w8.	c #97442E",
"x8.	c #9A452F",
"y8.	c #9E4A34",
"z8.	c #3C1719",
"A8.	c #7A412E",
"B8.	c #843A2B",
"C8.	c #A54F39",
"D8.	c #AF5539",
"E8.	c #9E4431",
"F8.	c #B65735",
"G8.	c #9A3D29",
"H8.	c #71322B",
"I8.	c #180813",
"J8.	c #0B0410",
"K8.	c #4B191F",
"L8.	c #6E2020",
"M8.	c #631F22",
"N8.	c #41171E",
"O8.	c #521A1F",
"P8.	c #4A171F",
"Q8.	c #40131E",
"R8.	c #541C21",
"S8.	c #45171E",
"T8.	c #441822",
"U8.	c #3E1720",
"V8.	c #4B1924",
"W8.	c #421723",
"X8.	c #351221",
"Y8.	c #2D0E1A",
"Z8.	c #330E1C",
"`8.	c #250B1A",
" 9.	c #270D1D",
".9.	c #0C0619",
"+9.	c #1B1420",
"@9.	c #595156",
"#9.	c #5B4F4E",
"$9.	c #A5988A",
"%9.	c #A89A8A",
"&9.	c #A99D8B",
"*9.	c #A89C8A",
"=9.	c #948675",
"-9.	c #8E7F6E",
";9.	c #8B7C6B",
">9.	c #8D7D6C",
",9.	c #867666",
"'9.	c #78665C",
")9.	c #3F3235",
"!9.	c #261B25",
"~9.	c #484455",
"{9.	c #3A3445",
"]9.	c #5A5953",
"^9.	c #7D7A70",
"/9.	c #9B998A",
"(9.	c #9F9C8C",
"_9.	c #9D9989",
":9.	c #A3A08C",
"<9.	c #9C998B",
"[9.	c #939285",
"}9.	c #79786F",
"|9.	c #686763",
"19.	c #666662",
"29.	c #252128",
"39.	c #0D040F",
"49.	c #0B050D",
"59.	c #544849",
"69.	c #524342",
"79.	c #574A47",
"89.	c #5A4D49",
"99.	c #584944",
"09.	c #544540",
"a9.	c #4E413C",
"b9.	c #4A3C39",
"c9.	c #483939",
"d9.	c #463738",
"e9.	c #453737",
"f9.	c #423535",
"g9.	c #3F3536",
"h9.	c #30262E",
"i9.	c #2D242D",
"j9.	c #140819",
"k9.	c #100415",
"l9.	c #2E1623",
"m9.	c #3D1B22",
"n9.	c #38171D",
"o9.	c #602F35",
"p9.	c #5B2A31",
"q9.	c #422026",
"r9.	c #753D42",
"s9.	c #733B3B",
"t9.	c #59222A",
"u9.	c #341020",
"v9.	c #130816",
"w9.	c #622B2C",
"x9.	c #803F32",
"y9.	c #7F3E31",
"z9.	c #76362E",
"A9.	c #864134",
"B9.	c #96473B",
"C9.	c #64302A",
"D9.	c #67322D",
"E9.	c #87423A",
"F9.	c #5F2623",
"G9.	c #874237",
"H9.	c #8A4439",
"I9.	c #632823",
"J9.	c #9A513A",
"K9.	c #844431",
"L9.	c #1F0A16",
"M9.	c #804030",
"N9.	c #974531",
"O9.	c #93402E",
"P9.	c #974430",
"Q9.	c #9A4934",
"R9.	c #3A1618",
"S9.	c #763E2C",
"T9.	c #B25A3B",
"U9.	c #81382B",
"V9.	c #A44E39",
"W9.	c #AA5137",
"X9.	c #9D4331",
"Y9.	c #BC6035",
"Z9.	c #B25837",
"`9.	c #8F4E3F",
" 0.	c #28151C",
".0.	c #622E2A",
"+0.	c #A14F3A",
"@0.	c #8F4434",
"#0.	c #612A24",
"$0.	c #873F36",
"%0.	c #773731",
"&0.	c #642C26",
"*0.	c #8E453A",
"=0.	c #682C2A",
"-0.	c #592323",
";0.	c #622B2D",
">0.	c #5C2D2F",
",0.	c #7B3A3C",
"'0.	c #612A2A",
")0.	c #6D2B30",
"!0.	c #5D262C",
"~0.	c #4A1F21",
"{0.	c #673434",
"]0.	c #33121A",
"^0.	c #3D1924",
"/0.	c #361825",
"(0.	c #0E071A",
"_0.	c #0E0519",
":0.	c #2E282D",
"<0.	c #393131",
"[0.	c #695F5B",
"}0.	c #615551",
"|0.	c #605451",
"10.	c #514542",
"20.	c #463A38",
"30.	c #413433",
"40.	c #423435",
"50.	c #443536",
"60.	c #4C3D3D",
"70.	c #453636",
"80.	c #3F3133",
"90.	c #413B4D",
"00.	c #2A2032",
"a0.	c #625D5E",
"b0.	c #5B5B56",
"c0.	c #807E73",
"d0.	c #A09D8C",
"e0.	c #9F9B89",
"f0.	c #A2A090",
"g0.	c #5A5957",
"h0.	c #575653",
"i0.	c #302D2F",
"j0.	c #17111B",
"k0.	c #2C2226",
"l0.	c #332B2C",
"m0.	c #3E3435",
"n0.	c #423636",
"o0.	c #4A3F3C",
"p0.	c #564944",
"q0.	c #594B46",
"r0.	c #594B45",
"s0.	c #574945",
"t0.	c #514441",
"u0.	c #4B403F",
"v0.	c #483E3D",
"w0.	c #291E27",
"x0.	c #190D1A",
"y0.	c #110514",
"z0.	c #110515",
"A0.	c #110519",
"B0.	c #2F121D",
"C0.	c #471A1D",
"D0.	c #4B1A1A",
"E0.	c #743636",
"F0.	c #713031",
"G0.	c #532627",
"H0.	c #8B423B",
"I0.	c #853B36",
"J0.	c #632027",
"K0.	c #391121",
"L0.	c #662A29",
"M0.	c #823C2F",
"N0.	c #854133",
"O0.	c #79372D",
"P0.	c #823A2E",
"Q0.	c #984533",
"R0.	c #6C3029",
"S0.	c #77382C",
"T0.	c #9A4A3A",
"U0.	c #742F27",
"V0.	c #964937",
"W0.	c #994C39",
"X0.	c #6D2D24",
"Y0.	c #9C5038",
"Z0.	c #8C4834",
"`0.	c #200A13",
" a.	c #1E0D18",
".a.	c #824132",
"+a.	c #AE553A",
"@a.	c #964530",
"#a.	c #924332",
"$a.	c #994834",
"%a.	c #371516",
"&a.	c #743E2B",
"*a.	c #AB5436",
"=a.	c #7E3629",
"-a.	c #9F4C36",
";a.	c #A44D34",
">a.	c #96402C",
",a.	c #B55C33",
"'a.	c #A75032",
")a.	c #8B4B41",
"!a.	c #2F191F",
"~a.	c #190B17",
"{a.	c #5F2A27",
"]a.	c #A54E35",
"^a.	c #9A4732",
"/a.	c #7A342B",
"(a.	c #8F4131",
"_a.	c #75332C",
":a.	c #944335",
"<a.	c #722D29",
"[a.	c #5D2323",
"}a.	c #63292A",
"|a.	c #612C2B",
"1a.	c #823A36",
"2a.	c #72302B",
"3a.	c #79312E",
"4a.	c #692A27",
"5a.	c #5D2723",
"6a.	c #793833",
"7a.	c #3F151B",
"8a.	c #461B24",
"9a.	c #3D1825",
"0a.	c #0F061A",
"aa.	c #120919",
"ba.	c #231921",
"ca.	c #362C2E",
"da.	c #403537",
"ea.	c #463D3B",
"fa.	c #4C433F",
"ga.	c #554C47",
"ha.	c #615751",
"ia.	c #655D56",
"ja.	c #5C504A",
"ka.	c #554B4A",
"la.	c #241B25",
"ma.	c #221A24",
"na.	c #110419",
"oa.	c #14051C",
"pa.	c #170B1D",
"qa.	c #605C5F",
"ra.	c #585558",
"sa.	c #7D7A75",
"ta.	c #86817A",
"ua.	c #9F9B8E",
"va.	c #9B9788",
"wa.	c #9D9A89",
"xa.	c #77766D",
"ya.	c #5C5A55",
"za.	c #595754",
"Aa.	c #373336",
"Ba.	c #18111C",
"Ca.	c #88827B",
"Da.	c #DDD6C3",
"Ea.	c #E5DFCB",
"Fa.	c #EBE2CF",
"Ga.	c #ECE2CE",
"Ha.	c #F1E7D1",
"Ia.	c #F3E9D3",
"Ja.	c #F4E9D4",
"Ka.	c #F2E9D2",
"La.	c #F1E9D2",
"Ma.	c #F0E7D1",
"Na.	c #EEE4CE",
"Oa.	c #EBE1CB",
"Pa.	c #EBE2CB",
"Qa.	c #AEA499",
"Ra.	c #877D77",
"Sa.	c #4E4543",
"Ta.	c #3B3334",
"Ua.	c #0E0513",
"Va.	c #30111E",
"Wa.	c #46171B",
"Xa.	c #4A171A",
"Ya.	c #733534",
"Za.	c #6E2F2E",
"`a.	c #562826",
" b.	c #90453D",
".b.	c #833834",
"+b.	c #5F222A",
"@b.	c #381321",
"#b.	c #170814",
"$b.	c #672927",
"%b.	c #854034",
"&b.	c #74362D",
"*b.	c #7B3B2F",
"=b.	c #934433",
"-b.	c #6D332C",
";b.	c #7A3A2F",
">b.	c #9C4B3B",
",b.	c #7D342D",
"'b.	c #914634",
")b.	c #8F4632",
"!b.	c #6E3028",
"~b.	c #8E4A33",
"{b.	c #210A11",
"]b.	c #1E0D17",
"^b.	c #7F3F31",
"/b.	c #AC533A",
"(b.	c #964430",
"_b.	c #914332",
":b.	c #893C2D",
"<b.	c #8A3E2E",
"[b.	c #934535",
"}b.	c #351217",
"|b.	c #6F3B2A",
"1b.	c #A04F33",
"2b.	c #7A352B",
"3b.	c #984A38",
"4b.	c #9C4934",
"5b.	c #8A3A28",
"6b.	c #AC5534",
"7b.	c #A24E34",
"8b.	c #84473F",
"9b.	c #30191F",
"0b.	c #5C2928",
"ab.	c #A85037",
"bb.	c #9D4834",
"cb.	c #7E372E",
"db.	c #873F2F",
"eb.	c #7D3C2F",
"fb.	c #78372E",
"gb.	c #934133",
"hb.	c #6E2A27",
"ib.	c #572023",
"jb.	c #5E2829",
"kb.	c #2F1317",
"lb.	c #662E2D",
"mb.	c #74312C",
"nb.	c #7A312E",
"ob.	c #6A2B27",
"pb.	c #793733",
"qb.	c #42161C",
"rb.	c #491D26",
"sb.	c #421B29",
"tb.	c #12071A",
"ub.	c #11071A",
"vb.	c #2C242A",
"wb.	c #716556",
"xb.	c #C3AF93",
"yb.	c #DDD0B6",
"zb.	c #EAE0CA",
"Ab.	c #EFE5D1",
"Bb.	c #F1E7D2",
"Cb.	c #EFE7CF",
"Db.	c #EEE6CF",
"Eb.	c #EEE6CE",
"Fb.	c #EEE6CD",
"Gb.	c #EEE7CD",
"Hb.	c #EDE6CB",
"Ib.	c #EAE2C7",
"Jb.	c #EBE3C7",
"Kb.	c #EBE0C9",
"Lb.	c #948A83",
"Mb.	c #968D8C",
"Nb.	c #140518",
"Ob.	c #170D1B",
"Pb.	c #4E4A50",
"Qb.	c #433F48",
"Rb.	c #6B6764",
"Sb.	c #736F6B",
"Tb.	c #7C786F",
"Ub.	c #746E69",
"Vb.	c #6E6965",
"Wb.	c #5D5956",
"Xb.	c #B3B3A3",
"Yb.	c #9F9F8F",
"Zb.	c #818073",
"`b.	c #1A131C",
" c.	c #120B17",
".c.	c #8A857C",
"+c.	c #E1D7C1",
"@c.	c #E7DEC6",
"#c.	c #EBE1C7",
"$c.	c #EAE1C7",
"%c.	c #E8E0C7",
"&c.	c #E7DCC3",
"*c.	c #E6DBC3",
"=c.	c #E6DCC2",
"-c.	c #E6DBC1",
";c.	c #E7DCC2",
">c.	c #E9DFC4",
",c.	c #ACA292",
"'c.	c #968C80",
")c.	c #59514D",
"!c.	c #3B3137",
"~c.	c #110416",
"{c.	c #120419",
"]c.	c #2F0F1D",
"^c.	c #42141A",
"/c.	c #441418",
"(c.	c #743433",
"_c.	c #6F2D30",
":c.	c #582626",
"<c.	c #90443B",
"[c.	c #7F3431",
"}c.	c #5B222A",
"|c.	c #371222",
"1c.	c #180915",
"2c.	c #672926",
"3c.	c #7F3B2D",
"4c.	c #7F3E32",
"5c.	c #72352F",
"6c.	c #79372F",
"7c.	c #904032",
"8c.	c #682F2A",
"9c.	c #79392E",
"0c.	c #9B4939",
"ac.	c #7F362C",
"bc.	c #944836",
"cc.	c #8E4433",
"dc.	c #713329",
"ec.	c #9B5136",
"fc.	c #894732",
"gc.	c #250B14",
"hc.	c #7B3D30",
"ic.	c #AA513A",
"jc.	c #954331",
"kc.	c #914331",
"lc.	c #853B2D",
"mc.	c #873D30",
"nc.	c #914438",
"oc.	c #321018",
"pc.	c #643228",
"qc.	c #90432F",
"rc.	c #743329",
"sc.	c #914532",
"tc.	c #944334",
"uc.	c #86362B",
"vc.	c #9B4934",
"wc.	c #7F433C",
"xc.	c #30181F",
"yc.	c #1E0F19",
"zc.	c #592725",
"Ac.	c #A85038",
"Bc.	c #9F4935",
"Cc.	c #82392F",
"Dc.	c #893E30",
"Ec.	c #7E3930",
"Fc.	c #79382E",
"Gc.	c #8E4033",
"Hc.	c #672826",
"Ic.	c #521E22",
"Jc.	c #5C262A",
"Kc.	c #38161A",
"Lc.	c #6A2D2C",
"Mc.	c #873935",
"Nc.	c #76322B",
"Oc.	c #7C322F",
"Pc.	c #6A2929",
"Qc.	c #642926",
"Rc.	c #74302C",
"Sc.	c #45151E",
"Tc.	c #4C1D29",
"Uc.	c #461D28",
"Vc.	c #271F26",
"Wc.	c #6F6354",
"Xc.	c #B3A587",
"Yc.	c #D9CCB3",
"Zc.	c #D3C8B0",
"`c.	c #D3C7AF",
" d.	c #D1C6AB",
".d.	c #D1C6AD",
"+d.	c #D9CEB4",
"@d.	c #DBCFB5",
"#d.	c #D6CCAF",
"$d.	c #D8CDB2",
"%d.	c #7C726A",
"&d.	c #7F7675",
"*d.	c #130719",
"=d.	c #180F1C",
"-d.	c #575159",
";d.	c #4D484F",
">d.	c #767271",
",d.	c #7F7C77",
"'d.	c #7D7A72",
")d.	c #7C7770",
"!d.	c #6E6962",
"~d.	c #68615E",
"{d.	c #565153",
"]d.	c #9D9B8D",
"^d.	c #8A877D",
"/d.	c #7A786F",
"(d.	c #797670",
"_d.	c #50494A",
":d.	c #211921",
"<d.	c #656058",
"[d.	c #BCAF9A",
"}d.	c #B1A38D",
"|d.	c #C2B29A",
"1d.	c #B6A78F",
"2d.	c #B5A58D",
"3d.	c #B8A78F",
"4d.	c #B9A890",
"5d.	c #B9A891",
"6d.	c #B9A991",
"7d.	c #BCAD95",
"8d.	c #C5B89F",
"9d.	c #908476",
"0d.	c #897E73",
"ad.	c #3D3337",
"bd.	c #332934",
"cd.	c #120519",
"dd.	c #2F0F1C",
"ed.	c #43141A",
"fd.	c #743333",
"gd.	c #702E31",
"hd.	c #5C2526",
"id.	c #8D4139",
"jd.	c #7D332F",
"kd.	c #582029",
"ld.	c #180814",
"md.	c #652825",
"nd.	c #7E3A2C",
"od.	c #7D3C30",
"pd.	c #71332E",
"qd.	c #79362E",
"rd.	c #8F3F33",
"sd.	c #642C2A",
"td.	c #76372C",
"ud.	c #974535",
"vd.	c #7F352B",
"wd.	c #934735",
"xd.	c #8C4132",
"yd.	c #6F322A",
"zd.	c #934B35",
"Ad.	c #7B3B2A",
"Bd.	c #230A14",
"Cd.	c #1C0C15",
"Dd.	c #A74E36",
"Ed.	c #934230",
"Fd.	c #8B402E",
"Gd.	c #80382B",
"Hd.	c #833C2E",
"Id.	c #8D4237",
"Jd.	c #2F1118",
"Kd.	c #582823",
"Ld.	c #883E2F",
"Md.	c #924733",
"Nd.	c #934233",
"Od.	c #85352A",
"Pd.	c #793F3B",
"Qd.	c #2C161D",
"Rd.	c #1D0E19",
"Sd.	c #552424",
"Td.	c #A74F39",
"Ud.	c #A14B36",
"Vd.	c #853B2E",
"Wd.	c #803B31",
"Xd.	c #7A372E",
"Yd.	c #883B30",
"Zd.	c #5F2424",
"`d.	c #4C1C21",
" e.	c #5D2728",
".e.	c #40171C",
"+e.	c #6A2C2B",
"@e.	c #873732",
"#e.	c #76302A",
"$e.	c #7B322D",
"%e.	c #6B2A27",
"&e.	c #612825",
"*e.	c #6D2D2A",
"=e.	c #45161C",
"-e.	c #4E1E27",
";e.	c #471E28",
">e.	c #16091A",
",e.	c #291F27",
"'e.	c #5D504C",
")e.	c #7C6D62",
"!e.	c #AFA292",
"~e.	c #C8B9A6",
"{e.	c #BCAC98",
"]e.	c #BAA996",
"^e.	c #B8A693",
"/e.	c #B6A590",
"(e.	c #B19F89",
"_e.	c #B3A18A",
":e.	c #B2A089",
"<e.	c #B2A188",
"[e.	c #AE9D88",
"}e.	c #AA9987",
"|e.	c #A69685",
"1e.	c #645658",
"2e.	c #5B5153",
"3e.	c #190E1E",
"4e.	c #1A101D",
"5e.	c #5D5559",
"6e.	c #5A5152",
"7e.	c #948D81",
"8e.	c #9F9685",
"9e.	c #B5AB95",
"0e.	c #B7AD95",
"ae.	c #B2A890",
"be.	c #A99F8A",
"ce.	c #A3A193",
"de.	c #8E8A80",
"ee.	c #77756E",
"fe.	c #76736C",
"ge.	c #4D4646",
"he.	c #241B23",
"ie.	c #5E5854",
"je.	c #A49687",
"ke.	c #908172",
"le.	c #B6A897",
"me.	c #B1A391",
"ne.	c #A69585",
"oe.	c #A59484",
"pe.	c #A59584",
"qe.	c #A89784",
"re.	c #AD9E87",
"se.	c #B0A18B",
"te.	c #B0A28D",
"ue.	c #B4A791",
"ve.	c #BEB29D",
"we.	c #7D716A",
"xe.	c #706662",
"ye.	c #382E34",
"ze.	c #2F252E",
"Ae.	c #2F0F1B",
"Be.	c #431419",
"Ce.	c #41141A",
"De.	c #763534",
"Ee.	c #733232",
"Fe.	c #622727",
"Ge.	c #8E423A",
"He.	c #7C342D",
"Ie.	c #551F28",
"Je.	c #32111F",
"Ke.	c #190813",
"Le.	c #622624",
"Me.	c #7F392C",
"Ne.	c #7E3B2F",
"Oe.	c #70322C",
"Pe.	c #77342C",
"Qe.	c #8D3E30",
"Re.	c #612927",
"Se.	c #71332A",
"Te.	c #924234",
"Ue.	c #7D332B",
"Ve.	c #924635",
"We.	c #8B4334",
"Xe.	c #6E332A",
"Ye.	c #914A33",
"Ze.	c #773A29",
"`e.	c #1B0C14",
" f.	c #70362C",
".f.	c #A04A33",
"+f.	c #863B30",
"@f.	c #7E372F",
"#f.	c #803B30",
"$f.	c #843E36",
"%f.	c #522623",
"&f.	c #843E2E",
"*f.	c #73352A",
"=f.	c #934A39",
"-f.	c #904534",
";f.	c #7F372B",
">f.	c #9B4C35",
",f.	c #8E4131",
"'f.	c #713A37",
")f.	c #28131B",
"!f.	c #1C0C17",
"~f.	c #562422",
"{f.	c #A25036",
"]f.	c #9D4C37",
"^f.	c #83382E",
"/f.	c #8C4133",
"(f.	c #7F3A31",
"_f.	c #76362D",
":f.	c #80392D",
"<f.	c #582223",
"[f.	c #471B20",
"}f.	c #602927",
"|f.	c #43181C",
"1f.	c #6A2C29",
"2f.	c #873830",
"3f.	c #773029",
"4f.	c #7B342F",
"5f.	c #6C2B29",
"6f.	c #642524",
"7f.	c #682926",
"8f.	c #501E26",
"9f.	c #491D27",
"0f.	c #170A1B",
"af.	c #271B27",
"bf.	c #544949",
"cf.	c #695E53",
"df.	c #998E82",
"ef.	c #B9AC9F",
"ff.	c #A7998D",
"gf.	c #A19286",
"hf.	c #9D8D81",
"if.	c #998B7E",
"jf.	c #96887B",
"kf.	c #988B7D",
"lf.	c #9A8D7E",
"mf.	c #9B8E7E",
"nf.	c #9D9082",
"of.	c #9C9082",
"pf.	c #A09088",
"qf.	c #5E5057",
"rf.	c #564B52",
"sf.	c #17081D",
"tf.	c #1D121F",
"uf.	c #6C6663",
"vf.	c #716B62",
"wf.	c #D7D3B8",
"xf.	c #E2D8B7",
"yf.	c #DBD3B1",
"zf.	c #D7CFAE",
"Af.	c #D2CAA9",
"Bf.	c #CCC7A6",
"Cf.	c #8E8B80",
"Df.	c #73726A",
"Ef.	c #6F6C65",
"Ff.	c #463E3F",
"Gf.	c #251C24",
"Hf.	c #4B4344",
"If.	c #847570",
"Jf.	c #796964",
"Kf.	c #7B6C66",
"Lf.	c #786A62",
"Mf.	c #756862",
"Nf.	c #766962",
"Of.	c #776B63",
"Pf.	c #796D65",
"Qf.	c #776D65",
"Rf.	c #867B76",
"Sf.	c #554950",
"Tf.	c #4F444E",
"Uf.	c #362B34",
"Vf.	c #2E242D",
"Wf.	c #100418",
"Xf.	c #2E0F1A",
"Yf.	c #793533",
"Zf.	c #753233",
"`f.	c #642829",
" g.	c #893F39",
".g.	c #76302B",
"+g.	c #501B24",
"@g.	c #2F101D",
"#g.	c #170812",
"$g.	c #581D1F",
"%g.	c #7B362A",
"&g.	c #7B382D",
"*g.	c #6E302D",
"=g.	c #73312B",
"-g.	c #893B2E",
";g.	c #5E2627",
">g.	c #6E3129",
",g.	c #8B3C2F",
"'g.	c #783028",
")g.	c #8D4333",
"!g.	c #874033",
"~g.	c #6F3329",
"{g.	c #90492F",
"]g.	c #723627",
"^g.	c #220814",
"/g.	c #602A26",
"(g.	c #8A3A2C",
"_g.	c #7E332A",
":g.	c #7F342D",
"<g.	c #762F2C",
"[g.	c #75312A",
"}g.	c #72332B",
"|g.	c #250E19",
"1g.	c #4B2221",
"2g.	c #672D24",
"3g.	c #854232",
"4g.	c #843E30",
"5g.	c #702F25",
"6g.	c #8C4430",
"7g.	c #813C2E",
"8g.	c #6A3734",
"9g.	c #241019",
"0g.	c #1C0B15",
"ag.	c #582520",
"bg.	c #93452F",
"cg.	c #793229",
"dg.	c #893F32",
"eg.	c #7C372F",
"fg.	c #70342C",
"gg.	c #7A372C",
"hg.	c #511D20",
"ig.	c #42181E",
"jg.	c #602A27",
"kg.	c #6A2B29",
"lg.	c #863830",
"mg.	c #742E27",
"ng.	c #7D3531",
"og.	c #6B2B28",
"pg.	c #622422",
"qg.	c #662725",
"rg.	c #44141B",
"sg.	c #531C25",
"tg.	c #481A26",
"ug.	c #261A27",
"vg.	c #504546",
"wg.	c #635751",
"xg.	c #6C605B",
"yg.	c #6E6360",
"zg.	c #695E5D",
"Ag.	c #695D5D",
"Bg.	c #695E5F",
"Cg.	c #685F5F",
"Dg.	c #68605F",
"Eg.	c #69605F",
"Fg.	c #6A6160",
"Gg.	c #6A5E60",
"Hg.	c #6D5F65",
"Ig.	c #4F424B",
"Jg.	c #483E46",
"Kg.	c #1F1526",
"Lg.	c #807E6E",
"Mg.	c #84806F",
"Ng.	c #8A8474",
"Og.	c #8C8678",
"Pg.	c #A9A89A",
"Qg.	c #949286",
"Rg.	c #78776F",
"Sg.	c #737069",
"Tg.	c #463D3E",
"Ug.	c #291F28",
"Vg.	c #110A12",
"Wg.	c #413A3C",
"Xg.	c #7F706D",
"Yg.	c #766764",
"Zg.	c #7D6F6C",
"`g.	c #766967",
" h.	c #6F6360",
".h.	c #6D6360",
"+h.	c #706663",
"@h.	c #6D625F",
"#h.	c #736764",
"$h.	c #746864",
"%h.	c #736964",
"&h.	c #766D67",
"*h.	c #847C7C",
"=h.	c #514852",
"-h.	c #4D444F",
";h.	c #352A33",
">h.	c #2C212C",
",h.	c #11041A",
"'h.	c #2D0E19",
")h.	c #391417",
"!h.	c #7A3430",
"~h.	c #743232",
"{h.	c #61262B",
"]h.	c #863C35",
"^h.	c #752F29",
"/h.	c #4C1822",
"(h.	c #280B18",
"_h.	c #160912",
":h.	c #4F191A",
"<h.	c #743327",
"[h.	c #78352C",
"}h.	c #692B2A",
"|h.	c #6D2D29",
"1h.	c #84372C",
"2h.	c #592324",
"3h.	c #692C27",
"4h.	c #85372B",
"5h.	c #742D26",
"6h.	c #883F30",
"7h.	c #6A3027",
"8h.	c #8A472D",
"9h.	c #6B3225",
"0h.	c #210815",
"ah.	c #180B14",
"bh.	c #572420",
"ch.	c #7C3328",
"dh.	c #732E26",
"eh.	c #77312A",
"fh.	c #6F2D29",
"gh.	c #73332A",
"hh.	c #6E3229",
"ih.	c #240E19",
"jh.	c #47201F",
"kh.	c #803C2C",
"lh.	c #662F26",
"mh.	c #833E2F",
"nh.	c #803A2D",
"oh.	c #6E2F26",
"ph.	c #87412E",
"qh.	c #7A372A",
"rh.	c #653330",
"sh.	c #1D0A15",
"th.	c #59251F",
"uh.	c #8A3C2A",
"vh.	c #87382C",
"wh.	c #732D26",
"xh.	c #823B2E",
"yh.	c #73342C",
"zh.	c #6B322B",
"Ah.	c #75342B",
"Bh.	c #4A1B1E",
"Ch.	c #3B171B",
"Dh.	c #5F2826",
"Eh.	c #45191D",
"Fh.	c #81342C",
"Gh.	c #722D25",
"Hh.	c #7E3631",
"Ih.	c #612421",
"Jh.	c #57201C",
"Kh.	c #571B25",
"Lh.	c #461823",
"Mh.	c #15091A",
"Nh.	c #4D4142",
"Oh.	c #60544F",
"Ph.	c #695D5E",
"Qh.	c #64585B",
"Rh.	c #63575A",
"Sh.	c #61585B",
"Th.	c #60575A",
"Uh.	c #60575B",
"Vh.	c #61575B",
"Wh.	c #61575A",
"Xh.	c #60565A",
"Yh.	c #61585D",
"Zh.	c #665C61",
"`h.	c #4A3F47",
" i.	c #473D47",
".i.	c #160A1B",
"+i.	c #16091F",
"@i.	c #241A2A",
"#i.	c #4B444F",
"$i.	c #888579",
"%i.	c #8B887A",
"&i.	c #9B9785",
"*i.	c #999685",
"=i.	c #9C9885",
"-i.	c #9F9B88",
";i.	c #A5A596",
">i.	c #959384",
",i.	c #848276",
"'i.	c #7B7970",
")i.	c #443D3C",
"!i.	c #2E232C",
"~i.	c #383133",
"{i.	c #786966",
"]i.	c #6A5A59",
"^i.	c #615357",
"/i.	c #564C54",
"(i.	c #514750",
"_i.	c #4F464F",
":i.	c #4F4650",
"<i.	c #4E454E",
"[i.	c #504750",
"}i.	c #504650",
"|i.	c #534E53",
"1i.	c #6D686B",
"2i.	c #514B52",
"3i.	c #4E464E",
"4i.	c #342A33",
"5i.	c #2B212D",
"6i.	c #280D19",
"7i.	c #401319",
"8i.	c #371318",
"9i.	c #74312E",
"0i.	c #6C2E2F",
"ai.	c #572328",
"bi.	c #6E2925",
"ci.	c #230916",
"di.	c #160913",
"ei.	c #471417",
"fi.	c #6B2F22",
"gi.	c #6E2E27",
"hi.	c #632326",
"ii.	c #652728",
"ji.	c #732A25",
"ki.	c #4D1E20",
"li.	c #602723",
"mi.	c #772F27",
"ni.	c #632524",
"oi.	c #79382D",
"pi.	c #5B2621",
"qi.	c #733928",
"ri.	c #5D2A23",
"si.	c #210915",
"ti.	c #170A15",
"ui.	c #522120",
"vi.	c #6E2D25",
"wi.	c #672624",
"xi.	c #672A26",
"yi.	c #602423",
"zi.	c #692D26",
"Ai.	c #662C29",
"Bi.	c #230D19",
"Ci.	c #3B1A1B",
"Di.	c #612925",
"Ei.	c #672D26",
"Fi.	c #652926",
"Gi.	c #5E2823",
"Hi.	c #6F3225",
"Ii.	c #592929",
"Ji.	c #200C14",
"Ki.	c #1D0A16",
"Li.	c #7B3226",
"Mi.	c #792D25",
"Ni.	c #742D24",
"Oi.	c #642826",
"Pi.	c #5E2A24",
"Qi.	c #6B3028",
"Ri.	c #441920",
"Si.	c #33131A",
"Ti.	c #5B2626",
"Ui.	c #44171C",
"Vi.	c #6B2826",
"Wi.	c #7E2E26",
"Xi.	c #752C26",
"Yi.	c #7C3930",
"Zi.	c #662A28",
"`i.	c #642721",
" j.	c #3F1319",
".j.	c #5D1923",
"+j.	c #47181F",
"@j.	c #110619",
"#j.	c #241926",
"$j.	c #5C504C",
"%j.	c #605352",
"&j.	c #5E5155",
"*j.	c #554A53",
"=j.	c #524852",
"-j.	c #504753",
";j.	c #4F4654",
">j.	c #4D4452",
",j.	c #4D4352",
"'j.	c #4E4253",
")j.	c #4F4555",
"!j.	c #584E5A",
"~j.	c #453B44",
"{j.	c #483F49",
"]j.	c #150C1C",
"^j.	c #261C2D",
"/j.	c #4F4750",
"(j.	c #585155",
"_j.	c #868477",
":j.	c #949281",
"<j.	c #908E7F",
"[j.	c #969482",
"}j.	c #A1A191",
"|j.	c #969483",
"1j.	c #9C978C",
"2j.	c #918D84",
"3j.	c #30252C",
"4j.	c #2F282B",
"5j.	c #736462",
"6j.	c #69595A",
"7j.	c #5F5058",
"8j.	c #51464F",
"9j.	c #4A414B",
"0j.	c #49404A",
"aj.	c #49414D",
"bj.	c #473E4A",
"cj.	c #483F4A",
"dj.	c #4A414D",
"ej.	c #514B54",
"fj.	c #676269",
"gj.	c #534E54",
"hj.	c #4F474F",
"ij.	c #322733",
"jj.	c #281D2C",
"kj.	c #230B1B",
"lj.	c #2B0F1D",
"mj.	c #411520",
"nj.	c #3F1421",
"oj.	c #3C1622",
"pj.	c #491720",
"qj.	c #46171F",
"rj.	c #33101D",
"sj.	c #1C0814",
"tj.	c #180914",
"uj.	c #3C111B",
"vj.	c #511E20",
"wj.	c #4D1A1E",
"xj.	c #4D1A21",
"yj.	c #4E1920",
"zj.	c #3A161D",
"Aj.	c #481B20",
"Bj.	c #571C23",
"Cj.	c #4A1823",
"Dj.	c #521F23",
"Ej.	c #4F1C20",
"Fj.	c #46191F",
"Gj.	c #4F2021",
"Hj.	c #40161D",
"Ij.	c #1C0913",
"Jj.	c #160A15",
"Kj.	c #41131E",
"Lj.	c #48151F",
"Mj.	c #44141F",
"Nj.	c #44141D",
"Oj.	c #39121C",
"Pj.	c #1E0C19",
"Qj.	c #2C131A",
"Rj.	c #511B1F",
"Sj.	c #491A1F",
"Tj.	c #4C1E1F",
"Uj.	c #532022",
"Vj.	c #592520",
"Wj.	c #481B22",
"Xj.	c #1B0714",
"Yj.	c #1C0816",
"Zj.	c #46131A",
"`j.	c #5C1A20",
" k.	c #5E1920",
".k.	c #581A21",
"+k.	c #5A1D22",
"@k.	c #4F1C23",
"#k.	c #4B1E1F",
"$k.	c #33131D",
"%k.	c #28111B",
"&k.	c #411A1D",
"*k.	c #541F21",
"=k.	c #5E2122",
"-k.	c #561F23",
";k.	c #512324",
">k.	c #471B1E",
",k.	c #4B1B1C",
"'k.	c #40151C",
")k.	c #2F0F1A",
"!k.	c #3C131F",
"~k.	c #33121E",
"{k.	c #231826",
"]k.	c #473C3C",
"^k.	c #5A4D4D",
"/k.	c #5B4D50",
"(k.	c #4E424C",
"_k.	c #4C424B",
":k.	c #4C414B",
"<k.	c #48414B",
"[k.	c #46404B",
"}k.	c #47404D",
"|k.	c #48414E",
"1k.	c #4A4251",
"2k.	c #4D4654",
"3k.	c #4F4752",
"4k.	c #443943",
"5k.	c #150B1B",
"6k.	c #291F2F",
"7k.	c #595158",
"8k.	c #60595A",
"9k.	c #8A8777",
"0k.	c #928E7E",
"ak.	c #959282",
"bk.	c #8D8A7C",
"ck.	c #8F8E7C",
"dk.	c #908E7D",
"ek.	c #8E8B7C",
"fk.	c #958F87",
"gk.	c #2F242A",
"hk.	c #271F25",
"ik.	c #655656",
"jk.	c #594A4E",
"kk.	c #43343D",
"lk.	c #3A2D38",
"mk.	c #392E39",
"nk.	c #3C303D",
"ok.	c #3B303D",
"pk.	c #3C313E",
"qk.	c #3E3340",
"rk.	c #443A45",
"sk.	c #4A404A",
"tk.	c #494149",
"uk.	c #2E222F",
"vk.	c #25192A",
"wk.	c #0F0314",
"xk.	c #1B0A19",
"yk.	c #220E1F",
"zk.	c #291223",
"Ak.	c #2C1322",
"Bk.	c #2C1522",
"Ck.	c #2C1521",
"Dk.	c #2A1420",
"Ek.	c #23101C",
"Fk.	c #1A0919",
"Gk.	c #180819",
"Hk.	c #1B091A",
"Ik.	c #1A091A",
"Jk.	c #1B0A1B",
"Kk.	c #1B0A1D",
"Lk.	c #1C0A1E",
"Mk.	c #1E0B1D",
"Nk.	c #1B0A1A",
"Ok.	c #1B0B19",
"Pk.	c #1D0B19",
"Qk.	c #1E0B18",
"Rk.	c #1E0B17",
"Sk.	c #180818",
"Tk.	c #190919",
"Uk.	c #1B0B1C",
"Vk.	c #1D0C1D",
"Wk.	c #1E0C1D",
"Xk.	c #1F0D1C",
"Yk.	c #1A0C19",
"Zk.	c #190C1A",
"`k.	c #1C0D1D",
" l.	c #1E0E20",
".l.	c #1F0D22",
"+l.	c #1F0E1F",
"@l.	c #200F1E",
"#l.	c #210E1C",
"$l.	c #1F0B18",
"%l.	c #190817",
"&l.	c #100616",
"*l.	c #170717",
"=l.	c #280A1A",
"-l.	c #2E0E1C",
";l.	c #300F1E",
">l.	c #301020",
",l.	c #2E1120",
"'l.	c #27111E",
")l.	c #23111C",
"!l.	c #22101B",
"~l.	c #1E0F1C",
"{l.	c #20101E",
"]l.	c #22101E",
"^l.	c #23101D",
"/l.	c #22121E",
"(l.	c #231221",
"_l.	c #241325",
":l.	c #201022",
"<l.	c #1C0E20",
"[l.	c #1B0E21",
"}l.	c #180C22",
"|l.	c #140920",
"1l.	c #11051B",
"2l.	c #231827",
"3l.	c #3E3537",
"4l.	c #4F4445",
"5l.	c #4D4045",
"6l.	c #463A41",
"7l.	c #43373F",
"8l.	c #42363E",
"9l.	c #41353E",
"0l.	c #41353F",
"al.	c #40343F",
"bl.	c #3C323E",
"cl.	c #392F3C",
"dl.	c #3A313E",
"el.	c #3F3642",
"fl.	c #3F3742",
"gl.	c #473D4A",
"hl.	c #170A20",
"il.	c #362C37",
"jl.	c #675E5F",
"kl.	c #69615D",
"ll.	c #979384",
"ml.	c #8B8778",
"nl.	c #5B5758",
"ol.	c #78726A",
"pl.	c #969082",
"ql.	c #918C83",
"rl.	c #65605E",
"sl.	c #4E4549",
"tl.	c #140C18",
"ul.	c #231B22",
"vl.	c #5B4C4C",
"wl.	c #504146",
"xl.	c #3F313C",
"yl.	c #3A2D3B",
"zl.	c #3A2E3B",
"Al.	c #392E3B",
"Bl.	c #3A2F3B",
"Cl.	c #3E323E",
"Dl.	c #433741",
"El.	c #483B45",
"Fl.	c #473B44",
"Gl.	c #453844",
"Hl.	c #2B1E2D",
"Il.	c #201525",
"Jl.	c #1A111D",
"Kl.	c #2A232A",
"Ll.	c #281F27",
"Ml.	c #2C2027",
"Nl.	c #2E2328",
"Ol.	c #33262B",
"Pl.	c #32272C",
"Ql.	c #32282B",
"Rl.	c #32282A",
"Sl.	c #31272B",
"Tl.	c #2E252A",
"Ul.	c #221920",
"Vl.	c #342E31",
"Wl.	c #363131",
"Xl.	c #3C3637",
"Yl.	c #3F383A",
"Zl.	c #3F393B",
"`l.	c #3F393A",
" m.	c #3C3739",
".m.	c #383236",
"+m.	c #352F35",
"@m.	c #332C32",
"#m.	c #312A31",
"$m.	c #312A30",
"%m.	c #2E272C",
"&m.	c #2C232C",
"*m.	c #342C31",
"=m.	c #383135",
"-m.	c #393236",
";m.	c #3E353A",
">m.	c #40373B",
",m.	c #3D3439",
"'m.	c #3D363A",
")m.	c #3D383C",
"!m.	c #3E383D",
"~m.	c #3A363C",
"{m.	c #2C2638",
"]m.	c #292332",
"^m.	c #231B30",
"/m.	c #231B2C",
"(m.	c #28212C",
"_m.	c #28202A",
":m.	c #2C222B",
"<m.	c #281E26",
"[m.	c #2B2228",
"}m.	c #2D2529",
"|m.	c #2E272B",
"1m.	c #2F272F",
"2m.	c #302831",
"3m.	c #30272F",
"4m.	c #2F262D",
"5m.	c #2D252A",
"6m.	c #281E27",
"7m.	c #382F37",
"8m.	c #372D36",
"9m.	c #352A35",
"0m.	c #2D232E",
"am.	c #221827",
"bm.	c #3F353B",
"cm.	c #493E42",
"dm.	c #463A3F",
"em.	c #43373E",
"fm.	c #41343D",
"gm.	c #40343D",
"hm.	c #3E323C",
"im.	c #3E333C",
"jm.	c #3D343D",
"km.	c #3C323D",
"lm.	c #3A313C",
"mm.	c #38303B",
"nm.	c #39313B",
"om.	c #372E39",
"pm.	c #362C39",
"qm.	c #150A1B",
"rm.	c #4C4248",
"sm.	c #6D6661",
"tm.	c #726C62",
"um.	c #8D8879",
"vm.	c #8A8676",
"wm.	c #807C71",
"xm.	c #706D6A",
"ym.	c #7D776D",
"zm.	c #8D877C",
"Am.	c #857F77",
"Bm.	c #797573",
"Cm.	c #5D5558",
"Dm.	c #3E3841",
"Em.	c #221D27",
"Fm.	c #27202B",
"Gm.	c #29202B",
"Hm.	c #2A222D",
"Im.	c #2A232E",
"Jm.	c #2C2430",
"Km.	c #2C2330",
"Lm.	c #2D2332",
"Mm.	c #2D2430",
"Nm.	c #2C232E",
"Om.	c #1F1525",
"Pm.	c #1A0F21",
"Qm.	c #150B1E",
"Rm.	c #4A4547",
"Sm.	c #514B49",
"Tm.	c #5C5750",
"Um.	c #5F5A52",
"Vm.	c #635E56",
"Wm.	c #646055",
"Xm.	c #625D53",
"Ym.	c #615B52",
"Zm.	c #5E5751",
"`m.	c #383332",
" n.	c #54514B",
".n.	c #5C584E",
"+n.	c #666259",
"@n.	c #68655D",
"#n.	c #67645D",
"$n.	c #66635C",
"%n.	c #65625C",
"&n.	c #64625B",
"*n.	c #69655F",
"=n.	c #6A655F",
"-n.	c #66605B",
";n.	c #615C56",
">n.	c #5B5552",
",n.	c #5A5550",
"'n.	c #4E4745",
")n.	c #433C3F",
"!n.	c #4D4749",
"~n.	c #4F494B",
"{n.	c #4F494A",
"]n.	c #514A4C",
"^n.	c #524C4D",
"/n.	c #554F50",
"(n.	c #585251",
"_n.	c #5F5B57",
":n.	c #5F5C57",
"<n.	c #5E5A57",
"[n.	c #575655",
"}n.	c #4F4A4E",
"|n.	c #3A353D",
"1n.	c #585553",
"2n.	c #68635C",
"3n.	c #5D5750",
"4n.	c #5E554F",
"5n.	c #605650",
"6n.	c #5C534C",
"7n.	c #615850",
"8n.	c #696357",
"9n.	c #6D675A",
"0n.	c #716B5D",
"an.	c #5F5751",
"bn.	c #5D5551",
"cn.	c #5A524E",
"dn.	c #554E4B",
"en.	c #362D31",
"fn.	c #635B56",
"gn.	c #6B6459",
"hn.	c #695F58",
"in.	c #625954",
"jn.	c #302832",
"kn.	c #19121F",
"ln.	c #1A141F",
"mn.	c #1B141F",
"nn.	c #1B1321",
"on.	c #1A1220",
"pn.	c #1B1320",
"qn.	c #1B1521",
"rn.	c #1C1622",
"sn.	c #1E1922",
"tn.	c #221C26",
"un.	c #261F2A",
"vn.	c #231C29",
"wn.	c #1E1525",
"xn.	c #140A1C",
"yn.	c #40373D",
"zn.	c #6B635E",
"An.	c #797468",
"Bn.	c #7E7969",
"Cn.	c #8A8575",
"Dn.	c #868472",
"En.	c #B8B7A0",
"Fn.	c #A5A28C",
"Gn.	c #7F776C",
"Hn.	c #6F6860",
"In.	c #959185",
"Jn.	c #8A847B",
"Kn.	c #868178",
"Ln.	c #322F36",
"Mn.	c #1E1C25",
"Nn.	c #24232B",
"On.	c #27272F",
"Pn.	c #26272D",
"Qn.	c #24252C",
"Rn.	c #23232B",
"Sn.	c #1C1B25",
"Tn.	c #191425",
"Un.	c #2B2634",
"Vn.	c #2D2835",
"Wn.	c #2C2833",
"Xn.	c #343038",
"Yn.	c #38323C",
"Zn.	c #423B45",
"`n.	c #5A5552",
" o.	c #6F695E",
".o.	c #807B6B",
"+o.	c #807A69",
"@o.	c #85816E",
"#o.	c #7E7A67",
"$o.	c #898370",
"%o.	c #7B7467",
"&o.	c #3E3837",
"*o.	c #676159",
"=o.	c #736F62",
"-o.	c #948D7B",
";o.	c #99927F",
">o.	c #8F8A75",
",o.	c #918D73",
"'o.	c #766F61",
")o.	c #4E4746",
"!o.	c #6A645C",
"~o.	c #655F58",
"{o.	c #5F5954",
"]o.	c #605B55",
"^o.	c #67615A",
"/o.	c #777268",
"(o.	c #817C70",
"_o.	c #837F6D",
":o.	c #837F70",
"<o.	c #827E70",
"[o.	c #7F7C70",
"}o.	c #868377",
"|o.	c #757267",
"1o.	c #605C5A",
"2o.	c #3D373F",
"3o.	c #66615E",
"4o.	c #7D7768",
"5o.	c #7A7465",
"6o.	c #746B5E",
"7o.	c #8B8272",
"8o.	c #938C7A",
"9o.	c #97907C",
"0o.	c #888170",
"ao.	c #746D61",
"bo.	c #655D59",
"co.	c #332A2E",
"do.	c #6F6761",
"eo.	c #817A6A",
"fo.	c #776E61",
"go.	c #50474B",
"ho.	c #39303A",
"io.	c #2E2630",
"jo.	c #3A363E",
"ko.	c #413E46",
"lo.	c #454149",
"mo.	c #464349",
"no.	c #464348",
"oo.	c #444146",
"po.	c #403D42",
"qo.	c #201A22",
"ro.	c #28222C",
"so.	c #2C2631",
"to.	c #29222D",
"uo.	c #544E4A",
"vo.	c #7C7567",
"wo.	c #817B6B",
"xo.	c #7F7969",
"yo.	c #8E8B78",
"zo.	c #B6B59B",
"Ao.	c #9F9C83",
"Bo.	c #958E7B",
"Co.	c #928A7A",
"Do.	c #7E7B6C",
"Eo.	c #5D5B56",
"Fo.	c #595857",
"Go.	c #555452",
"Ho.	c #514F4C",
"Io.	c #4F4D4C",
"Jo.	c #494849",
"Ko.	c #3B3A3D",
"Lo.	c #38363A",
"Mo.	c #333037",
"No.	c #3B383E",
"Oo.	c #53514F",
"Po.	c #595652",
"Qo.	c #5A5750",
"Ro.	c #605D55",
"So.	c #646058",
"To.	c #67625B",
"Uo.	c #6C665F",
"Vo.	c #726B63",
"Wo.	c #7F786A",
"Xo.	c #958E7C",
"Yo.	c #98917F",
"Zo.	c #433A3D",
"`o.	c #817B71",
" p.	c #9D9686",
".p.	c #A59D89",
"+p.	c #A19985",
"@p.	c #A09783",
"#p.	c #9B967F",
"$p.	c #9A957E",
"%p.	c #9B9380",
"&p.	c #958F78",
"*p.	c #7D7567",
"=p.	c #5C5654",
"-p.	c #928E7F",
";p.	c #868172",
">p.	c #837E71",
",p.	c #7A756A",
"'p.	c #8A8876",
")p.	c #6D6864",
"!p.	c #98907F",
"~p.	c #9B9680",
"{p.	c #9C9782",
"]p.	c #9B9480",
"^p.	c #97917A",
"/p.	c #8E8874",
"(p.	c #7E776C",
"_p.	c #2F252C",
":p.	c #736C67",
"<p.	c #8E8873",
"[p.	c #675E5C",
"}p.	c #564E4E",
"|p.	c #5D5756",
"1p.	c #5C5755",
"2p.	c #5A5553",
"3p.	c #595551",
"4p.	c #5C5853",
"5p.	c #595450",
"6p.	c #58524D",
"7p.	c #4D4946",
"8p.	c #46413F",
"9p.	c #282427",
"0p.	c #3A3539",
"ap.	c #3D383B",
"bp.	c #58534A",
"cp.	c #5A554C",
"dp.	c #827B6B",
"ep.	c #807869",
"fp.	c #8E8978",
"gp.	c #918D7C",
"hp.	c #B5B299",
"ip.	c #A19D86",
"jp.	c #8B8275",
"kp.	c #97917C",
"lp.	c #908A7B",
"mp.	c #7D786D",
"np.	c #757069",
"op.	c #77716B",
"pp.	c #78726B",
"qp.	c #6B6761",
"rp.	c #585452",
"sp.	c #545351",
"tp.	c #434045",
"up.	c #504C4C",
"vp.	c #737163",
"wp.	c #817F6C",
"xp.	c #86826D",
"yp.	c #84806B",
"zp.	c #888370",
"Ap.	c #847E6C",
"Bp.	c #8F8876",
"Cp.	c #9D9882",
"Dp.	c #958F7D",
"Ep.	c #807A6A",
"Fp.	c #40393B",
"Gp.	c #989182",
"Hp.	c #A49B87",
"Ip.	c #A79E89",
"Jp.	c #9F9984",
"Kp.	c #9F9883",
"Lp.	c #9F9A85",
"Mp.	c #7D776A",
"Np.	c #585351",
"Op.	c #9C978A",
"Pp.	c #949080",
"Qp.	c #8D897A",
"Rp.	c #8E8B7D",
"Sp.	c #807D71",
"Tp.	c #807B70",
"Up.	c #8D877A",
"Vp.	c #908C7B",
"Wp.	c #8F8A7B",
"Xp.	c #7B776B",
"Yp.	c #444041",
"Zp.	c #6F6A67",
"`p.	c #948D79",
" q.	c #9C9380",
".q.	c #9E9681",
"+q.	c #A19884",
"@q.	c #98927C",
"#q.	c #888174",
"$q.	c #2E242B",
"%q.	c #7E7673",
"&q.	c #8D8777",
"*q.	c #97927B",
"=q.	c #918A7E",
"-q.	c #857D71",
";q.	c #847B6F",
">q.	c #817B6A",
",q.	c #7F796B",
"'q.	c #85806E",
")q.	c #857E6D",
"!q.	c #7B7667",
"~q.	c #6A6458",
"{q.	c #4E4942",
"]q.	c #615C57",
"^q.	c #66605A",
"/q.	c #787363",
"(q.	c #7D7963",
"_q.	c #827C67",
":q.	c #837D6A",
"<q.	c #837B69",
"[q.	c #857D6C",
"}q.	c #867F70",
"|q.	c #ABA690",
"1q.	c #9D9780",
"2q.	c #9D977E",
"3q.	c #9E967D",
"4q.	c #9C967D",
"5q.	c #99937B",
"6q.	c #968E7C",
"7q.	c #938F7C",
"8q.	c #6E6D65",
"9q.	c #504D51",
"0q.	c #575352",
"aq.	c #7F7C6D",
"bq.	c #8D8976",
"cq.	c #8A8673",
"dq.	c #8B8774",
"eq.	c #898572",
"fq.	c #8F8875",
"gq.	c #9B9481",
"hq.	c #9A9383",
"iq.	c #A49B86",
"jq.	c #A69C88",
"kq.	c #9F9782",
"lq.	c #A29A86",
"mq.	c #A29C87",
"nq.	c #A19A86",
"oq.	c #9F9884",
"pq.	c #A29B87",
"qq.	c #7E786D",
"rq.	c #817D75",
"sq.	c #77736A",
"tq.	c #9E998D",
"uq.	c #948F80",
"vq.	c #969181",
"wq.	c #979181",
"xq.	c #8B8777",
"yq.	c #908C7C",
"zq.	c #8F897C",
"Aq.	c #6F6C64",
"Bq.	c #464243",
"Cq.	c #706C68",
"Dq.	c #988F7C",
"Eq.	c #9C9581",
"Fq.	c #9E9782",
"Gq.	c #948E78",
"Hq.	c #2B2328",
"Iq.	c #9D968D",
"Jq.	c #9B9581",
"Kq.	c #9A9481",
"Lq.	c #989280",
"Mq.	c #918976",
"Nq.	c #8C8573",
"Oq.	c #898271",
"Pq.	c #837C69",
"Qq.	c #383436",
"Rq.	c #7B7367",
"Sq.	c #7F7966",
"Tq.	c #817A65",
"Uq.	c #857E6A",
"Vq.	c #847C6B",
"Wq.	c #847C6C",
"Xq.	c #8E8778",
"Yq.	c #918C7A",
"Zq.	c #878271",
"`q.	c #A29B83",
" r.	c #9F9986",
".r.	c #968F80",
"+r.	c #A19A81",
"@r.	c #A09886",
"#r.	c #9B9281",
"$r.	c #9E9A82",
"%r.	c #7B7A70",
"&r.	c #575359",
"*r.	c #595651",
"=r.	c #8C8977",
"-r.	c #8D8975",
";r.	c #918A7A",
">r.	c #938D7D",
",r.	c #3E383A",
"'r.	c #979180",
")r.	c #A49B85",
"!r.	c #A19983",
"~r.	c #A19984",
"{r.	c #A39B87",
"]r.	c #9F9985",
"^r.	c #A09B86",
"/r.	c #817A70",
"(r.	c #3D3838",
"_r.	c #7B7870",
":r.	c #A5A093",
"<r.	c #9F9B8B",
"[r.	c #9C9684",
"}r.	c #989482",
"|r.	c #989282",
"1r.	c #958E7E",
"2r.	c #918C7B",
"3r.	c #96917F",
"4r.	c #494546",
"5r.	c #948D80",
"6r.	c #9B9681",
"7r.	c #9A9280",
"8r.	c #9E9582",
"9r.	c #9F9682",
"0r.	c #9E9684",
"ar.	c #9C9582",
"br.	c #9D9782",
"cr.	c #8B8176",
"dr.	c #282124",
"er.	c #9B968A",
"fr.	c #97947E",
"gr.	c #948B78",
"hr.	c #80776A",
"ir.	c #6E6762",
"jr.	c #383636",
"kr.	c #7C766A",
"lr.	c #857D6B",
"mr.	c #877F6B",
"nr.	c #867E6A",
"or.	c #827968",
"pr.	c #898171",
"qr.	c #918A7B",
"rr.	c #A8A48B",
"sr.	c #AAA48C",
"tr.	c #A69F8A",
"ur.	c #A49C8A",
"vr.	c #9E9780",
"wr.	c #9D967C",
"xr.	c #9D957B",
"yr.	c #A09983",
"zr.	c #9A947E",
"Ar.	c #9E9881",
"Br.	c #7E7D73",
"Cr.	c #5A555A",
"Dr.	c #5A5853",
"Er.	c #928F7C",
"Fr.	c #8E8975",
"Gr.	c #8E8974",
"Hr.	c #3D3739",
"Ir.	c #A39D87",
"Jr.	c #A29C86",
"Kr.	c #A39B84",
"Lr.	c #A29A85",
"Mr.	c #A09984",
"Nr.	c #A19987",
"Or.	c #837B70",
"Pr.	c #6D6A63",
"Qr.	c #726F66",
"Rr.	c #9E9A8D",
"Sr.	c #9E9C8B",
"Tr.	c #9C9A87",
"Ur.	c #989682",
"Vr.	c #9A9783",
"Wr.	c #9A9684",
"Xr.	c #918D7A",
"Yr.	c #96907F",
"Zr.	c #9B9482",
"`r.	c #989480",
" s.	c #4C4949",
".s.	c #9E9784",
"+s.	c #9C9681",
"@s.	c #272123",
"#s.	c #999686",
"$s.	c #96937B",
"%s.	c #988E7A",
"&s.	c #938A74",
"*s.	c #948B74",
"=s.	c #978E75",
"-s.	c #736D65",
";s.	c #363335",
">s.	c #79746B",
",s.	c #726A61",
"'s.	c #857D68",
")s.	c #857D69",
"!s.	c #867E6D",
"~s.	c #8B8473",
"{s.	c #878272",
"]s.	c #8D8876",
"^s.	c #8F8A7C",
"/s.	c #827F6C",
"(s.	c #908875",
"_s.	c #9C9781",
":s.	c #A19B86",
"<s.	c #8F8B7C",
"[s.	c #7B7A71",
"}s.	c #585658",
"|s.	c #434340",
"1s.	c #6B6D63",
"2s.	c #9A9484",
"3s.	c #777062",
"4s.	c #9A9581",
"5s.	c #989281",
"6s.	c #7A7668",
"7s.	c #938C7B",
"8s.	c #A39A84",
"9s.	c #A19C85",
"0s.	c #A39B83",
"as.	c #A09881",
"bs.	c #9F9882",
"cs.	c #8F8973",
"ds.	c #3F3B3C",
"es.	c #56534D",
"fs.	c #5E5A55",
"gs.	c #716D68",
"hs.	c #7C776D",
"is.	c #817D73",
"js.	c #77746A",
"ks.	c #6C695E",
"ls.	c #7C796E",
"ms.	c #646157",
"ns.	c #605D59",
"os.	c #5E5B59",
"ps.	c #6C6665",
"qs.	c #68645E",
"rs.	c #3F3B3F",
"ss.	c #67615C",
"ts.	c #7D7767",
"us.	c #87816F",
"vs.	c #9F9683",
"ws.	c #877F6C",
"xs.	c #7B7268",
"ys.	c #67635E",
"zs.	c #8D8671",
"As.	c #8F8571",
"Bs.	c #958B78",
"Cs.	c #8D8372",
"Ds.	c #8F8674",
"Es.	c #908573",
"Fs.	c #9E947F",
"Gs.	c #655E56",
"Hs.	c #5B5451",
"Is.	c #292628",
"Js.	c #5A5453",
"Ks.	c #524A4B",
"Ls.	c #847B6D",
"Ms.	c #867D6B",
"Ns.	c #8D8577",
"Os.	c #898474",
"Ps.	c #8F8B79",
"   .  +  @  #  $  %  &  *  =  -  ;  >  ,  '  )  !  ~  {  ]  ^  /  (  _  :  <  [  }  |  1  2  <  3  4  5  6  7  8  9  0  a  b  c  d  e  f  g  h  i  j  k  l  m  n  o  p  q  r  s  t  u  v  w  x  y  z  A  6  B  C  z  D  E  F  G  H  I  J  K  L  M  N  O  P  Q  R  S  T  U  O  K  V  W  X  Y  Z  `   . .. +. @. #. $. %. &. *. =. -. ;. >. ,. '. ). !. ~. {. ]. ^. /. (. _. :. <. [. }. |. 1. 2. ",
"3. 4. 5. 6. 7. 8. 9. 0. a. b. c. d. e. f. g. h. i. j. k. l. m. n. o. p. q. r. s. t. u. v. u. w. x. y. z. A. B. C. D. E. F. G. H. U  I. J. K. L. M. N. O. O. O. P. Q. R. S. T. U. L. V. W. X. I  Y. Z. `.  + .+ ++ @+ #+ $+ %+ &+ *+ =+ -+ M. ;+ >+ ,+ '+ )+ !+ ~+ Q  {+ ]+ ^+ /+ (+ _+ :+ <+ [+ }+ |+ 1+ 2+ 3+ 4+ 5+ 6+ 7+ 8+ 9+ 0+ n. a+ b+ c+ d+ e+ f+ g+ h+ i+ j+ k+ l+ m+ n+ o+ p+ q+ r+ s+ ",
"t+ u+ v+ w+ x+ y+ z+ A+ B+ C+ D+ E+ F+ G+ H+ I+ J+ K+ L+ M+ N+ O+ P+ Q+ R+ S+ S+ T+ U+ V+ 9+ W+ X+ Y+ Z+ `+  @ .@ +@ @@ #@ $@ %@ &@ &@ *@ =@ L. =@ M. -@ ;@ ;@ >@ ,@ '@ )@ !@ F. I. ~@ =@ {@ I. ]@ ^@ /@ (@ _@ :@ <@ [@ }@ |@ 1@ 2@ 3@ 4@ 3@ 5@ 6@ 7@ &@ 8@ 8@ 9@ 0@ 0@ a@ Z. `+ b@ c@ d@ e@ f@ g@ h@ i@ j@ k@ l@ m@ n@ o@ p@ q@ t  J  r@ s@ t@ u@ v@ w@ x@ y@ z@ A@ B@ C@ D@ E@ F@ G@ [+ S  F. ",
"H@ I@ J@ K@ L@ M@ N@ O@ P@ Q@ 7@ 4@ R@ S@ V. T@ U@ V@ W@ X@ Y@ Z@ !+ a+ [+ u  `@  # p@ .# q. +# Y+ @# ## $# %# &# *#  + =# -# ;# ;# ># ,# I. I. Z. '# )# !# !# ~# {# ]# ^# /# `+ (# _# -@ =@ M. )# :# <# I. [# }# |# 1# 2# 3# 4# 5# 6# 7# 8# 5@ 9# 0# a# b# G. c# d# c# e# (# 8# f# g# h# i# j# k# o@ l# m# n# k@ 2+ 2+ o#  # l# p# q# r# s# t# u# v# w# x# y# z# D@ A# B# B# C# D# a# >+ *@ I. ",
"E# F# G# H# I# J# p@ K# L# H. M# M# ~+ N# -+ O# P# Q# R# S# T# &@ U# V# W# X# Y# +# Z# `# R   $ .$ +$ @$ #$ $$ %$ &$ *$ =$ -$ ;$ `. >$ ,$ U  F. '$ ,$ )$ ++ !$ #+ o  ~$ {$ ]$ ^$ /$ ($ _$ )# )# M. :$ <$ [$ }$ !# |$ 1$ 2$ 3$ 4$ 5$ 6$ 7$ 3@ 5@ =@ 8$ G. L. L. 9$ O# 0$ a$ b$ c$ 4# d$ e$ f$ g$ h$ i$ j$ k$ l$ m$ n$  # o$ p$ q$ r$ k# s$ t$ u$ v$ R+ w$ x$ y$ z$ A$ B$ C$ D$ E$ F$ Z@ Z@ V. G$ ",
"H$ I$ J$ K$ H# Q  K$ L$ M  O  Q  M$ P  N$ O$ N. P$ Q$ R$ S$ T$ 8@ U$ V$ W$ X$ Y$ R  Z$ +# `$ @$  %  % .% +% @% #% $% %% &% *% =% -% -%  + Z. $# ;% >% ,% '% #+ )% !% ~% {% ]% ^% /% I+ (% _% _% :% <% [% )% }% |% 1% 2% 3% 4% 5% 5@ 6% O. O# N. L. G. G. G. G. G. 7% U@ 8% 9% 0% a% b% c% d% e% f% g% i$ h% i% j% k% o@ l% l% s. m% n% o% p% q% r% R+ s% t% u% v% w% x% y% B$ z% )+ A% Z@ U$ B% ",
"C% D% k# E% Q  Q  F% 9+ L# G% H% R  I% J% K% 0$ L% M% N% O% P% ## ## P  P@ Q% R% S% T% U% I  K. V% W% X% Y% Z% `%  & .& +& @& #& $& %& && *& =& ++ U% -& ;& >& ,& '& )& !& ~& {& ]& ^& /& (& _& :& <& [& }& |& 1& |& 2& 3& 4& 5% 5& 6& 7& O# N. O# 8& L. G. 6@ R@ ;+ 9& 0& a& b& c& d& e& f& g& h& i& j& k& j& l& m& 2+ n& n& o& p& n% q& r& s& t& u& A% w$ v& v& w& x& y& y$ z& '+ $@ A& B& C& ",
"D& E& F& G& H& I& f@ J& O@ K& L# L& J% Q@ M& P# N& O& P& Q& R& *@ S& T& _# U& V& W& X& Y& Z& `&  * F. .* <% +* @* #* $* %* &* ** =* -* ;* >* ,* '* )* >& [% !* ~* {* ]* ^* /* (* _* :* <* P# [* }* |* 1* a& 2* 3* 4* 5* 6* 7* 8* 5& 6& 9* 0* a* b* -@ -+ -+ c* d* e* f* g* h* i* j* k* l* m* 7@ K#  # n* m& j% j& i@ o* p* q* r* r$ p& s* t* u* v* w* x* V+ y* w$ o& z* z* A* [+ B* C* 9# D* N@ ",
"E* F* Y$ Q  E% G* v& r* H* X$ N$ 0# 9# U# I* J* K* L* M* N* #@ L. *@ O* P* Q* R* S* T* U* V* W* X* Y* Z* `*  = .= }% += @= #= $= %= &= *= == -= ;= >= ,= '= )= != ~= {= ]= ^= /= (= _= := <= [= }= |= 1= 2= 3= 4= 5= 6= 1$ 7= |& 8= =+ 9= 0= a= b= ;% e# V. I* 0$ c= d= V* e= f= g= h= i= '+ j= n% r* 7+ 2+ k= l= m= y& n= o= I& r$ z* v& p= q= r= s= t= 0@ u= v= w= x= L$ ~+ B* y= z= Q  A= B= ",
"C= D= Y$ -$ T  n. F$ ~+ )+ ~+ >+ 6@ >+ E= F= G= H= I= J= K= #@ L= N. ;= M= N= O= P= Q= R= #= @= S= T= U= V= W= X= Y= Z= `= H+  - b$ .- +- @- #- $- %- &- *- =- -- ;- >- ,- '- )- !- ~- {- ]- ]- ^- /- (- _- :- <- [- }- |- 1- 2- 3- X* `+ )# 8% 4- 5- 6- 7- 8- 9& 9- 0= 9& 0- a- b- c- d- v. o@ e- G@ o* x& v= f- u% x= g- h- n. $@ J% i- j- k- l- m- n- o- p- q- r- s- t- u- s- v- {+ w- x- f  ",
"y- z- +# ~+ A- B- F$ ~+ C- '+ D- >+ N$ E- F- T@ L. G- H- I- U  N. J- K- L- K- M- N- O- P- Q- R- S- T- :$ U- V- W- Y= X- Y- Z- `-  ; .; i= +; @; #; $; 1& 1& %; &; *; =; -; ;; >; ,; '; ); !; ); ~; {; {; ]; ^; /; (; _; :; <; [; }; |; 1; 2; 3; 4; 5; 6; 7; 8; N. != 9; 0; a; ;* b; c; d; e; k# e- r. r$ w= f; g; u% h; i; i; j; k; M& l; m; n; o; p; I* q; r; s; V# t; u; v; w; x; y; z; d- A; ",
"B; Y$ Q  b# C; {+ D; '+ E; F; q- n. 6@ u& 8; e* G; H; 4& I; J; K; -+ L; M; N; ,% O; P; Q; R; L= f= S; S* |= T; U; V; W; X; Y; Z; X; `;  > .> +> @> #> %; $> %> &> *> => -> ;> >> ,> '> )> !> ~> {> ]> ^> /> (> _> :> <> [> }> |> 1> 2> 3> <= 4> 5> 6> 7> 8> 9> 0> F- a> b> v+ a; {# c> a  d> o* n% x= e> f> g> h> ~+ d  o. !+ !+ i> j> k> l> m> n> o> 8; p> q> V# X; r> s> t> u> v> w> 6@ G. e* ",
"x> y> c  z> A> B> H& C> D> E> F> o. &@ Q@ ;+ N. [* G> H> I> 7* ++ ,$ J> /@ K> :@ L> '% >% =@ M> N> O> |& P> Q> R> ,& S> T> U> V> W> X> Y> Z> `>  , ., +, !- @, #, $, %, &, *, =, -, ;, >, ,, ', ', ), !, ', ~, {, ], ^, /, (, _, :, <, [, ;  }, |, 1, 2, 3,  > 4, 3, (* 5, 6, +- 7, 8, 9, 0, a, b, c, d, e, f, g, h, j; i> C> A% C- I% i, j, k, l, m, n, o, p> z> p, 9> e% q, r, s, t, S@ u, 8& ",
"v, w, B% x, y, -$ I% z, D> A, '+ j; &@ 7@ L= O# B, C, D, E, F, G, J>  * != J; 0& ++ H, I, 0- J, K, L, M, N, O, P, Q, R, S, C, T, U, V, W, X, Y, Z, `,  ' .' +' @' #' $' %' &' *' =' -' ;' >' ,' '' )' !' ~' {' ]' ^' /' (' _' :' <' <' [' }' |' 1' 2' 3' 4' 5' 6' 7' <* <* 8' 9' 0' a' b' c' d' e' f' g' Y; X; h' i' j' ># 7@ N$ k' l' m' n' o' p' q' r' s' t' V# V# u' v' w' x' ^, c= e* 0$ F= ",
"y' z' #@ ~+ !+ z= A' B' A' C' D; E; 6; [# Y. ;$ D' E' F' G' H' I' %- J' K' L' M' N' e& O' P' Q' R' S' T' U' V' W' X' Y' Z' `'  ) .) +) @) #) $) %) &) *) =) -) ;) >) ,) ') )) !) ~) {) ]) ^) /) () _) :) <) r+ [) }) |) 1) 2) 3) 4) 5) 6) 7) 8) 9) 0) a) b) c) d) P' e) f) g) h) i) j) k) l) m) n) o) p) q) r) s) t) u) v) w) x) y) z) A) B) C) D) E) F) U# V$ G) H) I) J) K) x' L) Y% M) N) O) ",
"P) Q) #@ z% R) S) A' B' T) U) C; V) W) X) Y) != Z) 0' `)  ! .! +! @! #! $! %! &! *! =! -! ;! >! ,! '! )! !! ~! {! ]! ^! /! (! _! :! <! [! }! |! 1! ~, 2! ;, 3! 4! 5! 6! 7! 8! 9! 0! a! b! c! d! e! f! g! h! i! j! k! l! m! n! =! o! p! q! r! s! t! u! v! w! x! y! z! A! B! C! D! E! F! G! H! I! J! K! *% L! M! N! z> V$ O! M& P! Q! 9$ R! S! T! X* U! $@ $@ Q@ V! C; h' C; u& W! t= X!  - Y! Z! ",
"`!  ~ .~ +~ @~ #~ $~ %~ &~ *~ =~ -~ ;~ >~ ,~ '~ )~ !~ ~~ {~ ]~ ^~ /& /~ (~ !* _~ :~ <~ [~ }~ 5* |~ 1~ 2~ 3~ 4~ 5~ 6~ 7~ 8~ 9~ 0~ a~ b~ c~ d~ e~ f~ g~ h~ i~ j~ k~ l~ m~ n~ o~ e+ p~ q~ r~ s~ t~ u~ v~ w~ :) x~ y~ z~ A~ B~ C~ ,* D~ E~ F~ G~ H~ I~ =' J~ K~ L~ M~ N~ O~ P~ Q~ R~ S~ T~ 3= U~ V~ S* W~ X~ Y~ Z~ Y; `~  { R+ r. s$ p* a+ .{ +{ @{ #{ ${ %{ {* &{ *{ ={ -{ ;{ >{ ,{ '{ ){ !{ ~{ {{ ",
"]{ ^{ '- /{ ({ _{ :{ <{ {{ [{ }{ |{ 1{ 2{ 3{ 4{ 5{ 6{ }, &! O; 7{ 8{ 9{ 0{ a{ b{ c{ d{ e{ f{ g{ h{ i{ j{ k{ l{ m{ n{ o{ p{ q{ r{ s{ t{ u{ v{ w{ x{ y{ z{ A{ B{ C{ D{ E{ F{ G{ H{ I{ J{ K{ s~ L{ M{ N{ O{ P{ P{ Q{ R{ S{ T{ U{ V{ W{ X{ Y{ Z{ `{  ] .] +] r~ @] #] $] %] &] *] =] -] A! ;] >] ,] '] )] n- S, f' !] ~] {] ]] ^] /] (] _] :] <] [] }] |] 1] 2] 3] 4] 5] 6] 7] 8] 9] 0] a] 4] b] c] ",
"d] e] f] g] s) h] i] j] k] l] m] n] o] p] q] r] s] t] u] v] I, w] x] y] z] A] B] C] D] E] F] G] H] I] J] K] L] M] N] O] P] Q] R] S] T] U] V] W] X] Y] Z] `]  ^ .^ +^ @^ #^ $^ o+ %^ &^ *^ L{ =^ =^ -^ ;^ >^ ,^ '^ )^ !^ ~^ {^ S# ]^ ^^ /^ (^ _^ :^ <^ [^ }^ |^ 1^ 2^ 3^ 4^ 5^ 6^ 7^ 8^ 9^ 0^ a^ b^ c^ d^ e^ f^ g^ h^ i^ j^ k^ l^ m^ n^ o^ p^ q^ r^ s^ t^ u^ v^ w^ w^ x^ y^ z^ A^ B^ C^ D^ E^ F^ ",
"G^ H^ I^ J^ K^ K^ L^ M^ M^ N^ O^ P^ *^ Q^ R^ S^ T^ U^ m> V^ ~* W^ X^ Y^ Z^ `^  / ./ +/ @/ #/ $/ %/ 6~ 6~ m{ &/ */ =/ -/ ;/ >/ ,/ '/ )/ !/ ~/ {/ ]/ ^/ // (/ _/ :/ </ [/ }/ |/ 1/ 2/ 3/ 4/ L{ =^ 5/ 6/ 7/ 8/ 9/ 0/ a/ b/ c/ d/ e/ f/ g/ h/ i/ j/ I{ I{ k/ j/ l/ m/ n/ o/ p/ q/ r/ s/ t/ u/ v/ w/ x/ y/ z/ ,% [$ H, A/ B/ C/ D/ E/ F/ G/ H/ I/ J/ K/ L/ Y. M/ N/ O/ P/ Q/ R/ Z  S/ T/ U/ -% V/ W/ ",
"X/ Y/ Z/ `/  ( .( +( 6  @( #( $( %( &( *( =( -( ;( >( ,( '( ;& )( !( ~( {( ]( ^( /( (( _( :( <( [( [( 6~ }( |( 1( 2( 3( 4( 5( 6( 7( 8( +] }^ 9( 0( e- a( b( c( d( e( f( g( h( i( j( 3/ k( =^ L{ L{ N{ l( m( 9/ n( o( p( q( r( s( L{ t( u( v( w( p~ p~ x( x( y( z( A( B( C( D( E( 7^ F( G( G( H( I( J( K( L( M( N( O( P( Q( R( S( T( U( V( W( X( Y( Z( `( L   _ q# ._ +_ @_ #_ X$ X$ $_ 3@ ]@ %_ ",
"G+ N# &_ *_ =_ -_ ;_ >_ Z$ ,_ '_ )_ `+ !_ N. W~ ~_ {_ ]_ ^_ ~( 5= /_ (_ __ :_ <_ [_ }_ |_ 1_ 2_ 3_ 4_ 5_ 6_ 7_ 8_ 9_ 0_ a_ b_ c_ '/ d_ }^ 5/ e_ f_ h, g_ h_ i_ j_ '; k_ l_ m_ n_ n_ o_ o_ 5/ 5/ p_ X] q_ r_ s_ t_ u_ v_ w_ x_ y_ [^ h( z_ A_ B_ e! z_ l/ }^ C_ D_ E_ F_ G_ H_ I_ J_ K_ L_ M_ N_ O_ P_ Q_ R_ S_ T_ %; U_ x] V_ W_ X_ '! Y_ Z_ `_  : .: /+ +: @: #: $: %: &: *: O+ E% =: -: ;: >: ",
",: D; 9+ ': ': ): !: ~: +: E) {: ]: ^: 8# 7# /: (: _: )& :: <: [: }: |: 1: 2: 3: 4: 5: 6: 7: 8: 9: 0: a: b: c: d: e: f: g: h: i: j: 8( k: *. l: m: n: o: p: q: r: s: t: u: v: w: x: y: y: z: A: B: C: D: E: F: G: S> H: I: J: K: L: M: N: O: P: |^ Q: Q: Q: e! R: S: T: U: V: W: X: Y: Z: `:  < .< +< @< #< $< %< &< *< =< 6* -< ;< >< ,< '< )< !< L@ ~< +: ;_ q# {< Y# ]< ^< q# $@ =@ /< (< _< ",
"c= :< << R  d  +:  _ ~: L  [< 7# 7# }< |< 7# 1< 2< 3< 4< 5< 6< 7< 8< 9< 0< a< b< c< d< e< f< g< h< i< j< k< l< m< n< o< g: p< q< [^ r< s< t< u< t_ v< w< x< y< z< A< B< C< D< E< F< n+ G< H< I< J< K< L< M< N< R/ O< P< Q< R< S< i/ T< U< V< W< X< Y< Z< `<  [ .[ +[ @[ #[ $[ %[ &[ *[ =[ -[ ;[ >[ ,[ '[ )[ ![ ~[ {[ ][ ^[ /[ ([ _[ :[ <[ [[ }[ |[ 1[ 2[ f  +: ~< P+ 3[ Y$ W+ 4[ 0@ 9$ 5[ b{ 6[ ",
"7[ C; 8[ 9[ 0[ a[ !: ~: b[ =: c[ )# d[ e[ d[ f[ g[ h[ i[ W_ j[ k[ l[ m[ n[ o[ p[ q[ r[ s[ t[ u[ v[ w[ x[ y[ z[ A[ B[ C[ D[ E[ F[ G[ H[ I[ J[ K[ L[ M[ N[ O[ P[ Q[ R[ S[ T[ U[ V[ W[ |% X[ Y[ Z[ `[ h[  } .} 3= +} @} #} (, $} %} &} *} =} -} ;} >} ,} '} )} p+ !} ~} {} }> ]} ^} /} (} _} :} <} [} }} |} 1} 2} 3} 4} 5} 6} 7} 8} 9} 0} a} b} c} d} e} f} g} h} ^< i} I# K$ j} -$ k} T@ 5; l} 2; ",
"m} n} o} p} q} '_ r} s} 4@ `+ )# 5@ )# )# t} T- u} v} w} x} y} z} A} B} C} D} E} F} G} H} I} J} K} L} M} N} O} P} Q} R} S} T} U} V} W} X} Y} Z} `}  | .| +| @| #| $| %| &| *| =| -| ;| >| ,| '| )| )| !| ~| {| ]| ^| /| (| _| v* :| <| [| }| || 1| 2| 3| 4| 5| 6| 7| 8| 9| 0| a| b| c| U} =^ d| e| f| g| h| i| j| k| l| m| n| o| p| q| r| s| t| u| <$ v| w| x| ): y| G# Q  z| ~+ C- G. b= A| T# ",
"m: B| C| /@ V* <& D| _] b= E| F| G| ;+ c[ 6% H| I| J| ^{ K| L| M| N| O| P| Q| R| S| T| U| V| W| X| X| Y| Z| L: `|  1 .1 +1 @1 }^ #1 $1 %1 &1 *1 =1 -1 ;1 >1 ,1 '1 )1 !1 ~1 {1 ]1 ^1 /1 (1 _1 :1 <1 [1 }1 |1 11 21 31 41 51 61 71 81 91 01 a1 b1 c1 d1 e1 f1 g1 h1 i1 j1 k1 l1 m1 n1 o1 W] p1 q1 `< W] f! r1 s1 t1 u1 v1 w1 x1 y1 z1 A1 B1 C1 D1 E1 F1 G1 H1 I1 z- Z$ i} `$ U  L. J1 K1 L1 W; K1 ",
"M1 N1 O1 P1 Q1 R1 X- 1; S1 T1 /< U1 V1 W1 #$ X1 Y1 Z1 `1  2 .2 +2 @2 #2 $2 %2 &2 *2 =2 -2 ;2 >2 ,2 '2 9! >} )2 !2 ~2 {2 ]2 ^2 /2 (2 _2 :2 <2 [2 }2 |2 12 22 32 42 52 62 72 82 92 02 92 a2 b2 c2 |1 <1 d2 e2 f2 g2 h2 41 i2 j2 k2 l2 m2 n2 o2 p2 q2 r2 s2 j/ t2 u2 v2 w2 x2 y2 z2 A2 B2 C2 D2 `< W] W] E2 F2 G2 H2 I2 J2 K2 L2 M2 N2 O2 P2 Q2 R2 S2 T2 U2 V2 '+ W2 E% -$ ^+ X2 Y2 Z2 I* 0$ `2  3 ",
"e  .3 +3 @3 0- #3 0& 0- $3 %3 )% |$ &3 +% *3 a* =3 -3 ;3 >3 ,3 '3 )3 !3 ~3 {3 ]3 ^3 /3 (3 _3 ~) P: :3 <3 [3 }3 |3 13 23 33 43 >. 53 63 73 83 93 03 a3 b3 c3 d3 e3 f3 g3 h3 i3 j3 k3 l3 m3 n3 o3 p3 q3 r3 s3 t3 u3 v3 41 w3 x3 y3 z3 A3 B3 C3 D3 E3 F3 G3 H3 I3 J3 K3 L3 M3 W< N3 O3 a! P3 Q3 R3 S3 T3 U3 V3 W3 X3 Y3 Z3 `3  4 .4 +4 @4 #4 $4 %4 &4 *4 =4 -4 ;4 >4 R& V$ E; ,4 8> /* '4 )4 <= :~ ",
"!4 ~4 O. y> 9; {4 f= $3 ]4 ^4 0* >& /4 (4 '4 _4 :4 <4 [4 }4 |4 14 24 34 44 !} X| 54 64 74 84 E_ o+ 94 04 a4 }3 b4 c4 d4 ~; e4 f4 g4 h4 i4 j4 k4 l4 m4 n4 o4 p4 q4 r4 s4 t4 u4 s4 s4 52 g3 v4 w4 x4 y4 z4 A4 B4 C4 t4 D4 D4 E4 F4 G4 H4 I4 J4 K4 L4 M4 N4 O4 P4 Q4 <' R4 S4 U] V] T4 0! T} p_ U4 V4 W4 X4 Y4 Z4 `4 -^  5 .5 +5 @5 #5 $5 %5 &5 *5 =5 -5 .$ S  =# M# 8@ ,4 ;5 >5 g' ,5 '5 )5 <= #= ",
"'4 b* .~ _# !5 7& ;= ~5 {5 T@ $3 N& b] ]5 ^5 /5 (5 _5 :5 <5 [5 }5 |5 15 25 35 45 55 65 75 s< 85 95 05 a5 b5 c5 d5 e5 f5 S~ g5 h5 i5 j5 k5 l5 m5 n5 o5 p5 q5 r5 s5 t5 u5 v5 w5 w5 w5 )1 )1 x5 52 52 52 52 y5 y5 z5 z5 A5 v5 B5 C5 D5 E5 F5 G5 H5 I5 J5 K5 L5 M5 N5 O5 P5 Q5 R5 a! S5 o+ T5 U5 V5 W5 X5 Y5 d5 Z5 `5 d5  6 .6 +6 @6 %/ #6 $6 %6 &6 *6 =6 -6 P  ;6 b# >6 h' ,6 '6 )6 !6 !6 ~6 ]$ a; ",
"{6 ]6 u, ^6 /6 (6 (6 _6 :6 <6 f= [6 }6 |6 16 26 36 46 56 66 76 86 96 06 a6 b6 c6 d6 e6 f6 g6 h6 i6  [ j6 k6 l6 4/ m6 n6 o6 p6 q6 r6 s6 t6 u6 v6 w6 t5 x6 y6 z6 A6 t5 B6 C6 D6 E6 F6 G6 H6 I6 J6 K6 L6 M6 N6 O6 P6 Q6 R6 S6 T6 U6 V6 W6 X6 Y6 Z6 `6  7 .7 +7 @7 _' #7 $7 %7 &7 *7 0! 0! =7 [^ Y5 -7 ;7 >7 ,7 '7 )7 !7 ~7 {7 ]7 ^7 8^ /7 (7 _7 :7 <7 [7 P@ Z@ >+ Z@ D; %@ }7 |7 W; 17 27 37 47 57 ",
"67 /$ 77 /6 87 (6 _6 G. 97 07 a7 [& b7 c7 d7 e7 f7 g7 h7 i7 j7 k7 l7 m7 n7 o7 `5 p7 q7 r7 s7 65 t7 u7 v7 L< w7 x7 y7 z7 A7 2' B7 C7 D7 E7 F7 G7 w6 H7 x6 y6 I7 J7 s4 K7 L7 M7 N7 O7 P7 Q7 R7 S7 T7 U7 V7 W7 X7 Y7 Z7 `7  8 T6 x5 x5 )1 v5 41 .8 w1 +8 @8 #8 }' _' $8 %8 &8 *8 u{ =8 -8 ;8 a5 >8 ,8 '8 )8 !8 ~8 {8 8' ]8 ^8 /8 (8 _8 :8 <8 [8 }8 |8 18 %@ 28 38 C- 48 6@ c# e* K1 T@ 58 u, 68 78 ",
"88 98 08 7; a8 [* b8 c8 d8 U_ e8 f8 g8 h8 i8 j8 k8 l8 m8 n8 o8 p8 q8 r8 s8 t8 u8 v8 K< h6 w8 x8 y8 z8 A8 B8 C8 D8 E8 F8 G8 ^! H8 I8 J8 Z, Z, K8 L8 M8 N8 O8 P8 Q8 R8 S8 T8 U8 V8 W8 X8 Y8 Z8 `8  9 .9 +9 @9 #9 $9 %9 &9 *9 =9 -9 ;9 >9 ,9 '9 )9 !9 ~9 {9 ]9 ^9 /9 (9 _9 :9 <9 [9 }9 |9 s_ Y5 19 29 39 49 39 59 69 79 89 99 09 a9 b9 c9 d9 t/ e9 f9 g9 h9 i9 j9 J1 k9 >+ 9@ (6 _6 l9 J- 7- m9 n9 ",
"o9 p9 q9 r9 s9 t9 u9 v9 w9 `' x9 y9 z9 A9 B9 C9 D9 E9 F9 G9 H9 I9 J9 K9 L9 M9 N9 O9 P9 Q9 R9 S9 T9 T9 U9 V9 W9 X9 Y9 Z9 `9  0 .0  ' +0 @0 #0 $0 %0 &0 *0 =0 -0 ;0 >0 ,0 '0 )0 !0 ~0 {0 ]0 ^0 /0 (0 _0 :0 <0 [0 }0 |0 10 20 30 40 50 60 70 80 90 X6 U6 V6 00 i2 a0 b0 c0 d0 e0 f0 g0 h0 s_ i0 j0 k0 l0 m0 n0 o0 p0 q0 r0 s0 t0 u0 v0 w0 ~_ x0 y0 z0 A0 B0 C0 D0 E0 F0 G0 H0 H0 I0 J0 K0 L0 M0 N0 ",
"O0 s@ P0 Q0 Y& R0 S0 T0 U0 V0 W0 X0 Y0 Z0 `0  a .a +a @a #a $a %a &a *a =a -a ;a g! >a ,a 'a )a !a ~a {a ]a ^a /a (a _a :a <a 2) _' [a }a |a 1a 2a 3a 4a 5a 6a 7a 8a 9a 0a aa ba ca da ea fa ga ha ia ja ka la ma na oa pa qa ra sa ta ua va wa xa ya w3 za i2 w3 Aa Ba Ca Da Ea Fa Ga L< Ha Ia Ja Ka La Ma Na Oa Pa Qa Ra N{ k: Sa Ta Ua Va Wa Xa Ya Za `a  b .b +b @b #b $b %b &b *b =b -b 69 ",
";b >b ,b 'b )b !b ~b {b ]b ^b /b (b _b :b <b [b }b |b 1b v8 2b 3b 4b 5b 6b 7b 8b 9b 0b p7 ab j0 bb cb db eb fb gb hb ib Y, a0 jb kb lb mb nb ob pb qb rb sb tb ub vb wb xb yb zb Ab Bb Cb Db Eb Fb Gb Hb Ib Jb Kb Lb Mb Nb Ob Pb Qb Rb Sb Tb Ub Vb Wb Xb Yb ya Zb `b  c .c +c @c #c $c %c )a &c *c =c -c ;c >c ,c 'c )c !c ~c ;} ;} q+ {c ]c ^c /c `' (c _c :c <c [c }c |c 1c 2c 3c 4c 4c |b 5c ",
"6c 7c 8c 9c 0c w] [& R- ac bc cc dc ec fc gc hc M: ic jc kc lc mc nc d5 oc pc qc rc W- sc tc uc vc wc xc yc zc Ac hb Bc ya Cc Dc Ec Fc Gc Hc Ic Jc Kc Lc Mc Nc Oc Pc Qc Rc Sc Tc Uc Vc Wc Xc Yc Zc `c  d .d +d @d #d $d %d &d *d =d -d ;d >d ,d 'd )d !d ~d {d a0 a0 [' ]d ^d /d (d _d :d <d [d }d |d 1d 2d S9 75 3d 4d 5d ~c k/ [3 6d 7d 8d 9d m> 0d ad bd cd b^ I. ;% =% =% ;% dd ed fd K. gd ",
"hd id jd kd *3 ]$ 4> ld md nd od pd qd rd sd v< td ud vd wd xd yd zd Ad Bd Cd Dd Ed Fd Gd Hd Id Jd Kd Ld Md Nd Od Pd Z, Qd Rd Sd Td Ud Vd Wd Xd Yd Zd `d  e .e +e @e #e $e %e &e *e =e -e ;e >e ,e 'e )e !e ~e {e ]e ^e /e (e _e :e <e [e }e |e 1e 2e 3e 4e 5e 6e 7e 8e Z, 9e 0e ae be ce de ee fe ge he ie je ke le me ~c ne oe [3 pe qe re se te $/ ue ve we != xe ye V; ze Ae ze g[ Be Ce De ",
"Ee Fe V2 kd Ge #= a& ^5 b' He Ie Je Ke Le Me Ne Oe Pe Qe Re Se Te Ue Ve We Xe Ye Ze `e  f .f +f @f #f $f %f &f *f =f -f ;f >f ,f 'f )f !f ~f {f ]f ^f /f (f _f :f <f [f }f |f 1f 2f 3f 4f 5f 6f 7f 8f 9f 0f af bf cf df ef ff gf hf if jf kf lf mf nf of pf qf rf 20 sf tf uf vf wf xf yf zf Af Bf _8 Cf Df Ef Ff le Gf e+ Hf If Jf Kf Lf Mf Nf Of Pf Qf Rf Sf Tf Uf Vf Wf Tf Xf Yf Vf Zf `f  g ",
".g +g R1 kd S* .- @g ** #g 5} $g %g &g *g =g -g ;g F< >g ,g Y4 95 05 'g )g !g ~g {g ]g ^g /g (g _g :g <g [g /9 }g |g 1g 2g 3g 4g 5g 6g 7g 8g 9g 0g ag bg cg dg eg fg gg hg ig jg kg lg mg ng og pg qg rg sg tg ug vg wg xg yg zg Ag Bg Cg Dg Eg Fg Gg Hg Ig Jg Kg Lg Mg [g Ng I7 Og Pg Qg Rg Sg Tg Ug Vg Wg Xg Yg Zg `g 04 *} Jf  h .h +h @h #h $h %h &h *h =h -h Xf ;h >h f[ g[ ,h 'h 1= )h !h ",
"~h {h Y- ]h ^h /h @g (h _h :h <h [h }h |h 1h 2h 3h 4h 5h 6h 7h 8h 7h 'g 9h 0h ah .} bh ch v1 dh  f eh fh gh hh ih jh kh Ub lh mh nh oh ph qh rh sh th uh vh wh xh yh zh Ah Bh Ch Dh Eh Fh Gh Hh Ih Jh Kh Lh Mh Nh Oh Ph Qh Rh Sh Th Uh Vh Wh Xh Yh Zh `h  i .i +i @i #i $i %i &i *i =i -i ;i >i ,i 'i Pe )i Xg !i ~i {i ]i ^i /i (i _i :i <i [i }i |i 1i .) 2i 3i 4i 5i `= Wf V; 6i 7i 8i 9i ,h ",
"0i {h ai bi bi 5* ci di ei fi gi hi ii ji ki li mi 4h ni @1 oi pi .( qi d5 ri si ti ui vi wi !9 i2 za xi yi zi Ai Bi Ci Di Ei Fi Gi Hi Ii Ji Ki Li @d Mi Ni Oi Pi Qi Ri Si Ti Ui Vi Wi Xi Yi Zi `i  j .j +j @j #j $j %j &j *j =j -j ;j >j ,j 'j )j !j ~j {j ]j ^j /j (j _j :j <j [j }j 52 |j 1j 2j 3j 4j 5j 6j 7j 8j ,} 9j 0j aj bj cj dj *1 ej fj gj <a hj ij jj kj s8 lj ,h mj nj oj pj qj rj ",
"sj tj uj 8i &- vj wj xj yj zj Aj Bj Cj X1 Dj Ej Fj Gj Hj Ij Jj Kj Lj Mj y_ Nj Oj Pj Qj Rj Sj @7 Tj Uj Vj Wj Xj Yj Zj `j  k .k +k @k #k $k %k &k *k =k -k ;k >k ,k 'k )k !k ~k {k ]k ^k /k (k _k :k <k [k }k |k 1k 2k 3k 4k 5k 6k 7k 8k 9k 0k ak bk ck dk ek fk gk hk ik jk kk lk mk }j x5 nk ok pk qk rk {. sk tk uk 8j vk wk bj xk z8 yk zk Ak Bk Ck +0 2) Dk Ek Fk Gk Hk Ik Y& Jk Y= Kk Lk Mk ",
"Nk Zf Ok Pk Qk &- Rk Sk Tk Uk Vk Wk Xk Yk 5$ Zk `k  l .l Ij +l @l #l $l %l &l *l =l -l ;l >l tf ,l 'l )l !l ~l {l ]l ^l /l (l _l :l <l [l }l |l 1l 2l 3l 4l 5l 6l 7l 8l 9l 0l al bl cl dl el fl gl hl il jl kl ll ml nl ol pl ql rl sl tl ul vl wl xl yl zl Al Bl Cl Dl El Fl Gl Hl mk x5 Il Jl Kl Ll Ml Nl Ol Pl Ql 8j B: Rl Sl Tl t7 La Ul Vl Wl Xl Yl ;i Zl `l  m .m +m @m Hk #m $m %m &m *m ",
"=m -m ;m >m ,m 'm )m !m -] ~m {m ]m )& ^m /m (m _m :m <m [m }m |m 1m 2m 3m 4m 5m 6m 7m Bc 8m 9m 0m am bm cm dm em fm gm hm im jm km lm mm nm om pm qm rm sm tm um 7l vm wm xm ym zm Am Bm Cm Dm Em Fm Gm Hm Im Jm Km Lm Mm Nm Om Pm Qm Rm Sm Tm Um Vm Wm Xm Ym Zm `m  n .n +n @n #n $n D4 %n y4 &n *n =n -n ;n >n ,n ,n 'n 9j wk )n !n ~n {n ]n ^n /n (n _n :n <n [n }n |n 1n 2n 3n 4n 5n 6n 7n ",
"8n 9n 0n an bn cn dn en fn gn hn in jn kn ln mn nn on pn qn rn sn tn un vn wn xn yn zn An Bn _' Cn Dn En Fn Gn Hn In Jn Kn Ln Mn Nn On Pn Qn Rn Sn Tn Un Vn Wn Xn Yn Zn `n  o .o +o @o #o Cm $o %o &o *o =o -o ;o >o ,o 'o )o !o ~o ~o {o ]o ^o /o (o _o :o <o [o }o |o 1o 2o 3o 4o 5o 6o t4 z4 7o 8o 9o 0o ao bo co do 'n eo fo go ho io jo ko lo mo no oo po qo ro so to 1= 1n uo vo wo wo xo ",
"yo zo Ao Bo Co Do Eo Fo Go Ho Io Jo Ko Lo Mo No Oo Po Qo Ro So To Uo Vo Wo Xo Yo Zo `o !1 $|  p .p +p @p #p $p %p &p *p =p -p ;p >p ,p 'p )p !p ~p {p ]p ^p /p (p _p :p <p [p }p |p 1p 2p 3p 4p 5p 6p 7p 8p 9p 0p ap bp cp dp ep fp gp hp ip jp kp lp mp np op pp qp rp sp tp up vp wp xp yp u4 zp Ap Bp Cp Dp Ep Fp Gp J* Hp Ip Jp Kp Lp Mp Np Op Pp Qp Rp Sp Tp Up Vp Wp Xp Yp /: Zp `p S=  q ",
".q +q @q #q $q %q &q *q =q -q ;q >q ,q (/ 'q )q !q ~q {q ]q ^q /q (q _q :q <q [q }q (| |q 1q 2q 3q 4q 5q 6q 7q 8q 9q 0q aq bq cq dq eq fq gq hq iq jq kq lq mq nq oq pq qq rq sq tq uq vq wq xq yq zq Aq Bq Cq Dq Eq Fq Gq Hq Iq Jq Kq Lq Mq Nq Oq Pq Qq Rq Sq Tq Uq Vq Wq Xq Yq Zq `q  r ya Zb t5 .r +r @r #r $r %r &r *r =r -r ;r >r ,r 'r )r !r ~r {r ]r ^r /r (r _r {m [~ :r <r [r }r 67 |r ",
"1r 2r 3r 4r 5r 6r 7r 8r 9r 0r ar br cr dr er fr gr hr ir jr kr lr mr nr or pr v3 qr rr sr tr ur vr wr xr yr zr Ar Br Cr Dr Er Fr Gr Hr Ir Jr Kr Lr Mr Nr Or Pr Qr Rr Sr Tr Ur Vr Wr Xr Yr Zr `r  s .s +s @s #s $s %s &s *s =s -s ;s >s ,s 's )s !s ~s {s ]s ^s /s (s _s :s <s [s }s |s 1s 2s 3s 4s 5s 6s 7s 8s c+ 9s 0s as bs cs ds es fs gs hs is js ks ls ms ns os ps qs rs ss ts 78 us vs ws ",
"xs ys zs As Bs Cs Ds Es Fs Gs Hs Is Js Ks Ls Ms Ns Os Ps Qs Rs Ss Ts Us Vs Ws Xs Ys Zs `s  t .t +t @t #t $t %t &t *t =t -t ;t >t ,t 't )t !t ~t {t ]t ^t /t (t _t :t <t [t }t |t 1t 2t 3t 4t 5t 6t 7t 8t 9t 0t at bt ct dt et ft gt ht ,s it jt kt lt mt nt ot pt qt rt st tt ut vt wt xt yt zt At Bt Ct Dt Et Vs Ft Gt Ht It Jt Kt |b Lt Mt Nt I< &1 Ot Pt Qt Rt St Tt Ut Vt Wt Xt *3 Yt Zt `t ",
" u .u +u @u #u $u %u &u *u =u -u ~c ;u >u Gf e+ 4j ,u 'u )u !u ~u {u ]u ^u /u ^u (u _u :u <u [u }u |u 1u 2u 3u 4u 5u 6u 7u 8u 9u 0u au bu cu du eu fu gu hu iu ju :t ku lu mu nu ou pu qu ru su tu uu vu wu xu yu zu Au Bu Cu Du Eu Fu Gu Hu Iu Ju Ku Lu Mu Nu Ou Pu Qu Ru Su Tu Uu Vu Wu Xu Yu Zu w4 `u Hl  v e7 .v +v @v #v $v T] k/ I[ I< =. A: %v &v *v =v -v ;v >v ,v 'v )v !v 9{ !4 Yt ~v ",
"{v ]v ^v /v (v _v :v <v [v }v |v 1v 2v 0j 3v {i 4v 5v B: 6v 7v 8v 9v 0v av bv cv dv ev fv gv hv iv jv kv lv mv nv ov pv qv rv sv tv uv vv wv xv yv zv Av Bv Cv Dv Ev Fv Gv Hv Iv Jv Kv Lv Mv Nv Ov Pv Qv Rv Sv Tv Uv Vv Wv Xv Yv Zv `v  w .w +w @w #w $w %w &w *w =w -w ;w >w ,w 'w )w !w ~w {w w4 g3 ]w ^w /w (w _w :w <w [w }w |w 1w 2w 3w 4w 5w 6w 7w 8w 9w 0w aw bw cw dw ew #= M= ]$ fw gw ",
"hw iw jw kw lw mw m{ nw ow pw qw 6h rw sw ,} uk tw uw vw ww xw yw zw Aw Bw Cw (u Dw Ew Fw _; Gw Hw Iw Jw Kw Lw Iw Mw Nw Ow Pw Qw Rw Sw Tw Uw Vw Ww Xw Yw Zw `w  x .x +x @x #x $x %x &x *x =x -x ;x >x ,x 9t Bh 'x )x !x ~x {x ]x ^x /x (x _x :x <x [x (x }x |x 1x 2x 3x 4x 5x 6x 7x 8x 9x 0x ax bx cx `o dx ex fx uw gx hx ix jx kx lx mx nx ox px qx rx sx tx ux vx wx xx yx X[ zx Ax Bx Cx Dx ",
"Ex Fx Gx Hx Ix Jx Kx Lx Mx Nx 75 Ox Px Qx Rx Sx Tx Sx Ux Vx Wx 8v Xx Yx -; Zx `x  y .y +y @y #y $y %y &y *y =y -y ;y >y ,y 'y )y !y ~y {y ]y ^y /y (y _y :y <y [y }y |y 1y 2y 3y 4y 5y 6y 7y 8y 9y 0y ay by cy dy ey fy gy hy iy jy ky ly my ny oy py qy ry sy ty uy vy wy xy yy zy Ay By Cy Dy Ey Fy Gy l< Hy Iy Jy Ky Ly My Ny Oy Py Qy Ry Sy Ty Uy Vy Wy Xy Yy Zy `y  z .z +z @z #z Z1 $z %z ",
"&z *z =z -z ;z >z ,z 'z )z u7 !z ~z rw {z ]z ]z ^z ]z /z (z _z :z <z [z }z |z 1z 2z 3z 4z 5z 6z 7z 8z 9z 0z az bz cz dz ez fz gz hz iz jz kz lz mz nz oz pz qz rz sz tz uz vz wz xz yz zz Az Bz Cz Dz Ez Fz Gz Hz Iz Jz Kz Lz Mz Nz Oz Pz Qz Rz Sz Tz Uz Vz Wz Xz Yz Zz `z  A .A +A @A #A $A %A &A *A =A -A ;A >A ,A 'A )A !A ~A {A ]A ^A /A (A _A :A <A [A }A |A 1A 2A 3A %y 4A 5A 6A 7A 8A 9A ",
"0A aA gw }n bA cA dA eA fA N< gA hA iA jA kA lA mA nA oA pA qA rA sA tA uA vA wA xA yA zA AA BA CA DA EA FA GA HA IA JA KA LA MA NA OA PA QA RA SA TA UA VA WA XA YA ZA `A  B .B +B @B #B $B %B &B *B =B -B ;B >B ,B 'B )B !B ~B {B ]B ^B /B (B _B :B <B [B }B |B 1B 2B 3B 4B 5B 6B 7B 8B 9B 0B aB bB cB dB eB fB gB hB iB jB kB lB {A mB nB oB pB qB rB sB tB Yy uB vB wB xB yB zB AB BB '% CB ",
"DB EB FB 6^ GB HB dA IB JB KB LB MB NB no OB PB QB RB SB TB UB VB WB XB YB ZB `B  C .C +C @C #C $C %C &C *C =C -C ;C >C >C ,C 'C )C !C ~C {C ]C ^C /C (C _C :C <C [C }C |C 1C 2C 3C 4C 5C 6C 7C 8C 9C 0C aC bC cC dC eC fC gC hC iC jC kC lC mC nC oC pC qC pC rC sC tC uC vC wC xC yC zC AC BC CC DC EC FC GC >A HC IC JC JC KC LC MC NC no OC PC QC RC SC TC UC VC WC XC YC ZC `C  D .D +D @D ",
"#D $D %D &D :8 *D =D T~ -D ;D >D ,D 'D ,D )D !D ~D {D ]D ^D /D (D _D :D <D [D }D |D 1D 2D 3D 4D 5D 6D 7D 8D 9D 0D aD aD bD cD dD eD fD gD hD iD jD kD lD mD nD oD pD qD rD sD tD uD vD wD xD yD zD AD BD CD DD ED FD GD HD ID JD KD LD MD ND OD .a PD QD RD SD TD UD VD WD XD YD ZD `D  E .E +E @E #E $E %E &E s9 *E !. =E -E ;E >E ,E 'E )E !E ~E {E ]E ^E /E (E _E :E <E [E }E |E 1E 2E 3E 4E ",
"5E 6E 7E 8E 9E 0E I( aE bE cE dE eE fE gE hE iE jE kE lE Bx mE nE oE pE Us [D qE rE sE tE uE vE wE xE yE zE AE BE CE jD DE EE FE GE HE IE JE KE LE ME NE OE PE QE RE SE TE UE VE WE XE YE ZE `E  F .F +F @F #F $F %F &F *F =F -F ;F >F ,F jD 'F )F !F ~F {F ]F ^F /F (F _F :F <F [F }F |F 1F _F 2F 3F 4F 5F GC 6F 7F j> 8F 9F 0F aF bF cF dF eF fF gF hF iF jF kF lF mF nF oF pF qF rF sF tF uF ",
"vF wF xF yF zF AF BF CF DF EF FF GF HF IF JF KF LF MF T^ NF OF PF QF RF /| SF TF UF sE VF WF XF YF ZF `F 1D  G .G +G @G #G $G %G &G *G =G 9B -G ;G >G ,G 'G )G !G ~G {G ]G ^G /G (G _G :G <G [G  F }G |G 1G 2G 3G 4G 5G 6G 7G 8G 9G 0G aG bG cG dG eG fG gG hG iG jG kG lG mG nG oG pG qG rG hG @E sG tG uG vG wG xG yG zG AG BG CG DG EG FG GG F0 HG IG JG KG LG MG NG OG PG QG RG SG TG UG VG ",
"WG XG +y YG ZG <n `G  H .H +H @H #H $H %H &H *H =H -H ;H >H ,H 'H )H !H ~H {H ]H ^H 1D /H (H _H :H <H [H }H +E |H 1H 2H 3H 4H 5H 6H 7H 8H 9H 0H aH bH cH dH eH fH gH hH iH jH kH lH mH nH oH pH qH rH sH tH uH vH wH xH yH zH AH BH CH DH 0G EH iG +E FH GH 0G 6G HH BC IH VD JH KH LH MH _F NH aG OH X, uG 2) A7 PH QH RH SH TH UH UH VH WH XH YH ZH `H  I .I +I @I NG #I $I %I &I *I =I -I ;I ",
">I ,I 'I )I !I ~I {I ]I ^I /I (I _I :I <I [I }I |I 1I 2I 3I 4I 5I W@ 6I 7I 8I 9I 0I aI zE bI cI dI eI fI gI hI hI iI jI iI kI lI mI nI oI pI jI qI rI sI tI uI vI wI xI yI zI AI BI CI DI EI FI GI HI II JI KI LI MI NI OI PI QI RI SI TI UI VI WI XI YI ZI `I  J .J +J @J #J $J %J -C &J *J =J -J ;J >J ,J 'J )J !J ~J {J ]J ^J /J (J _J :J <J [J }J |J 1J 2J 3J 4J 5J 6J 7J 8J 9J 0J aJ bJ cJ ",
"dJ eJ fJ gJ hJ iJ jJ kJ lJ mJ nJ oJ pJ qJ rJ sJ tJ uJ vJ wJ xJ 4> yJ zJ AJ BJ CJ DJ EJ FJ GJ HJ IJ JJ KJ LJ MJ NJ OJ PJ QJ RJ SJ TJ UJ VJ WJ XJ YJ ZJ `J  K .K A< +K @K }t #K $K %K &K *K =K -K ;K >K ,K 'K )K !K ~K {K ]K ^K /K (K _K ~I :K <K [K }K |K 1K 2K 3K 4K 5K 6K 7K lG 8K 9K 0K aK bK RJ cK dK eK fK gK hK iK jK kK lK mK nK oK pK qK rK sK tK uK '; @I vK wK xK yK zK AK BK CK DK EK ",
"FK GK HK IK JK KK LK MK NK G< OK <3 PK QK RK &1 SK TK UK N3 LB VK WK XK z4 zp YK YK ZK `K  L .L 7a +L @L #L $L %L &L *L =L -L ;L >L >L qf ,L em 'L )L !L ~L {L ]L ^L /L (L _L :L <L [L }L |L 1L 2L 3L 4L 5L 6L 7L 8L 9L 0L ]! aL bL cL dL eL fL gL hL `e iL Ew jL kL lL 'H mL nL oL pL R[ R[ Yb qL YK rL jI sL tL uL vL wL wL xL N< ri yL zL AL g+ BL CL DL Zs EL FL :d GL HL IL JL __ KL LL ML ",
"NL OL PL QL 0| RL SL TL UL VL WL () XL YL ZL `L J{ <3 wL h+  M .M +M @M rL 52 !1 #M @e $M %M Ub &M *M =M -M ;M >M ,M 'M )M !M ~M {M ]M ^M /M (M _M :M <M [M }M |M >B 1M 2M 3M 4M 5M 6M 7M 8M 9M 0M aM bM cM dM eM fM gM hM iM jM kM lM mM nM oM pM qM rM sM tM uM vM wM xM yM zM AM BM CM DM EM FM GM qL HM IM JM KM LM xL xL MM Jf NM M< OM PM Jf QM RM SM TM UM VM WM XM YM ZM `M  N .N LL +N ",
"@N m' >< #N $N RL %N &N *N =N -N oe '2 ;N >N ,N 'N }m )N !N ~N {N ]N ^N $| AJ /N (N _N :N <N [N }N |N 1N 2N 3N 4N 5N 6k 6N 7N 8N 9N 0N aN bN cN dN eN fN gN hN iN jN kN lN mN nN oN pN qN rN sN tN uN vN wN xN yN zN AN BN CN DN tl EN FN GN HN IN JN KN LN MN NN ON PN QN RN SN TN UN VN WN XN YN ZN `N  O .O +O @O kc #O #O I< !N J< $O %O wk &O ~. *O =O TM vK -O ;O >O ,O 'O )O !O .N ~O W_ ",
"{O ]O ^O /O (O RL _O :O <O [O }O |O )N 1O 2O 3O 4O J< 5O 6O 7O v* 8O 9O 0O aO bO cO dO eO fO gO hO iO jO _M kO lO mO nO oO pO qO rO sO tO uO vO wO xO yO zO AO BO CO DO EO FO GO HO IO JO KO LO MO NO OO PO QO RO SO TO UO VO WO XO YO ZO `O  P .P +P @P #P $P %P &P *P =P -P ;P >P ,P 'P )P !P ~P {P ]P ^P Dk /P (P _P :P <P [P }P }P %O |P A: 1P 2P 3P 4P 5P vK 6P 7P 8P 9P 0P aP bP cP |~ dP ",
"$D eP FB fP L| iJ gP :{ hP iP jP kP qi lP -. mP D: J< nP 3j oP pP &{ qP rP sP =L tP uP vP wP xP yP zP AP BP CP DP EP FP GP HP IP JP KP LP MP NP OP PP QP RP SP TP UP VP WP XP YP ZP `P  Q .Q +Q @Q #Q $Q %Q &Q *Q =Q -Q ;Q >Q ,Q 'Q )Q !Q ~Q {Q ]Q ^Q /Q (Q _Q :Q <Q [Q }Q |Q 1Q 2Q 3Q 4Q 5Q 6Q 7Q 8Q 9Q 0Q aQ bQ cQ ~z dQ eQ ,} fQ gQ hQ eQ iQ jQ kQ lQ mQ Fw nQ oQ pQ qQ rQ sQ tQ uQ vQ wQ xQ ",
"yQ zQ AQ BQ L| CQ DQ EQ FQ GQ HQ IQ JQ vw {z KQ LQ MQ NQ OQ PQ QQ RQ SQ TQ sP UQ tP VQ WQ XQ YQ ZQ `Q  R .R +R @R #R $R %R &R *R =R -R ;R >R ,R 'R )R !R ~R {R ]R ^R /R (R _R :R <R [R }R |R 1R 2R 3R 4R 5R 6R 7R 8R 9R 0R aR bR cR dR eR fR gR hR iR jR kR lR mR nR oR pR qR rR sR tR uR vR wR xR 8Q kF yR zR AR BR CR DR ER FR GR HR IR HR JR 5O KR LR MR NR OR PR QR RR SR TR UR VR WR XR vQ ",
"YR ZR `R  S 0| .S +S @S lB #S HQ $S %S vw &S *S =S -S 8h ;S >S ,S 'S )S !S ~S UQ {S ]S ^S /S (S _S :S <S [S }S |S 1S 2S 3S 4S 5S 6S 7S 8S 9S 0S aS bS cS dS eS fS gS hS iS jS kS lS mS nS oS pS qS rS sS tS uS vS wS xS yS zS AS cR BS CS DS ES FS GS HS IS JS mR KS LS MS NS OS PS QS RS SS TS US VS WS XS YS m6 29 sw sw eQ ZS `S  T .T ,} uw r7 +T @T #T  c $T %T &T *T =T -T ;T >T ,T 'T WR ",
")T !T ~T {T ]T ^T /T (T _T :T <T [T }T |T 1T 2T 3T 4T {z 5T 6T 7T 8T 9T 0T oL aT bT cT dT eT na fT gT hT iT jT kT lT mT nT oT pT qT rT sT tT uT vT wT xT yT zT AT BT CT DT ET FT GT lt HT IT JT KT LT MT NT OT PT QT RT ST TT UT VT WT XT YT ZT `T  U .U +U @U #U $U %U &U *U =U -U ;U >U ,U 'U )U !U ~U {U YS ]U _. ^U /U (U _U :U <U [U 1T }U |U +T 1U 2U 3U 4U 5U 6U 7U 8U 9U ;T Yf 0U aU bU ",
"cU dU eU fU gU hU iU jU +T M1 kU [. lU mU nU oU pU qU }U rU sU tU uU vU wU xU yU zU AU BU CU DU EU FU GU HU IU JU KU LU MU NU OU PU QU RU SU TU UU VU WU XU YU ZU `U vg  V .V +V @V #V $V %V &V *V =V -V ;V >V ,V 'V )V !V BT ~V {V ]V ^V Xi /V (V _V :V <V [V }V |V 1V 2V 3V 4V 5V FN 6V 7V 8V 9V 0V aV bV cV dV Re eV fV gV sK hV iV jV kV lV mV nV @T oV pV qV rV ~C sV tV uV ;! vV wV xV yV ",
"zV AV BV CV DV EV FV GV HV IV JV KV LV MV NV A8 Sx OV PV rU QV dV RV SV TV xU yU UV VV WV XV YV ZV `V  W .W +W JU @W #W $W %W &W *W =W -W ;W >W ,W bS 'W )W !W ~W UP {W ]W ^W /W (W _W :W Ed <W [W }W |W 1W 2W 3W 4W 5W 6W 7W 8W 9W WT 0W aW bW cW dW af eW fW gW hW iW jW kW lW mW nW oW pW qW rW 0V aV sW tW uW vW }d wW xW yW zW AW BW CW }T DW EW FW GW (, HW IW JW 11 KW LW MW NW OW PW QW ",
"RW SW TW UW VW CQ WW XW YW ZW `W  X D% .X +X @X #X 1T $X %X &X *X =X -X ;X xU >X ,X 'X )X !X ~X {X ]X ^X /X (X _X :X <X [X NU }X |X 1X 2X 3X 4X 5X wT 6X 7X 8X 9X 0X aX bX cX dX eX fX gX hX iX jX kX lX mX nX oX pX qX rX sX tX uX WT vX wX xX yX zX AX BX CX DX EX FX GX HX IX JX KX LX MX NX OX PX QX RX SX TX UX VX WX XX YX ZX `X  Y yW .Y +Y @Y #Y $Y %Y &Y *Y =Y K( -Y ;Y >Y ,Y 'Y )Y !Y ",
"~Y {Y ]Y `M ^Y /Y (Y _Y :Y <Y [Y }Y @_ |Y 1Y 2Y ^< 3Y 4Y 5Y 6Y 7Y 8Y 9Y 0Y aY bY cY dY eY fY gY hY iY jY kY lY mY nY oY Pq pY qY rY sY tY uY vY wY xY yY zY AY BY CY DY EY FY GY HY IY JY KY LY MY NY a< OY PY QY RY SY TY UY VY WY ]V XY wX YY ZY `Y  Z .Z +Z @Z #Z $Z %Z &Z *Z =Z -Z ;Z >Z ,Z 'Z )Z 9Q !Z ~Z {Z ]Z ^Z /Z (Z _Z E& :Z <Z [Z }Z |Z 1Z 2Z 3Z %Y 4Z 5Z 6Z 7Z 8Z 9Z 0Z aZ bZ cZ dZ ",
"eZ fZ gZ hZ iZ jZ kZ lZ mZ nZ oZ pZ qZ rZ sZ tZ uZ vZ wZ xZ yZ zZ AZ BZ CZ DZ EZ FZ GZ HZ IZ JZ KZ LZ MZ NZ OZ PZ QZ RZ SZ Lq TZ UZ VZ WZ XZ YZ ZZ `Z  ` .` +` @` #` $` %` &` *` =` -` ;` >` ,` '` )` !` ~` {` ]` ^` /` (` _` :` <` [` }` |` 1` hN 2` 3` 4` 5` 6` 7` 8` 9` 0` a` b` FN ;Z c` d` e` f` g` h` i` j` k` l` m` n` o` p` q` r` s` t` pZ u` v` oL w` x` y` z` A` B` C` D` E` F` G` H` ",
"I` J` K` L` M` N` O` P` Q` R` S` T` U` U` V` W` X` Y` Z` ``   .. .+ .@ .# .$ .% .& .* .= .- .; .KZ > ., .yP +W ' .) .! .dR ~ .{ .] .^ ./ .( ._ .,W : .< .[ .} .| .1 .2 .3 .4 .5 .2Y 6 .7 .8 .9 .0 .nD a .b .c .d .e .f .g .h .IO i .j .k .Aq l .m .n .o .p .q .6` r .s .t .u .v .w .x .y .z .A .B .C .xU g3 bx D .E .F .G .H .I .J .K .L .M .N .O .P .Q .FM R .S .T .U .A` V .W .X .5. Y .Z .` .",
" .....+..@..#..$..%..&..*..=..-..;..>..,..'..)..!..~..{..]..^../..(.._..:..<..[..}..|..1..2..3..4..5..6..7..8..9..0..a..b..c..d..e..f..g..h..4X i..j..k..l..} .m..n..o..p..q..r..I% s..t..u..v..w..x..'F y..z..A..B..C..D..E..F..G..H..I..J..K..L..M..N..O..-w P..Q..R..S..T..U..5V V..W..X..Y..Z..`.. +..+.++.@+.#+.$+.%+.&+.*+.=+.-+.;+.>+.,+.'+.)+.!+.~+.{+.]+.^+./+.A` (+._+.:+.<+.[+.vj 1n ",
"}+.|+.1+.2+.3+.4+.5+.6+.7+.8+.9+.0+.a+.b+.Mf c+.;' d+.e+.f+.g+.h+.i+.j+.Zs k+.l+.m+.n+.o+.p+.q+.r+.s+.t+.u+.v+.w+.x+.y+.z+.A+.B+.C+.D+.E+.F+.G+.H+.I+.J+.K+.{e L+.M+.N+.O+.P+.Q+.R+.S+.bv T+.U+.V+.W+.X+.Y+.Z+.Zx `+. @..@.+@.@@.#@.$@.%@.&@.*@.=@.-@.o .;@.>@.P..,@.'@.)@.!@.~@.w .{@.]@.^@./@.(@._@.:@.<@.[@.}@.|@.1@.2@.3@.4@.5@.6@.7@.8@.9@.0@.a@.b@.c@. v d@.e@.f@.g@.h@.i@.j@.k@.Qk l@.l@.",
"m@.n@.o@.p@.q@.r@.s@.t@.u@.v@.w@.[P x@.~i y@.z@.A@.B@.jc hQ C@.D@.E@.F@.G@.H@.I@.m+.J@.K@.L@.3..M@.$Z N@.O@.P@.w+.Q@.R@.S@.T@.U@.V@.W@.X@.Y@.}X Z@.`@. #..#.+#.@#.##.$#.%#.&#.*#.=#.-#.;#.T+.}j }j >#.,#.'#.)#.!#.~#.{#.]#.^#.nT /#.(#._#.:#.<#.[#.}#.|#.1#.2#.3#.4#.5#.6#.7#.8#.9#.0#.a#.X..b#.c#.d#.e#.f#.g#.h#.i#.j#.k#.l#.m#.n#.o#.p#.q#.r#.s#.BW t#.vU  v u#.v#.w#.x#.y#.z#.A#.B#.C#.D#.E#.",
"F#.G#.$I H#.I#.J#.`e K#.L#.M#.N#.O#.FR P#.z: Q#.R#.S#.T#.U#.V#.W#.X#.Y#.Z#.`#. $..$.+$.@$.#$.$$.M@.%$.&$.*$.=$.w+.-$.;$.>$.,$.'$.)$.!$.~$.{$.]$.^$./$. #.($._$.:$.<$.[$.}$.|$.1$.2$.3$.4$.5$.5$.6$.zp 7$.8$.9$.0$.a$.b$.c$.d$.e$.f$.g$.h$.i$.j$.k$.l$.m$.n$.o$.p$.q$.5#.r$.s$.t$.vt u$.v$.w$.x$.y$.z$.A$.B$.C$.D$.E$.j#.F$.G$.R#.H$.Hj I$.J$.vd &O (Z K$.L$.M$.N$.O$.P$.3i i@.Q$.R$.S$.T$.U$.V$.",
"W$.X$.Y$.Z$.`$. %..%.+%.@%.#%.$%.NK %%.iQ P#.P#.&%.&%.*%.s7 =%.-%.p^ ;%.>%.,%.iN '%.)%.Rq !%.~%.{%.]%.^%./%.(%._%.Zi :%.<%.[%.}%.|%.1%.2%.3%.4%.5%.6%.7%.8%.9%.0%.a%.b%.c%.d%.e%.f%.g%.h%.i%.j%.k%.l%.m%.n%.o%.gU p%.q%.r%.s%.t%.u%.v%.w%.x%.j$.y%.z%.A%.B%.C%.D%.E%.F%.G%.s$.8#.H%.I%.J%.K%.L%.M%.N%.O%.P%.Q%.R%.S%.T%.U%.V%.W%.X%.Y%.Z%.`%. &.{. .&.1U +&.@&.#&.$&.%&.&&.*&.=&.-&.;&.~O >&.>&.",
",&.'&.)&.!&.~&.{&.]&.c- ^&./&.(&.*c _&.iQ :&.<&.0j |P ER yL [&.}&.|&.1&.2&.,%.iN 3&.4&.5&.- .6&.7&.1V 8&.Xh 9&.0&.a&.b&.c&.d&.e&.f&.g&.h&.i&.j&.k&.l&.m&.;W n&.o&.p&.q&.r&.s&.c: t&.u&.v&.w&.x&.y&.z&.A&.B&.C&.D&.E&.F&.G&.H&.Eh f$.I&.J&.K&.L&.M&.N&.O&.P&.Q&.R&.S&.T&.G%.U&.8#.V&.W&.X&.Y&.Z&.`&. *..*.+*.@*.i* #*.<3 $*.4w %*.&*.JR **.8j qx vw =*.-*.+&.;*.>*.$&.,*.'*.)*.!*.~*.{*.S$.U$.]*.",
"^*./*.(*.!&.3+._*.:*.<*.[*.}*.|*.1*.2*.JQ 3*.4*.%O 3v x@.=. Ve 5*.6*.7*.>%.,%.8*.9*.0*.a*.b*.c*.d*.e*.f*.g*.h*.i*.j*.k*.l*.m*.n*.o*.p*.q*.r*.s*.t*.u*.v*.w*.x*.y*.z*.A*.B*.C*.D*.E*.F*.G*.H*.I*.J*.K*.L*.Vs M*.N*.O*.P*.Q*.R*.S*.T*.v%.U*.V*.W*.X*.Y*.A%.Z*.`*. =..=.+=.@=.#=.$=.%=.&=.z .*=.==.-=.;=.>=.,=.'=.)=.N#.9! 5v GR 5O LQ A: 9j ^z !=.~=.{=.]=.^=./=.(=._=.:=.<=.[=.}=.|=.1=.U$.+N @m ",
"2=.3=.4=.5=.6=.7=.8=.9=.0=.a=.b=.c=.OV Tx d=.e=.Rl f=.Re x8 g=.h=.i=.j=.k=.l=.m=.n=.o=.p=.b*.q=.r=.s=.t=.u=.v=.w=.x=.y=.z=.A=.B=.C=.D=.E=.F=.G=.H=.I=.J=.w*.K=.L=.M=.N=.O=.P=.Q=.R=.S=.T=.U=.V=.V=.W=.qr X=.Y=.Z=.`=. -..-.+-.@-.#-.$-.%-.&-.*-.=-.zX --.KI ;-.>-.,-.+=.'-.)-.!-.~-.{-.]-.^-./-.(-._-.:-.<-.[-.a& }-.|-.GR 1-.{. 2-.uw 3-.4-.5-.6-.7-.8-.9-.0-.a-.b-.c-.d-.e-.f-.g-.h-.>&.i-.j-.",
"k-.l-.m-.n-.o-.p-.b: q-.r-.s-.t-.u-.v-.oB 5-.5-.w-.x-.y-.z-.A-.B-.C-.D-.E-.Zs F-.G-.H-.I-.J-.K-.q+.L-.M-.N-.O-.P-.Q-.R-.S-.T-.U-.V-.W-.X-.Ui Y-.Z-.`-. ;..;.+;.@;.#;.$;.%;.&;.p+.*;.=;.-;.;;.p6 YB >;.,;.';.);.!;.~;.{;.];.^;./;.(;._;.:;.<;.[;.};.|;.1;.2;.3;.4;.5;.6;.'-.7;.8;.9;.0;.^@.^@.a;.b;.c;.:-.d;.e;.S; f;.1v FR JR g;.h;.i;.j;.k;.l;.m;.n;.o;.p;.q;.r;.s;.t;.u;.v;.w;.x;.h-.XR V$.y;.",
"z;.A;.B;.C;.D;.p-.E;.F;.G;.H;.I;.J;.K;.L;.M;.N;.O;.P;.j' Q;.R;.S;.T;.U;.V;.W;.X;.Y;.Z;.`;. >..>.+>.@>.#>.$>.%>.&>.*>.=>.->.;>.>>.,>.'>.)>.!>.~>.{>.]>. ;.^>./>.(>._>.:>.<>.[>.}>.|>.1>.2>.3>.Bl 4>.5>.TN 6>.W&.k*.7>.8>.9>.0>.a>.b>.c>.d>.e>.f>.g>.h>.i>.j>.k>.l>.m>.n>.o>.p>.q>.r>.s>.t>.u>.v>.w>.x>.y>.<-.z>.A>.B>.C>.D>.E>.F>.G>.H>.I>.J>.K>.kQ L>.M>.N>.q;.O>.P>.Q>.R>.S>.T>.U>.V>.LL W>.X>.",
"Y>.Z>.`>. ,..,.+,.<8 @,.#,.$,.%,.&,.Vx +X *,.=,.-,.;,.oA >,.,,.',.),.!,.~,.k+.{,.Y;.],.^,./,.(,._,.:,.<,.[,.},.|,.1,.=>.2,.3,.4,.5,.'>.6,.!>.7,.8,.9,.0,.a,.b,.c,.d,.e,.f,.g,.h,.i,.j,.k,.l,.m,.n,.o,.p,.q,.r,.s,.t,.u,.v,.w,.[l x,.y,.z,.=o A,.B,.C,.D,.E,.F,.G,.H,.I,.J,.K,.L,.nt M,.N,.O,.P,.Q,.R,.S,.T,.U,.V,.W,.X,.Y,.~=.Z,.`,. '..'.+'.@'.#'.$'.%'.N>.&'.*'.='.-'.;'.>'.,'.''.)'.!'.~'.{'.",
"]'.^'./'.('._'.:'.<'.['.}'.|'.%,.1'.+X 2'.3'.4'.5'.6'.7'.8'.9'.0'.a'.b'.c'.+ .X;.Y;.d'.e'.f'.g'.h'.i'.j'.k'.l'.NN m'.n'.o'.p'.q'.r'.s'.t'.u'.v'.w'.x'.0,.y'.z'.A'.B'.C'.D'.E'.F'.G'.H'.I'.J'.K'.L'.M'.N'.O'.P'.(f Q'.R'.S'.T'.U'.BS V'.W'.X'.Y'.Z'.h>.`'. )..).+).@).#).$).%).[S &).0;.*).=).-).;).>).,).G^ ').)).>} Ol !).~).{).]).^)./).()._).:).<).[).}).^g |).='.1).2).3).4).5).V>.6).7).8).",
"9).0).a).b).c).d).e).f).g).h).i).j).k).l).Ky L;.m).n).o).xW p).q).r).s).t).s: u).* .v).w).x).y).[S z).A).B).C).D).E).F).G).H).I).V-.J).K).L).M).N).O).^o P).Q).R).S).T).U).V).W).X).Y).Z).`). !..!.du +!.@!.#!.$!.%!.&!.*!.=!.-!.;!.>!.,!.'!.)!.!!.~!.m*.{!.]!.^!./!.(!._!.:!.<!.[!.}!.|!.1!.2!.3!.4!.5!.6!.O2 7!.8!.9!.0!.a!.b!.c!.d!.e!.f!.g!.h!.i!.j!.k!.:a l!.m!.n!.o!.p!.q!.r!.V$.s!.t!.u!.",
"v!.wF w!.x!.y!.z!.A!.B!.C!.D!.E!.F!.G!.OV oB v-.H!.I!.J!.K!.L!.M!.N!.O!.P!.Q!.R!.S!.T!.U!.V!.W!.X!.Y!.Z!.`!. ~.Zw .~.+~.@~.#~.$~.=k %~.)t &~.*~.=~.-~.;~.>~.,~.'~.)~.!~.~~.{~.]~.^~./~.(~._~.:~.<~.}X [~.}~.|~.1~.%!.2~.3~.4~.5~.6~.7~.8~.9~.0~.a~.b~.c~.kY d~.e~.f~.g~.h~.i~.j~.]s k~.l~.m~.n~.o~.p~.lF q~.r~.s~.t~.u~.v~.w~.x~.y~.z~.A~.B~.C~.D~.E~.F~.G~.H~.I~.J~.K~.L~.M~.N~.O~.P~.Q~.R~.S~.",
"T~.U~.V~.W~.X~.Y~.Z~.`~. {..{.+{.@{.#{.6-.${.%{.&{.*{.={.-{.;{.>{.,{.'{.Cw P!.){.!{.~{.{{.]{.^{./{.({._{.:{.<{.[{.}{.|{.1{.2{.3{.4{.5{.6{.7{.8{.9{.0{.a{.b{.c{.d{.e{.f{.g{.h{.i{.j{.k{.l{.m{.n{.o{.p{.q{.r{.s{.t{.u{.v{.w{.x{.y{.z{.~V A{.B{.C{.D{.E{.F{.G{.H{.I{.J{.IZ K{.bk L{.M{.N{.O{.P{.Q{.R{.S{.2J T{.U{.V{.W{.X{.Y{.Z{.`{. ]..].+].@].#].$].%].&].*].v1 =].-].;].>].,].'].)].q| s!.!].~].",
"{].]].^]./].(].<K _].A!.:].<].[].}].|].1].2].3].4].hF 5].6].7].8].9].0].Us >;.a].b].c].d].e].f].g].h].i].j].k].l].m].n].o].o .p].q].r].s].t].u].v].w].x].y].z].A].B].C].D].E].F].G].H].I].J].K].L].M].N].O].P].Q].u{.R].yS S].T].U].V].W].X].Y].Z].`]. ^..^.+^.@^.j>.#^.K{.$^.%^.&^.*^.=^.-^.;^.>^.,^.!1 '^.)^.!^.~^.{^.]^.^^./^.(^._^.:^.<^.[^.}^.|^.1^.2^.3^.4^.5^.6^.7^.8^.9^.y9 0^.a^.b^.c^.",
"d^.XR e^.f^.L| g^.iU l{ h^.i^.j^.k^.l^.m^.n^.o^.o^.p^.q^.r^.s^.t^.u^.v^.!1 w^.x^.y^.z^.A^.B^.C^.D^.E^.F^.G^.H^.I^.J^.K^.L^.M^.N^.O^.P^.Q^.R^.S^.T^.U^.V^.W^.X^.Y^.Z^.`^. /../.+/.@/.#/.$/.%/.&/.*/.=/.-/.;/.>/.,/.'/.)/.!/.~/.{/.]/.^/.//.(/._/.:/.</.[/.}/.|/.1/.2/.3/.4/.5/.6/.7/.8/.9/.0/.a/.b/.c/.d/.e/.f/.l| g/.IG h/.i/.j/.k/.l/.m/.n/.o/.Y#.p/.q/.r/.e/.s/.t/.u/.v/.w/.x/.y/.0i z/.A/.B/.",
"C/.D/.E/.F/.(8 G/.H/.I/.J/.K/.L/.M/.N/.O/.P/.Q/.R/.S/.T/.U/.V/.W/.X/.za Hl Y/.Z/.`/. (..(.+(.@(.#(.$(.%(.&(.*(.]- =(.-(.;(.>(.,(.4} '(.)(.!(.~(.{(.](.^(./(.((._(.:(.<(.[(.}(.|(.1(.2(.3(.4(.5(.6(.7(.8(.9(.0(.a(.b(.c(.d(.e(.f(.f(.g(.h(.i(.i(.j(.k(.k(.`1 l(.m(.n(.o(.p(.q(.r(.q(.s(.t(.u(.v(.w(.x(.y(.Ng z(.A(.B(.C(.D(.P5 E(.C8 F(.G(.H(.I(.J(.K(.L(.M(.wi N(.O(.P(.Q(.R(.S(.T(.U(.V(.W(.X(.",
"Y(.Wf Z(.4= `(. _.8^ ._.C% +_.@_.#_.$_.%_.&_.*_.=_.-_.;_.>_.,_.'_.)_.6e !_.~_.{_.]_.^_./_.(_.__.:_.<_.[_.}_.|_.1_.2_.3_.4_.5_.6_.7_.8_.9_.0_.a_.b_.c_.d_.e_.f_.g_.h_.i_.j_.k_.l_.m_.n_.o_.p_.q_.r_.s_.t_.u_.v_.w_.x_.y_.z_.A_.B_.C_.D_.E_.F_.G_.H_.I_.J_.K_.L_.M_.N_.O_.P_.Q_.R_.S_.T_.U_.V_.W_.X_.Y_.Z_.`_. :.)4 .:.+:.@:.#:.$:.%:.@:.&:.*:.=:.-:.,N ;:.>:.,:.':.):.!:.~:.{:.]:.,! B#.^:./:.(:.",
"_:.::.<:.[:.}:.|:.`G hJ 1:.2:.3:.4:.5:.6:.7:.8:.9:.0:.a:.4h b:.c:.d:.e:.R .f:.g:.h:.i:.j:.k:.l:.m:.n:.o:.p:.q:.r:.s:.t:.u:.v:.w:.x:.y:.z:.A:.B:.C:.D:.E:.F:.G:.H:.I:.J:.K:.>j L:.M:.N:.o_.O:.P:.Q:.R:.S:.T:.U:.V:.W:.X:.Y:.Z:.`:. <..<.+<.@<.#<.$<.%<.+<.&<.*<.=<.-<.;<.><.,<.@2 '<.D:.)<.!<.~<.{<.]<.^<./<.(<._6 _<.:<.<<.[<.}<.|<.1<.2<.3<.4<.5<.6'.6<.7<.8<.9<.0<.a<.b<.c<.d<.e<.f<.g<.h<.uF ",
"i<.j<.k<.yF l<.m<.]! n<.o<.p<.q<.r<.s<.t<.u<.v<.w<.x<.y<.z<.A<.B<.C<.D<.M$.E<.F<.G<.H<.I<.J<.K<.L<.aG 0G bG wA M<.N<.O<.P<.,#.Q<.R<.S<.T<.U<.V<.W<.X<.Y<.Z<.`<. [..[.+[.@[.#[.$[.%[.$Z &[.*[.=[.<L -[.;[.>[.te ,[.'[.)[.![.~[.{[.][.^[./[.([._[.:[.<[.[[.}[.|[.1[.2[.3[.4[.5[.6[.7[.8[.9[.0[.a[.b[.c[.d[.4s e[.f[.g[.h[.i[.4*.j[.k[.l[.m[.n[.mB }U o[.p[.q[.r[.s[.t[.u[.v[.w[.x[.y[.e<.z[.A[.g-.",
"B[.j<.b).C[.D[.E[.F[.G[.H[.I[.Ja @X J[.K[.L[.M[.N[.O[.P[.Q[.R[.S[.T[.U[.0-.V[.W[.X[.Y[.Z[.`[. }..}.+}.@}.#}.$}.$}.%}.&}.*}.=}.-}.;}.>}.,}.'}.)}.!}.~}.{}.]}.^}./}.(}._}.:}.<}.[}.}}.|}.1}.2}.3}.4}.5}.6}.7}.8}.9}.0}.a}.b}.c}.d}.e}.f}.g}.h}.i}.j}.k}.l}.m}.n}.o}.p}.q}.r}.s}.t}.u}.v}.w}.x}.y}.z}.A}.B}.@&.C}.D}.E}.F}.G}.H}.I}.J}.K}.L}.$,.M}.N}.O}.P}.Q}.R}.S}.T}.U}.V}.W}.X}.TW ;I Y}.Z}.`}.",
" |..|.+|.@|.#|.$|.%|.&|.*|.=|.2-.-|.uk ;|.>|.,|.'|.)|.^A !|.~|.{|.]|.^|.qr FJ /|.(|._|._|.LE :|.<|.[|.}|.||. E  E 1|.FH 2|.3|.4|.5|.6|.7|.8|.9|.0|.v(.a|.b|.c|.zE d|.0D e|.f|.g|.h|.i|.j|.k|.l|.m|.n|.o|.p|.q|.r|.1B s|.t|.u|.v|.w|.x|.y|.z|.A|.B|.C|.D|.D|.G<.E|.F|.G|.H|.I|.J|.K|.L|.M|.N|.y}.O|.P|.Q|.R|.S|.T|.U|.V|.W|.X|.Y|.Z|.`|. 1..1.+1.@1.#1.$1.%1.&1.S}.*1.=1.-1.W}.X}.V>.uQ ;I O~.;1.",
">1.,1.'1.)1.!1.cU ~1.{1.]1.^1./1.(1._1.:1.<1.[1.}1.|1.11.21.31.41.51.61.71.UJ 81.91.91.01.a1.b1.c1.d1.e1.f1.g1.wc #G KH h1.i1.j1.g7 k1.l1.m1.n1.o1.XJ p1.q1.r1.s1.t1.u1.v1.w1.x1.m*.y1.z1.A1.B1.C1.D1.E1.F1.G1.H1.I1.J1.K1.L1.M1.N1.O1.P1.Q1.R1.S1.WD T1.U1.V1.W1.X1.Y1.Z1.`1. 2..2.+2.@2.#2.$2.%2.&2.Q|.*2.u}.=2.-2.;2.>2.,2.'2.)2.!2.~2.{2.]2.^2./2.(2._2.:2.<2.[2.}2.|2.12.22.32.42.52.62.1~ ",
"72.82.w!.p@.92.02.a2.b2.c2.d2.e2.f2.g2.h2.5-.K>.i2.L;.j2.k2.l2.m2.n2.o2.p2.q2.91.r2.s2.|D H4 t2.u2.v2.rE w2.x2.y2.(H z2.z2.A2.B2.C2.D2.,}.E2.F2.,}.G2.H2.I2.J2.TI K2.L2.M2.N2.O2.Oq P2.Q2.R2.S2.T2.U2.V2.W2.X2.Y2.Z2.`2.cD  3..3.+3.@3.#3.)^.$3.%3.7K &3.*3.=3.-3.;3.X[.>3.,3.'3.IW )3.!3.~3.{3.]3.^3./3.(3._3.V{.:3.<3.[3.>2.YX u~.}3.|3.13.23.33.43.53.63.cv 73.83.93.&) 03.a3.V$.b3.2& 62.c3.",
"d3.e3.f3.g3.h3.i3.j3.k3.l3.m3.n3.o3.p3.q3.r3.s3.t3.u3.v3.w3.x3.y3.z3.A3.B3.C3.D3.E3.F3.G3.H3.0|.I3.J3.K3.L3.M3.N3.O3.P3.Q3.R3.S3.T3.U3.V3.W3.X3.Y3.Z3.`3. 4..4.+4.@4..' #4.$4.%4.&4.*4.=4.-4.;4.>4.,4.'4.)4.!4.~4.{4.]4.^4./4.(4._4.:4.<4.[4.WI }4.|4.14.24.34.44.54.64.74.84.94.04.a4.b4.c4.d4.e4.f4.g4.h4.i4.j4.k4.l4.m4.n4.o4.o4.p4.33.q4.r4.s4.t4.u4.v4.w4.x4.y4.z4.A4.B4.q| vQ C4.D4.E4./_ ",
"F4.G4.H4.9P h3.E[.I4.[> J4.m3.eV H;.K4.L4.M4.N4.O4.P4.Q4.R4.S4.T4.U4.V4.h` sW ,}.W4.W4.X4.Y4.Z4.`4.@c  5..5./w +5.@5./w #5.$5.%5.&5.%5.*5.*5.=5.-5.;5.>5.,5.'5.@7 )5.!5.~5.Jb {5.]5.^5./5.(5._5.:5.<5.[5.}5.|5.15.25. 0 35.45.55.65.75.85._|.95.05.a5.b5.c5.d5.e5.f5.g5.h5.i5.j5.k5.l5.m5.n5.o5.p5.pk zp q5.r5.s5.t5.u5.jB v5.w5.x5.y5.y5.z5.A5.B5.C5.D5.E5.!_.F5.G5.a: H5.zQ 42.V$.I5.J5.vQ K5.",
"F4.L5.M5.N5.O5./Y P5.Q5.R5.S5.T5.U5.V5.W5.X5.Y5.Z5.p4.`5. 6..6.+6.@6.#6.Hl Z, $6.%6.&6.*6.=6.-6.;6.x4 g` x4 >6.,6.'6.)6.!6.~6.{6.]6.lF _-.^6./6.(6._6.:6.<6.[6.~H }6.|6.16.26.36.46._{.56.66.76.86.PS 96.06.a6.b6.c6.d6.41 e6.f6.g6.h6.i6.j6.k6.R8 rL {+.w4.l6.cv M$.m6.m6.`N y4 n6.n6.;6.y4 AJ o6.p6.q6.r6.s6.v9 t6.u6.v6.w6.x6.F>.y6.z6.A6.B6.C6.D6.E6.F6.`o G6.H6.I6.J6.~T UR K6.LL L6.M6.N6.",
"O6.P6.Q6.R6.~[ S6.@6 T6.U6.V6.W6.X6.Y6.{2.Z6.`6. 7..7.+7.aF @7.#7.$7.%7.;i !_.Hl &7.*7.=7.-7.;7.>7.,7.'7.)7.!7.P5.~7.{7.]7.^7./7.(7._7.:7.<7.[7.}7.|7.17.27.37.47.57.67.77.87.97.07.a7.b7.c7.d7.e7.f7.g7.h7.i7.j7.k7.l7.m7.v5 n7.o7.p7.q7.r7.s7.t7.u7.v7.w7.x7.y7.z7.A7.B7.C7.D7.E7.F7.G7.H7.p~.Ys y4 I7.J7.K7.L7.M7.N7.O7.P7.Q7.R7.S7.T7.U7.V7.W7.X7.Y7.Z7.`7. 8..8.+8.@8.#8.$8.0} E#.%8.&8.*8.",
"=8.-8.;8.>8.,8.'8.@6 )8.!8.~8.$'.{8.]8.^8./8.(8._8.:8.I[.<8.[8.{q }8.|8.Zu 18.28.38.48.58.68.78.88.98.08.a8.b8.Ew A7.c8.d8.e8.f8.g8.h8.i8.j8.k8.l8.m8.n8.o8.p8.q8.r8.s8.t8.u8.v8.w8.x8.y8.z8.A8.1V B8.C8.D8.E8.F8.G8.H8.I8.J8.K8.L8.M8.N8.O8.P8.Q8.R8.c#.S8.T8._(.U8.V8.4e W8.X8.Y8.Z8.`8. 9.zi .9.YK YK +9.@9.#9.$9.%9.&9.*9.ao ^Z =9.-9.;9.>9.,9.'9.)9.!9.ch ~9.{9.=> ]9.%D ^9./9.(9._9.:9.<9.",
"[9.}9.|9.19.,8.29.39.49.59.69.79.89.99.09.a9.b9.c9.d9.e9.f9.g9.h9.i9.j9.DZ k9.$ .l9.m9.n9.o9.p9.q9.r9.s9.t9.u9.v9.w9.x9.y9.z9.A9.B9.C9.D9.E9.F9.G9.H9.I9.J9.K9.L9.&t M9.t8.N9.!%.O9.P9.Q9.R9.S9.T9.U9.V9.W9.X9.Y9.Z9.`9. 0.CF .0.+0.@0.#0.$0.%0.&0.*0.=0.-0.;0.xI >0.,0.'0.)0.!0.~0.{0.]0.^0./0.(0.m6._0.>;.:0.<0.[0.}0.|0.10.20.30.40.50.M .60.70.80.Iw 28.# .90.00.a0.b0.fJ c0.d0.tj e0.G/ f0.",
"]O J6.g0.h0.i0.j0.G1.P+.k0.l0.m0.n0.o0.K .p0.q0.r0.s0.t0.u0.v0.w0.x0.y0.z0.!H A0.B0.C0.D0.E0.F0.G0.H0.I0.J0.K0.Xb L0.M0.N0.O0.P0.Q0.R0.S0.T0.U0.V0.W0.X0.Y0.Z0.`0. a..a.+a.@a.#a.h~.M@.$a.%a.&a.*a.=a.-a.;a.>a.,a.'a.)a.!a.~a.{a.]a.^a./a.(a.P0._a.:a.<a.[a.}a.yh |a.1a.2a.3a.4a.5a.6a.7a.8a.9a.pL 0a.aa.'; Xl ba.ca.da.ea.fa.ga.ha.q] ia.'& !{ ja.ka.la.ma.na.oa.pa.qa.ra.sa.ta.ua....va.wa.{Y ",
"%D xa.ya.za.Aa.Ba.!; Ca.Da.Ea.Fa.Ga.Ha.Ia.Ja.Ka.La.Ma.Na.Oa.Pa.Qa.Ra.Sa.Ta.Ua.oL Va.Wa.Xa.Ya.Za.`a. b..b.+b.@b.#b.$b.M0.%b.&b.*b.=b.-b.;b.>b.,b.'b.)b.!b.P*.~b.{b.]b.^b./b.(b._b.:b.<b.[b.}b.|b.1b.2b.3b.4b.5b.6b.7b.8b.9b.Pw 0b.ab.bb.cb.db.eb.fb.gb.hb.ib.jb.kb.lb.I0.mb.nb.ob.Sq pb.qb.rb.sb.tb.ub.vb.wb.xb.yb.zb.Ab.Bb.Cb.Db.Eb.Fb.Gb.Hb.Ib.Jb.Kb.Lb.Mb.A[ Nb.Ob.Pb.Qb.Rb.Sb.Tb.e. Ub.Vb.Wb.",
"Xb.Yb.Zb.BQ )! `b. c..c.+c.@c.#c.$c.%c.@c.&c.*c.=c.-c.-c.;c.>c.,c.'c.)c.!c.~c.{c.]c.^c./c.(c._c.:c.<c.[c.}c.|c.1c.2c.3c.4c.5c.6c.7c.8c.9c.0c.ac.bc.cc.dc.ec.fc.gc.]b.hc.ic.jc.kc.lc.mc.nc.oc.pc.qc.rc.sc.tc.uc.Z!.vc.wc.xc.yc.zc.Ac.Bc.Cc.Dc.Ec.Fc.Gc.Hc.Ic.Jc.Kc.Lc.Mc.Nc.Oc.Pc.Qc.Rc.Sc.Tc.Uc.j9.)6.Vc.Wc.Xc.Ia Yc.mc Zc.`c. d..d.}v +d.@d.>8 #d.$d.%d.&d.j) *d.=d.-d.;d.>d.,d.'d.)d.!d.~d.{d.",
"]d.^d./d.(d._d.:d.E;.<d.[d.}d.KB |d.1d.2d.o3.3d.4d.5d.6d.7d.8d.9d.0d.ad.bd.$ .cd.dd.ed.ed.fd.gd.hd.id.jd.kd.X8.ld.md.nd.od.pd.qd.rd.sd.td.ud.vd.wd.xd.yd.zd.Ad.Bd.Cd.m].Dd.Ed.Fd.Gd.Hd.Id.Jd.Kd.Ld.sp Md.Nd.Od.&Z 4V Pd.Qd.Rd.Sd.Td.Ud.Vd.xd.Wd.Xd.Yd.Zd.`d. e..e.+e.@e.#e.$e.%e.&e.*e.=e.-e.;e.>e.j6.,e.'e.)e.!e.~e.{e.]e.^e./e.(e._e.:e.<e.[e.}e.|e.1e.2e.3e._6.4e.5e.6e.7e.8e.9e.0e.ae.E& be.",
"ce.de.ee.fe.ge.he.CF ie.je.ke.le.me.ne.oe.pe.qe.re.se.te.ue.ve.we.xe.ye.ze.# .R8 Ae.Be.Ce.De.Ee.Fe.Ge.He.Ie.Je.Ke.Le.Me.Ne.Oe.Pe.Qe.Re.Se.Te.Ue.Ve.We.Xe.Ye.Ze.,;.`e. f..f.7c.+f.@f.#f.$f.*j %f.&f.*f.=f.-f.;f.>f.,f.'f.)f.!f.~f.{f.]f.^f./f.(f._f.:f.<f.[f.}f.|f.1f.2f.3f.4f.5f.6f.7f.:u 8f.9f.0f.R,.af.bf.cf.df.ef.ff.gf.hf.if.jf.kf.lf.mf.nf.of.pf.qf.rf.TQ sf.tf.uf.vf.wf.f| xf.yf.zf.Af.Bf.",
"ce.Cf.Df.Ef.Ff.Gf.y! Hf.If.Jf.Kf.Lf.Mf.Nf.41.Of.A-.Pf.Qf.j. Rf.Sf.Tf.Uf.Vf.Wf.A0.Xf.Be.>f Yf.Zf.`f. g..g.+g.@g.#g.$g.%g.&g.*g.=g.-g.;g.>g.,g.'g.)g.!g.~g.{g.]g.^g.fL /g.(g._g.:g.<g.[g.}g.|g.1g.+Z 2g.3g.4g.5g.6g.7g.8g.9g.0g.ag.bg.(a.cg.dg.eg.fg.gg.hg.ig.jg.tP kg.lg.mg.ng.og.pg.qg.rg.sg.tg.^6./6.ug.vg.wg.xg.yg.zg.Ag.Ag.Bg.Cg.Dg.Eg.Fg.s..Gg.Hg.Ig.Jg.pa.~6.Kg.pk ~}.Lg.Mg.78 Ng.Og.oj Be ",
"Pg.Qg.Rg.Sg.Tg.Ug.Vg.Wg.Xg.Yg.Zg.`g. h..h.+h.@h.#h.$h.%h.&h.*h.=h.-h.;h.>h.,h.A0.'h.zU )h.!h.~h.{h.]h.^h./h.(h._h.:h.<h.[h.}h.|h.1h.2h.3h.4h.5h.6h.M0.7h.8h.9h.0h.ah.bh.ch.dh.eh.fh.gh.hh.ih.jh.kh.lh.mh.nh.oh.ph.qh.rh.Y^.sh.th.uh.vh.wh.xh.yh.zh.Ah.Bh.Ch.Dh.Eh.kg.Fh.Gh.Hh.og.Ih.Jh.^c.Kh.Lh.Mh._6.af.Nh.Oh.C<.Ph.Qh.Rh.Rh.Sh.Th.Uh.Vh.Wh.Xh.Yh.Zh.`h. i..i.+i.@i.#i.OG $i.%i.Vf &i.*i.=i.-i.",
";i.>i.,i.'i.)i.!i.]7 ~i.{i.]i.^i./i.(i._i.:i.<i.(i.[i.}i.|i.1i.2i.3i.4i.5i.18.Zu 6i.7i.8i.9i.0i.ai.$e.bi.ra ci.di.ei.fi.gi.hi.ii.ji.ki.li.mi.ni.oi.Ah.pi.qi.ri.si.ti.ui.vi.wi.xi.yi.zi.Ai.Bi.Ci.X0.Di.Ei.Fi.Gi.Hi.l7.Ii.Ji.Ki.fk Li.Mi.eY Ni.Oi.Pi.Qi.Ri.Si.Ti.Ui.Vi.Wi.Xi.Yi.Zi.`i.]j  j..j.+j.'H @j.#j.v0.$j.%j.&j.*j.=j.=h.-j.-j.;j.>j.,j.'j.)j.!j.~j.{j.]j.+i.^j./j.(j._j.s!.`= :j.<j.[j.Z}.",
"}j.|j.1j.2j.({ 3j.]&.4j.5j.6j.7j.8j.9j.0j.aj.bj.0j.cj.dj.ej.fj.gj.hj.ij.jj.za 62 >0 kj.lj.mj.nj.oj.pj.qj.rj.sj.tj.uj.vj.wj.xj.yj.-M zj.Aj.Bj.Cj.Dj.Ej.Fj.Gj.Hj.Ij.Jj.Z8.Kj.Lj.qj.Mj.Nj.Oj.Pj.Qj.Rj.Sj.Tj.#p Uj.Vj.P@.Wj.Xj.Yj.Zj.`j. k..k.+k.@k.#k.rM $k.%k.&k.Oj.*k.=k.-k.;k.>k.,k.'k.)k.!k.~k.aY @j.{k.]k.^k./k.}8.(k._k.:k.iC <k.[k.}k.|k.1k.2k.3k.4k.0j.5k.~U 6k.7k.8k.^:.9k.0k.ak.bk.ck.dk.",
"~*.ek.1j.fk.$  gk..%.hk.ik.jk.kk.lk.mk.mk.nk.ok.pk.pk.qk.rk.sk.tk.0j.uk.vk.wk.Hl + .xk.yk.zk.Ak.Bk.Ck.Dk.Ek.Fk.Gk.Hk.Ik.X=.X=.Jk.Kk.Lk.Mk.=7.Nk.Ok.Pk.Qk.Rk.yU Sk.Tk.Uk.Vk.Wk.Xk.Pj.r8.Yk.}W Zk.`k. l..l.+l.@l.#l.$l.%l.&l.*l.=l.-l.;l.>l.,l.'l.)l.!l.~l.{l.]l.^l./l.(l._l.:l.|A <l.[l.}l.aV |l.1l.A0.2l.3l.4l.5l.6l.7l.8l.9l.0l.al.bl.ok.ok.cl.dl.el.fl.gl..i.hl.il.jl.kl.%* @m *- ll.ml.B#.uV ",
"nl.ol.pl.ql.rl.sl.tl.ul.vl.wl.xl.'{.#6.'{.yl.zl.Al.Bl.Cl.Dl.El.Fl.Gl.Hl.Il.Jl.Kl.Ll.Ml.Nl.Ol.Pl.Ql.Rl.Sl.Tl.Ul.Vl.Wl.Xl.Yl.Zl.`l. m..m.+m.@m.Go Go F*.#m.#m.$m.`) %m.&m.*m.=m.=m./c -m.;m.>m.;m.,m.'m.)m.)m.!m.~m.Ca {m.]m.^m./m.(m._m.&m.:m.Ug.,e.<m.Ug.Ug.[m.}m.|m.1m.2m.3m.4m.5m.6m.7m.8m.9m.0m.5k.am.bm.cm.dm.em.fm.gm.~+.hm.im.jm.km.lm.mm.mm.nm.om.pm.qm.5i.rm.sm.tm.}~ 8| [|.um.vm.y;.wm.",
"xm.ym.zm.Am.Bm.Cm.Dm.Em.Vf.:m._m.Fm.Gm.Hm.Im.Jm.Km.Km.Lm.Mm.Nm.~1 Om.Pm.Qm.r3 Rm.Sm.P' Tm.Um.Vm.Wm.Xm.Ym.Zm.`m. n..n.+n.@n.#n.$n.%n.$n.&n.*n.=n.&< -n.;n.>n.,n.N2 'n.5) )n.!n.~n.{n.]n.^n./n.(n..! LW _n.:n.<n.[n.I] }n.5} |n.1n.2n.3n.4n.5n.6n.L0 7n.8n.9n.0n.T2 an.bn.cn.cn.dn.j5 en.fn.gn.hn.in.jn.Jl kn.ln.mn.nn.on.pn.pn.qn.qn.rn.q5.sn.tn.un.(m.vn.wn.xn.yn.zn.An.Bn.wV Cn.Z(.~( 5* Dn.vm.",
"En.Fn.Gn.Hn.In.Jn.Kn.d(.Ln.Mn.Nn.On.Pn.Qn.Rn.Sn.[8 Tn.I2.Un.Vn.Wn.+,.Xn.Yn.Zn./n.`n. o..o.+o.@g @o.#o.$o.%o.&o.*o.=o..- -o.;o.;o.5& ]4 @3 @3 9& G| >& }r }r >o.,o.'o.)o.!o.~o.{o.]o.^o./o.(o.P( _o.:o.C4.<o.R> [o.}o.|o.1o.2o.3o.W& 4o.5o.6o.7o.9* 8o.9o.!5 ~* ~* O. +% a$ 0o.ao.bo.co.do.eo.S- fo.go.ho.io.jo.ko.lo.mo.no.oo.po.$|. %.i` Fd qo.ro.so.q3 to.q3 uo.vo.wo.xo.wo..- += /h bi D4.yo.",
"zo.Ao.(= @= '* Bo.V% Co.Do.Eo.Fo.Go.Ho.Io.Jo.Ko.Lo.Mo.No.Oo.Po.Qo.Ro.So.To.Uo.Vo.Wo.M= Xo.Yo.*3 a& '4 `2 [= Zo.`o. p..p.+p.@p.'_ `+ .3 #p.$p.7# %p.|$ |$ != !# &p.*p.=p.-p.;p.>p.%* Gk ,p.Ok uj oj >! rj ~( Q~.'p.'p.@D 2& W' )p.Cx 47 jd !p.$# ~p.8= 7# 3@ {p.]p.7$ 7# M. ^p./p.(p._p.:p.V2 <p./$ [p.7, }p.|p.1p.2p.3p.4p.5p.6p.uo.7p.8p.Y' 9p.0p.ap.K| bp.cp.U_ b7 dp.ep.'4 4> @= fp.5* Xp gp.",
"hp.ip.jp.>& @@ S  .$ -6 kp.lp.mp.np.op.pp.qp.rp.sp.tp.up.vp.wp.xp.yp.Q* 7{ zp.Ap.Bp.X1 t} Cp.Dp.)4 Ep.(< S* Fp.Gp.Hp.Ip.L  s} )_ )_ {: Jp.{p.{: )_ '_ Kp.Lp.S= != Mp.Np.Op._+.Pp.Qp.Rp.Sp.Tp.Up.nj Vp.Vp.Wp.Qp.>! R~.uj Xp.Yp.Zp.Y- `p. q.8# .q.7$ 4@ '_ )_ +q.*4 @+ ]p.'# @q.&p.#q.$q.%q.&q.*q.~# =q.-q.;q.Ep.>q.,q.:~ X^ 'q.)q.b& !q.~q.{q.*D ]q.^q./q.(q._q.:q.q; <q.[q._4 }q.ts J, vj (o.%- ",
"|q.1q.@= X1 2q.>$ 3q.-$ 4q.5q.6q.Co.|$ w| 7q.4= 8q.9q.0q.aq.yo.bq.cq.dq.eq.78 fq.W1 gq.;o.]p.Yo.$! @= !v :~ Fp.hq.iq.jq.a  s} kq.s} lq.mq.nq.lq.+p.nq.oq.nq.pq.'* qq.(8 rq.sq.tq.`f K6.s8 uq.vq.wq.wq.>h >! Qp.xq.yq.zq.Aq.Bq.Cq.nj O. :# %p.Dq.{: )_ @p.{: )_ {: Eq.Eq.)_ Fq.Gq.F+ Hq.Iq.f[ Jq.Kq.Lq.8o.Mq.b= Nq.b= P# <% Oq.(4 _& Pq.Zt ^o.Qq.16 Rq.Sq.Tq.Uq.Y! H= Vq.Wq.)=.'4 Xq.Yq.uj U0 Zq.",
"V= `q. r..r.+r.z| z| H& 3q.08 @r.#r.(# Y. $r.0k.%r.&r.*r.=r.N- P= !( dq.-r.78 [r '$ ]@ 7# l; U1 ;r.;: >r.$! ,r.'r.)r.iq.iq.g} !r.~r.{r.+p.{r.lq.+p.]r.Jp.^r.^r.#+ /r.(r._r.X_ :r.<r.^_ 0U [r.99 }r.|r.1r.Vp.2r.Ce 3r.'r.A1 4r.V}.5r.!5 6r.7r.6% 8r.7# 7$ {: 9r.6# 0r.ar.br.Eq.)# cr.dr.er.fr.Kq.}< t} !5 G. gr.b* 8c F= 8- G= [7 B, W; hr.ir.jr.kr.*p.lr.mr.nr.lr.or. - pr.}q.47 }@.{4 $3 %! qr.",
"rr.sr.tr.ur.vr.wr.3q.xr.G& k} (@ yr.zr.Ar.Ar._+.Br.Cr.Dr.Er.!# $& Fr.Gr._< 6& 9& >@ )* 3@ 8# L> ;o.'% 3r.Q~.Hr.X- b[ ~< ;_ a[ (@ g} r} Ir.Jr.Kr.Lr.Mr.oq.Nr.^: [$ Or.~m Pr.Qr.Rr.Sr.Tr.Ur.Vr.Vr.Wr.,T Xr.&! Yr.Zr.<# `r.u!. s.bn &! e= Eq.%p.p; {: )_ oq.Kp.Jp.oq..s.,* +s.Mr.7# 3m @s.#s.$s.O; e= !5 L= >+ 7@ %s._6 J- &s.*s.X2 =s.8@ ep.-s.;s.>s.,s.^* 's.)s.Y! !s.~s.Ge lj {s.&q.]s.O= g[ ^s.",
"/s.}< Kq.<$ B, (s.P. G. >+ 7@ =#  + Jq._s.:s.<s.[s.}s.|s.1s.2s.0% 3s.:= b$ 27 b= >o.!5 5@ d= #+ 4s.5s.6s.|& |m.7s.b[ O+ w- 8s.(@ !r.{r.Z* 9s.~: 0s.as.bs.Eq.O; cs./r.ds.es.fs.gs.m; hs.is.js.ks.ls.ms.ns.os.ps.(D )p.dn qs.rs.ss.ts.us.6# vs.vs.7$ 7# Jq.Jq.++ !$ '* #+ <# )* ws.xs._, ys.N' %o.zs.As.Bs.Cs.t' V# Ds.i= q> Es.e* 9= Fs.Gs.Hs.Is.Js.Ks.Ls.Ms.Ms.G+ G+ jp.Ns.Cn.Os.H1 Y^ cq.Ps.Ok "};
