/* XPM */
static char * floor_xpm[] = {
"128 128 13373 3",
"   	c #26101B",
".  	c #3D1E22",
"+  	c #563B35",
"@  	c #321F23",
"#  	c #311920",
"$  	c #3E2425",
"%  	c #4E322D",
"&  	c #452728",
"*  	c #421224",
"=  	c #4E1D29",
"-  	c #481926",
";  	c #4C1D28",
">  	c #695348",
",  	c #9B8F75",
"'  	c #6E6258",
")  	c #3B2B2E",
"!  	c #170210",
"~  	c #60564C",
"{  	c #BDAD8C",
"]  	c #9A8570",
"^  	c #594444",
"/  	c #552827",
"(  	c #6F2E27",
"_  	c #542225",
":  	c #72352A",
"<  	c #713528",
"[  	c #5A1A21",
"}  	c #8F4E3A",
"|  	c #9F5538",
"1  	c #88412F",
"2  	c #682B22",
"3  	c #531F1D",
"4  	c #562D2E",
"5  	c #64403D",
"6  	c #5D4946",
"7  	c #44282E",
"8  	c #401E27",
"9  	c #421F25",
"0  	c #3F1924",
"a  	c #351222",
"b  	c #13040F",
"c  	c #7C5857",
"d  	c #4D3239",
"e  	c #270E1F",
"f  	c #2C0F21",
"g  	c #5A463E",
"h  	c #735D4A",
"i  	c #755F4B",
"j  	c #211118",
"k  	c #13020F",
"l  	c #54373B",
"m  	c #654A45",
"n  	c #664A47",
"o  	c #10020C",
"p  	c #935139",
"q  	c #834135",
"r  	c #3A111B",
"s  	c #320C18",
"t  	c #280517",
"u  	c #31181B",
"v  	c #875034",
"w  	c #946441",
"x  	c #724734",
"y  	c #492020",
"z  	c #3E141E",
"A  	c #400F1C",
"B  	c #5F241F",
"C  	c #642620",
"D  	c #5E241F",
"E  	c #703B2A",
"F  	c #91512F",
"G  	c #84442E",
"H  	c #82402C",
"I  	c #813C27",
"J  	c #532220",
"K  	c #885139",
"L  	c #A96441",
"M  	c #C07548",
"N  	c #BD7040",
"O  	c #B67138",
"P  	c #B47137",
"Q  	c #A06036",
"R  	c #72392A",
"S  	c #B9825B",
"T  	c #BA835B",
"U  	c #5A2727",
"V  	c #956B4F",
"W  	c #BD8457",
"X  	c #9B6442",
"Y  	c #65392C",
"Z  	c #300D1C",
"`  	c #6E4734",
" . 	c #B7835A",
".. 	c #CA905A",
"+. 	c #AD7A53",
"@. 	c #633B36",
"#. 	c #39141E",
"$. 	c #300E19",
"%. 	c #472826",
"&. 	c #724433",
"*. 	c #5E352B",
"=. 	c #361A20",
"-. 	c #47271F",
";. 	c #79452D",
">. 	c #7C442B",
",. 	c #7E4228",
"'. 	c #773E28",
"). 	c #572D24",
"!. 	c #28031C",
"~. 	c #210417",
"{. 	c #402C2B",
"]. 	c #3A1C23",
"^. 	c #340E1E",
"/. 	c #320E1C",
"(. 	c #583731",
"_. 	c #725042",
":. 	c #4C282A",
"<. 	c #41141F",
"[. 	c #2A0419",
"}. 	c #1C0216",
"|. 	c #190213",
"1. 	c #87968D",
"2. 	c #858D85",
"3. 	c #513F41",
"4. 	c #463035",
"5. 	c #210819",
"6. 	c #3F282C",
"7. 	c #5A3836",
"8. 	c #4C3935",
"9. 	c #8E6E60",
"0. 	c #513535",
"a. 	c #61443A",
"b. 	c #6F4E3F",
"c. 	c #6F4C40",
"d. 	c #6A473D",
"e. 	c #654540",
"f. 	c #1B0615",
"g. 	c #1C0416",
"h. 	c #200719",
"i. 	c #180312",
"j. 	c #50423F",
"k. 	c #7E7162",
"l. 	c #7F7060",
"m. 	c #4D3C3D",
"n. 	c #250E18",
"o. 	c #443332",
"p. 	c #796659",
"q. 	c #715A51",
"r. 	c #604744",
"s. 	c #66352E",
"t. 	c #682D25",
"u. 	c #885035",
"v. 	c #904D31",
"w. 	c #8C4A2E",
"x. 	c #7D3F2C",
"y. 	c #814C37",
"z. 	c #774430",
"A. 	c #C78D63",
"B. 	c #AC734B",
"C. 	c #835137",
"D. 	c #422B29",
"E. 	c #6E4F41",
"F. 	c #321720",
"G. 	c #451B26",
"H. 	c #4C1C29",
"I. 	c #491B27",
"J. 	c #350E20",
"K. 	c #402B31",
"L. 	c #584548",
"M. 	c #39262D",
"N. 	c #4B2D32",
"O. 	c #5E3331",
"P. 	c #69433C",
"Q. 	c #4F3131",
"R. 	c #422829",
"S. 	c #381E21",
"T. 	c #3D1D29",
"U. 	c #40202C",
"V. 	c #210F1B",
"W. 	c #473434",
"X. 	c #593F3B",
"Y. 	c #13030C",
"Z. 	c #6E2B28",
"`. 	c #5E2325",
" + 	c #320B16",
".+ 	c #713B2B",
"++ 	c #733C2A",
"@+ 	c #6D3A2A",
"#+ 	c #8E5734",
"$+ 	c #834C2E",
"%+ 	c #774129",
"&+ 	c #723F2E",
"*+ 	c #602E28",
"=+ 	c #5F2C26",
"-+ 	c #682722",
";+ 	c #782F24",
">+ 	c #8F4525",
",+ 	c #9B5331",
"'+ 	c #985735",
")+ 	c #884834",
"!+ 	c #A05D3D",
"~+ 	c #9B5639",
"{+ 	c #552025",
"]+ 	c #7A4937",
"^+ 	c #955941",
"/+ 	c #D1814D",
"(+ 	c #CC7C45",
"_+ 	c #B05F36",
":+ 	c #88462B",
"<+ 	c #723A2B",
"[+ 	c #703A2E",
"}+ 	c #A77552",
"|+ 	c #AD7956",
"1+ 	c #4F242A",
"2+ 	c #401A24",
"3+ 	c #8A6B59",
"4+ 	c #5E4438",
"5+ 	c #542F29",
"6+ 	c #754539",
"7+ 	c #83533B",
"8+ 	c #98623C",
"9+ 	c #AC7446",
"0+ 	c #7B4E39",
"a+ 	c #4F2024",
"b+ 	c #5D2227",
"c+ 	c #4F1C25",
"d+ 	c #260718",
"e+ 	c #1E0516",
"f+ 	c #442528",
"g+ 	c #864A3C",
"h+ 	c #532829",
"i+ 	c #1F0614",
"j+ 	c #2E0B1A",
"k+ 	c #380F1C",
"l+ 	c #2D091D",
"m+ 	c #200419",
"n+ 	c #1B0314",
"o+ 	c #785E53",
"p+ 	c #644F40",
"q+ 	c #4A2A2D",
"r+ 	c #391323",
"s+ 	c #341423",
"t+ 	c #3B1D26",
"u+ 	c #291020",
"v+ 	c #572E30",
"w+ 	c #522329",
"x+ 	c #441A22",
"y+ 	c #472422",
"z+ 	c #55493E",
"A+ 	c #6D716B",
"B+ 	c #61595A",
"C+ 	c #523C41",
"D+ 	c #543E42",
"E+ 	c #2A1320",
"F+ 	c #290C1D",
"G+ 	c #361626",
"H+ 	c #654F4A",
"I+ 	c #836559",
"J+ 	c #533637",
"K+ 	c #603E34",
"L+ 	c #694537",
"M+ 	c #6C463A",
"N+ 	c #704F46",
"O+ 	c #785D56",
"P+ 	c #877E77",
"Q+ 	c #3A2B2E",
"R+ 	c #2D1421",
"S+ 	c #341924",
"T+ 	c #250F19",
"U+ 	c #4F4241",
"V+ 	c #554745",
"W+ 	c #4C3A3C",
"X+ 	c #5B3F3E",
"Y+ 	c #5A3837",
"Z+ 	c #5B3939",
"`+ 	c #492F30",
" @ 	c #432828",
".@ 	c #704231",
"+@ 	c #925239",
"@@ 	c #A7643E",
"#@ 	c #975233",
"$@ 	c #914D31",
"%@ 	c #8C4A2F",
"&@ 	c #683728",
"*@ 	c #2B1018",
"=@ 	c #B78863",
"-@ 	c #A9754D",
";@ 	c #805035",
">@ 	c #42262B",
",@ 	c #573C35",
"'@ 	c #6A554F",
")@ 	c #705950",
"!@ 	c #634940",
"~@ 	c #2B0718",
"{@ 	c #28071A",
"]@ 	c #584340",
"^@ 	c #846B5F",
"/@ 	c #67524C",
"(@ 	c #543B3B",
"_@ 	c #542D2E",
":@ 	c #613C36",
"<@ 	c #4C292C",
"[@ 	c #8F8B89",
"}@ 	c #9C9C98",
"|@ 	c #8A8587",
"1@ 	c #401F2C",
"2@ 	c #2C151E",
"3@ 	c #371E1D",
"4@ 	c #280C1A",
"5@ 	c #310F19",
"6@ 	c #5B2024",
"7@ 	c #632E2A",
"8@ 	c #824F38",
"9@ 	c #9D593A",
"0@ 	c #995534",
"a@ 	c #955235",
"b@ 	c #6C3621",
"c@ 	c #7A432D",
"d@ 	c #78442D",
"e@ 	c #62372F",
"f@ 	c #71473B",
"g@ 	c #A56949",
"h@ 	c #7C392B",
"i@ 	c #873E29",
"j@ 	c #944F33",
"k@ 	c #92573A",
"l@ 	c #905B3E",
"m@ 	c #733F36",
"n@ 	c #9D5D3E",
"o@ 	c #9D5A3D",
"p@ 	c #622E28",
"q@ 	c #3C1422",
"r@ 	c #5B3131",
"s@ 	c #B86C44",
"t@ 	c #BC7245",
"u@ 	c #A95C38",
"v@ 	c #7A392A",
"w@ 	c #9D6F51",
"x@ 	c #9D6944",
"y@ 	c #814031",
"z@ 	c #6E2F28",
"A@ 	c #4F1E22",
"B@ 	c #4B1C23",
"C@ 	c #41171E",
"D@ 	c #51252B",
"E@ 	c #7C443A",
"F@ 	c #8F5943",
"G@ 	c #582826",
"H@ 	c #4E1D23",
"I@ 	c #461621",
"J@ 	c #62352F",
"K@ 	c #7C4132",
"L@ 	c #71382E",
"M@ 	c #45282C",
"N@ 	c #795A4B",
"O@ 	c #462227",
"P@ 	c #58262A",
"Q@ 	c #8E513B",
"R@ 	c #835038",
"S@ 	c #4E2F2A",
"T@ 	c #340F19",
"U@ 	c #2F0E19",
"V@ 	c #3B1420",
"W@ 	c #34121D",
"X@ 	c #2B121C",
"Y@ 	c #56403C",
"Z@ 	c #5A4A41",
"`@ 	c #9F9D94",
" # 	c #A7A498",
".# 	c #A09E91",
"+# 	c #8B8880",
"@# 	c #8E8C82",
"## 	c #594347",
"$# 	c #371729",
"%# 	c #452225",
"&# 	c #74574C",
"*# 	c #B7BCA9",
"=# 	c #79756D",
"-# 	c #513F3F",
";# 	c #472F33",
"># 	c #3A252A",
",# 	c #250918",
"'# 	c #230218",
")# 	c #240419",
"!# 	c #6F5652",
"~# 	c #614845",
"{# 	c #47292F",
"]# 	c #522D26",
"^# 	c #61392E",
"/# 	c #633C33",
"(# 	c #654943",
"_# 	c #816960",
":# 	c #998F83",
"<# 	c #594B48",
"[# 	c #3B252E",
"}# 	c #542D33",
"|# 	c #553137",
"1# 	c #10010B",
"2# 	c #120009",
"3# 	c #5E4B47",
"4# 	c #75554D",
"5# 	c #6F4E48",
"6# 	c #674B46",
"7# 	c #443C3F",
"8# 	c #473337",
"9# 	c #8A563C",
"0# 	c #BF7343",
"a# 	c #AE623E",
"b# 	c #924B31",
"c# 	c #945031",
"d# 	c #945331",
"e# 	c #844632",
"f# 	c #662930",
"g# 	c #2D0F19",
"h# 	c #3E1921",
"i# 	c #512028",
"j# 	c #441C29",
"k# 	c #2E131F",
"l# 	c #837366",
"m# 	c #8B796A",
"n# 	c #735B4E",
"o# 	c #421D23",
"p# 	c #441E22",
"q# 	c #71574E",
"r# 	c #9D836C",
"s# 	c #7E655D",
"t# 	c #533A3B",
"u# 	c #45222B",
"v# 	c #422027",
"w# 	c #361523",
"x# 	c #B1B5B3",
"y# 	c #C0C9C3",
"z# 	c #A0A4A8",
"A# 	c #17021C",
"B# 	c #59302F",
"C# 	c #643A2F",
"D# 	c #250817",
"E# 	c #38111C",
"F# 	c #752E27",
"G# 	c #8F4C38",
"H# 	c #C57F50",
"I# 	c #A35C38",
"J# 	c #924D2E",
"K# 	c #8B492C",
"L# 	c #6A3623",
"M# 	c #743E2C",
"N# 	c #733D2B",
"O# 	c #6B352D",
"P# 	c #733C32",
"Q# 	c #97553B",
"R# 	c #9C593E",
"S# 	c #934C32",
"T# 	c #6C392C",
"U# 	c #371222",
"V# 	c #36101E",
"W# 	c #562628",
"X# 	c #7A412D",
"Y# 	c #85452E",
"Z# 	c #884932",
"`# 	c #512526",
" $ 	c #4D2028",
".$ 	c #541E26",
"+$ 	c #461422",
"@$ 	c #722E25",
"#$ 	c #733527",
"$$ 	c #D19D66",
"%$ 	c #C38F54",
"&$ 	c #824131",
"*$ 	c #793025",
"=$ 	c #833A2B",
"-$ 	c #7A3128",
";$ 	c #7C372C",
">$ 	c #723128",
",$ 	c #612827",
"'$ 	c #42171C",
")$ 	c #4E2024",
"!$ 	c #4C1D20",
"~$ 	c #541F1F",
"{$ 	c #7E4937",
"]$ 	c #985A42",
"^$ 	c #7E4838",
"/$ 	c #5F3C3E",
"($ 	c #A57F62",
"_$ 	c #5E3132",
":$ 	c #652C2B",
"<$ 	c #8D583A",
"[$ 	c #A06A40",
"}$ 	c #736536",
"|$ 	c #543422",
"1$ 	c #643323",
"2$ 	c #491420",
"3$ 	c #5A3638",
"4$ 	c #684745",
"5$ 	c #0F000F",
"6$ 	c #5D5B5B",
"7$ 	c #AAACA0",
"8$ 	c #BCBDAE",
"9$ 	c #B8B9AA",
"0$ 	c #A8AA9D",
"a$ 	c #ABAB9C",
"b$ 	c #5E565C",
"c$ 	c #291832",
"d$ 	c #452626",
"e$ 	c #775C52",
"f$ 	c #BBBCAC",
"g$ 	c #7D7B74",
"h$ 	c #4A3A3B",
"i$ 	c #371E27",
"j$ 	c #1E0611",
"k$ 	c #34131F",
"l$ 	c #32111E",
"m$ 	c #280819",
"n$ 	c #482838",
"o$ 	c #4F363A",
"p$ 	c #3C222B",
"q$ 	c #29071A",
"r$ 	c #280719",
"s$ 	c #310A1C",
"t$ 	c #624C48",
"u$ 	c #816B63",
"v$ 	c #716364",
"w$ 	c #726361",
"x$ 	c #524147",
"y$ 	c #4B242E",
"z$ 	c #4C242E",
"A$ 	c #320E1F",
"B$ 	c #775D4E",
"C$ 	c #514038",
"D$ 	c #3D192A",
"E$ 	c #5C3E40",
"F$ 	c #634843",
"G$ 	c #8B8383",
"H$ 	c #796768",
"I$ 	c #723C2D",
"J$ 	c #86432D",
"K$ 	c #7D3927",
"L$ 	c #86412A",
"M$ 	c #935031",
"N$ 	c #9B5B35",
"O$ 	c #A6683F",
"P$ 	c #854434",
"Q$ 	c #682B2F",
"R$ 	c #67272C",
"S$ 	c #582529",
"T$ 	c #3B1E24",
"U$ 	c #472429",
"V$ 	c #867971",
"W$ 	c #8D8277",
"X$ 	c #432E2F",
"Y$ 	c #60322E",
"Z$ 	c #7A4D3D",
"`$ 	c #8D6A57",
" % 	c #A18B74",
".% 	c #6B514E",
"+% 	c #58373A",
"@% 	c #4F2A2D",
"#% 	c #3B1921",
"$% 	c #28091A",
"%% 	c #5A4E57",
"&% 	c #5C4E58",
"*% 	c #584955",
"=% 	c #150317",
"-% 	c #68463A",
";% 	c #744C3C",
">% 	c #68453A",
",% 	c #502B2B",
"'% 	c #B97642",
")% 	c #A45E3A",
"!% 	c #84432E",
"~% 	c #BA7E52",
"{% 	c #CF9056",
"]% 	c #C98A50",
"^% 	c #B87740",
"/% 	c #7B432C",
"(% 	c #A8754B",
"_% 	c #C2874F",
":% 	c #AD7144",
"<% 	c #834734",
"[% 	c #64332D",
"}% 	c #894935",
"|% 	c #763B31",
"1% 	c #5C262A",
"2% 	c #9D4F3A",
"3% 	c #7E3D2D",
"4% 	c #7C3D2A",
"5% 	c #82412B",
"6% 	c #86442E",
"7% 	c #904C36",
"8% 	c #8E462F",
"9% 	c #83382D",
"0% 	c #6A2627",
"a% 	c #9E5A3A",
"b% 	c #A35E37",
"c% 	c #A15D35",
"d% 	c #985530",
"e% 	c #995332",
"f% 	c #9E5833",
"g% 	c #BA7443",
"h% 	c #9F552E",
"i% 	c #BD7A49",
"j% 	c #B0693F",
"k% 	c #965236",
"l% 	c #68322A",
"m% 	c #632E29",
"n% 	c #612C26",
"o% 	c #8A4632",
"p% 	c #71372B",
"q% 	c #3A1325",
"r% 	c #381021",
"s% 	c #531B28",
"t% 	c #541A24",
"u% 	c #6E3A31",
"v% 	c #764334",
"w% 	c #6C3833",
"x% 	c #542D31",
"y% 	c #79892D",
"z% 	c #977D40",
"A% 	c #C88749",
"B% 	c #A76740",
"C% 	c #6C4639",
"D% 	c #605F63",
"E% 	c #BAC4BC",
"F% 	c #B7B7A7",
"G% 	c #B0B1A2",
"H% 	c #B4B6A9",
"I% 	c #C1C3B5",
"J% 	c #B4B4A5",
"K% 	c #B0B1A1",
"L% 	c #767278",
"M% 	c #372B43",
"N% 	c #381D1F",
"O% 	c #623A39",
"P% 	c #72635F",
"Q% 	c #584B4C",
"R% 	c #392B31",
"S% 	c #231218",
"T% 	c #907D71",
"U% 	c #41242B",
"V% 	c #4C252B",
"W% 	c #4E2A2C",
"X% 	c #301325",
"Y% 	c #2D1D26",
"Z% 	c #433D3D",
"`% 	c #AFB0A3",
" & 	c #B0B0A4",
".& 	c #BBB8AD",
"+& 	c #C6C4B7",
"@& 	c #CCC8BA",
"#& 	c #3E3637",
"$& 	c #3F2E34",
"%& 	c #402B2F",
"&& 	c #604035",
"*& 	c #5B3B30",
"=& 	c #5B3B33",
"-& 	c #66483B",
";& 	c #452F30",
">& 	c #62514D",
",& 	c #7C685E",
"'& 	c #6A554E",
")& 	c #675652",
"!& 	c #574343",
"~& 	c #61352A",
"{& 	c #8A492E",
"]& 	c #90502F",
"^& 	c #904F2F",
"/& 	c #985834",
"(& 	c #985935",
"_& 	c #A2663A",
":& 	c #A76F44",
"<& 	c #774230",
"[& 	c #6A3429",
"}& 	c #5F2D2C",
"|& 	c #4A2E2B",
"1& 	c #5D3B2F",
"2& 	c #7C6C62",
"3& 	c #78685F",
"4& 	c #503637",
"5& 	c #502728",
"6& 	c #7A5042",
"7& 	c #825B4B",
"8& 	c #8C7061",
"9& 	c #644440",
"0& 	c #583432",
"a& 	c #57302C",
"b& 	c #4B2328",
"c& 	c #310E1F",
"d& 	c #3D2D36",
"e& 	c #3F3139",
"f& 	c #34242F",
"g& 	c #604B42",
"h& 	c #6F5141",
"i& 	c #664237",
"j& 	c #694B3A",
"k& 	c #522F30",
"l& 	c #84523C",
"m& 	c #A96B49",
"n& 	c #BF7F4D",
"o& 	c #C88953",
"p& 	c #CB8B4E",
"q& 	c #C38146",
"r& 	c #B06D3A",
"s& 	c #86462E",
"t& 	c #9D6340",
"u& 	c #A76A3F",
"v& 	c #895236",
"w& 	c #6B382C",
"x& 	c #81493C",
"y& 	c #7A4337",
"z& 	c #804C39",
"A& 	c #874E37",
"B& 	c #783D2E",
"C& 	c #B17A4E",
"D& 	c #A0663E",
"E& 	c #905637",
"F& 	c #653126",
"G& 	c #693329",
"H& 	c #6E342A",
"I& 	c #713029",
"J& 	c #612723",
"K& 	c #A45D38",
"L& 	c #A55F36",
"M& 	c #9C5734",
"N& 	c #905032",
"O& 	c #925133",
"P& 	c #935333",
"Q& 	c #9C603C",
"R& 	c #85412B",
"S& 	c #9F5837",
"T& 	c #AD643A",
"U& 	c #AE683C",
"V& 	c #A6663D",
"W& 	c #683328",
"X& 	c #65332C",
"Y& 	c #763A29",
"Z& 	c #6E372B",
"`& 	c #481E2C",
" * 	c #2E0B18",
".* 	c #9C6447",
"+* 	c #945638",
"@* 	c #703A2C",
"#* 	c #7B513A",
"$* 	c #976740",
"%* 	c #62402F",
"&* 	c #878928",
"** 	c #9A892D",
"=* 	c #B26F3E",
"-* 	c #754738",
";* 	c #40262B",
">* 	c #5F626B",
",* 	c #CDD8D1",
"'* 	c #CCD2C2",
")* 	c #C6CBBC",
"!* 	c #C6CABD",
"~* 	c #C0C2B4",
"{* 	c #A49D94",
"]* 	c #6A6562",
"^* 	c #564E5E",
"/* 	c #362A40",
"(* 	c #30151B",
"_* 	c #532C2E",
":* 	c #4E3F41",
"<* 	c #372A32",
"[* 	c #726354",
"}* 	c #8E7C5E",
"|* 	c #684544",
"1* 	c #653C39",
"2* 	c #663C38",
"3* 	c #673C38",
"4* 	c #1F0719",
"5* 	c #21121C",
"6* 	c #544F4E",
"7* 	c #B8BBAB",
"8* 	c #CED3C1",
"9* 	c #CED4C2",
"0* 	c #C0C7B9",
"a* 	c #434249",
"b* 	c #30242F",
"c* 	c #3B2325",
"d* 	c #674539",
"e* 	c #623F30",
"f* 	c #6F503F",
"g* 	c #553B35",
"h* 	c #4A3233",
"i* 	c #685149",
"j* 	c #7B6357",
"k* 	c #654D46",
"l* 	c #4A302F",
"m* 	c #371E21",
"n* 	c #63372D",
"o* 	c #925032",
"p* 	c #985431",
"q* 	c #975431",
"r* 	c #9B5A34",
"s* 	c #975834",
"t* 	c #995F36",
"u* 	c #AA7548",
"v* 	c #7D4A33",
"w* 	c #703C2A",
"x* 	c #65382A",
"y* 	c #52342C",
"z* 	c #654130",
"A* 	c #533631",
"B* 	c #4C302E",
"C* 	c #4F2F2F",
"D* 	c #583A34",
"E* 	c #967D6A",
"F* 	c #8A6E5E",
"G* 	c #68433C",
"H* 	c #5B3632",
"I* 	c #512C2C",
"J* 	c #5B3530",
"K* 	c #59322D",
"L* 	c #56322D",
"M* 	c #4B2E2B",
"N* 	c #3B2223",
"O* 	c #2C101C",
"P* 	c #6F5444",
"Q* 	c #6C4F3F",
"R* 	c #5A3A31",
"S* 	c #5D4036",
"T* 	c #4E2D2F",
"U* 	c #814B3B",
"V* 	c #B47851",
"W* 	c #D19157",
"X* 	c #D08F55",
"Y* 	c #C6834C",
"Z* 	c #B6723D",
"`* 	c #A66136",
" = 	c #A8643C",
".= 	c #B3723E",
"+= 	c #AE6F3D",
"@= 	c #652B25",
"#= 	c #612F28",
"$= 	c #9C6144",
"%= 	c #7F4939",
"&= 	c #8A5438",
"*= 	c #9A5C3B",
"== 	c #582724",
"-= 	c #AD7A4D",
";= 	c #A1693E",
">= 	c #885538",
",= 	c #491D22",
"'= 	c #4D1F25",
")= 	c #4D1E21",
"!= 	c #642B26",
"~= 	c #622C26",
"{= 	c #945531",
"]= 	c #91512E",
"^= 	c #87472E",
"/= 	c #8E4F32",
"(= 	c #864B32",
"_= 	c #68352C",
":= 	c #814231",
"<= 	c #A8633E",
"[= 	c #B36C40",
"}= 	c #B7703C",
"|= 	c #B87440",
"1= 	c #78432E",
"2= 	c #602F28",
"3= 	c #6C362A",
"4= 	c #6F372D",
"5= 	c #562929",
"6= 	c #2C0918",
"7= 	c #9F6648",
"8= 	c #B4754A",
"9= 	c #8D563E",
"0= 	c #754E35",
"a= 	c #A07449",
"b= 	c #7B4A36",
"c= 	c #957B33",
"d= 	c #92772C",
"e= 	c #905E39",
"f= 	c #664138",
"g= 	c #4B2D2D",
"h= 	c #6A6E76",
"i= 	c #CEDAD1",
"j= 	c #D0D6C9",
"k= 	c #CCD3C5",
"l= 	c #CCD2C4",
"m= 	c #B3B4A7",
"n= 	c #887F7A",
"o= 	c #392739",
"p= 	c #423950",
"q= 	c #372B41",
"r= 	c #2B0D19",
"s= 	c #3C1922",
"t= 	c #2B141E",
"u= 	c #432D2C",
"v= 	c #74614C",
"w= 	c #8A7353",
"x= 	c #441E2D",
"y= 	c #603A38",
"z= 	c #553330",
"A= 	c #1E0B18",
"B= 	c #33262A",
"C= 	c #5A5054",
"D= 	c #757071",
"E= 	c #D7D9CA",
"F= 	c #CDD1C1",
"G= 	c #B5BAB2",
"H= 	c #747E8A",
"I= 	c #525D6A",
"J= 	c #3A333F",
"K= 	c #391921",
"L= 	c #58302B",
"M= 	c #64382B",
"N= 	c #80634F",
"O= 	c #503732",
"P= 	c #5B3B37",
"Q= 	c #634137",
"R= 	c #624138",
"S= 	c #553431",
"T= 	c #412424",
"U= 	c #4B2927",
"V= 	c #8D462F",
"W= 	c #A75F36",
"X= 	c #9C5930",
"Y= 	c #995830",
"Z= 	c #975530",
"`= 	c #904E2D",
" - 	c #854328",
".- 	c #793B29",
"+- 	c #955A3A",
"@- 	c #9B5F3D",
"#- 	c #5F362D",
"$- 	c #5B3427",
"%- 	c #512D26",
"&- 	c #49292A",
"*- 	c #674D49",
"=- 	c #AF9D85",
"-- 	c #B4A587",
";- 	c #A0937E",
">- 	c #5F3735",
",- 	c #482226",
"'- 	c #2E1418",
")- 	c #6F5145",
"!- 	c #734E3C",
"~- 	c #845D44",
"{- 	c #805840",
"]- 	c #754E3B",
"^- 	c #513332",
"/- 	c #684637",
"(- 	c #613F33",
"_- 	c #593B32",
":- 	c #4B2C2A",
"<- 	c #422023",
"[- 	c #B56A3B",
"}- 	c #CB8757",
"|- 	c #DA9A5D",
"1- 	c #DA985D",
"2- 	c #9D5832",
"3- 	c #A25E36",
"4- 	c #B67542",
"5- 	c #BA7744",
"6- 	c #B26E38",
"7- 	c #9B5930",
"8- 	c #5D2121",
"9- 	c #654439",
"0- 	c #CA8E58",
"a- 	c #B67640",
"b- 	c #B16E3D",
"c- 	c #A56540",
"d- 	c #733A31",
"e- 	c #774135",
"f- 	c #482325",
"g- 	c #572529",
"h- 	c #552627",
"i- 	c #69382B",
"j- 	c #AF714A",
"k- 	c #B17953",
"l- 	c #672B26",
"m- 	c #955C3F",
"n- 	c #9E6443",
"o- 	c #8A4D32",
"p- 	c #9B5B3B",
"q- 	c #965737",
"r- 	c #A16341",
"s- 	c #8F543C",
"t- 	c #98553A",
"u- 	c #C0814E",
"v- 	c #C4804C",
"w- 	c #C27F47",
"x- 	c #BF7D46",
"y- 	c #B57443",
"z- 	c #6B3528",
"A- 	c #612C25",
"B- 	c #814E39",
"C- 	c #935C42",
"D- 	c #481D26",
"E- 	c #451720",
"F- 	c #BE875A",
"G- 	c #B5804F",
"H- 	c #744725",
"I- 	c #4D2120",
"J- 	c #A1654D",
"K- 	c #B17448",
"L- 	c #95603E",
"M- 	c #3B171F",
"N- 	c #926346",
"O- 	c #7B503E",
"P- 	c #797C81",
"Q- 	c #D0DCD3",
"R- 	c #D0DCCF",
"S- 	c #D1DACE",
"T- 	c #D2DACC",
"U- 	c #817B77",
"V- 	c #574A51",
"W- 	c #4C454E",
"X- 	c #433C4F",
"Y- 	c #3D3147",
"Z- 	c #200D1E",
"`- 	c #200816",
" ; 	c #3B2323",
".; 	c #6D4D3F",
"+; 	c #624239",
"@; 	c #4B2830",
"#; 	c #441A2E",
"$; 	c #5C312D",
"%; 	c #532D2B",
"&; 	c #170318",
"*; 	c #605B5D",
"=; 	c #A2A09A",
"-; 	c #6F6869",
";; 	c #6D6A6A",
">; 	c #868682",
",; 	c #7F807E",
"'; 	c #6C6D72",
"); 	c #666E79",
"!; 	c #768992",
"~; 	c #413E47",
"{; 	c #29151D",
"]; 	c #52292A",
"^; 	c #815138",
"/; 	c #53312B",
"(; 	c #653C35",
"_; 	c #603634",
":; 	c #633930",
"<; 	c #785242",
"[; 	c #3F1D1E",
"}; 	c #4E2A25",
"|; 	c #522C26",
"1; 	c #7D4B33",
"2; 	c #AA6235",
"3; 	c #AA6034",
"4; 	c #A65E33",
"5; 	c #A15D33",
"6; 	c #9D5A31",
"7; 	c #A35F38",
"8; 	c #AD693F",
"9; 	c #A6613C",
"0; 	c #8A482F",
"a; 	c #6F3E32",
"b; 	c #694137",
"c; 	c #623F36",
"d; 	c #442428",
"e; 	c #58423F",
"f; 	c #A8987F",
"g; 	c #8E806C",
"h; 	c #685A53",
"i; 	c #552B2C",
"j; 	c #80614C",
"k; 	c #725640",
"l; 	c #856651",
"m; 	c #704D3E",
"n; 	c #724B3E",
"o; 	c #5A3735",
"p; 	c #7E5D4D",
"q; 	c #9D765F",
"r; 	c #5F423B",
"s; 	c #492F2D",
"t; 	c #A59888",
"u; 	c #7E706A",
"v; 	c #39171D",
"w; 	c #A55A35",
"x; 	c #C58552",
"y; 	c #CF9059",
"z; 	c #A3603F",
"A; 	c #85452B",
"B; 	c #B17346",
"C; 	c #D69856",
"D; 	c #D39456",
"E; 	c #874630",
"F; 	c #8B5338",
"G; 	c #B1764C",
"H; 	c #A86B4A",
"I; 	c #CD9057",
"J; 	c #C3844D",
"K; 	c #AE7347",
"L; 	c #89553C",
"M; 	c #6B342A",
"N; 	c #7B4838",
"O; 	c #532C2D",
"P; 	c #703C2F",
"Q; 	c #914F38",
"R; 	c #975D3E",
"S; 	c #A66942",
"T; 	c #915A3D",
"U; 	c #9D613F",
"V; 	c #C58755",
"W; 	c #C88E5A",
"X; 	c #854830",
"Y; 	c #935234",
"Z; 	c #985638",
"`; 	c #9A5D3D",
" > 	c #965C41",
".> 	c #431E20",
"+> 	c #AF7A53",
"@> 	c #B4774F",
"#> 	c #995B3D",
"$> 	c #8A5238",
"%> 	c #A56E4B",
"&> 	c #D39D6A",
"*> 	c #A36741",
"=> 	c #955735",
"-> 	c #A0694A",
";> 	c #94715C",
">> 	c #874F3B",
",> 	c #A96845",
"'> 	c #B07D4C",
")> 	c #A27640",
"!> 	c #936E37",
"~> 	c #734435",
"{> 	c #64332E",
"]> 	c #60332D",
"^> 	c #632F2B",
"/> 	c #884735",
"(> 	c #5A2E2B",
"_> 	c #42414B",
":> 	c #676974",
"<> 	c #676870",
"[> 	c #656365",
"}> 	c #645F5F",
"|> 	c #54484E",
"1> 	c #4A3E47",
"2> 	c #656069",
"3> 	c #433B4B",
"4> 	c #2A1C2E",
"5> 	c #190613",
"6> 	c #512F2B",
"7> 	c #472524",
"8> 	c #3F2923",
"9> 	c #92A186",
"0> 	c #B3CCA4",
"a> 	c #2F1523",
"b> 	c #2E1021",
"c> 	c #1D0719",
"d> 	c #140215",
"e> 	c #504D50",
"f> 	c #8D8C8A",
"g> 	c #6F6B6D",
"h> 	c #635D61",
"i> 	c #534652",
"j> 	c #4F414D",
"k> 	c #51434E",
"l> 	c #504653",
"m> 	c #5A6069",
"n> 	c #2F2932",
"o> 	c #301C1F",
"p> 	c #6E3B32",
"q> 	c #915D38",
"r> 	c #794C34",
"s> 	c #683E30",
"t> 	c #86624E",
"u> 	c #A07557",
"v> 	c #A17556",
"w> 	c #865C44",
"x> 	c #5C352B",
"y> 	c #4A2624",
"z> 	c #7D4D33",
"A> 	c #B46B39",
"B> 	c #AF6535",
"C> 	c #AB6336",
"D> 	c #A88972",
"E> 	c #C4BEB3",
"F> 	c #B9ADA0",
"G> 	c #AE7E5A",
"H> 	c #B26A46",
"I> 	c #B46D43",
"J> 	c #A76341",
"K> 	c #6F4536",
"L> 	c #65433B",
"M> 	c #62463E",
"N> 	c #80614F",
"O> 	c #725746",
"P> 	c #6E5A51",
"Q> 	c #55443F",
"R> 	c #4C3233",
"S> 	c #4B272A",
"T> 	c #715341",
"U> 	c #755743",
"V> 	c #785844",
"W> 	c #785444",
"X> 	c #7D5646",
"Y> 	c #523031",
"Z> 	c #67453E",
"`> 	c #765143",
" , 	c #6D4C40",
"., 	c #6A483D",
"+, 	c #7F7168",
"@, 	c #5D5351",
"#, 	c #3E1A20",
"$, 	c #BF6F44",
"%, 	c #B6734B",
"&, 	c #AE6E46",
"*, 	c #9E593D",
"=, 	c #B77D4F",
"-, 	c #AD7249",
";, 	c #B47A49",
">, 	c #BC824D",
",, 	c #764033",
"', 	c #734233",
"), 	c #AC704B",
"!, 	c #B77C53",
"~, 	c #B2784D",
"{, 	c #AA6F43",
"], 	c #8E5635",
"^, 	c #7B3F2D",
"/, 	c #824730",
"(, 	c #6D3C2E",
"_, 	c #61352E",
":, 	c #5D2F2A",
"<, 	c #70392B",
"[, 	c #99623F",
"}, 	c #A1653C",
"|, 	c #7D4431",
"1, 	c #A0613E",
"2, 	c #AE6F43",
"3, 	c #AD7145",
"4, 	c #8E5137",
"5, 	c #7C4029",
"6, 	c #A76B46",
"7, 	c #A56841",
"8, 	c #AB714D",
"9, 	c #451E21",
"0, 	c #7C543F",
"a, 	c #80533E",
"b, 	c #844E3B",
"c, 	c #925F3E",
"d, 	c #9C6944",
"e, 	c #BA8553",
"f, 	c #BC8253",
"g, 	c #B5794C",
"h, 	c #7E6050",
"i, 	c #7E4231",
"j, 	c #964F37",
"k, 	c #A78142",
"l, 	c #98802C",
"m, 	c #987F22",
"n, 	c #936138",
"o, 	c #8F5136",
"p, 	c #915234",
"q, 	c #A25E3C",
"r, 	c #7E3C2E",
"s, 	c #3C1B20",
"t, 	c #4B4952",
"u, 	c #676677",
"v, 	c #5E5B6C",
"w, 	c #4F4550",
"x, 	c #50434B",
"y, 	c #50434D",
"z, 	c #2E212E",
"A, 	c #4D444F",
"B, 	c #433541",
"C, 	c #3B2835",
"D, 	c #160412",
"E, 	c #3E2123",
"F, 	c #79743D",
"G, 	c #BCC0B7",
"H, 	c #B1BDAA",
"I, 	c #91A58A",
"J, 	c #3C2632",
"K, 	c #291121",
"L, 	c #2A1A25",
"M, 	c #3B2E32",
"N, 	c #3B363D",
"O, 	c #67636B",
"P, 	c #69636B",
"Q, 	c #5A535A",
"R, 	c #4A3A47",
"S, 	c #483542",
"T, 	c #4A3843",
"U, 	c #4A3745",
"V, 	c #493847",
"W, 	c #2C1927",
"X, 	c #3B2225",
"Y, 	c #773F31",
"Z, 	c #8B5435",
"`, 	c #895335",
" ' 	c #6E3E2F",
".' 	c #926F52",
"+' 	c #B0845E",
"@' 	c #9F7250",
"#' 	c #946647",
"$' 	c #4F2925",
"%' 	c #774830",
"&' 	c #AB673C",
"*' 	c #AD6737",
"=' 	c #B58263",
"-' 	c #A6A29B",
";' 	c #CFE0D3",
">' 	c #C4CEBE",
",' 	c #A08066",
"'' 	c #AD6B4D",
")' 	c #B0663E",
"!' 	c #9F5E3C",
"~' 	c #68443A",
"{' 	c #5E3F39",
"]' 	c #573D39",
"^' 	c #916E56",
"/' 	c #86644E",
"(' 	c #4B2327",
"_' 	c #37151E",
":' 	c #4A2930",
"<' 	c #64575A",
"[' 	c #5B403C",
"}' 	c #6A4C3C",
"|' 	c #6B4A3B",
"1' 	c #87624B",
"2' 	c #936E54",
"3' 	c #7C5D4F",
"4' 	c #68443F",
"5' 	c #512C2E",
"6' 	c #6D4C3C",
"7' 	c #76523E",
"8' 	c #50312D",
"9' 	c #402222",
"0' 	c #63372C",
"a' 	c #BE7044",
"b' 	c #A05737",
"c' 	c #975037",
"d' 	c #A3623F",
"e' 	c #D1995F",
"f' 	c #A96F4B",
"g' 	c #7B3733",
"h' 	c #8A4B37",
"i' 	c #6B382E",
"j' 	c #71352C",
"k' 	c #966046",
"l' 	c #A77453",
"m' 	c #753C31",
"n' 	c #7D402B",
"o' 	c #9D5B32",
"p' 	c #A46337",
"q' 	c #A66739",
"r' 	c #743D34",
"s' 	c #532626",
"t' 	c #522525",
"u' 	c #8F5B3B",
"v' 	c #A96B3F",
"w' 	c #A0643F",
"x' 	c #8F5030",
"y' 	c #9B5D35",
"z' 	c #9E613A",
"A' 	c #8A5032",
"B' 	c #6F3724",
"C' 	c #A56B46",
"D' 	c #A76B41",
"E' 	c #AD724C",
"F' 	c #9E6546",
"G' 	c #794F40",
"H' 	c #7F5745",
"I' 	c #946546",
"J' 	c #C18A4E",
"K' 	c #B27B44",
"L' 	c #945B33",
"M' 	c #C28B5F",
"N' 	c #C89160",
"O' 	c #B08058",
"P' 	c #411C27",
"Q' 	c #653231",
"R' 	c #733630",
"S' 	c #94852F",
"T' 	c #859311",
"U' 	c #8B9211",
"V' 	c #A16F38",
"W' 	c #A9633C",
"X' 	c #AF653E",
"Y' 	c #A55F3C",
"Z' 	c #783C2D",
"`' 	c #23051A",
" ) 	c #45434C",
".) 	c #585768",
"+) 	c #544D62",
"@) 	c #4C414E",
"#) 	c #4D424A",
"$) 	c #4D414B",
"%) 	c #2F1930",
"&) 	c #30182E",
"*) 	c #442F3A",
"=) 	c #46343E",
"-) 	c #150214",
";) 	c #281A1F",
">) 	c #AFAD84",
",) 	c #D2DBCC",
"') 	c #B7C0B0",
")) 	c #797F75",
"!) 	c #473640",
"~) 	c #61544E",
"{) 	c #77695B",
"]) 	c #837469",
"^) 	c #2B1D28",
"/) 	c #3C3141",
"() 	c #463A4B",
"_) 	c #463946",
":) 	c #433341",
"<) 	c #422F3B",
"[) 	c #442F3C",
"}) 	c #47303E",
"|) 	c #412937",
"1) 	c #411A2F",
"2) 	c #402626",
"3) 	c #7D4638",
"4) 	c #865036",
"5) 	c #8C5731",
"6) 	c #72432F",
"7) 	c #62352C",
"8) 	c #68362B",
"9) 	c #65342B",
"0) 	c #6C3B2D",
"a) 	c #764433",
"b) 	c #68342C",
"c) 	c #733C2C",
"d) 	c #86482C",
"e) 	c #85462C",
"f) 	c #C6C8BD",
"g) 	c #CFDFD5",
"h) 	c #CFE1D3",
"i) 	c #BBC9B9",
"j) 	c #6E6C5F",
"k) 	c #986148",
"l) 	c #AF663F",
"m) 	c #9C5D3D",
"n) 	c #563531",
"o) 	c #5A3C38",
"p) 	c #7B5A4C",
"q) 	c #88634B",
"r) 	c #86614A",
"s) 	c #794A38",
"t) 	c #724334",
"u) 	c #8A7C77",
"v) 	c #C4CBC3",
"w) 	c #756661",
"x) 	c #412326",
"y) 	c #715042",
"z) 	c #765241",
"A) 	c #7C5D4D",
"B) 	c #A88D75",
"C) 	c #715951",
"D) 	c #381823",
"E) 	c #6A4739",
"F) 	c #6A4536",
"G) 	c #58342B",
"H) 	c #64392D",
"I) 	c #874832",
"J) 	c #8D4B36",
"K) 	c #74392D",
"L) 	c #6E3528",
"M) 	c #8C5232",
"N) 	c #9C6138",
"O) 	c #774332",
"P) 	c #572A28",
"Q) 	c #4E2325",
"R) 	c #AB6E49",
"S) 	c #AE6A40",
"T) 	c #6E3B2C",
"U) 	c #2F101D",
"V) 	c #522125",
"W) 	c #915233",
"X) 	c #AA6A3B",
"Y) 	c #AD6C3D",
"Z) 	c #AE6E3E",
"`) 	c #A46B4A",
" ! 	c #6D3F33",
".! 	c #834B35",
"+! 	c #935B3D",
"@! 	c #854E34",
"#! 	c #9F623A",
"$! 	c #AD7044",
"%! 	c #B17548",
"&! 	c #A96C43",
"*! 	c #884B2F",
"=! 	c #8F5433",
"-! 	c #965A3A",
";! 	c #8E5335",
">! 	c #995F3D",
",! 	c #A96D4A",
"'! 	c #A5613D",
")! 	c #D39A68",
"!! 	c #E1A86E",
"~! 	c #C0895F",
"{! 	c #73442C",
"]! 	c #A56B3B",
"^! 	c #9C623A",
"/! 	c #8F5636",
"(! 	c #91563B",
"_! 	c #A16546",
":! 	c #825040",
"<! 	c #290F1B",
"[! 	c #371822",
"}! 	c #707321",
"|! 	c #6C8B02",
"1! 	c #718604",
"2! 	c #A06B39",
"3! 	c #AB693C",
"4! 	c #431023",
"5! 	c #40101F",
"6! 	c #380B20",
"7! 	c #1E0A1E",
"8! 	c #321F37",
"9! 	c #463B52",
"0! 	c #4E4351",
"a! 	c #534953",
"b! 	c #50444E",
"c! 	c #3A243C",
"d! 	c #412C43",
"e! 	c #2A192B",
"f! 	c #0C020C",
"g! 	c #140313",
"h! 	c #2A1F27",
"i! 	c #C0C5C6",
"j! 	c #B3BAB6",
"k! 	c #A9B1AA",
"l! 	c #898F87",
"m! 	c #150210",
"n! 	c #978976",
"o! 	c #B3A283",
"p! 	c #9B8977",
"q! 	c #1B0616",
"r! 	c #1C121D",
"s! 	c #2C1E29",
"t! 	c #2F1E29",
"u! 	c #34212A",
"v! 	c #37242A",
"w! 	c #3B272F",
"x! 	c #3F2C34",
"y! 	c #4C393F",
"z! 	c #250C19",
"A! 	c #3F2723",
"B! 	c #A0643D",
"C! 	c #97623A",
"D! 	c #B07F38",
"E! 	c #966335",
"F! 	c #7E4630",
"G! 	c #703B2C",
"H! 	c #7B4C3A",
"I! 	c #A5724D",
"J! 	c #703F30",
"K! 	c #6A392E",
"L! 	c #906340",
"M! 	c #BA8A44",
"N! 	c #7C4F33",
"O! 	c #919491",
"P! 	c #9BA8A3",
"Q! 	c #979F9C",
"R! 	c #898F8D",
"S! 	c #6B6F6B",
"T! 	c #8F5A45",
"U! 	c #AE673E",
"V! 	c #A7653F",
"W! 	c #84583D",
"X! 	c #6E4A3A",
"Y! 	c #7D5741",
"Z! 	c #7F5842",
"`! 	c #7B4E3A",
" ~ 	c #978066",
".~ 	c #99937F",
"+~ 	c #8E9289",
"@~ 	c #675651",
"#~ 	c #422529",
"$~ 	c #7B5D4D",
"%~ 	c #83634F",
"&~ 	c #6E5043",
"*~ 	c #725950",
"=~ 	c #5F443E",
"-~ 	c #72493A",
";~ 	c #704837",
">~ 	c #643E30",
",~ 	c #563127",
"'~ 	c #512F28",
")~ 	c #351719",
"!~ 	c #884837",
"~~ 	c #8D5D4B",
"{~ 	c #987459",
"]~ 	c #713D2E",
"^~ 	c #794531",
"/~ 	c #60322A",
"(~ 	c #905B39",
"_~ 	c #8E5832",
":~ 	c #8F5336",
"<~ 	c #875337",
"[~ 	c #613735",
"}~ 	c #6D433A",
"|~ 	c #A17253",
"1~ 	c #A56741",
"2~ 	c #AD6D3F",
"3~ 	c #AE6E3F",
"4~ 	c #AD6F40",
"5~ 	c #915539",
"6~ 	c #743D33",
"7~ 	c #7B412F",
"8~ 	c #763D2D",
"9~ 	c #844F35",
"0~ 	c #925735",
"a~ 	c #955938",
"b~ 	c #9D613A",
"c~ 	c #9D613B",
"d~ 	c #9E613C",
"e~ 	c #A4683F",
"f~ 	c #A56A3F",
"g~ 	c #975D3D",
"h~ 	c #8B5D45",
"i~ 	c #653E33",
"j~ 	c #95583D",
"k~ 	c #BF8556",
"l~ 	c #C8905B",
"m~ 	c #AC7752",
"n~ 	c #533626",
"o~ 	c #98613E",
"p~ 	c #A97044",
"q~ 	c #A46E43",
"r~ 	c #8E5940",
"s~ 	c #7F4C39",
"t~ 	c #6C4237",
"u~ 	c #281019",
"v~ 	c #452426",
"w~ 	c #655A27",
"x~ 	c #666A14",
"y~ 	c #6B6C13",
"z~ 	c #6B412B",
"A~ 	c #74462F",
"B~ 	c #73462F",
"C~ 	c #794431",
"D~ 	c #733F2B",
"E~ 	c #5B2B26",
"F~ 	c #57342D",
"G~ 	c #1A0A1A",
"H~ 	c #190F1C",
"I~ 	c #2E2233",
"J~ 	c #35273A",
"K~ 	c #342636",
"L~ 	c #231123",
"M~ 	c #1C0D1D",
"N~ 	c #160615",
"O~ 	c #472926",
"P~ 	c #402424",
"Q~ 	c #2D1921",
"R~ 	c #636166",
"S~ 	c #6F6E79",
"T~ 	c #676670",
"U~ 	c #47444B",
"V~ 	c #10030E",
"W~ 	c #675851",
"X~ 	c #857367",
"Y~ 	c #867771",
"Z~ 	c #1C0113",
"`~ 	c #140210",
" { 	c #311C25",
".{ 	c #311922",
"+{ 	c #2E1721",
"@{ 	c #331B24",
"#{ 	c #392229",
"${ 	c #2E1B24",
"%{ 	c #3A2830",
"&{ 	c #230A1B",
"*{ 	c #452824",
"={ 	c #98573B",
"-{ 	c #814732",
";{ 	c #A66A40",
">{ 	c #9F6039",
",{ 	c #A4653E",
"'{ 	c #995E3F",
"){ 	c #915D43",
"!{ 	c #B57E4F",
"~{ 	c #9F7052",
"{{ 	c #7C4E3E",
"]{ 	c #896140",
"^{ 	c #BB8F50",
"/{ 	c #8B5B3D",
"({ 	c #646365",
"_{ 	c #5D6264",
":{ 	c #4C474D",
"<{ 	c #4A434B",
"[{ 	c #4E4D50",
"}{ 	c #8B543C",
"|{ 	c #B16B41",
"1{ 	c #AC6A42",
"2{ 	c #8C5B3E",
"3{ 	c #694234",
"4{ 	c #704A39",
"5{ 	c #744D39",
"6{ 	c #744B36",
"7{ 	c #7D523C",
"8{ 	c #7F644F",
"9{ 	c #7E7462",
"0{ 	c #7C7A6C",
"a{ 	c #5E4A43",
"b{ 	c #4B2D2C",
"c{ 	c #75584B",
"d{ 	c #876958",
"e{ 	c #8F735D",
"f{ 	c #5B3E3A",
"g{ 	c #5D3933",
"h{ 	c #7F543C",
"i{ 	c #774E3B",
"j{ 	c #8E7354",
"k{ 	c #907554",
"l{ 	c #54322F",
"m{ 	c #4E2D2D",
"n{ 	c #823F34",
"o{ 	c #937055",
"p{ 	c #B08F66",
"q{ 	c #522123",
"r{ 	c #491621",
"s{ 	c #532224",
"t{ 	c #A86839",
"u{ 	c #9F5F32",
"v{ 	c #54282F",
"w{ 	c #4C2832",
"x{ 	c #86503F",
"y{ 	c #C08959",
"z{ 	c #B37549",
"A{ 	c #AD6E41",
"B{ 	c #AD6F41",
"C{ 	c #AC7043",
"D{ 	c #854B36",
"E{ 	c #8D5B44",
"F{ 	c #9E6B4E",
"G{ 	c #753B2E",
"H{ 	c #855035",
"I{ 	c #905636",
"J{ 	c #8F5436",
"K{ 	c #9F623B",
"L{ 	c #9E633C",
"M{ 	c #AB6E42",
"N{ 	c #A86B40",
"O{ 	c #A66B3F",
"P{ 	c #AB744C",
"Q{ 	c #A47557",
"R{ 	c #3F1920",
"S{ 	c #8D583E",
"T{ 	c #956043",
"U{ 	c #84543E",
"V{ 	c #260717",
"W{ 	c #754138",
"X{ 	c #B27C53",
"Y{ 	c #B27F4F",
"Z{ 	c #906141",
"`{ 	c #602D28",
" ] 	c #542527",
".] 	c #522B26",
"+] 	c #92543E",
"@] 	c #532A29",
"#] 	c #210610",
"$] 	c #502E25",
"%] 	c #431722",
"&] 	c #4A1D23",
"*] 	c #633528",
"=] 	c #A4683E",
"-] 	c #9A5E35",
";] 	c #713D2C",
">] 	c #5A3230",
",] 	c #352226",
"'] 	c #5E4D48",
")] 	c #271828",
"!] 	c #28182C",
"~] 	c #261527",
"{] 	c #180616",
"]] 	c #3C2526",
"^] 	c #4F3634",
"/] 	c #553131",
"(] 	c #583631",
"_] 	c #56322B",
":] 	c #26121F",
"<] 	c #393142",
"[] 	c #2A1F34",
"}] 	c #1D111F",
"|] 	c #36181F",
"1] 	c #3C282B",
"2] 	c #554142",
"3] 	c #625154",
"4] 	c #210212",
"5] 	c #230311",
"6] 	c #4A2A29",
"7] 	c #4F2928",
"8] 	c #37161E",
"9] 	c #361720",
"0] 	c #47282A",
"a] 	c #351921",
"b] 	c #1E0A14",
"c] 	c #391C21",
"d] 	c #5A2F27",
"e] 	c #9D5639",
"f] 	c #6E3226",
"g] 	c #B97A4D",
"h] 	c #9A5A3B",
"i] 	c #A77050",
"j] 	c #C6875D",
"k] 	c #B67A55",
"l] 	c #753C2B",
"m] 	c #CB9C68",
"n] 	c #9F704D",
"o] 	c #6F3D34",
"p] 	c #73483A",
"q] 	c #AD673F",
"r] 	c #552C26",
"s] 	c #312432",
"t] 	c #443743",
"u] 	c #3A2B37",
"v] 	c #2A131E",
"w] 	c #8F5134",
"x] 	c #B57144",
"y] 	c #AF7045",
"z] 	c #936143",
"A] 	c #6F4638",
"B] 	c #6B4334",
"C] 	c #714836",
"D] 	c #7A5B4B",
"E] 	c #8D7465",
"F] 	c #867268",
"G] 	c #81746B",
"H] 	c #897C74",
"I] 	c #5D4340",
"J] 	c #4E302F",
"K] 	c #6B4E46",
"L] 	c #66473F",
"M] 	c #6B4A42",
"N] 	c #65453C",
"O] 	c #633F36",
"P] 	c #855E42",
"Q] 	c #7E573F",
"R] 	c #A18967",
"S] 	c #A78E69",
"T] 	c #654239",
"U] 	c #603733",
"V] 	c #7F3A2A",
"W] 	c #71322D",
"X] 	c #64292C",
"Y] 	c #41101F",
"Z] 	c #3B0C1D",
"`] 	c #66312E",
" ^ 	c #76392F",
".^ 	c #73342D",
"+^ 	c #491F24",
"@^ 	c #27071E",
"#^ 	c #492329",
"$^ 	c #804738",
"%^ 	c #9A5F3D",
"&^ 	c #A86D45",
"*^ 	c #A96F43",
"=^ 	c #A66F43",
"-^ 	c #9A633B",
";^ 	c #6A372C",
">^ 	c #AE835D",
",^ 	c #BB8B5D",
"'^ 	c #6E3D2E",
")^ 	c #895137",
"!^ 	c #AD6B43",
"~^ 	c #AD6D44",
"{^ 	c #AC6B43",
"]^ 	c #A5673E",
"^^ 	c #AC6F42",
"/^ 	c #A86E41",
"(^ 	c #A66C41",
"_^ 	c #BE885C",
":^ 	c #C79566",
"<^ 	c #290816",
"[^ 	c #563539",
"}^ 	c #3F1E27",
"|^ 	c #310F22",
"1^ 	c #4C1E22",
"2^ 	c #A16446",
"3^ 	c #6F332A",
"4^ 	c #7B3C2F",
"5^ 	c #9A5234",
"6^ 	c #965237",
"7^ 	c #7D3E2E",
"8^ 	c #864532",
"9^ 	c #925138",
"0^ 	c #7F4332",
"a^ 	c #5A2C25",
"b^ 	c #220310",
"c^ 	c #572127",
"d^ 	c #854436",
"e^ 	c #975A38",
"f^ 	c #A4683D",
"g^ 	c #A2643D",
"h^ 	c #774532",
"i^ 	c #5A3433",
"j^ 	c #583B38",
"k^ 	c #82675B",
"l^ 	c #2B191C",
"m^ 	c #2D1C1B",
"n^ 	c #2F1E1C",
"o^ 	c #2C1919",
"p^ 	c #633E38",
"q^ 	c #734D3F",
"r^ 	c #583B37",
"s^ 	c #58352E",
"t^ 	c #7C4B37",
"u^ 	c #3D2227",
"v^ 	c #1B0D15",
"w^ 	c #43332D",
"x^ 	c #584335",
"y^ 	c #804F44",
"z^ 	c #614235",
"A^ 	c #533733",
"B^ 	c #44232C",
"C^ 	c #644042",
"D^ 	c #88665C",
"E^ 	c #6C493F",
"F^ 	c #644137",
"G^ 	c #5B3331",
"H^ 	c #4E2228",
"I^ 	c #562A2C",
"J^ 	c #5A302E",
"K^ 	c #4D2828",
"L^ 	c #734B41",
"M^ 	c #6D4139",
"N^ 	c #8A4833",
"O^ 	c #915139",
"P^ 	c #7D3C28",
"Q^ 	c #AC6B4A",
"R^ 	c #8D543E",
"S^ 	c #8F563F",
"T^ 	c #AC6D46",
"U^ 	c #7A4330",
"V^ 	c #73412F",
"W^ 	c #7E4635",
"X^ 	c #9D6748",
"Y^ 	c #C18455",
"Z^ 	c #B97344",
"`^ 	c #6A4334",
" / 	c #11020C",
"./ 	c #11010B",
"+/ 	c #643D2E",
"@/ 	c #B57549",
"#/ 	c #B9774C",
"$/ 	c #B1744B",
"%/ 	c #83563D",
"&/ 	c #5B342C",
"*/ 	c #896049",
"=/ 	c #92674A",
"-/ 	c #C1BBAB",
";/ 	c #D7D5C0",
">/ 	c #DAD9C5",
",/ 	c #D6D7C3",
"'/ 	c #D2D4C5",
")/ 	c #594D4A",
"!/ 	c #42262E",
"~/ 	c #341724",
"{/ 	c #5E3B3C",
"]/ 	c #A78C71",
"^/ 	c #806352",
"// 	c #683F36",
"(/ 	c #744D41",
"_/ 	c #603F3B",
":/ 	c #5B3C38",
"</ 	c #6E4B3B",
"[/ 	c #552F2E",
"}/ 	c #61292B",
"|/ 	c #502025",
"1/ 	c #2D0D1C",
"2/ 	c #290918",
"3/ 	c #3B0F1D",
"4/ 	c #4F1E26",
"5/ 	c #4F1C26",
"6/ 	c #491624",
"7/ 	c #633833",
"8/ 	c #4B2828",
"9/ 	c #431D26",
"0/ 	c #703830",
"a/ 	c #894B37",
"b/ 	c #944E36",
"c/ 	c #7B4430",
"d/ 	c #592A24",
"e/ 	c #783E2F",
"f/ 	c #854A3A",
"g/ 	c #723B2F",
"h/ 	c #5E2823",
"i/ 	c #4C191F",
"j/ 	c #884E35",
"k/ 	c #A6623D",
"l/ 	c #B37147",
"m/ 	c #AF6D43",
"n/ 	c #A2633C",
"o/ 	c #AE764B",
"p/ 	c #D9AD7D",
"q/ 	c #A8724A",
"r/ 	c #A7714A",
"s/ 	c #B37C52",
"t/ 	c #AD7650",
"u/ 	c #623D2F",
"v/ 	c #1B0516",
"w/ 	c #1A0416",
"x/ 	c #4D322E",
"y/ 	c #9B5F3B",
"z/ 	c #A6683E",
"A/ 	c #A3643B",
"B/ 	c #B07242",
"C/ 	c #AB6B40",
"D/ 	c #995C3B",
"E/ 	c #9A5C3F",
"F/ 	c #935335",
"G/ 	c #8F5233",
"H/ 	c #8E5134",
"I/ 	c #8E5336",
"J/ 	c #945A3A",
"K/ 	c #834834",
"L/ 	c #844836",
"M/ 	c #864734",
"N/ 	c #632D2A",
"O/ 	c #8A5236",
"P/ 	c #7E5339",
"Q/ 	c #321F25",
"R/ 	c #654841",
"S/ 	c #63433A",
"T/ 	c #613E37",
"U/ 	c #6F4C3C",
"V/ 	c #734F3B",
"W/ 	c #6C4739",
"X/ 	c #6D453A",
"Y/ 	c #6F473A",
"Z/ 	c #6D4941",
"`/ 	c #4A3335",
" ( 	c #3E2E35",
".( 	c #706061",
"+( 	c #3A2B30",
"@( 	c #8D694D",
"#( 	c #C28C5E",
"$( 	c #B68255",
"%( 	c #BF9062",
"&( 	c #947153",
"*( 	c #0E030A",
"=( 	c #23121D",
"-( 	c #442934",
";( 	c #67433F",
">( 	c #643F36",
",( 	c #643D36",
"'( 	c #643D33",
")( 	c #6A4237",
"!( 	c #694338",
"~( 	c #70483B",
"{( 	c #704636",
"]( 	c #60352E",
"^( 	c #84432D",
"/( 	c #914F35",
"(( 	c #8D4D35",
"_( 	c #99583D",
":( 	c #AC7A52",
"<( 	c #9F7350",
"[( 	c #86563D",
"}( 	c #9A6846",
"|( 	c #62332B",
"1( 	c #5C2F2B",
"2( 	c #855339",
"3( 	c #A96B43",
"4( 	c #A66741",
"5( 	c #A36440",
"6( 	c #90593E",
"7( 	c #875641",
"8( 	c #8C5B46",
"9( 	c #9D6747",
"0( 	c #93593C",
"a( 	c #976443",
"b( 	c #976645",
"c( 	c #734A38",
"d( 	c #583228",
"e( 	c #54322D",
"f( 	c #472D2B",
"g( 	c #C8CAC3",
"h( 	c #E1E5CF",
"i( 	c #DDDECA",
"j( 	c #D6DAC9",
"k( 	c #B8BEB6",
"l( 	c #666264",
"m( 	c #44373D",
"n( 	c #3F1A29",
"o( 	c #421C2A",
"p( 	c #4E262E",
"q( 	c #725249",
"r( 	c #654139",
"s( 	c #613630",
"t( 	c #6A4339",
"u( 	c #603D38",
"v( 	c #5B3834",
"w( 	c #52302B",
"x( 	c #4A1F29",
"y( 	c #45202A",
"z( 	c #4B2A31",
"A( 	c #4D2A2F",
"B( 	c #5E3232",
"C( 	c #643832",
"D( 	c #663A33",
"E( 	c #5F342F",
"F( 	c #693F31",
"G( 	c #6A3F31",
"H( 	c #62372E",
"I( 	c #4E262A",
"J( 	c #59322B",
"K( 	c #64322D",
"L( 	c #552929",
"M( 	c #401724",
"N( 	c #4B2129",
"O( 	c #4B2127",
"P( 	c #5E262D",
"Q( 	c #65292E",
"R( 	c #501B25",
"S( 	c #9C6041",
"T( 	c #B47147",
"U( 	c #AB6940",
"V( 	c #AB6B41",
"W( 	c #AF754A",
"X( 	c #A77750",
"Y( 	c #7F634D",
"Z( 	c #B7835C",
"`( 	c #B27C51",
" _ 	c #B0784E",
"._ 	c #AF754E",
"+_ 	c #AF764E",
"@_ 	c #AA704D",
"#_ 	c #A76D47",
"$_ 	c #A46A45",
"%_ 	c #A96B40",
"&_ 	c #A86A3F",
"*_ 	c #A46640",
"=_ 	c #A26741",
"-_ 	c #9E6341",
";_ 	c #995D3D",
">_ 	c #824A2F",
",_ 	c #733D2C",
"'_ 	c #7B452E",
")_ 	c #915837",
"!_ 	c #A16A46",
"~_ 	c #834935",
"{_ 	c #7B3F31",
"]_ 	c #773B30",
"^_ 	c #6E3B2D",
"/_ 	c #5E342F",
"(_ 	c #593738",
"__ 	c #745648",
":_ 	c #6F4F42",
"<_ 	c #644136",
"[_ 	c #805D4A",
"}_ 	c #8D6A54",
"|_ 	c #8B6752",
"1_ 	c #7B5643",
"2_ 	c #815F49",
"3_ 	c #6E4D41",
"4_ 	c #3E2829",
"5_ 	c #180814",
"6_ 	c #21101B",
"7_ 	c #BD9571",
"8_ 	c #CF9867",
"9_ 	c #D49A66",
"0_ 	c #A4673F",
"a_ 	c #9A5F40",
"b_ 	c #83533C",
"c_ 	c #20091F",
"d_ 	c #2A0B23",
"e_ 	c #563438",
"f_ 	c #553232",
"g_ 	c #563230",
"h_ 	c #836759",
"i_ 	c #927B67",
"j_ 	c #866B5B",
"k_ 	c #744E41",
"l_ 	c #5B3930",
"m_ 	c #58322C",
"n_ 	c #935434",
"o_ 	c #9C5E3A",
"p_ 	c #9C643F",
"q_ 	c #AC774C",
"r_ 	c #956946",
"s_ 	c #805640",
"t_ 	c #AB774D",
"u_ 	c #986843",
"v_ 	c #86573B",
"w_ 	c #895337",
"x_ 	c #A0653F",
"y_ 	c #945838",
"z_ 	c #AD7648",
"A_ 	c #AC7547",
"B_ 	c #A66D44",
"C_ 	c #A0663F",
"D_ 	c #9A603C",
"E_ 	c #8F5639",
"F_ 	c #80513A",
"G_ 	c #774C3A",
"H_ 	c #673E33",
"I_ 	c #5A302A",
"J_ 	c #582E2A",
"K_ 	c #492927",
"L_ 	c #989695",
"M_ 	c #A7A8A3",
"N_ 	c #9D9E98",
"O_ 	c #979894",
"P_ 	c #7F8180",
"Q_ 	c #6F6D6F",
"R_ 	c #4E494E",
"S_ 	c #51292B",
"T_ 	c #65392F",
"U_ 	c #653A2F",
"V_ 	c #6E4636",
"W_ 	c #6E4536",
"X_ 	c #715342",
"Y_ 	c #755A48",
"Z_ 	c #715544",
"`_ 	c #563330",
" : 	c #4E2A26",
".: 	c #6D594F",
"+: 	c #948171",
"@: 	c #6D4B40",
"#: 	c #9E7C59",
"$: 	c #8D6A4D",
"%: 	c #734D3A",
"&: 	c #734C39",
"*: 	c #734937",
"=: 	c #6E4334",
"-: 	c #5F352E",
";: 	c #573333",
">: 	c #553531",
",: 	c #4F2E2E",
"': 	c #4D2D2D",
"): 	c #4E2C2B",
"!: 	c #4F2F2D",
"~: 	c #4D2C2B",
"{: 	c #5A2F2E",
"]: 	c #592D2A",
"^: 	c #9D6040",
"/: 	c #AF6C43",
"(: 	c #AD6C43",
"_: 	c #B3774A",
":: 	c #A9744B",
"<: 	c #6E4436",
"[: 	c #AA734C",
"}: 	c #AA7248",
"|: 	c #A97048",
"1: 	c #9E6440",
"2: 	c #AB6E47",
"3: 	c #A36543",
"4: 	c #A36644",
"5: 	c #A36942",
"6: 	c #A36642",
"7: 	c #A56844",
"8: 	c #AA6D45",
"9: 	c #A86D46",
"0: 	c #A66B45",
"a: 	c #A96E47",
"b: 	c #955C3D",
"c: 	c #653229",
"d: 	c #643429",
"e: 	c #835843",
"f: 	c #84543C",
"g: 	c #7F4A32",
"h: 	c #8A553B",
"i: 	c #804935",
"j: 	c #7C4332",
"k: 	c #A16F4D",
"l: 	c #8A5B43",
"m: 	c #572A2D",
"n: 	c #5B3739",
"o: 	c #735547",
"p: 	c #604139",
"q: 	c #9A8A7C",
"r: 	c #9F8A75",
"s: 	c #AA957A",
"t: 	c #AD997E",
"u: 	c #968169",
"v: 	c #81644B",
"w: 	c #6D5043",
"x: 	c #361F24",
"y: 	c #534336",
"z: 	c #785B48",
"A: 	c #C8986B",
"B: 	c #D09761",
"C: 	c #CA8C59",
"D: 	c #B27245",
"E: 	c #8C4C33",
"F: 	c #965535",
"G: 	c #AC653F",
"H: 	c #190215",
"I: 	c #160216",
"J: 	c #2D1221",
"K: 	c #4C2B2A",
"L: 	c #5D3831",
"M: 	c #826B5D",
"N: 	c #8A7866",
"O: 	c #7E6A5C",
"P: 	c #674E44",
"Q: 	c #402D31",
"R: 	c #5D3D2D",
"S: 	c #B17640",
"T: 	c #AC7640",
"U: 	c #BB884E",
"V: 	c #C18B52",
"W: 	c #B9864E",
"X: 	c #8D5F42",
"Y: 	c #78533E",
"Z: 	c #C7915B",
"`: 	c #C28E54",
" < 	c #A97346",
".< 	c #995F37",
"+< 	c #A86A40",
"@< 	c #975A36",
"#< 	c #B9804C",
"$< 	c #BB8148",
"%< 	c #B47946",
"&< 	c #945C3A",
"*< 	c #89553A",
"=< 	c #764A37",
"-< 	c #653E32",
";< 	c #7C5745",
">< 	c #A27D5A",
",< 	c #A9815D",
"'< 	c #765745",
")< 	c #5F565B",
"!< 	c #645D65",
"~< 	c #5D5860",
"{< 	c #5D585E",
"]< 	c #5F5C63",
"^< 	c #65626A",
"/< 	c #453F47",
"(< 	c #653B2E",
"_< 	c #8A5D3F",
":< 	c #8E6143",
"<< 	c #8A5E41",
"[< 	c #8D6142",
"}< 	c #8B5F40",
"|< 	c #875D3F",
"1< 	c #95785A",
"2< 	c #97815F",
"3< 	c #937758",
"4< 	c #59362F",
"5< 	c #62362D",
"6< 	c #928072",
"7< 	c #C5B9A4",
"8< 	c #83624E",
"9< 	c #AE8D66",
"0< 	c #A28260",
"a< 	c #7F5C45",
"b< 	c #7E5C45",
"c< 	c #7A553F",
"d< 	c #6D4431",
"e< 	c #653C31",
"f< 	c #784E39",
"g< 	c #7E543C",
"h< 	c #653B30",
"i< 	c #744E3C",
"j< 	c #7C5640",
"k< 	c #8A6444",
"l< 	c #78513C",
"m< 	c #7B5841",
"n< 	c #826045",
"o< 	c #6A4637",
"p< 	c #9C6140",
"q< 	c #B07144",
"r< 	c #C28552",
"s< 	c #BF844F",
"t< 	c #BD824C",
"u< 	c #BC814E",
"v< 	c #B87E4F",
"w< 	c #B3784E",
"x< 	c #B0774B",
"y< 	c #AF784E",
"z< 	c #A86F47",
"A< 	c #A2633E",
"B< 	c #AE774E",
"C< 	c #B07A4F",
"D< 	c #B27A4B",
"E< 	c #B2794C",
"F< 	c #B67A4A",
"G< 	c #BB7E4C",
"H< 	c #BF7F4C",
"I< 	c #C07E4D",
"J< 	c #C07F4A",
"K< 	c #B3774C",
"L< 	c #64352C",
"M< 	c #764735",
"N< 	c #A57149",
"O< 	c #A46E47",
"P< 	c #8B583B",
"Q< 	c #693628",
"R< 	c #98644A",
"S< 	c #8E5A3B",
"T< 	c #CB9B6A",
"U< 	c #A67D56",
"V< 	c #4F2929",
"W< 	c #775E54",
"X< 	c #917762",
"Y< 	c #4D2F2E",
"Z< 	c #857C70",
"`< 	c #8E8170",
" [ 	c #9B8E79",
".[ 	c #9E907B",
"+[ 	c #877462",
"@[ 	c #614238",
"#[ 	c #5B3A33",
"$[ 	c #3F1F29",
"%[ 	c #88674D",
"&[ 	c #D5A36D",
"*[ 	c #C28553",
"=[ 	c #B67344",
"-[ 	c #B97545",
";[ 	c #BB7645",
">[ 	c #AA643E",
",[ 	c #AD673D",
"'[ 	c #B86F3D",
")[ 	c #491829",
"![ 	c #411923",
"~[ 	c #16050F",
"{[ 	c #54342D",
"][ 	c #6A4137",
"^[ 	c #614640",
"/[ 	c #624B44",
"([ 	c #604A46",
"_[ 	c #4A3234",
":[ 	c #46252A",
"<[ 	c #6F4938",
"[[ 	c #B47841",
"}[ 	c #925E35",
"|[ 	c #CA9158",
"1[ 	c #CA9154",
"2[ 	c #A16C46",
"3[ 	c #9D6A4E",
"4[ 	c #C18E60",
"5[ 	c #CB9562",
"6[ 	c #8D5839",
"7[ 	c #B17B55",
"8[ 	c #C68F62",
"9[ 	c #C69062",
"0[ 	c #7E482E",
"a[ 	c #AC6C41",
"b[ 	c #BF7F4A",
"c[ 	c #BF804B",
"d[ 	c #B67849",
"e[ 	c #8B5339",
"f[ 	c #764734",
"g[ 	c #704736",
"h[ 	c #633B32",
"i[ 	c #7E5B49",
"j[ 	c #AE8765",
"k[ 	c #B38B66",
"l[ 	c #755543",
"m[ 	c #524A50",
"n[ 	c #57515A",
"o[ 	c #514C54",
"p[ 	c #524B53",
"q[ 	c #504B55",
"r[ 	c #150516",
"s[ 	c #361922",
"t[ 	c #9B704F",
"u[ 	c #A0714D",
"v[ 	c #926447",
"w[ 	c #8F6246",
"x[ 	c #8D6044",
"y[ 	c #895D40",
"z[ 	c #81573D",
"A[ 	c #805C45",
"B[ 	c #8E6D50",
"C[ 	c #997A60",
"D[ 	c #5E3932",
"E[ 	c #856052",
"F[ 	c #7E5F55",
"G[ 	c #6A4F49",
"H[ 	c #845E4E",
"I[ 	c #7F5C4C",
"J[ 	c #856253",
"K[ 	c #82604D",
"L[ 	c #7E5D48",
"M[ 	c #683D2E",
"N[ 	c #73493B",
"O[ 	c #8F6445",
"P[ 	c #8D6248",
"Q[ 	c #633931",
"R[ 	c #876146",
"S[ 	c #99714D",
"T[ 	c #986E4B",
"U[ 	c #865C42",
"V[ 	c #A27B58",
"W[ 	c #AD865D",
"X[ 	c #7B5742",
"Y[ 	c #A06945",
"Z[ 	c #B67847",
"`[ 	c #B87A48",
" } 	c #B87C4A",
".} 	c #BA7E4D",
"+} 	c #BA7E4E",
"@} 	c #B87D4F",
"#} 	c #B47B4E",
"$} 	c #B1794D",
"%} 	c #BE8655",
"&} 	c #B77A4D",
"*} 	c #C28C5B",
"=} 	c #C9955C",
"-} 	c #BE8556",
";} 	c #B78253",
">} 	c #C08858",
",} 	c #BB7C4E",
"'} 	c #BE7E4C",
")} 	c #BA7E4B",
"!} 	c #B17B50",
"~} 	c #764C3E",
"{} 	c #B88B5F",
"]} 	c #A7734C",
"^} 	c #9B6644",
"/} 	c #7B4933",
"(} 	c #A36F49",
"_} 	c #B88353",
":} 	c #C08C59",
"<} 	c #945E3C",
"[} 	c #8E5A33",
"}} 	c #724C32",
"|} 	c #907D6C",
"1} 	c #AC9579",
"2} 	c #573636",
"3} 	c #38232B",
"4} 	c #423835",
"5} 	c #4B3F3D",
"6} 	c #392D33",
"7} 	c #634846",
"8} 	c #745345",
"9} 	c #5F403B",
"0} 	c #58232D",
"a} 	c #946146",
"b} 	c #D29D65",
"c} 	c #C98A55",
"d} 	c #C4814D",
"e} 	c #BA7441",
"f} 	c #B96E3F",
"g} 	c #C17544",
"h} 	c #BD7242",
"i} 	c #914C2F",
"j} 	c #471E24",
"k} 	c #552C27",
"l} 	c #381D21",
"m} 	c #361820",
"n} 	c #55322A",
"o} 	c #7A4D35",
"p} 	c #3C2625",
"q} 	c #3E282A",
"r} 	c #5D3834",
"s} 	c #583230",
"t} 	c #744B38",
"u} 	c #B77844",
"v} 	c #BF8151",
"w} 	c #BC7D4D",
"x} 	c #B17447",
"y} 	c #BA7F51",
"z} 	c #BE8757",
"A} 	c #CB9663",
"B} 	c #A27350",
"C} 	c #B07F57",
"D} 	c #AE7C56",
"E} 	c #B78259",
"F} 	c #C88F5E",
"G} 	c #A9724D",
"H} 	c #B06F43",
"I} 	c #B27344",
"J} 	c #B57646",
"K} 	c #B17444",
"L} 	c #A86E47",
"M} 	c #94603D",
"N} 	c #9A6844",
"O} 	c #8E5F45",
"P} 	c #58332F",
"Q} 	c #58302C",
"R} 	c #AC896B",
"S} 	c #A47D5C",
"T} 	c #785747",
"U} 	c #352B36",
"V} 	c #352C35",
"W} 	c #342B34",
"X} 	c #332B34",
"Y} 	c #573533",
"Z} 	c #532F2D",
"`} 	c #89644E",
" | 	c #8D684F",
".| 	c #936E53",
"+| 	c #926D50",
"@| 	c #8F674C",
"#| 	c #845C40",
"$| 	c #9C8A78",
"%| 	c #9D9282",
"&| 	c #A39587",
"*| 	c #8E735E",
"=| 	c #4F2B29",
"-| 	c #815C48",
";| 	c #7D5948",
">| 	c #76574B",
",| 	c #7B5949",
"'| 	c #86766E",
")| 	c #8B7E76",
"!| 	c #867B70",
"~| 	c #867B6E",
"{| 	c #795B4D",
"]| 	c #6E4332",
"^| 	c #643C31",
"/| 	c #684337",
"(| 	c #774C3C",
"_| 	c #996951",
":| 	c #885942",
"<| 	c #7B4F36",
"[| 	c #B58B67",
"}| 	c #B48A67",
"|| 	c #7E5741",
"1| 	c #684035",
"2| 	c #A06A45",
"3| 	c #BA7B4A",
"4| 	c #B97B4B",
"5| 	c #B97D4C",
"6| 	c #BA804F",
"7| 	c #B98150",
"8| 	c #B98050",
"9| 	c #9B6542",
"0| 	c #A06844",
"a| 	c #965F3C",
"b| 	c #A87047",
"c| 	c #BF8253",
"d| 	c #B57B4E",
"e| 	c #925A3A",
"f| 	c #C28858",
"g| 	c #C18855",
"h| 	c #C28955",
"i| 	c #B77E50",
"j| 	c #BF8351",
"k| 	c #BF814E",
"l| 	c #BC804E",
"m| 	c #B47D51",
"n| 	c #6F463A",
"o| 	c #9E7351",
"p| 	c #8B5B40",
"q| 	c #996A4B",
"r| 	c #A07650",
"s| 	c #945F3F",
"t| 	c #9B6340",
"u| 	c #A16B43",
"v| 	c #A16A40",
"w| 	c #A77042",
"x| 	c #82573C",
"y| 	c #361C26",
"z| 	c #4F2C33",
"A| 	c #8A6351",
"B| 	c #8A817D",
"C| 	c #A2A19B",
"D| 	c #A7A69F",
"E| 	c #A8A79F",
"F| 	c #745B51",
"G| 	c #775344",
"H| 	c #623F3A",
"I| 	c #8C5A48",
"J| 	c #BA7C53",
"K| 	c #C28653",
"L| 	c #C98651",
"M| 	c #C27B46",
"N| 	c #BF7642",
"O| 	c #BA6F41",
"P| 	c #BB7042",
"Q| 	c #AF6A3F",
"R| 	c #985333",
"S| 	c #3E1E23",
"T| 	c #5E362F",
"U| 	c #746C62",
"V| 	c #9C998B",
"W| 	c #8D887A",
"X| 	c #764833",
"Y| 	c #30141D",
"Z| 	c #2E131E",
"`| 	c #623B37",
" 1 	c #5D3632",
".1 	c #7A503A",
"+1 	c #B77743",
"@1 	c #C1804E",
"#1 	c #B97947",
"$1 	c #B6774B",
"%1 	c #BD8151",
"&1 	c #C08654",
"*1 	c #C49060",
"=1 	c #7D503D",
"-1 	c #C59560",
";1 	c #AF7E51",
">1 	c #A26A45",
",1 	c #C48857",
"'1 	c #AF7043",
")1 	c #AE7143",
"!1 	c #AF7346",
"~1 	c #B68054",
"{1 	c #B68155",
"]1 	c #9C6947",
"^1 	c #714436",
"/1 	c #7E4736",
"(1 	c #7C4F3D",
"_1 	c #966649",
":1 	c #895D42",
"<1 	c #44241F",
"[1 	c #2C0E13",
"}1 	c #260712",
"|1 	c #230312",
"11 	c #85553E",
"21 	c #6F4335",
"31 	c #7F5D4C",
"41 	c #896752",
"51 	c #927055",
"61 	c #927257",
"71 	c #8E6D55",
"81 	c #6D4E3E",
"91 	c #BEC0B6",
"01 	c #B8BCB2",
"a1 	c #ACAEA5",
"b1 	c #918579",
"c1 	c #422125",
"d1 	c #7B5641",
"e1 	c #87654F",
"f1 	c #967764",
"g1 	c #825D4A",
"h1 	c #8B8078",
"i1 	c #8F8A87",
"j1 	c #91928D",
"k1 	c #90958E",
"l1 	c #746A65",
"m1 	c #6D4639",
"n1 	c #633A2F",
"o1 	c #5F3935",
"p1 	c #996850",
"q1 	c #94634A",
"r1 	c #85563F",
"s1 	c #7F513B",
"t1 	c #774938",
"u1 	c #BB926D",
"v1 	c #BE956F",
"w1 	c #6C4234",
"x1 	c #6D4136",
"y1 	c #9F6844",
"z1 	c #B97A4B",
"A1 	c #B97C4D",
"B1 	c #B97D4D",
"C1 	c #B77D4D",
"D1 	c #B57B4D",
"E1 	c #B67D4F",
"F1 	c #986544",
"G1 	c #935E3E",
"H1 	c #90583A",
"I1 	c #93583A",
"J1 	c #C18255",
"K1 	c #B0774C",
"L1 	c #BC8150",
"M1 	c #C08551",
"N1 	c #C08350",
"O1 	c #BF824F",
"P1 	c #C08753",
"Q1 	c #B47E51",
"R1 	c #62372C",
"S1 	c #61362C",
"T1 	c #895C43",
"U1 	c #9D724C",
"V1 	c #BC925D",
"W1 	c #854D36",
"X1 	c #975D41",
"Y1 	c #A06742",
"Z1 	c #AA7245",
"`1 	c #B37B4A",
" 2 	c #8C6243",
".2 	c #412029",
"+2 	c #673F3C",
"@2 	c #765546",
"#2 	c #8D8880",
"$2 	c #A2A299",
"%2 	c #A3A29A",
"&2 	c #A6A79D",
"*2 	c #755D53",
"=2 	c #714B42",
"-2 	c #5E3938",
";2 	c #925F48",
">2 	c #BB754D",
",2 	c #904D33",
"'2 	c #BC7848",
")2 	c #BE7642",
"!2 	c #BC7240",
"~2 	c #B46A3C",
"{2 	c #AD6941",
"]2 	c #984F30",
"^2 	c #544241",
"/2 	c #7F6B5F",
"(2 	c #ADA99E",
"_2 	c #CCCEBD",
":2 	c #A8AD9F",
"<2 	c #461D27",
"[2 	c #554246",
"}2 	c #57494B",
"|2 	c #5E5255",
"12 	c #563939",
"22 	c #7B533E",
"32 	c #C3834F",
"42 	c #B77646",
"52 	c #BC7D4A",
"62 	c #C98B55",
"72 	c #C38652",
"82 	c #BF8452",
"92 	c #BA8253",
"02 	c #A76F46",
"a2 	c #8E5737",
"b2 	c #9F6643",
"c2 	c #C08353",
"d2 	c #B27346",
"e2 	c #AA6E42",
"f2 	c #C68F61",
"g2 	c #BE895B",
"h2 	c #A76E48",
"i2 	c #8C563C",
"j2 	c #7E4732",
"k2 	c #784331",
"l2 	c #996544",
"m2 	c #A1673E",
"n2 	c #A86D44",
"o2 	c #A86C46",
"p2 	c #83462E",
"q2 	c #A96F47",
"r2 	c #81513B",
"s2 	c #7F5D4B",
"t2 	c #886751",
"u2 	c #8C6B53",
"v2 	c #8E6E58",
"w2 	c #8A6B55",
"x2 	c #816754",
"y2 	c #C0C3B7",
"z2 	c #B6BAB0",
"A2 	c #A9ACA1",
"B2 	c #918E83",
"C2 	c #3A1E23",
"D2 	c #6D4539",
"E2 	c #664137",
"F2 	c #66473D",
"G2 	c #997357",
"H2 	c #978980",
"I2 	c #918E8B",
"J2 	c #949792",
"K2 	c #959B95",
"L2 	c #696869",
"M2 	c #573731",
"N2 	c #6E4133",
"O2 	c #93604C",
"P2 	c #BC8B64",
"Q2 	c #8B5C44",
"R2 	c #875741",
"S2 	c #956546",
"T2 	c #8E5B43",
"U2 	c #885840",
"V2 	c #845640",
"W2 	c #7E513F",
"X2 	c #744739",
"Y2 	c #9E6644",
"Z2 	c #B67649",
"`2 	c #B87B4C",
" 3 	c #B87C4C",
".3 	c #B07547",
"+3 	c #9F613C",
"@3 	c #A7693C",
"#3 	c #BE8D5D",
"$3 	c #9D724D",
"%3 	c #6D392B",
"&3 	c #834932",
"*3 	c #C28354",
"=3 	c #BD8252",
"-3 	c #BB8152",
";3 	c #BA7F4F",
">3 	c #BA7E4F",
",3 	c #B47748",
"'3 	c #C5925E",
")3 	c #DDAD72",
"!3 	c #64372D",
"~3 	c #62362A",
"{3 	c #A2744F",
"]3 	c #92603E",
"^3 	c #875235",
"/3 	c #804833",
"(3 	c #AD7D52",
"_3 	c #B98756",
":3 	c #B27D51",
"<3 	c #A46C44",
"[3 	c #7A4C38",
"}3 	c #593034",
"|3 	c #734C44",
"13 	c #381F25",
"23 	c #6F6A66",
"33 	c #78746F",
"43 	c #6B6662",
"53 	c #675F5A",
"63 	c #69564F",
"73 	c #70483F",
"83 	c #5B3333",
"93 	c #85543D",
"03 	c #AA6442",
"a3 	c #844333",
"b3 	c #7B3D2D",
"c3 	c #B96E40",
"d3 	c #AA653D",
"e3 	c #A36743",
"f3 	c #A1623F",
"g3 	c #93432D",
"h3 	c #837C75",
"i3 	c #CAC8B5",
"j3 	c #E7E8DD",
"k3 	c #BDC3B8",
"l3 	c #5F666A",
"m3 	c #211015",
"n3 	c #C9CCC9",
"o3 	c #BEC5BD",
"p3 	c #96A4A0",
"q3 	c #4A4447",
"r3 	c #6E4C37",
"s3 	c #C68A4E",
"t3 	c #C38550",
"u3 	c #A26640",
"v3 	c #A06743",
"w3 	c #C08755",
"x3 	c #C18552",
"y3 	c #BE8350",
"z3 	c #BD8351",
"A3 	c #BA824F",
"B3 	c #A56D46",
"C3 	c #A56845",
"D3 	c #BE804E",
"E3 	c #B87948",
"F3 	c #B37446",
"G3 	c #AD7043",
"H3 	c #AE7142",
"I3 	c #B47B4C",
"J3 	c #B57C4F",
"K3 	c #B1784D",
"L3 	c #8C553B",
"M3 	c #77422F",
"N3 	c #96644A",
"O3 	c #976241",
"P3 	c #A87045",
"Q3 	c #A46C41",
"R3 	c #A2673E",
"S3 	c #A26841",
"T3 	c #AE7547",
"U3 	c #B07548",
"V3 	c #87563F",
"W3 	c #745244",
"X3 	c #826250",
"Y3 	c #715043",
"Z3 	c #6C4B41",
"`3 	c #775B49",
" 4 	c #967F66",
".4 	c #958F80",
"+4 	c #888175",
"@4 	c #7C7267",
"#4 	c #73675E",
"$4 	c #381D23",
"%4 	c #744A3A",
"&4 	c #744837",
"*4 	c #754D3C",
"=4 	c #7A513D",
"-4 	c #53434B",
";4 	c #59525C",
">4 	c #5B555E",
",4 	c #4D484D",
"'4 	c #40323A",
")4 	c #5C3630",
"!4 	c #6D3F32",
"~4 	c #86513E",
"{4 	c #925F49",
"]4 	c #7D4C3C",
"^4 	c #906046",
"/4 	c #A16F4B",
"(4 	c #976544",
"_4 	c #926043",
":4 	c #82533E",
"<4 	c #7B4E3C",
"[4 	c #744838",
"}4 	c #9F6644",
"|4 	c #B77449",
"14 	c #BB774A",
"24 	c #BA794C",
"34 	c #B37649",
"44 	c #A96A3C",
"54 	c #AE6F42",
"64 	c #A86E43",
"74 	c #985B39",
"84 	c #9B5B37",
"94 	c #C38253",
"04 	c #BB8151",
"a4 	c #B97F50",
"b4 	c #B87F50",
"c4 	c #B67E51",
"d4 	c #8D5E3F",
"e4 	c #DCB180",
"f4 	c #AE8661",
"g4 	c #836246",
"h4 	c #A97451",
"i4 	c #8C5C41",
"j4 	c #A4704D",
"k4 	c #90593C",
"l4 	c #96603F",
"m4 	c #96603D",
"n4 	c #905E44",
"o4 	c #925E43",
"p4 	c #AA744B",
"q4 	c #AC754B",
"r4 	c #825440",
"s4 	c #67413C",
"t4 	c #886552",
"u4 	c #6E4A3F",
"v4 	c #3C2829",
"w4 	c #2C1922",
"x4 	c #38232E",
"y4 	c #381E2C",
"z4 	c #321424",
"A4 	c #895D43",
"B4 	c #7D513D",
"C4 	c #532624",
"D4 	c #652B24",
"E4 	c #7C3F2E",
"F4 	c #CD8959",
"G4 	c #D58C53",
"H4 	c #CF854F",
"I4 	c #B97A50",
"J4 	c #673327",
"K4 	c #9E462F",
"L4 	c #554F50",
"M4 	c #8C8985",
"N4 	c #A7A6A2",
"O4 	c #888884",
"P4 	c #3C3B42",
"Q4 	c #3E2F2E",
"R4 	c #A5A9A1",
"S4 	c #ABB6AD",
"T4 	c #93A49C",
"U4 	c #474346",
"V4 	c #684832",
"W4 	c #C18449",
"X4 	c #C48450",
"Y4 	c #B2784A",
"Z4 	c #995E3C",
"`4 	c #BA7F4E",
" 5 	c #C0844F",
".5 	c #BB7F4B",
"+5 	c #BC804D",
"@5 	c #BB804C",
"#5 	c #AC7146",
"$5 	c #A76945",
"%5 	c #BE7F4E",
"&5 	c #B87749",
"*5 	c #B57548",
"=5 	c #A6673D",
"-5 	c #B17442",
";5 	c #B27645",
">5 	c #B67D4E",
",5 	c #B57D4E",
"'5 	c #B37B4E",
")5 	c #865037",
"!5 	c #784433",
"~5 	c #8D5C43",
"{5 	c #A26B43",
"]5 	c #A46D46",
"^5 	c #BE8755",
"/5 	c #9E6944",
"(5 	c #784D3A",
"_5 	c #6D4B41",
":5 	c #795C50",
"<5 	c #67443D",
"[5 	c #5E3B34",
"}5 	c #6A4B40",
"|5 	c #816755",
"15 	c #867766",
"25 	c #716254",
"35 	c #665347",
"45 	c #634F48",
"55 	c #553B3C",
"65 	c #633830",
"75 	c #7F533E",
"85 	c #885C41",
"95 	c #754B35",
"05 	c #402935",
"a5 	c #3D313E",
"b5 	c #3D313C",
"c5 	c #301D27",
"d5 	c #553A35",
"e5 	c #674135",
"f5 	c #693C2F",
"g5 	c #7A4636",
"h5 	c #814C3A",
"i5 	c #81503A",
"j5 	c #8B5C43",
"k5 	c #966749",
"l5 	c #905F42",
"m5 	c #966545",
"n5 	c #8C5D41",
"o5 	c #784C39",
"p5 	c #724736",
"q5 	c #A66F48",
"r5 	c #C1824E",
"s5 	c #BE7F4D",
"t5 	c #BB7F4D",
"u5 	c #B77C4A",
"v5 	c #B87C4B",
"w5 	c #B57647",
"x5 	c #AF7343",
"y5 	c #AA6E40",
"z5 	c #A6683D",
"A5 	c #C07F4E",
"B5 	c #BC8152",
"C5 	c #BB8150",
"D5 	c #B77F50",
"E5 	c #B57E50",
"F5 	c #825237",
"G5 	c #CCA478",
"H5 	c #957057",
"I5 	c #542722",
"J5 	c #A9704A",
"K5 	c #805039",
"L5 	c #9A6342",
"M5 	c #965E3F",
"N5 	c #A16A43",
"O5 	c #A57147",
"P5 	c #AF7D51",
"Q5 	c #6B4536",
"R5 	c #987157",
"S5 	c #B18356",
"T5 	c #A67148",
"U5 	c #7B503D",
"V5 	c #523433",
"W5 	c #906F5D",
"X5 	c #A3846B",
"Y5 	c #614B44",
"Z5 	c #2C1720",
"`5 	c #341C25",
" 6 	c #4E3B3C",
".6 	c #847667",
"+6 	c #855F49",
"@6 	c #6F4635",
"#6 	c #4D2224",
"$6 	c #613933",
"%6 	c #9B5D3F",
"&6 	c #C28151",
"*6 	c #CE8953",
"=6 	c #C5814D",
"-6 	c #8A5741",
";6 	c #7C3C2B",
">6 	c #793C2B",
",6 	c #6E2D24",
"'6 	c #2D2328",
")6 	c #595459",
"!6 	c #595457",
"~6 	c #494449",
"{6 	c #1B0A18",
"]6 	c #3C2F2A",
"^6 	c #7F8279",
"/6 	c #8D9895",
"(6 	c #889590",
"_6 	c #403C3E",
":6 	c #614633",
"<6 	c #C2844C",
"[6 	c #C1834C",
"}6 	c #C38851",
"|6 	c #C2864F",
"16 	c #BA7D4A",
"26 	c #B77948",
"36 	c #BA7D4B",
"46 	c #B97D4B",
"56 	c #B37846",
"66 	c #A66A43",
"76 	c #B77848",
"86 	c #BA7E4C",
"96 	c #B77C4C",
"06 	c #AB7042",
"a6 	c #B57B49",
"b6 	c #B77D4B",
"c6 	c #B88150",
"d6 	c #B47E4F",
"e6 	c #B07A4E",
"f6 	c #844E35",
"g6 	c #824F3B",
"h6 	c #7C4B38",
"i6 	c #935D43",
"j6 	c #9F6843",
"k6 	c #A26B45",
"l6 	c #A6724D",
"m6 	c #C18C5C",
"n6 	c #C28C5A",
"o6 	c #88573C",
"p6 	c #6A3E32",
"q6 	c #5A3532",
"r6 	c #64443D",
"s6 	c #8A634E",
"t6 	c #865F4B",
"u6 	c #735044",
"v6 	c #503835",
"w6 	c #807265",
"x6 	c #6E5C4E",
"y6 	c #645045",
"z6 	c #634B44",
"A6 	c #644841",
"B6 	c #633831",
"C6 	c #7A4F3C",
"D6 	c #84573E",
"E6 	c #82563A",
"F6 	c #381C1C",
"G6 	c #200813",
"H6 	c #1D0810",
"I6 	c #4E2C2D",
"J6 	c #735343",
"K6 	c #775544",
"L6 	c #663A2E",
"M6 	c #754332",
"N6 	c #7B4937",
"O6 	c #B38964",
"P6 	c #8C644C",
"Q6 	c #6D3F35",
"R6 	c #6E3E34",
"S6 	c #956347",
"T6 	c #85563D",
"U6 	c #774B38",
"V6 	c #714635",
"W6 	c #A6724A",
"X6 	c #C48851",
"Y6 	c #C18751",
"Z6 	c #BF8550",
"`6 	c #BC824F",
" 7 	c #BD8451",
".7 	c #BD8554",
"+7 	c #B67C4C",
"@7 	c #AE7444",
"#7 	c #AC7142",
"$7 	c #BE7D4D",
"%7 	c #BC8352",
"&7 	c #BB8352",
"*7 	c #BA8351",
"=7 	c #B98250",
"-7 	c #B57F4F",
";7 	c #784B35",
">7 	c #76503A",
",7 	c #A36A47",
"'7 	c #A56E4A",
")7 	c #764738",
"!7 	c #925B3D",
"~7 	c #8E593B",
"{7 	c #A46F49",
"]7 	c #AB774B",
"^7 	c #AB7A50",
"/7 	c #6E4A39",
"(7 	c #987660",
"_7 	c #A97F5C",
":7 	c #A36D47",
"<7 	c #754C3B",
"[7 	c #705248",
"}7 	c #886D5A",
"|7 	c #563F3C",
"17 	c #2F121B",
"27 	c #3C1D20",
"37 	c #5C4747",
"47 	c #9D9482",
"57 	c #76574A",
"67 	c #62392E",
"77 	c #471F23",
"87 	c #5E4338",
"97 	c #A56642",
"07 	c #A8673F",
"a7 	c #9B5F38",
"b7 	c #592626",
"c7 	c #784029",
"d7 	c #48151D",
"e7 	c #552225",
"f7 	c #1F0812",
"g7 	c #0E020C",
"h7 	c #0D020A",
"i7 	c #210618",
"j7 	c #200315",
"k7 	c #373A4D",
"l7 	c #383F59",
"m7 	c #313450",
"n7 	c #08020B",
"o7 	c #674734",
"p7 	c #CA8D53",
"q7 	c #C3874F",
"r7 	c #BF844D",
"s7 	c #BD834C",
"t7 	c #C79863",
"u7 	c #C69665",
"v7 	c #BC844F",
"w7 	c #B7804D",
"x7 	c #A76E43",
"y7 	c #A06540",
"z7 	c #AC724A",
"A7 	c #A76C47",
"B7 	c #A26943",
"C7 	c #C28D5C",
"D7 	c #C9915D",
"E7 	c #C38D58",
"F7 	c #AC7740",
"G7 	c #C79561",
"H7 	c #BA8755",
"I7 	c #AB784C",
"J7 	c #804C35",
"K7 	c #744231",
"L7 	c #724030",
"M7 	c #82533C",
"N7 	c #A8724B",
"O7 	c #A36C48",
"P7 	c #996444",
"Q7 	c #8A5339",
"R7 	c #82583E",
"S7 	c #623C36",
"T7 	c #6A4A40",
"U7 	c #916C55",
"V7 	c #88634F",
"W7 	c #745043",
"X7 	c #442227",
"Y7 	c #533734",
"Z7 	c #624A42",
"`7 	c #614C41",
" 8 	c #522F2E",
".8 	c #492225",
"+8 	c #7E5442",
"@8 	c #825742",
"#8 	c #5E312D",
"$8 	c #7D523E",
"%8 	c #94694C",
"&8 	c #845D43",
"*8 	c #4C2A22",
"=8 	c #6F4637",
"-8 	c #9D8163",
";8 	c #977B5F",
">8 	c #8C6650",
",8 	c #CBA271",
"'8 	c #875F45",
")8 	c #6F4437",
"!8 	c #8D634A",
"~8 	c #97704C",
"{8 	c #855A41",
"]8 	c #81573F",
"^8 	c #7D533D",
"/8 	c #764D38",
"(8 	c #6E4434",
"_8 	c #A8754C",
":8 	c #C68E57",
"<8 	c #C48D57",
"[8 	c #C38C56",
"}8 	c #C08953",
"|8 	c #BE8754",
"18 	c #BB8554",
"28 	c #A67045",
"38 	c #A87044",
"48 	c #B57C4B",
"58 	c #AB7043",
"68 	c #C78956",
"78 	c #BF8854",
"88 	c #BD8855",
"98 	c #BD8956",
"08 	c #BF8B57",
"a8 	c #8F5F40",
"b8 	c #371A1C",
"c8 	c #8D6651",
"d8 	c #AB7650",
"e8 	c #BB8557",
"f8 	c #C08B5B",
"g8 	c #7F4B37",
"h8 	c #895339",
"i8 	c #814D36",
"j8 	c #C49266",
"k8 	c #AD7B53",
"l8 	c #90624A",
"m8 	c #503633",
"n8 	c #4B302C",
"o8 	c #8A5539",
"p8 	c #8B6149",
"q8 	c #92724E",
"r8 	c #614738",
"s8 	c #250A1A",
"t8 	c #250B1C",
"u8 	c #6A453A",
"v8 	c #7A4C3A",
"w8 	c #290B19",
"x8 	c #260915",
"y8 	c #673F33",
"z8 	c #6E4531",
"A8 	c #754B37",
"B8 	c #644338",
"C8 	c #1B0311",
"D8 	c #1C0310",
"E8 	c #210515",
"F8 	c #3D161E",
"G8 	c #9D5444",
"H8 	c #280A17",
"I8 	c #25091B",
"J8 	c #2A111B",
"K8 	c #572630",
"L8 	c #552630",
"M8 	c #4F232B",
"N8 	c #451C25",
"O8 	c #380F22",
"P8 	c #2B0B1F",
"Q8 	c #1B0519",
"R8 	c #180316",
"S8 	c #150213",
"T8 	c #442C33",
"U8 	c #5C3C30",
"V8 	c #9A6443",
"W8 	c #936040",
"X8 	c #956243",
"Y8 	c #9A7251",
"Z8 	c #976E50",
"`8 	c #8D5E41",
" 9 	c #A87451",
".9 	c #AD784F",
"+9 	c #8C5838",
"@9 	c #874F37",
"#9 	c #965C3E",
"$9 	c #A16647",
"%9 	c #8C5339",
"&9 	c #9B6646",
"*9 	c #A06B47",
"=9 	c #996441",
"-9 	c #8A5637",
";9 	c #9F7150",
">9 	c #976847",
",9 	c #8F5E40",
"'9 	c #714134",
")9 	c #673A30",
"!9 	c #653930",
"~9 	c #704437",
"{9 	c #7E513D",
"]9 	c #7F503B",
"^9 	c #82513A",
"/9 	c #915B40",
"(9 	c #865139",
"_9 	c #8A563B",
":9 	c #734334",
"<9 	c #5E3733",
"[9 	c #5F3C37",
"}9 	c #5D3730",
"|9 	c #69433B",
"19 	c #6E483B",
"29 	c #654137",
"39 	c #592F2C",
"49 	c #562B28",
"59 	c #684137",
"69 	c #6B4233",
"79 	c #734838",
"89 	c #704433",
"99 	c #794C37",
"09 	c #7E5239",
"a9 	c #7C523B",
"b9 	c #6D493C",
"c9 	c #68463B",
"d9 	c #6C483D",
"e9 	c #84614A",
"f9 	c #6F4639",
"g9 	c #77503D",
"h9 	c #7F5941",
"i9 	c #7A513C",
"j9 	c #633B2E",
"k9 	c #623B2E",
"l9 	c #633A2D",
"m9 	c #63392D",
"n9 	c #966847",
"o9 	c #A6734D",
"p9 	c #9C6C4B",
"q9 	c #9C6F4C",
"r9 	c #9E6F4B",
"s9 	c #926344",
"t9 	c #9B6944",
"u9 	c #966241",
"v9 	c #915C3C",
"w9 	c #976240",
"x9 	c #915B3C",
"y9 	c #A06946",
"z9 	c #9B6B48",
"A9 	c #9A6A46",
"B9 	c #986846",
"C9 	c #986A46",
"D9 	c #8D5B3D",
"E9 	c #7F4D35",
"F9 	c #986142",
"G9 	c #AB6F45",
"H9 	c #AC7246",
"I9 	c #6E4034",
"J9 	c #744437",
"K9 	c #6F4034",
"L9 	c #845A47",
"M9 	c #7F513E",
"N9 	c #87523E",
"O9 	c #8A543C",
"P9 	c #895440",
"Q9 	c #885440",
"R9 	c #7A4A37",
"S9 	c #6B4639",
"T9 	c #6D483D",
"U9 	c #663F38",
"V9 	c #5F3730",
"W9 	c #62362F",
"X9 	c #6E4032",
"Y9 	c #7C4C3A",
"Z9 	c #60302C",
"`9 	c #5D2D2A",
" 0 	c #62312F",
".0 	c #6C3A39",
"+0 	c #693938",
"@0 	c #411D27",
"#0 	c #3E1527",
"$0 	c #471B2D",
"%0 	c #45202B",
"&0 	c #2A0C26",
"*0 	c #83746A",
"=0 	c #BFAE9A",
"-0 	c #7E5C53",
";0 	c #633D3B",
">0 	c #8B7E6D",
",0 	c #928F83",
"'0 	c #918E80",
")0 	c #7B766A",
"!0 	c #462A28",
"~0 	c #562F2F",
"{0 	c #5C3832",
"]0 	c #8A5F45",
"^0 	c #8B6347",
"/0 	c #885C43",
"(0 	c #9B785E",
"_0 	c #AA8B6F",
":0 	c #795143",
"<0 	c #794F42",
"[0 	c #63342F",
"}0 	c #7E4A32",
"|0 	c #A1603C",
"10 	c #C08356",
"20 	c #A87049",
"30 	c #A87148",
"40 	c #A16C44",
"50 	c #966344",
"60 	c #8A5A43",
"70 	c #8B5A40",
"80 	c #8C5B40",
"90 	c #7E4F3A",
"00 	c #825642",
"a0 	c #895C40",
"b0 	c #A27B54",
"c0 	c #A07A53",
"d0 	c #83563E",
"e0 	c #814F3C",
"f0 	c #824D39",
"g0 	c #89543A",
"h0 	c #8E583C",
"i0 	c #794838",
"j0 	c #965E3C",
"k0 	c #9F643F",
"l0 	c #844C33",
"m0 	c #A67959",
"n0 	c #B98E68",
"o0 	c #5E362B",
"p0 	c #7F4D39",
"q0 	c #966140",
"r0 	c #89573C",
"s0 	c #A36B45",
"t0 	c #A66C46",
"u0 	c #AC7147",
"v0 	c #AE754B",
"w0 	c #804D36",
"x0 	c #895D48",
"y0 	c #AD845F",
"z0 	c #9C6F4D",
"A0 	c #9B6B4A",
"B0 	c #9C6B49",
"C0 	c #8A583D",
"D0 	c #7E4D35",
"E0 	c #7F4B34",
"F0 	c #9B7250",
"G0 	c #8C684E",
"H0 	c #643A2E",
"I0 	c #84543A",
"J0 	c #9B6643",
"K0 	c #9D6943",
"L0 	c #A6734B",
"M0 	c #996643",
"N0 	c #7E4D3A",
"O0 	c #774634",
"P0 	c #734433",
"Q0 	c #744432",
"R0 	c #754434",
"S0 	c #754335",
"T0 	c #7C4937",
"U0 	c #7D4838",
"V0 	c #774233",
"W0 	c #744132",
"X0 	c #784334",
"Y0 	c #945940",
"Z0 	c #955F45",
"`0 	c #C49366",
" a 	c #B07D59",
".a 	c #AC784F",
"+a 	c #AF7C50",
"@a 	c #AE764A",
"#a 	c #B27648",
"$a 	c #B57F51",
"%a 	c #7E4F3C",
"&a 	c #B1835B",
"*a 	c #B38157",
"=a 	c #B07C50",
"-a 	c #B78356",
";a 	c #B77F52",
">a 	c #8C5036",
",a 	c #A4714D",
"'a 	c #B47C4F",
")a 	c #A36844",
"!a 	c #7D4334",
"~a 	c #7F5037",
"{a 	c #986340",
"]a 	c #95613C",
"^a 	c #9D6844",
"/a 	c #8D5A3C",
"(a 	c #7E4935",
"_a 	c #8D553B",
":a 	c #9B6545",
"<a 	c #915B39",
"[a 	c #A17849",
"}a 	c #7A5E4A",
"|a 	c #492630",
"1a 	c #48252D",
"2a 	c #9B7251",
"3a 	c #AC7A4D",
"4a 	c #B07E4E",
"5a 	c #8F5C3B",
"6a 	c #71382C",
"7a 	c #926E5E",
"8a 	c #CA9D77",
"9a 	c #423534",
"0a 	c #674E49",
"aa 	c #6C5449",
"ba 	c #CDCEB0",
"ca 	c #CED5C1",
"da 	c #C8CFB4",
"ea 	c #A5AB92",
"fa 	c #553E39",
"ga 	c #885F46",
"ha 	c #673F37",
"ia 	c #653F39",
"ja 	c #8D6047",
"ka 	c #90684C",
"la 	c #946E50",
"ma 	c #8A5E44",
"na 	c #8E6043",
"oa 	c #BA9C77",
"pa 	c #C9AB8A",
"qa 	c #6E4238",
"ra 	c #7D5545",
"sa 	c #6B3E34",
"ta 	c #885338",
"ua 	c #AA6841",
"va 	c #C68855",
"wa 	c #BC8251",
"xa 	c #B57E4E",
"ya 	c #AA764B",
"za 	c #9D785E",
"Aa 	c #A68B71",
"Ba 	c #9A7F69",
"Ca 	c #855E4B",
"Da 	c #7D4D36",
"Ea 	c #7C4A39",
"Fa 	c #814E3C",
"Ga 	c #A16F4C",
"Ha 	c #B99161",
"Ia 	c #B58F60",
"Ja 	c #915F42",
"Ka 	c #8D5B40",
"La 	c #88563E",
"Ma 	c #925D3F",
"Na 	c #86503A",
"Oa 	c #A66740",
"Pa 	c #AA683E",
"Qa 	c #9D603F",
"Ra 	c #AE7852",
"Sa 	c #BD8A5D",
"Ta 	c #865239",
"Ua 	c #AB764B",
"Va 	c #A56E49",
"Wa 	c #986641",
"Xa 	c #8C593B",
"Ya 	c #B67648",
"Za 	c #B57547",
"`a 	c #B87D4E",
" b 	c #A4734C",
".b 	c #A07351",
"+b 	c #9B7657",
"@b 	c #AB7951",
"#b 	c #AD754C",
"$b 	c #AC7449",
"%b 	c #A16A44",
"&b 	c #925D3D",
"*b 	c #834E36",
"=b 	c #A27955",
"-b 	c #997555",
";b 	c #845840",
">b 	c #8F593B",
",b 	c #A26C46",
"'b 	c #A66F49",
")b 	c #AF784F",
"!b 	c #A36C46",
"~b 	c #7F4E39",
"{b 	c #714231",
"]b 	c #9F6D50",
"^b 	c #BC8D65",
"/b 	c #905F49",
"(b 	c #764232",
"_b 	c #7C4D3A",
":b 	c #86563E",
"<b 	c #A9714D",
"[b 	c #B07A53",
"}b 	c #CF9C6A",
"|b 	c #C28D5E",
"1b 	c #C08B58",
"2b 	c #C18B56",
"3b 	c #BD8652",
"4b 	c #BA814E",
"5b 	c #B57F50",
"6b 	c #8D5A41",
"7b 	c #956044",
"8b 	c #C08A5B",
"9b 	c #C28A58",
"0b 	c #C18955",
"ab 	c #C68E58",
"bb 	c #C48B54",
"cb 	c #AD744A",
"db 	c #B78154",
"eb 	c #C08854",
"fb 	c #915940",
"gb 	c #995F3B",
"hb 	c #975C39",
"ib 	c #9E633F",
"jb 	c #9D633F",
"kb 	c #965B3A",
"lb 	c #945A3D",
"mb 	c #B47B4A",
"nb 	c #B47C49",
"ob 	c #7C593F",
"pb 	c #402223",
"qb 	c #4E2D27",
"rb 	c #C68F59",
"sb 	c #D39453",
"tb 	c #D19353",
"ub 	c #AA693C",
"vb 	c #945438",
"wb 	c #8F624E",
"xb 	c #B08561",
"yb 	c #423839",
"zb 	c #6D615E",
"Ab 	c #AAA49D",
"Bb 	c #C2C4AD",
"Cb 	c #B2B39D",
"Db 	c #ACAD96",
"Eb 	c #9F9E8D",
"Fb 	c #5C4443",
"Gb 	c #704E40",
"Hb 	c #744E40",
"Ib 	c #674039",
"Jb 	c #8E6148",
"Kb 	c #815943",
"Lb 	c #865E45",
"Mb 	c #9D775C",
"Nb 	c #B8966F",
"Ob 	c #9F7F60",
"Pb 	c #65423C",
"Qb 	c #7E5243",
"Rb 	c #976E55",
"Sb 	c #784D3C",
"Tb 	c #A37250",
"Ub 	c #D19661",
"Vb 	c #C68856",
"Wb 	c #BA8252",
"Xb 	c #8F6147",
"Yb 	c #73655F",
"Zb 	c #B0A18D",
"`b 	c #A69682",
" c 	c #7F6255",
".c 	c #703E32",
"+c 	c #8D5C42",
"@c 	c #B27B53",
"#c 	c #AF7951",
"$c 	c #85563B",
"%c 	c #85553C",
"&c 	c #9A6849",
"*c 	c #966443",
"=c 	c #764533",
"-c 	c #8C593D",
";c 	c #88533C",
">c 	c #A86941",
",c 	c #AC6A40",
"'c 	c #9E5F3B",
")c 	c #A0603B",
"!c 	c #A3633D",
"~c 	c #975E3E",
"{c 	c #764330",
"]c 	c #8F5E3F",
"^c 	c #A06E4A",
"/c 	c #77432D",
"(c 	c #B77649",
"_c 	c #B77648",
":c 	c #B47849",
"<c 	c #B77E4E",
"[c 	c #BB895D",
"}c 	c #B6845B",
"|c 	c #926345",
"1c 	c #AE784F",
"2c 	c #AF764A",
"3c 	c #A06A47",
"4c 	c #865136",
"5c 	c #814B37",
"6c 	c #7C4731",
"7c 	c #94674D",
"8c 	c #AD815A",
"9c 	c #875138",
"0c 	c #996343",
"ac 	c #A16A47",
"bc 	c #A66F46",
"cc 	c #80543C",
"dc 	c #673C2E",
"ec 	c #86543D",
"fc 	c #AD7C53",
"gc 	c #B2825C",
"hc 	c #BE9269",
"ic 	c #653829",
"jc 	c #855B41",
"kc 	c #9E6F4C",
"lc 	c #7E4C37",
"mc 	c #B88053",
"nc 	c #BD8555",
"oc 	c #A46C47",
"pc 	c #B58052",
"qc 	c #BF8A56",
"rc 	c #BF8956",
"sc 	c #BA8450",
"tc 	c #AE794D",
"uc 	c #AD7A4E",
"vc 	c #BB7D4F",
"wc 	c #BB7C4B",
"xc 	c #BE8250",
"yc 	c #BF8451",
"zc 	c #C08553",
"Ac 	c #C28855",
"Bc 	c #BE8653",
"Cc 	c #B98352",
"Dc 	c #AE774D",
"Ec 	c #935736",
"Fc 	c #8F5434",
"Gc 	c #C49A6D",
"Hc 	c #B8875C",
"Ic 	c #A06340",
"Jc 	c #A16442",
"Kc 	c #B77B49",
"Lc 	c #B67B4A",
"Mc 	c #A76D42",
"Nc 	c #683F30",
"Oc 	c #623D31",
"Pc 	c #9C5F3D",
"Qc 	c #D19356",
"Rc 	c #CB8C51",
"Sc 	c #B67747",
"Tc 	c #9E623C",
"Uc 	c #87533C",
"Vc 	c #7B4C3D",
"Wc 	c #68605E",
"Xc 	c #A39F97",
"Yc 	c #DEE3D8",
"Zc 	c #D3D6C4",
"`c 	c #C9CBB6",
" d 	c #C6C5B2",
".d 	c #6A5455",
"+d 	c #4A333A",
"@d 	c #68483E",
"#d 	c #936448",
"$d 	c #794D38",
"%d 	c #8B6043",
"&d 	c #A4805F",
"*d 	c #B6956B",
"=d 	c #9C7C5E",
"-d 	c #725246",
";d 	c #AB7F5D",
">d 	c #A87D5A",
",d 	c #7B5240",
"'d 	c #9A6C4C",
")d 	c #CC945E",
"!d 	c #9C5F3E",
"~d 	c #BF8455",
"{d 	c #996B4D",
"]d 	c #432527",
"^d 	c #4D2E29",
"/d 	c #513029",
"(d 	c #5A3229",
"_d 	c #8D5D40",
":d 	c #AC754F",
"<d 	c #936345",
"[d 	c #9A6948",
"}d 	c #AC7D59",
"|d 	c #B58763",
"1d 	c #7C4C36",
"2d 	c #774733",
"3d 	c #7B4734",
"4d 	c #AE6F45",
"5d 	c #B06F44",
"6d 	c #A16644",
"7d 	c #8F5337",
"8d 	c #B07042",
"9d 	c #AF7143",
"0d 	c #9A5E3B",
"ad 	c #A26E45",
"bd 	c #AC794F",
"cd 	c #804B33",
"dd 	c #B87849",
"ed 	c #B67A4C",
"fd 	c #B67C4D",
"gd 	c #906041",
"hd 	c #956A4C",
"id 	c #C19564",
"jd 	c #B37B50",
"kd 	c #B0784A",
"ld 	c #9A6645",
"md 	c #7C4833",
"nd 	c #814C36",
"od 	c #7F4C35",
"pd 	c #7E4E39",
"qd 	c #8D6144",
"rd 	c #BD885A",
"sd 	c #B68153",
"td 	c #A87046",
"ud 	c #A76E45",
"vd 	c #81553D",
"wd 	c #724735",
"xd 	c #8A5B40",
"yd 	c #CFA16E",
"zd 	c #A07451",
"Ad 	c #7B4931",
"Bd 	c #834F35",
"Cd 	c #824E33",
"Dd 	c #8E5C41",
"Ed 	c #9D6A4A",
"Fd 	c #8F5C40",
"Gd 	c #B77E52",
"Hd 	c #BD8455",
"Id 	c #BE8657",
"Jd 	c #BC8756",
"Kd 	c #BD8756",
"Ld 	c #BD8655",
"Md 	c #BE8752",
"Nd 	c #BF8853",
"Od 	c #BC8655",
"Pd 	c #B78151",
"Qd 	c #BA7A4C",
"Rd 	c #BD7F4E",
"Sd 	c #BD8050",
"Td 	c #BD814F",
"Ud 	c #BF8552",
"Vd 	c #C08653",
"Wd 	c #BF8653",
"Xd 	c #BE8453",
"Yd 	c #B98452",
"Zd 	c #A16B47",
"`d 	c #854B31",
" e 	c #8B5033",
".e 	c #864C2F",
"+e 	c #D1AB7D",
"@e 	c #C79B6D",
"#e 	c #B27546",
"$e 	c #B37746",
"%e 	c #B27746",
"&e 	c #A86F42",
"*e 	c #734532",
"=e 	c #7B402D",
"-e 	c #A66538",
";e 	c #CB8E52",
">e 	c #BF804A",
",e 	c #985732",
"'e 	c #7D3E26",
")e 	c #925838",
"!e 	c #8D573D",
"~e 	c #815242",
"{e 	c #7C7D7A",
"]e 	c #B3B7AC",
"^e 	c #CDD2C2",
"/e 	c #C9CDBC",
"(e 	c #CACDBB",
"_e 	c #CCCEBC",
":e 	c #9A9A90",
"<e 	c #808286",
"[e 	c #636474",
"}e 	c #312634",
"|e 	c #4B302E",
"1e 	c #7C513A",
"2e 	c #82583B",
"3e 	c #AD8050",
"4e 	c #91684A",
"5e 	c #845A43",
"6e 	c #8B6C57",
"7e 	c #96694D",
"8e 	c #93694E",
"9e 	c #724A3A",
"0e 	c #7A4936",
"ae 	c #B17549",
"be 	c #C18655",
"ce 	c #BF8553",
"de 	c #875033",
"ee 	c #6E3F2C",
"fe 	c #7B4C33",
"ge 	c #8E5F43",
"he 	c #7F4C37",
"ie 	c #794934",
"je 	c #85533A",
"ke 	c #7B4A33",
"le 	c #A1724F",
"me 	c #956646",
"ne 	c #85543B",
"oe 	c #A27453",
"pe 	c #B0825F",
"qe 	c #784933",
"re 	c #7B4B34",
"se 	c #744531",
"te 	c #AF7046",
"ue 	c #B17145",
"ve 	c #C0885B",
"we 	c #AD784E",
"xe 	c #915C3F",
"ye 	c #AA6B40",
"ze 	c #C69867",
"Ae 	c #C9A06B",
"Be 	c #B68A5F",
"Ce 	c #9A6B4C",
"De 	c #7F4931",
"Ee 	c #BB7C4C",
"Fe 	c #B77947",
"Ge 	c #B57847",
"He 	c #A56E45",
"Ie 	c #926040",
"Je 	c #8F6043",
"Ke 	c #C58D58",
"Le 	c #784632",
"Me 	c #845138",
"Ne 	c #875539",
"Oe 	c #835236",
"Pe 	c #84553C",
"Qe 	c #A97952",
"Re 	c #A6744C",
"Se 	c #A46D45",
"Te 	c #A97247",
"Ue 	c #81533B",
"Ve 	c #774B35",
"We 	c #87573B",
"Xe 	c #815039",
"Ye 	c #7E4B33",
"Ze 	c #824D32",
"`e 	c #875135",
" f 	c #9B6746",
".f 	c #784834",
"+f 	c #BC8559",
"@f 	c #BF8757",
"#f 	c #BF8858",
"$f 	c #B68154",
"%f 	c #A8744A",
"&f 	c #AE784D",
"*f 	c #B77C49",
"=f 	c #B47A47",
"-f 	c #BE8551",
";f 	c #C28A56",
">f 	c #BD7C4E",
",f 	c #BC7E4E",
"'f 	c #BB7F4E",
")f 	c #BE8451",
"!f 	c #BE8452",
"~f 	c #BD8353",
"{f 	c #BA8350",
"]f 	c #A87048",
"^f 	c #905337",
"/f 	c #8C4E30",
"(f 	c #AA7146",
"_f 	c #7B4A31",
":f 	c #915A38",
"<f 	c #B27647",
"[f 	c #B37747",
"}f 	c #B27747",
"|f 	c #B17847",
"1f 	c #A76E44",
"2f 	c #814B35",
"3f 	c #B1713E",
"4f 	c #A0633E",
"5f 	c #A05E39",
"6f 	c #9C5330",
"7f 	c #A96743",
"8f 	c #A3643E",
"9f 	c #96593A",
"0f 	c #7F817F",
"af 	c #B8BEB4",
"bf 	c #C7CDBD",
"cf 	c #C8CDBC",
"df 	c #CACEBC",
"ef 	c #C0C2B2",
"ff 	c #91938C",
"gf 	c #80848B",
"hf 	c #6B7485",
"if 	c #372E3D",
"jf 	c #392123",
"kf 	c #6B4636",
"lf 	c #865F43",
"mf 	c #996E50",
"nf 	c #8B6147",
"of 	c #A18060",
"pf 	c #B59972",
"qf 	c #7E5640",
"rf 	c #7B523F",
"sf 	c #653B2D",
"tf 	c #8E6041",
"uf 	c #C08450",
"vf 	c #BE834E",
"wf 	c #BD804C",
"xf 	c #B57948",
"yf 	c #AD7544",
"zf 	c #B58553",
"Af 	c #C49B6B",
"Bf 	c #A1744F",
"Cf 	c #7E4E38",
"Df 	c #845641",
"Ef 	c #966C52",
"Ff 	c #906145",
"Gf 	c #916143",
"Hf 	c #8D5A3D",
"If 	c #8C573A",
"Jf 	c #8F5A3B",
"Kf 	c #9A6945",
"Lf 	c #86533A",
"Mf 	c #744431",
"Nf 	c #B5774C",
"Of 	c #B97A4C",
"Pf 	c #A46A43",
"Qf 	c #C29E72",
"Rf 	c #C5A371",
"Sf 	c #AC8963",
"Tf 	c #8A5C42",
"Uf 	c #804930",
"Vf 	c #BC7D4C",
"Wf 	c #B67845",
"Xf 	c #B37745",
"Yf 	c #B17544",
"Zf 	c #AA7042",
"`f 	c #9E6942",
" g 	c #8D583B",
".g 	c #B37D53",
"+g 	c #BC8452",
"@g 	c #BC8351",
"#g 	c #966243",
"$g 	c #7A4934",
"%g 	c #956341",
"&g 	c #966441",
"*g 	c #98673F",
"=g 	c #835134",
"-g 	c #865434",
";g 	c #865032",
">g 	c #A97249",
",g 	c #B47B4F",
"'g 	c #B17A4C",
")g 	c #82543B",
"!g 	c #86593F",
"~g 	c #946343",
"{g 	c #8E5D3F",
"]g 	c #9C7055",
"^g 	c #8F6145",
"/g 	c #804830",
"(g 	c #8E573A",
"_g 	c #9F6842",
":g 	c #9D6745",
"<g 	c #6A3E2E",
"[g 	c #C08B5F",
"}g 	c #C18B59",
"|g 	c #C08B5A",
"1g 	c #AE7B52",
"2g 	c #8F583D",
"3g 	c #B87D4D",
"4g 	c #B67C4A",
"5g 	c #C08754",
"6g 	c #BF8453",
"7g 	c #BB7E4E",
"8g 	c #BD814E",
"9g 	c #BE834F",
"0g 	c #B97F4D",
"ag 	c #B07748",
"bg 	c #BB8250",
"cg 	c #B57949",
"dg 	c #A76641",
"eg 	c #905030",
"fg 	c #D89D60",
"gg 	c #A16944",
"hg 	c #A36945",
"ig 	c #B27949",
"jg 	c #B2794A",
"kg 	c #AF7748",
"lg 	c #A16C45",
"mg 	c #905533",
"ng 	c #A06038",
"og 	c #BC7B42",
"pg 	c #7D3E29",
"qg 	c #8B462C",
"rg 	c #A96238",
"sg 	c #C37E51",
"tg 	c #B87549",
"ug 	c #A86640",
"vg 	c #873F2E",
"wg 	c #6C6D6D",
"xg 	c #949891",
"yg 	c #ACB0A5",
"zg 	c #ABAEA2",
"Ag 	c #A9AB9F",
"Bg 	c #888681",
"Cg 	c #888986",
"Dg 	c #80858C",
"Eg 	c #6A7787",
"Fg 	c #352D3A",
"Gg 	c #412A29",
"Hg 	c #8C6047",
"Ig 	c #855C47",
"Jg 	c #947156",
"Kg 	c #916B51",
"Lg 	c #977457",
"Mg 	c #9B7B60",
"Ng 	c #785040",
"Og 	c #835D48",
"Pg 	c #6D4636",
"Qg 	c #936344",
"Rg 	c #C08655",
"Sg 	c #C18551",
"Tg 	c #BF834F",
"Ug 	c #BD824F",
"Vg 	c #BC8250",
"Wg 	c #AD7D51",
"Xg 	c #9C7151",
"Yg 	c #86533C",
"Zg 	c #A3795A",
"`g 	c #C59D71",
" h 	c #81553F",
".h 	c #8F5F41",
"+h 	c #925C3A",
"@h 	c #915D3B",
"#h 	c #AB794F",
"$h 	c #88593E",
"%h 	c #794933",
"&h 	c #BA7D50",
"*h 	c #BE7E4E",
"=h 	c #B5794B",
"-h 	c #BE8D5C",
";h 	c #BC8D5C",
">h 	c #4C2422",
",h 	c #482423",
"'h 	c #482224",
")h 	c #85553B",
"!h 	c #8D5335",
"~h 	c #B67949",
"{h 	c #B57947",
"]h 	c #B67A48",
"^h 	c #A56F43",
"/h 	c #B58152",
"(h 	c #A46B43",
"_h 	c #A36742",
":h 	c #A26740",
"<h 	c #8A553A",
"[h 	c #A27048",
"}h 	c #AC774A",
"|h 	c #9F6A42",
"1h 	c #956340",
"2h 	c #885536",
"3h 	c #875334",
"4h 	c #97613E",
"5h 	c #B57C50",
"6h 	c #84553A",
"7h 	c #885B41",
"8h 	c #916144",
"9h 	c #8A593C",
"0h 	c #CAA47C",
"ah 	c #BA906A",
"bh 	c #8B5236",
"ch 	c #9B6642",
"dh 	c #9D6641",
"eh 	c #9B6645",
"fh 	c #6B4230",
"gh 	c #C29163",
"hh 	c #C28F5E",
"ih 	c #BA8657",
"jh 	c #C08D5C",
"kh 	c #BA895B",
"lh 	c #8E5239",
"mh 	c #B87D52",
"nh 	c #C28A57",
"oh 	c #C08957",
"ph 	c #BF8857",
"qh 	c #AC7144",
"rh 	c #B77949",
"sh 	c #BC7F4B",
"th 	c #BD814C",
"uh 	c #BE824D",
"vh 	c #BF834E",
"wh 	c #BD8450",
"xh 	c #B1794C",
"yh 	c #9B6241",
"zh 	c #A56C46",
"Ah 	c #9F623D",
"Bh 	c #A4653F",
"Ch 	c #9E5D39",
"Dh 	c #A5693D",
"Eh 	c #B47D4C",
"Fh 	c #B07A4B",
"Gh 	c #AD7748",
"Hh 	c #BA8D64",
"Ih 	c #B88C64",
"Jh 	c #7B4939",
"Kh 	c #844B30",
"Lh 	c #9E6237",
"Mh 	c #6B3224",
"Nh 	c #A36343",
"Oh 	c #C57F4E",
"Ph 	c #BF7A49",
"Qh 	c #B47244",
"Rh 	c #A3613C",
"Sh 	c #7E3628",
"Th 	c #504A51",
"Uh 	c #636069",
"Vh 	c #58545F",
"Wh 	c #56525C",
"Xh 	c #57525B",
"Yh 	c #58525B",
"Zh 	c #605D62",
"`h 	c #686972",
" i 	c #352A41",
".i 	c #1C0C1D",
"+i 	c #4A3231",
"@i 	c #9A6B4E",
"#i 	c #9B7255",
"$i 	c #816457",
"%i 	c #66453F",
"&i 	c #815F4D",
"*i 	c #896551",
"=i 	c #754E42",
"-i 	c #765042",
";i 	c #89654E",
">i 	c #734E3B",
",i 	c #966547",
"'i 	c #C28656",
")i 	c #AA7047",
"!i 	c #C08453",
"~i 	c #BA8251",
"{i 	c #B8824F",
"]i 	c #A2704A",
"^i 	c #814D3B",
"/i 	c #AD7348",
"(i 	c #905A42",
"_i 	c #9C6D51",
":i 	c #AC805C",
"<i 	c #956348",
"[i 	c #9D694A",
"}i 	c #A06949",
"|i 	c #AC7649",
"1i 	c #AF7B4E",
"2i 	c #915F3F",
"3i 	c #7E5038",
"4i 	c #7D4B35",
"5i 	c #BC7E52",
"6i 	c #AE7248",
"7i 	c #B78A62",
"8i 	c #B5895C",
"9i 	c #A9724E",
"0i 	c #3E191C",
"ai 	c #3D1B22",
"bi 	c #482120",
"ci 	c #8C5A3D",
"di 	c #915738",
"ei 	c #BC834E",
"fi 	c #BC8350",
"gi 	c #C08652",
"hi 	c #A06D4A",
"ii 	c #BC8957",
"ji 	c #B88354",
"ki 	c #AF784D",
"li 	c #8A543A",
"mi 	c #A77851",
"ni 	c #A7784E",
"oi 	c #B08159",
"pi 	c #9E6D49",
"qi 	c #966040",
"ri 	c #99633E",
"si 	c #A76E47",
"ti 	c #B67C50",
"ui 	c #B47D4F",
"vi 	c #895F4A",
"wi 	c #A77856",
"xi 	c #AE815A",
"yi 	c #AC7A53",
"zi 	c #A16A45",
"Ai 	c #A06C44",
"Bi 	c #9B6847",
"Ci 	c #6A4130",
"Di 	c #C29165",
"Ei 	c #BB895C",
"Fi 	c #B68158",
"Gi 	c #C89363",
"Hi 	c #C69161",
"Ii 	c #BA8052",
"Ji 	c #C18B57",
"Ki 	c #C38D59",
"Li 	c #C18C5A",
"Mi 	c #C08C5A",
"Ni 	c #BD8959",
"Oi 	c #90553A",
"Pi 	c #BC804C",
"Qi 	c #C0854E",
"Ri 	c #C28852",
"Si 	c #C48B57",
"Ti 	c #C48D5A",
"Ui 	c #AD764E",
"Vi 	c #925538",
"Wi 	c #AF7044",
"Xi 	c #955935",
"Yi 	c #B58050",
"Zi 	c #B47C4D",
"`i 	c #B07A4A",
" j 	c #AA744A",
".j 	c #B28A68",
"+j 	c #CEA371",
"@j 	c #7A5242",
"#j 	c #552C29",
"$j 	c #4A2025",
"%j 	c #632B25",
"&j 	c #A16142",
"*j 	c #C8804F",
"=j 	c #C07A48",
"-j 	c #B26F42",
";j 	c #A2613C",
">j 	c #753127",
",j 	c #47454F",
"'j 	c #545463",
")j 	c #4E4A58",
"!j 	c #4F4959",
"~j 	c #564F5F",
"{j 	c #42384B",
"]j 	c #312038",
"^j 	c #312137",
"/j 	c #36273E",
"(j 	c #1A0519",
"_j 	c #422A2A",
":j 	c #926A53",
"<j 	c #A38369",
"[j 	c #876655",
"}j 	c #6B493F",
"|j 	c #755346",
"1j 	c #835E49",
"2j 	c #724D3F",
"3j 	c #643D32",
"4j 	c #916041",
"5j 	c #BE8251",
"6j 	c #A36542",
"7j 	c #BE8454",
"8j 	c #BC8454",
"9j 	c #B27A4C",
"0j 	c #B77E51",
"aj 	c #BB8153",
"bj 	c #935E46",
"cj 	c #78483C",
"dj 	c #825140",
"ej 	c #946147",
"fj 	c #885540",
"gj 	c #C28E5E",
"hj 	c #BC8A59",
"ij 	c #9A6946",
"jj 	c #7F533B",
"kj 	c #7C4C37",
"lj 	c #BD7D52",
"mj 	c #B2724A",
"nj 	c #854A39",
"oj 	c #744133",
"pj 	c #B47B50",
"qj 	c #AE754E",
"rj 	c #864E37",
"sj 	c #97613F",
"tj 	c #A66F47",
"uj 	c #975D3C",
"vj 	c #B2794F",
"wj 	c #9E653D",
"xj 	c #8F5538",
"yj 	c #7F472F",
"zj 	c #C1905E",
"Aj 	c #BB885A",
"Bj 	c #BB8757",
"Cj 	c #B78454",
"Dj 	c #B37E50",
"Ej 	c #A97449",
"Fj 	c #7B4D39",
"Gj 	c #A07554",
"Hj 	c #A97A54",
"Ij 	c #B48155",
"Jj 	c #B58153",
"Kj 	c #B68052",
"Lj 	c #B47D50",
"Mj 	c #B37C4F",
"Nj 	c #B37D51",
"Oj 	c #6A443F",
"Pj 	c #82543D",
"Qj 	c #AD764D",
"Rj 	c #A77047",
"Sj 	c #B5895D",
"Tj 	c #6C4131",
"Uj 	c #C08E64",
"Vj 	c #986445",
"Wj 	c #A6724E",
"Xj 	c #C7905E",
"Yj 	c #C38D5B",
"Zj 	c #C48E5B",
"`j 	c #C48F5A",
" k 	c #C4905A",
".k 	c #C2905A",
"+k 	c #C18E5A",
"@k 	c #BE8A5B",
"#k 	c #9B6343",
"$k 	c #BE824E",
"%k 	c #C28950",
"&k 	c #CA925A",
"*k 	c #A47049",
"=k 	c #BE8857",
"-k 	c #955F40",
";k 	c #A56F48",
">k 	c #C9935B",
",k 	c #C08856",
"'k 	c #905F36",
")k 	c #A17045",
"!k 	c #B67E4F",
"~k 	c #B27C4C",
"{k 	c #A57249",
"]k 	c #4B2D28",
"^k 	c #1E0716",
"/k 	c #1F0518",
"(k 	c #2D081B",
"_k 	c #5F2C27",
":k 	c #CB9768",
"<k 	c #A47552",
"[k 	c #6D4238",
"}k 	c #AD683E",
"|k 	c #AD6B3F",
"1k 	c #6D2E24",
"2k 	c #0F0111",
"3k 	c #0D0111",
"4k 	c #1C0720",
"5k 	c #2C1934",
"6k 	c #2F2439",
"7k 	c #352740",
"8k 	c #31253B",
"9k 	c #150817",
"0k 	c #180C19",
"ak 	c #190217",
"bk 	c #412224",
"ck 	c #784234",
"dk 	c #89634B",
"ek 	c #967559",
"fk 	c #906E51",
"gk 	c #755042",
"hk 	c #765446",
"ik 	c #805B48",
"jk 	c #6E483C",
"kk 	c #5F3A32",
"lk 	c #815E4C",
"mk 	c #97674A",
"nk 	c #C38656",
"ok 	c #C38959",
"pk 	c #BF8756",
"qk 	c #BC8453",
"rk 	c #BC8252",
"sk 	c #BF8654",
"tk 	c #BF8555",
"uk 	c #BE8252",
"vk 	c #966346",
"wk 	c #97715B",
"xk 	c #AF8C6C",
"yk 	c #774839",
"zk 	c #986A4C",
"Ak 	c #A3734D",
"Bk 	c #99674A",
"Ck 	c #966549",
"Dk 	c #895D46",
"Ek 	c #BF7F53",
"Fk 	c #C38151",
"Gk 	c #BF7F52",
"Hk 	c #B27A50",
"Ik 	c #B27B52",
"Jk 	c #B98154",
"Kk 	c #B67F53",
"Lk 	c #B17D50",
"Mk 	c #B07C4E",
"Nk 	c #9F6744",
"Ok 	c #AD7248",
"Pk 	c #B0774D",
"Qk 	c #B47F51",
"Rk 	c #AE7B4F",
"Sk 	c #AE7D53",
"Tk 	c #B8865A",
"Uk 	c #BB895A",
"Vk 	c #B88758",
"Wk 	c #B58457",
"Xk 	c #B28356",
"Yk 	c #A5714F",
"Zk 	c #8B5840",
"`k 	c #895942",
" l 	c #86553F",
".l 	c #8E5D42",
"+l 	c #A6744D",
"@l 	c #AB764C",
"#l 	c #AC784C",
"$l 	c #9E6947",
"%l 	c #A66C4F",
"&l 	c #9D6240",
"*l 	c #A76F48",
"=l 	c #A86F48",
"-l 	c #A9724A",
";l 	c #9E6C47",
">l 	c #8F5D41",
",l 	c #8A5D43",
"'l 	c #754836",
")l 	c #CC9B70",
"!l 	c #BC895E",
"~l 	c #B68257",
"{l 	c #C08B59",
"]l 	c #C18D5B",
"^l 	c #C3905C",
"/l 	c #C4925C",
"(l 	c #C59661",
"_l 	c #C09362",
":l 	c #9F6949",
"<l 	c #9F6848",
"[l 	c #C0895C",
"}l 	c #BE8756",
"|l 	c #BF8953",
"1l 	c #A97850",
"2l 	c #986845",
"3l 	c #B18052",
"4l 	c #B88D61",
"5l 	c #A57955",
"6l 	c #834E39",
"7l 	c #BF8C5B",
"8l 	c #B88755",
"9l 	c #B68553",
"0l 	c #B68152",
"al 	c #BC8958",
"bl 	c #845039",
"cl 	c #5D2E2C",
"dl 	c #260716",
"el 	c #62312D",
"fl 	c #904133",
"gl 	c #8D3F32",
"hl 	c #B98156",
"il 	c #B08057",
"jl 	c #896550",
"kl 	c #774133",
"ll 	c #673D34",
"ml 	c #5C3833",
"nl 	c #451D2A",
"ol 	c #200215",
"pl 	c #29051C",
"ql 	c #26061F",
"rl 	c #260B23",
"sl 	c #231124",
"tl 	c #27162A",
"ul 	c #261929",
"vl 	c #3B1F22",
"wl 	c #562F2E",
"xl 	c #50272B",
"yl 	c #552C2B",
"zl 	c #713C31",
"Al 	c #765041",
"Bl 	c #694138",
"Cl 	c #5C3530",
"Dl 	c #5C3731",
"El 	c #5F3832",
"Fl 	c #55302C",
"Gl 	c #725145",
"Hl 	c #A6704A",
"Il 	c #A6734E",
"Jl 	c #A8764E",
"Kl 	c #A5714A",
"Ll 	c #A7714B",
"Ml 	c #A46E4A",
"Nl 	c #A26F4B",
"Ol 	c #7D4F3D",
"Pl 	c #7F5F4F",
"Ql 	c #93735E",
"Rl 	c #6C3F37",
"Sl 	c #97684A",
"Tl 	c #9D6F4C",
"Ul 	c #77463A",
"Vl 	c #754638",
"Wl 	c #805843",
"Xl 	c #7B4E3B",
"Yl 	c #B0744B",
"Zl 	c #AD734B",
"`l 	c #AE7950",
" m 	c #AD7850",
".m 	c #A7734D",
"+m 	c #A26F4C",
"@m 	c #A06F4C",
"#m 	c #9E6D4A",
"$m 	c #946040",
"%m 	c #97603F",
"&m 	c #A16D49",
"*m 	c #B07D52",
"=m 	c #AD7A51",
"-m 	c #7D4834",
";m 	c #986949",
">m 	c #A57550",
",m 	c #A2734F",
"'m 	c #A3754F",
")m 	c #9B674A",
"!m 	c #83503B",
"~m 	c #7D4B39",
"{m 	c #85573F",
"]m 	c #8F6244",
"^m 	c #89593D",
"/m 	c #926244",
"(m 	c #8B583E",
"_m 	c #8D563D",
":m 	c #90593B",
"<m 	c #935E3F",
"[m 	c #915E40",
"}m 	c #906042",
"|m 	c #906244",
"1m 	c #875A40",
"2m 	c #744636",
"3m 	c #704133",
"4m 	c #BF8F68",
"5m 	c #B8865F",
"6m 	c #AC7B53",
"7m 	c #AD7C52",
"8m 	c #B07F55",
"9m 	c #B18256",
"0m 	c #AD8052",
"am 	c #AB855B",
"bm 	c #A7835C",
"cm 	c #8D573E",
"dm 	c #8C563B",
"em 	c #AD7E58",
"fm 	c #A97A53",
"gm 	c #AD7D53",
"hm 	c #83583A",
"im 	c #653B2C",
"jm 	c #744D38",
"km 	c #8A6345",
"lm 	c #977353",
"mm 	c #90694F",
"nm 	c #7E4531",
"om 	c #864B36",
"pm 	c #996A4D",
"qm 	c #986A4B",
"rm 	c #9B6C4B",
"sm 	c #753D33",
"tm 	c #713732",
"um 	c #5A282B",
"vm 	c #542D2C",
"wm 	c #69312B",
"xm 	c #6C3430",
"ym 	c #825A44",
"zm 	c #7E5940",
"Am 	c #694838",
"Bm 	c #411C25",
"Cm 	c #441B2B",
"Dm 	c #4A202B",
"Em 	c #58242C",
"Fm 	c #4F3630",
"Gm 	c #815F44",
"Hm 	c #6D4A35",
"Im 	c #58382B",
"Jm 	c #2D0B18",
"Km 	c #310E18",
"Lm 	c #35121A",
"Mm 	c #582A2B",
"Nm 	c #804D41",
"Om 	c #6B3835",
"Pm 	c #63312E",
"Qm 	c #744230",
"Rm 	c #774631",
"Sm 	c #7B5234",
"Tm 	c #62362C",
"Um 	c #61352F",
"Vm 	c #603630",
"Wm 	c #6F4537",
"Xm 	c #64392E",
"Ym 	c #865740",
"Zm 	c #A8754D",
"`m 	c #834F34",
" n 	c #A37451",
".n 	c #976846",
"+n 	c #8F5F43",
"@n 	c #814F38",
"#n 	c #905B3F",
"$n 	c #8F5A3E",
"%n 	c #874E3B",
"&n 	c #905C43",
"*n 	c #936643",
"=n 	c #8E603E",
"-n 	c #976643",
";n 	c #976641",
">n 	c #94633F",
",n 	c #8B5837",
"'n 	c #8A5838",
")n 	c #A17148",
"!n 	c #A6784F",
"~n 	c #83513C",
"{n 	c #986343",
"]n 	c #986443",
"^n 	c #8F5A3D",
"/n 	c #8E593C",
"(n 	c #925E40",
"_n 	c #814833",
":n 	c #955D3F",
"<n 	c #90583B",
"[n 	c #915C3D",
"}n 	c #8C563A",
"|n 	c #955F3F",
"1n 	c #925B3C",
"2n 	c #945C3D",
"3n 	c #9A613D",
"4n 	c #8D563B",
"5n 	c #754633",
"6n 	c #714331",
"7n 	c #966A4A",
"8n 	c #9B6E4A",
"9n 	c #7D4833",
"0n 	c #996346",
"an 	c #935D3D",
"bn 	c #815036",
"cn 	c #794832",
"dn 	c #7B4A34",
"en 	c #794837",
"fn 	c #764737",
"gn 	c #734636",
"hn 	c #714636",
"in 	c #744839",
"jn 	c #794C38",
"kn 	c #7C4B3A",
"ln 	c #7F4A37",
"mn 	c #74412F",
"nn 	c #764431",
"on 	c #774632",
"pn 	c #774834",
"qn 	c #6C392E",
"rn 	c #8E6046",
"sn 	c #85573E",
"tn 	c #82503A",
"un 	c #7E4F39",
"vn 	c #5B3229",
"wn 	c #663E33",
"xn 	c #684235",
"yn 	c #7A5645",
"zn 	c #7A5543",
"An 	c #63382D",
"Bn 	c #7E5540",
"Cn 	c #724938",
"Dn 	c #62382C",
"En 	c #6A4135",
"Fn 	c #7C4E3B",
"Gn 	c #9D6342",
"Hn 	c #8C593C",
"In 	c #8A583B",
"Jn 	c #875339",
"Kn 	c #804A36",
"Ln 	c #814837",
"Mn 	c #8C523E",
"Nn 	c #885239",
"On 	c #624137",
"Pn 	c #4D423E",
"Qn 	c #716A62",
"Rn 	c #4D3838",
"Sn 	c #4D2728",
"Tn 	c #522826",
"Un 	c #381A1D",
"Vn 	c #785140",
"Wn 	c #774637",
"Xn 	c #7C3930",
"Yn 	c #684C3F",
"Zn 	c #A17E57",
"`n 	c #8A6342",
" o 	c #7D563E",
".o 	c #563025",
"+o 	c #42171E",
"@o 	c #502125",
"#o 	c #663530",
"$o 	c #A7835F",
"%o 	c #68392B",
"&o 	c #925A35",
"*o 	c #9A663C",
"=o 	c #AC834C",
"-o 	c #6C3F31",
";o 	c #794F3A",
">o 	c #885E47",
",o 	c #6C3E2D",
"'o 	c #9D6B47",
")o 	c #CA8E59",
"!o 	c #89513A",
"~o 	c #9B5F3F",
"{o 	c #C79360",
"]o 	c #C79960",
"^o 	c #885743",
"/o 	c #9E6943",
"(o 	c #935A3E",
"_o 	c #A06B45",
":o 	c #B68251",
"<o 	c #AE7848",
"[o 	c #AE7948",
"}o 	c #AD7948",
"|o 	c #A97444",
"1o 	c #AC7648",
"2o 	c #A67149",
"3o 	c #AC7C4C",
"4o 	c #BF915B",
"5o 	c #AD764C",
"6o 	c #B47E50",
"7o 	c #B27D4E",
"8o 	c #AE784B",
"9o 	c #A97347",
"0o 	c #A36E43",
"ao 	c #A36E42",
"bo 	c #AF794C",
"co 	c #8D5337",
"do 	c #B0794A",
"eo 	c #AC7647",
"fo 	c #A97245",
"go 	c #B88352",
"ho 	c #B17B4B",
"io 	c #AF7949",
"jo 	c #AD7848",
"ko 	c #9E6B44",
"lo 	c #7F5038",
"mo 	c #87563B",
"no 	c #794B36",
"oo 	c #B4855C",
"po 	c #BB8A5B",
"qo 	c #9A5E3C",
"ro 	c #B37B52",
"so 	c #B27C4F",
"to 	c #B17A4D",
"uo 	c #956442",
"vo 	c #875538",
"wo 	c #865739",
"xo 	c #86573D",
"yo 	c #85583E",
"zo 	c #835A3F",
"Ao 	c #825C41",
"Bo 	c #7F5840",
"Co 	c #865941",
"Do 	c #8E5D40",
"Eo 	c #905A39",
"Fo 	c #925C39",
"Go 	c #925E3A",
"Ho 	c #925F3C",
"Io 	c #6D3C2D",
"Jo 	c #B88B60",
"Ko 	c #B07F53",
"Lo 	c #A37247",
"Mo 	c #A27045",
"No 	c #936442",
"Oo 	c #5F392F",
"Po 	c #7D583E",
"Qo 	c #946D54",
"Ro 	c #C79F74",
"So 	c #C29A6D",
"To 	c #BE986F",
"Uo 	c #9F795A",
"Vo 	c #65382F",
"Wo 	c #673C31",
"Xo 	c #936745",
"Yo 	c #C48A4E",
"Zo 	c #AB7547",
"`o 	c #AB7746",
" p 	c #A97845",
".p 	c #A67543",
"+p 	c #A47440",
"@p 	c #A67440",
"#p 	c #AB7D48",
"$p 	c #A67A43",
"%p 	c #7A573D",
"&p 	c #B8B69E",
"*p 	c #836557",
"=p 	c #6C372A",
"-p 	c #6A3026",
";p 	c #623024",
">p 	c #C59A60",
",p 	c #C18F54",
"'p 	c #BD7D3E",
")p 	c #6F4D3F",
"!p 	c #745540",
"~p 	c #614538",
"{p 	c #5B3E32",
"]p 	c #53423D",
"^p 	c #CCCBCF",
"/p 	c #BBBDB8",
"(p 	c #7D837C",
"_p 	c #705549",
":p 	c #583734",
"<p 	c #6F4A37",
"[p 	c #C39751",
"}p 	c #A67A4A",
"|p 	c #6B4939",
"1p 	c #9A6D51",
"2p 	c #9E6A4B",
"3p 	c #986749",
"4p 	c #8D664F",
"5p 	c #D4AA81",
"6p 	c #8C6244",
"7p 	c #6B412D",
"8p 	c #9A6745",
"9p 	c #C48452",
"0p 	c #B9794C",
"ap 	c #B7784A",
"bp 	c #B7794B",
"cp 	c #9B6E53",
"dp 	c #B6855C",
"ep 	c #B48052",
"fp 	c #B68050",
"gp 	c #AA7449",
"hp 	c #91593D",
"ip 	c #9A6345",
"jp 	c #AA7347",
"kp 	c #B6865D",
"lp 	c #AC7E5E",
"mp 	c #A97A4F",
"np 	c #935F3F",
"op 	c #AE754C",
"pp 	c #B57D4F",
"qp 	c #B0784D",
"rp 	c #A36C44",
"sp 	c #A26A41",
"tp 	c #9A603E",
"up 	c #915538",
"vp 	c #B97D4E",
"wp 	c #B57B4C",
"xp 	c #B17C4E",
"yp 	c #AF784C",
"zp 	c #B37E4F",
"Ap 	c #B17C4D",
"Bp 	c #693B2E",
"Cp 	c #B37A4D",
"Dp 	c #925E42",
"Ep 	c #81523A",
"Fp 	c #BC8257",
"Gp 	c #B67F51",
"Hp 	c #B67F52",
"Ip 	c #804E36",
"Jp 	c #86553A",
"Kp 	c #87563D",
"Lp 	c #7F5239",
"Mp 	c #9F9790",
"Np 	c #98938B",
"Op 	c #82614F",
"Pp 	c #81583F",
"Qp 	c #754935",
"Rp 	c #935A39",
"Sp 	c #945B38",
"Tp 	c #945A37",
"Up 	c #9F6540",
"Vp 	c #9A6344",
"Wp 	c #925D40",
"Xp 	c #AC7550",
"Yp 	c #AA744D",
"Zp 	c #A9734B",
"`p 	c #9D6D4E",
" q 	c #5C322D",
".q 	c #8E6345",
"+q 	c #895B40",
"@q 	c #8E6249",
"#q 	c #8B5E45",
"$q 	c #7F523B",
"%q 	c #88604B",
"&q 	c #A1795F",
"*q 	c #AE8563",
"=q 	c #865F49",
"-q 	c #8C5E44",
";q 	c #B4794E",
">q 	c #A36D49",
",q 	c #A3734E",
"'q 	c #A07350",
")q 	c #A07B55",
"!q 	c #BA986E",
"~q 	c #BE9C75",
"{q 	c #92684C",
"]q 	c #A77A4F",
"^q 	c #805945",
"/q 	c #4D3737",
"(q 	c #67534C",
"_q 	c #50302D",
":q 	c #7B5A49",
"<q 	c #9E7151",
"[q 	c #5F3936",
"}q 	c #6B3830",
"|q 	c #AF6435",
"1q 	c #71503E",
"2q 	c #715343",
"3q 	c #412F33",
"4q 	c #46363B",
"5q 	c #807F76",
"6q 	c #D9E0DA",
"7q 	c #CFDACD",
"8q 	c #A4B3AC",
"9q 	c #47424C",
"0q 	c #472D34",
"aq 	c #58352C",
"bq 	c #B89051",
"cq 	c #936B45",
"dq 	c #5C332E",
"eq 	c #A47050",
"fq 	c #A66F4C",
"gq 	c #956244",
"hq 	c #7D5846",
"iq 	c #B68C68",
"jq 	c #9B7050",
"kq 	c #7C5440",
"lq 	c #C38251",
"mq 	c #BF7F4E",
"nq 	c #BD7D4D",
"oq 	c #834F36",
"pq 	c #A57858",
"qq 	c #C89666",
"rq 	c #BB8555",
"sq 	c #AF784B",
"tq 	c #B1744A",
"uq 	c #A86E45",
"vq 	c #A8734C",
"wq 	c #AD7953",
"xq 	c #A57451",
"yq 	c #8E5C3E",
"zq 	c #B37A4E",
"Aq 	c #B67D4D",
"Bq 	c #B57D4C",
"Cq 	c #B47C4C",
"Dq 	c #AD754A",
"Eq 	c #A66E44",
"Fq 	c #A2683F",
"Gq 	c #9A5E3E",
"Hq 	c #94583B",
"Iq 	c #B37B4B",
"Jq 	c #BB8859",
"Kq 	c #B98456",
"Lq 	c #B78152",
"Mq 	c #734332",
"Nq 	c #6D4738",
"Oq 	c #8D5E40",
"Pq 	c #7A4C37",
"Qq 	c #845338",
"Rq 	c #905D3F",
"Sq 	c #C0885A",
"Tq 	c #BB8356",
"Uq 	c #B98355",
"Vq 	c #8F6142",
"Wq 	c #87563C",
"Xq 	c #925F43",
"Yq 	c #8B583D",
"Zq 	c #89563C",
"`q 	c #7C4D38",
" r 	c #ABACA7",
".r 	c #A6AAA4",
"+r 	c #7B5F50",
"@r 	c #7B513E",
"#r 	c #945C3B",
"$r 	c #A26742",
"%r 	c #A96E46",
"&r 	c #B4794D",
"*r 	c #955A3D",
"=r 	c #AB724F",
"-r 	c #AA734D",
";r 	c #A9734C",
">r 	c #A17152",
",r 	c #603530",
"'r 	c #986A49",
")r 	c #946444",
"!r 	c #8C5D3F",
"~r 	c #97694B",
"{r 	c #784F3C",
"]r 	c #A27D61",
"^r 	c #BE966F",
"/r 	c #966D54",
"(r 	c #8A5941",
"_r 	c #B2784F",
":r 	c #B1784E",
"<r 	c #805C49",
"[r 	c #906D51",
"}r 	c #AE9061",
"|r 	c #C5A77C",
"1r 	c #C5A67E",
"2r 	c #A3785A",
"3r 	c #A0734B",
"4r 	c #7B5740",
"5r 	c #432A27",
"6r 	c #705642",
"7r 	c #A57D60",
"8r 	c #C58D5D",
"9r 	c #B57F54",
"0r 	c #6F4A3E",
"ar 	c #6A342E",
"br 	c #AB582E",
"cr 	c #261426",
"dr 	c #3D283E",
"er 	c #1D061B",
"fr 	c #453E3D",
"gr 	c #B4BCAB",
"hr 	c #BCCABA",
"ir 	c #C9D7C4",
"jr 	c #C9D6CA",
"kr 	c #5A606A",
"lr 	c #4C343B",
"mr 	c #512C2D",
"nr 	c #683A31",
"or 	c #6D3E30",
"pr 	c #784935",
"qr 	c #A26D4C",
"rr 	c #A36D4A",
"sr 	c #9F6A49",
"tr 	c #9E6C4E",
"ur 	c #794535",
"vr 	c #B68A67",
"wr 	c #926A52",
"xr 	c #C48351",
"yr 	c #C1824F",
"zr 	c #BC8051",
"Ar 	c #B0764B",
"Br 	c #A4714E",
"Cr 	c #8B654D",
"Dr 	c #B8855B",
"Er 	c #C18959",
"Fr 	c #B98153",
"Gr 	c #AE7346",
"Hr 	c #AD6F43",
"Ir 	c #AE7448",
"Jr 	c #AC7348",
"Kr 	c #AA7148",
"Lr 	c #A26B44",
"Mr 	c #B38054",
"Nr 	c #CA9A64",
"Or 	c #986747",
"Pr 	c #8E5B40",
"Qr 	c #B1784B",
"Rr 	c #B87D4C",
"Sr 	c #B17749",
"Tr 	c #AD6F42",
"Ur 	c #B07346",
"Vr 	c #B67C4E",
"Wr 	c #AC7247",
"Xr 	c #A46940",
"Yr 	c #9E643F",
"Zr 	c #955B3D",
"`r 	c #B97E4E",
" s 	c #B57B4A",
".s 	c #B1794E",
"+s 	c #98684A",
"@s 	c #AE7C53",
"#s 	c #B88355",
"$s 	c #B58151",
"%s 	c #AE764F",
"&s 	c #9D6242",
"*s 	c #66372C",
"=s 	c #492021",
"-s 	c #5B2D26",
";s 	c #9B6E4B",
">s 	c #B7885C",
",s 	c #B68358",
"'s 	c #B47F54",
")s 	c #BB8556",
"!s 	c #BC8757",
"~s 	c #8D6040",
"{s 	c #87553B",
"]s 	c #976444",
"^s 	c #905C3D",
"/s 	c #9F6A46",
"(s 	c #88583F",
"_s 	c #574547",
":s 	c #5C4D4E",
"<s 	c #684638",
"[s 	c #704838",
"}s 	c #6C3F2F",
"|s 	c #946044",
"1s 	c #986041",
"2s 	c #B1754D",
"3s 	c #B87C4F",
"4s 	c #B77C4E",
"5s 	c #A96F48",
"6s 	c #A66D48",
"7s 	c #A76F49",
"8s 	c #61362D",
"9s 	c #9E704E",
"0s 	c #9C6B4A",
"as 	c #996947",
"bs 	c #996949",
"cs 	c #9F6F4E",
"ds 	c #8E6146",
"es 	c #7D513E",
"fs 	c #754634",
"gs 	c #6E3F35",
"hs 	c #936247",
"is 	c #B57B50",
"js 	c #996543",
"ks 	c #52302E",
"ls 	c #77655D",
"ms 	c #B8A485",
"ns 	c #BAA58B",
"os 	c #542A2F",
"ps 	c #AD7E5C",
"qs 	c #9C6E4B",
"rs 	c #76533D",
"ss 	c #3E2423",
"ts 	c #6B503C",
"us 	c #BD885E",
"vs 	c #C48657",
"ws 	c #C18256",
"xs 	c #B57E59",
"ys 	c #6C473C",
"zs 	c #5E2D26",
"As 	c #AE5C2F",
"Bs 	c #24071C",
"Cs 	c #25051D",
"Ds 	c #412728",
"Es 	c #565B6B",
"Fs 	c #6D737E",
"Gs 	c #6F757C",
"Hs 	c #676B73",
"Is 	c #646877",
"Js 	c #2D2530",
"Ks 	c #422628",
"Ls 	c #6F4231",
"Ms 	c #AC7D53",
"Ns 	c #A8764D",
"Os 	c #9F6A48",
"Ps 	c #9E6848",
"Qs 	c #9E6948",
"Rs 	c #966449",
"Ss 	c #B78C68",
"Ts 	c #926B52",
"Us 	c #C88753",
"Vs 	c #CA8B57",
"Ws 	c #875D43",
"Xs 	c #6E4437",
"Ys 	c #BB8254",
"Zs 	c #A6704C",
"`s 	c #77483A",
" t 	c #B48058",
".t 	c #C28A5A",
"+t 	c #BE8658",
"@t 	c #B4784B",
"#t 	c #B27548",
"$t 	c #AE7549",
"%t 	c #AD7349",
"&t 	c #A46C43",
"*t 	c #B1784C",
"=t 	c #C09264",
"-t 	c #966747",
";t 	c #AF754B",
">t 	c #9B613E",
",t 	c #AC764B",
"'t 	c #AF7548",
")t 	c #B17849",
"!t 	c #AE7649",
"~t 	c #A46A44",
"{t 	c #92593A",
"]t 	c #B97E4D",
"^t 	c #B67A49",
"/t 	c #B07545",
"(t 	c #B07749",
"_t 	c #8A563F",
":t 	c #AA7750",
"<t 	c #B78351",
"[t 	c #BD8552",
"}t 	c #AB7049",
"|t 	c #985B3B",
"1t 	c #935938",
"2t 	c #8A5335",
"3t 	c #814E33",
"4t 	c #794A32",
"5t 	c #865637",
"6t 	c #662F24",
"7t 	c #6B3225",
"8t 	c #B17C51",
"9t 	c #BD8954",
"0t 	c #8E6040",
"at 	c #8A5A3F",
"bt 	c #A3724D",
"ct 	c #946144",
"dt 	c #976244",
"et 	c #946041",
"ft 	c #4B262B",
"gt 	c #764C37",
"ht 	c #81543E",
"it 	c #744433",
"jt 	c #BB8159",
"kt 	c #AB6E4A",
"lt 	c #A56A44",
"mt 	c #B77D4E",
"nt 	c #AB7044",
"ot 	c #A76C45",
"pt 	c #A57551",
"qt 	c #683D30",
"rt 	c #9F724D",
"st 	c #A27351",
"tt 	c #A17250",
"ut 	c #956648",
"vt 	c #A37251",
"wt 	c #A47451",
"xt 	c #916346",
"yt 	c #814F3B",
"zt 	c #6A3C31",
"At 	c #8F5F44",
"Bt 	c #B67B4F",
"Ct 	c #B3784C",
"Dt 	c #AF7547",
"Et 	c #A1673B",
"Ft 	c #6B3F2C",
"Gt 	c #3A1D28",
"Ht 	c #49262D",
"It 	c #734641",
"Jt 	c #AF7F58",
"Kt 	c #B28155",
"Lt 	c #805A3F",
"Mt 	c #361618",
"Nt 	c #41231F",
"Ot 	c #B07550",
"Pt 	c #BA764C",
"Qt 	c #B5754D",
"Rt 	c #5B2222",
"St 	c #794334",
"Tt 	c #621F27",
"Ut 	c #401227",
"Vt 	c #561D31",
"Wt 	c #71503C",
"Xt 	c #4F342D",
"Yt 	c #3E3C52",
"Zt 	c #393749",
"`t 	c #403947",
" u 	c #403C4A",
".u 	c #484A57",
"+u 	c #2C1A25",
"@u 	c #593731",
"#u 	c #91593F",
"$u 	c #B37A54",
"%u 	c #A26D47",
"&u 	c #996446",
"*u 	c #9B6748",
"=u 	c #9C6848",
"-u 	c #87543E",
";u 	c #AC8260",
">u 	c #8C634B",
",u 	c #A16C49",
"'u 	c #CE8F5B",
")u 	c #AD794F",
"!u 	c #9D6D4F",
"~u 	c #99684C",
"{u 	c #BA8153",
"]u 	c #BC8455",
"^u 	c #BD8556",
"/u 	c #BC8355",
"(u 	c #B4764B",
"_u 	c #B47648",
":u 	c #B07648",
"<u 	c #AC764A",
"[u 	c #A47046",
"}u 	c #AB8057",
"|u 	c #916347",
"1u 	c #B07950",
"2u 	c #B1764B",
"3u 	c #AE784E",
"4u 	c #BD8656",
"5u 	c #B27A4A",
"6u 	c #B07B4C",
"7u 	c #74402E",
"8u 	c #BC7F4F",
"9u 	c #B17445",
"0u 	c #A1653B",
"au 	c #B88255",
"bu 	c #B88252",
"cu 	c #B98353",
"du 	c #BA8455",
"eu 	c #AB7349",
"fu 	c #975B3B",
"gu 	c #B07A52",
"hu 	c #986440",
"iu 	c #723C29",
"ju 	c #723926",
"ku 	c #8A4F30",
"lu 	c #925939",
"mu 	c #BC8854",
"nu 	c #906343",
"ou 	c #895B45",
"pu 	c #9F6B4B",
"qu 	c #A26C48",
"ru 	c #9E6747",
"su 	c #97664D",
"tu 	c #A8734F",
"uu 	c #BE8459",
"vu 	c #AD734C",
"wu 	c #A46942",
"xu 	c #B87F4E",
"yu 	c #B67F4E",
"zu 	c #A16940",
"Au 	c #B17951",
"Bu 	c #AE7D55",
"Cu 	c #693F30",
"Du 	c #916445",
"Eu 	c #A37550",
"Fu 	c #A07150",
"Gu 	c #794738",
"Hu 	c #9C6C4D",
"Iu 	c #A1704C",
"Ju 	c #A06F4D",
"Ku 	c #64382F",
"Lu 	c #905F43",
"Mu 	c #B47A4D",
"Nu 	c #B17747",
"Ou 	c #AD7240",
"Pu 	c #9A603F",
"Qu 	c #824E35",
"Ru 	c #814D34",
"Su 	c #B78355",
"Tu 	c #411E1C",
"Uu 	c #2A1018",
"Vu 	c #945B46",
"Wu 	c #935640",
"Xu 	c #884F3F",
"Yu 	c #551E26",
"Zu 	c #814836",
"`u 	c #824C34",
" v 	c #451320",
".v 	c #3E1023",
"+v 	c #521E27",
"@v 	c #A49354",
"#v 	c #867545",
"$v 	c #30161F",
"%v 	c #15030F",
"&v 	c #2A1422",
"*v 	c #140211",
"=v 	c #5B3833",
"-v 	c #774B3B",
";v 	c #B4754C",
">v 	c #AF734C",
",v 	c #965E41",
"'v 	c #945E41",
")v 	c #946042",
"!v 	c #9D6A4B",
"~v 	c #9F6D4E",
"{v 	c #7D4B38",
"]v 	c #82553C",
"^v 	c #7A4D36",
"/v 	c #A97552",
"(v 	c #D29967",
"_v 	c #784037",
":v 	c #B68458",
"<v 	c #C08A58",
"[v 	c #BD8757",
"}v 	c #BC8656",
"|v 	c #BB8454",
"1v 	c #B07348",
"2v 	c #B57849",
"3v 	c #B47949",
"4v 	c #B37A4B",
"5v 	c #B37B4C",
"6v 	c #B17B4D",
"7v 	c #AC7646",
"8v 	c #9C6440",
"9v 	c #804C37",
"0v 	c #85523D",
"av 	c #BB835B",
"bv 	c #B3794B",
"cv 	c #B07849",
"dv 	c #B27B4B",
"ev 	c #B58051",
"fv 	c #864D39",
"gv 	c #77412F",
"hv 	c #B98152",
"iv 	c #B88250",
"jv 	c #B88251",
"kv 	c #BC8755",
"lv 	c #94593A",
"mv 	c #8B5235",
"nv 	c #B88359",
"ov 	c #97603A",
"pv 	c #995F3A",
"qv 	c #A05C39",
"rv 	c #B37D52",
"sv 	c #B98454",
"tv 	c #BC8855",
"uv 	c #8F6347",
"vv 	c #AD7A56",
"wv 	c #B47D56",
"xv 	c #B27C52",
"yv 	c #A9724B",
"zv 	c #A46C4A",
"Av 	c #AB744E",
"Bv 	c #A9744E",
"Cv 	c #AC7751",
"Dv 	c #BF875D",
"Ev 	c #B98056",
"Fv 	c #BB8255",
"Gv 	c #BD8654",
"Hv 	c #BD8754",
"Iv 	c #B9814E",
"Jv 	c #B47B4D",
"Kv 	c #BE8357",
"Lv 	c #BD8459",
"Mv 	c #B07F58",
"Nv 	c #653A2D",
"Ov 	c #724633",
"Pv 	c #8B5E44",
"Qv 	c #996A4C",
"Rv 	c #895941",
"Sv 	c #946345",
"Tv 	c #926444",
"Uv 	c #7C4E37",
"Vv 	c #744836",
"Wv 	c #B87B4D",
"Xv 	c #B17446",
"Yv 	c #B87A4A",
"Zv 	c #B67746",
"`v 	c #B47644",
" w 	c #B67848",
".w 	c #8E6448",
"+w 	c #4B1E1E",
"@w 	c #461B1B",
"#w 	c #4F252D",
"$w 	c #4E1E2F",
"%w 	c #531E2E",
"&w 	c #61242A",
"*w 	c #7D422E",
"=w 	c #491721",
"-w 	c #3F1B22",
";w 	c #66312D",
">w 	c #623E2D",
",w 	c #5D372A",
"'w 	c #562825",
")w 	c #431C1D",
"!w 	c #300D1D",
"~w 	c #6C463C",
"{w 	c #613833",
"]w 	c #9F6341",
"^w 	c #99613F",
"/w 	c #925D41",
"(w 	c #905D40",
"_w 	c #AF8862",
":w 	c #D4B07D",
"<w 	c #956545",
"[w 	c #603A2B",
"}w 	c #6E402F",
"|w 	c #C08956",
"1w 	c #BF8A5A",
"2w 	c #C08D5B",
"3w 	c #C08D5A",
"4w 	c #BF8B59",
"5w 	c #BE8A56",
"6w 	c #BA8654",
"7w 	c #B98554",
"8w 	c #B27D50",
"9w 	c #BA7D4C",
"0w 	c #B67E4D",
"aw 	c #B5804E",
"bw 	c #A26A43",
"cw 	c #A0683F",
"dw 	c #AC7548",
"ew 	c #996443",
"fw 	c #B67F55",
"gw 	c #BD8452",
"hw 	c #B77E4D",
"iw 	c #BD804D",
"jw 	c #BA804E",
"kw 	c #BA8152",
"lw 	c #B98253",
"mw 	c #A7754F",
"nw 	c #85553D",
"ow 	c #BF8A58",
"pw 	c #BA8959",
"qw 	c #AB774F",
"rw 	c #A3704C",
"sw 	c #A47048",
"tw 	c #AA734B",
"uw 	c #9D613D",
"vw 	c #A2603D",
"ww 	c #B98555",
"xw 	c #BB8856",
"yw 	c #AB7A54",
"zw 	c #B47F5A",
"Aw 	c #A9734D",
"Bw 	c #9A6440",
"Cw 	c #8E583B",
"Dw 	c #A06A46",
"Ew 	c #9F6C47",
"Fw 	c #84553B",
"Gw 	c #C38C62",
"Hw 	c #AC734D",
"Iw 	c #BB8654",
"Jw 	c #BC8754",
"Kw 	c #BD8753",
"Lw 	c #C58D5A",
"Mw 	c #B97F51",
"Nw 	c #BA8457",
"Ow 	c #AF8058",
"Pw 	c #693E2B",
"Qw 	c #C29C6E",
"Rw 	c #9C7555",
"Sw 	c #6B3A2F",
"Tw 	c #764736",
"Uw 	c #764836",
"Vw 	c #784A36",
"Ww 	c #784C3B",
"Xw 	c #987254",
"Yw 	c #926B4B",
"Zw 	c #9F6C48",
"`w 	c #B77A4C",
" x 	c #C38755",
".x 	c #AF7448",
"+x 	c #B77B4A",
"@x 	c #BA804D",
"#x 	c #BD8551",
"$x 	c #BC8856",
"%x 	c #9B6B4B",
"&x 	c #A8603C",
"*x 	c #C58948",
"=x 	c #6D4632",
"-x 	c #3C0F24",
";x 	c #431422",
">x 	c #763231",
",x 	c #73382B",
"'x 	c #72372A",
")x 	c #713330",
"!x 	c #411E23",
"~x 	c #76382F",
"{x 	c #673129",
"]x 	c #653128",
"^x 	c #623126",
"/x 	c #491E1F",
"(x 	c #370D1E",
"_x 	c #432226",
":x 	c #784D44",
"<x 	c #865541",
"[x 	c #73453A",
"}x 	c #93593B",
"|x 	c #925E3F",
"1x 	c #8F5C3E",
"2x 	c #8B593D",
"3x 	c #885F47",
"4x 	c #8F6B50",
"5x 	c #7D503B",
"6x 	c #6B3E2D",
"7x 	c #986644",
"8x 	c #C08A57",
"9x 	c #BF8C59",
"0x 	c #BF8F5B",
"ax 	c #BE8E58",
"bx 	c #BD8B55",
"cx 	c #BB8954",
"dx 	c #BA8754",
"ex 	c #B17E4F",
"fx 	c #AC7349",
"gx 	c #B98655",
"hx 	c #996240",
"ix 	c #9D6744",
"jx 	c #B67F4D",
"kx 	c #A26D48",
"lx 	c #B78153",
"mx 	c #BE8654",
"nx 	c #B57E51",
"ox 	c #AD7448",
"px 	c #A56C44",
"qx 	c #A36A43",
"rx 	c #8C5638",
"sx 	c #C48753",
"tx 	c #BD814B",
"ux 	c #B87E4B",
"vx 	c #B98052",
"wx 	c #B78052",
"xx 	c #A8774E",
"yx 	c #99694A",
"zx 	c #BE8B59",
"Ax 	c #BA8A59",
"Bx 	c #B27D55",
"Cx 	c #B37C4E",
"Dx 	c #A26C44",
"Ex 	c #9C623E",
"Fx 	c #BC8456",
"Gx 	c #BA8555",
"Hx 	c #B88654",
"Ix 	c #B07D54",
"Jx 	c #AD7B52",
"Kx 	c #905C3E",
"Lx 	c #976140",
"Mx 	c #976441",
"Nx 	c #95613F",
"Ox 	c #7B5038",
"Px 	c #CF9B6E",
"Qx 	c #BC8654",
"Rx 	c #BD8854",
"Sx 	c #BB8652",
"Tx 	c #B98556",
"Ux 	c #B2845B",
"Vx 	c #7D5235",
"Wx 	c #A78259",
"Xx 	c #91684B",
"Yx 	c #7B4A35",
"Zx 	c #7B4B36",
"`x 	c #7A4B36",
" y 	c #7F523D",
".y 	c #7E543E",
"+y 	c #A17C59",
"@y 	c #835F48",
"#y 	c #996747",
"$y 	c #B87E4D",
"%y 	c #BB814F",
"&y 	c #BB824F",
"*y 	c #BB824C",
"=y 	c #BF8753",
"-y 	c #BF8A55",
";y 	c #BC8A56",
">y 	c #8D6648",
",y 	c #703D30",
"'y 	c #B07247",
")y 	c #6F3D37",
"!y 	c #6C3F34",
"~y 	c #774636",
"{y 	c #73322D",
"]y 	c #612822",
"^y 	c #4A1B1F",
"/y 	c #411521",
"(y 	c #4D2227",
"_y 	c #793A2D",
":y 	c #7F4231",
"<y 	c #8B4D37",
"[y 	c #834C36",
"}y 	c #693B2F",
"|y 	c #442223",
"1y 	c #210714",
"2y 	c #7A4C41",
"3y 	c #7C4D3F",
"4y 	c #81452B",
"5y 	c #874C31",
"6y 	c #814E38",
"7y 	c #7F4E3B",
"8y 	c #66382F",
"9y 	c #7D4733",
"0y 	c #7B4431",
"ay 	c #6E3F2D",
"by 	c #88583E",
"cy 	c #AC7850",
"dy 	c #AE7D51",
"ey 	c #B08255",
"fy 	c #B08154",
"gy 	c #AF8053",
"hy 	c #AB7B4F",
"iy 	c #A9794E",
"jy 	c #A7794D",
"ky 	c #A77A4E",
"ly 	c #9F7249",
"my 	c #9E6B46",
"ny 	c #AB7549",
"oy 	c #B07D4F",
"py 	c #A4754F",
"qy 	c #A97A52",
"ry 	c #9C6845",
"sy 	c #9B6543",
"ty 	c #9F6943",
"uy 	c #915D40",
"vy 	c #A9764F",
"wy 	c #AB764A",
"xy 	c #A6754C",
"yy 	c #AC784B",
"zy 	c #AB784D",
"Ay 	c #AC7A4F",
"By 	c #A97549",
"Cy 	c #7A4833",
"Dy 	c #AC7245",
"Ey 	c #965F3E",
"Fy 	c #A6764D",
"Gy 	c #B48556",
"Hy 	c #AC7C4F",
"Iy 	c #AC7B50",
"Jy 	c #AE7E53",
"Ky 	c #A57450",
"Ly 	c #9A6742",
"My 	c #A16B42",
"Ny 	c #97633F",
"Oy 	c #AE7953",
"Py 	c #A8754E",
"Qy 	c #A4734D",
"Ry 	c #A3734B",
"Sy 	c #7F533C",
"Ty 	c #774C38",
"Uy 	c #84563E",
"Vy 	c #87573D",
"Wy 	c #895A3D",
"Xy 	c #8B5C40",
"Yy 	c #7E5138",
"Zy 	c #7A4E35",
"`y 	c #784C34",
" z 	c #664130",
".z 	c #B1825C",
"+z 	c #A5734B",
"@z 	c #A16F48",
"#z 	c #A5724A",
"$z 	c #A57148",
"%z 	c #A57049",
"&z 	c #AC7B52",
"*z 	c #AC815B",
"=z 	c #724932",
"-z 	c #6D3B30",
";z 	c #6D3E2D",
">z 	c #7F5036",
",z 	c #845539",
"'z 	c #85553A",
")z 	c #885D3F",
"!z 	c #79533B",
"~z 	c #6C4939",
"{z 	c #9C6D4A",
"]z 	c #C28753",
"^z 	c #9A6A44",
"/z 	c #AA794F",
"(z 	c #AC7A4E",
"_z 	c #A9784C",
":z 	c #A77449",
"<z 	c #AA7A51",
"[z 	c #AA7E55",
"}z 	c #A98159",
"|z 	c #735844",
"1z 	c #492A28",
"2z 	c #80543A",
"3z 	c #572E2E",
"4z 	c #663A31",
"5z 	c #734333",
"6z 	c #5D2827",
"7z 	c #522422",
"8z 	c #3A151E",
"9z 	c #230516",
"0z 	c #A7633A",
"az 	c #A3582F",
"bz 	c #C58451",
"cz 	c #D38F59",
"dz 	c #C58752",
"ez 	c #C18654",
"fz 	c #B07E58",
"gz 	c #1A0311",
"hz 	c #210715",
"iz 	c #624435",
"jz 	c #AB7445",
"kz 	c #A1663D",
"lz 	c #965C3B",
"mz 	c #B38057",
"nz 	c #AB7850",
"oz 	c #A3714C",
"pz 	c #A2704D",
"qz 	c #A4734B",
"rz 	c #A1734B",
"sz 	c #834F37",
"tz 	c #75392E",
"uz 	c #733B2E",
"vz 	c #754031",
"wz 	c #764031",
"xz 	c #764132",
"yz 	c #744134",
"zz 	c #6E3E30",
"Az 	c #68392F",
"Bz 	c #673730",
"Cz 	c #653530",
"Dz 	c #9D694B",
"Ez 	c #9D6845",
"Fz 	c #9F6A45",
"Gz 	c #956041",
"Hz 	c #A36B46",
"Iz 	c #A76F47",
"Jz 	c #AA764D",
"Kz 	c #B07D56",
"Lz 	c #996648",
"Mz 	c #884F33",
"Nz 	c #8F5738",
"Oz 	c #7C4831",
"Pz 	c #79442E",
"Qz 	c #7B452F",
"Rz 	c #824D35",
"Sz 	c #845034",
"Tz 	c #895536",
"Uz 	c #885437",
"Vz 	c #854E36",
"Wz 	c #7A4634",
"Xz 	c #9C6441",
"Yz 	c #925B3A",
"Zz 	c #8E5738",
"`z 	c #915E3E",
" A 	c #936343",
".A 	c #89593C",
"+A 	c #7F4E34",
"@A 	c #845439",
"#A 	c #87563A",
"$A 	c #8C5B3D",
"%A 	c #844F36",
"&A 	c #844B32",
"*A 	c #8F5236",
"=A 	c #9C603A",
"-A 	c #99653E",
";A 	c #9C6940",
">A 	c #865138",
",A 	c #A0704F",
"'A 	c #A87754",
")A 	c #8E5C42",
"!A 	c #6A4036",
"~A 	c #5A352E",
"{A 	c #623B32",
"]A 	c #633D32",
"^A 	c #7C5442",
"/A 	c #80624F",
"(A 	c #856D56",
"_A 	c #85705D",
":A 	c #5F3D33",
"<A 	c #6E3D30",
"[A 	c #724031",
"}A 	c #734031",
"|A 	c #734030",
"1A 	c #703D2E",
"2A 	c #6E3A2C",
"3A 	c #6D392C",
"4A 	c #6C3A2F",
"5A 	c #65392E",
"6A 	c #60352C",
"7A 	c #663B2B",
"8A 	c #6B3F2E",
"9A 	c #704431",
"0A 	c #6C4230",
"aA 	c #643A2D",
"bA 	c #5D342C",
"cA 	c #674133",
"dA 	c #5F372D",
"eA 	c #5F352F",
"fA 	c #663D35",
"gA 	c #673E32",
"hA 	c #441D22",
"iA 	c #4C2827",
"jA 	c #452F36",
"kA 	c #493339",
"lA 	c #4D373D",
"mA 	c #51383E",
"nA 	c #695D5D",
"oA 	c #35222E",
"pA 	c #290724",
"qA 	c #290B1E",
"rA 	c #4A332F",
"sA 	c #543233",
"tA 	c #4A2129",
"uA 	c #38141F",
"vA 	c #230718",
"wA 	c #33161F",
"xA 	c #44252B",
"yA 	c #4C312F",
"zA 	c #AA6A48",
"AA 	c #CE8352",
"BA 	c #D99660",
"CA 	c #DC9960",
"DA 	c #C88855",
"EA 	c #B7794D",
"FA 	c #A26F52",
"GA 	c #7B5A4B",
"HA 	c #2A121E",
"IA 	c #6E513C",
"JA 	c #C99056",
"KA 	c #D19E66",
"LA 	c #C48F58",
"MA 	c #BB8552",
"NA 	c #B88454",
"OA 	c #B38254",
"PA 	c #985F3D",
"QA 	c #A36A42",
"RA 	c #8C5B3C",
"SA 	c #95643F",
"TA 	c #80503A",
"UA 	c #B38860",
"VA 	c #A47A57",
"WA 	c #6A3A31",
"XA 	c #693A30",
"YA 	c #A5754F",
"ZA 	c #C7905D",
"`A 	c #AC754A",
" B 	c #B88153",
".B 	c #B98658",
"+B 	c #A6714D",
"@B 	c #9A5F3C",
"#B 	c #955C3A",
"$B 	c #8E5C3B",
"%B 	c #9A6B45",
"&B 	c #9D6D45",
"*B 	c #A27145",
"=B 	c #A16E44",
"-B 	c #9D6942",
";B 	c #B17B4C",
">B 	c #B27E4E",
",B 	c #B48252",
"'B 	c #AA784C",
")B 	c #A36F44",
"!B 	c #AA7549",
"~B 	c #A87448",
"{B 	c #A37046",
"]B 	c #8F573A",
"^B 	c #955C41",
"/B 	c #BD855F",
"(B 	c #AC7347",
"_B 	c #B47D4E",
":B 	c #B4804A",
"<B 	c #9C663D",
"[B 	c #B17D53",
"}B 	c #BB875B",
"|B 	c #B07B54",
"1B 	c #815442",
"2B 	c #603E36",
"3B 	c #9C988B",
"4B 	c #ACA99A",
"5B 	c #907C6B",
"6B 	c #845A45",
"7B 	c #8E664F",
"8B 	c #9A7E61",
"9B 	c #A08B6D",
"0B 	c #A3937A",
"aB 	c #664438",
"bB 	c #784833",
"cB 	c #8F5C3A",
"dB 	c #976644",
"eB 	c #73402D",
"fB 	c #8F6049",
"gB 	c #A68E79",
"hB 	c #9B8B80",
"iB 	c #63362C",
"jB 	c #6F402D",
"kB 	c #7A4B30",
"lB 	c #875636",
"mB 	c #7D5238",
"nB 	c #764B35",
"oB 	c #855D40",
"pB 	c #9E774C",
"qB 	c #99734B",
"rB 	c #734734",
"sB 	c #491C25",
"tB 	c #A7A49C",
"uB 	c #CDD2C1",
"vB 	c #D3D8C6",
"wB 	c #D5DAC8",
"xB 	c #D4DBCA",
"yB 	c #DAE4D6",
"zB 	c #6E7172",
"AB 	c #332D37",
"BB 	c #3D1827",
"CB 	c #6B3F37",
"DB 	c #755E43",
"EB 	c #644C3A",
"FB 	c #5D4C4E",
"GB 	c #382D32",
"HB 	c #352B2F",
"IB 	c #4C3238",
"JB 	c #563837",
"KB 	c #6A4940",
"LB 	c #8C6251",
"MB 	c #DC9C68",
"NB 	c #DA9A64",
"OB 	c #D4925C",
"PB 	c #B8794C",
"QB 	c #B4774C",
"RB 	c #C28452",
"SB 	c #9A684C",
"TB 	c #341A23",
"UB 	c #5F4032",
"VB 	c #B07645",
"WB 	c #B47A4B",
"XB 	c #B1784A",
"YB 	c #A66D47",
"ZB 	c #B78250",
"`B 	c #B98654",
" C 	c #AD7A4F",
".C 	c #9A613F",
"+C 	c #A36941",
"@C 	c #945A3B",
"#C 	c #9C674A",
"$C 	c #B38158",
"%C 	c #BF9267",
"&C 	c #AB7E58",
"*C 	c #885A40",
"=C 	c #805238",
"-C 	c #A06C49",
";C 	c #B87D51",
">C 	c #AE744B",
",C 	c #AF774E",
"'C 	c #B27B4E",
")C 	c #AF7A4E",
"!C 	c #AB754F",
"~C 	c #A9704B",
"{C 	c #A26744",
"]C 	c #9A5F3B",
"^C 	c #985E39",
"/C 	c #995E3A",
"(C 	c #9B6F56",
"_C 	c #977966",
":C 	c #92705A",
"<C 	c #916647",
"[C 	c #A06B42",
"}C 	c #A87349",
"|C 	c #B47C4B",
"1C 	c #B27B4C",
"2C 	c #AF7B4D",
"3C 	c #A16D42",
"4C 	c #A16E47",
"5C 	c #C0875B",
"6C 	c #B98350",
"7C 	c #A16A3C",
"8C 	c #B67E50",
"9C 	c #AE7750",
"0C 	c #AE7752",
"aC 	c #70645E",
"bC 	c #ADB3A7",
"cC 	c #B5BEAF",
"dC 	c #A19484",
"eC 	c #88614C",
"fC 	c #7D5542",
"gC 	c #7A5642",
"hC 	c #8A7560",
"iC 	c #9B8A73",
"jC 	c #775B4B",
"kC 	c #714230",
"lC 	c #73432E",
"mC 	c #72422E",
"nC 	c #94623F",
"oC 	c #946141",
"pC 	c #83513A",
"qC 	c #966B51",
"rC 	c #A78B76",
"sC 	c #9D8679",
"tC 	c #724636",
"uC 	c #75422F",
"vC 	c #754430",
"wC 	c #7E4F35",
"xC 	c #986B4B",
"yC 	c #8E603F",
"zC 	c #996C46",
"AC 	c #986B46",
"BC 	c #7B4A37",
"CC 	c #572D2D",
"DC 	c #2E121C",
"EC 	c #12050F",
"FC 	c #C6D7D7",
"GC 	c #CFDBCB",
"HC 	c #CFD7C7",
"IC 	c #CFD6C7",
"JC 	c #CCD6C7",
"KC 	c #D3DFD3",
"LC 	c #8E9B9B",
"MC 	c #484951",
"NC 	c #452429",
"OC 	c #7A4440",
"PC 	c #5E4F3B",
"QC 	c #635B58",
"RC 	c #929495",
"SC 	c #BDC6C0",
"TC 	c #BCC8C0",
"UC 	c #6F6C6F",
"VC 	c #482F33",
"WC 	c #694740",
"XC 	c #825845",
"YC 	c #D08D5C",
"ZC 	c #CA8754",
"`C 	c #BC7744",
" D 	c #CA8752",
".D 	c #C88850",
"+D 	c #C5864D",
"@D 	c #C58551",
"#D 	c #9A664C",
"$D 	c #391F22",
"%D 	c #61402E",
"&D 	c #B17C4C",
"*D 	c #94593C",
"=D 	c #A26947",
"-D 	c #B78453",
";D 	c #B88552",
">D 	c #BA8957",
",D 	c #AC7B4E",
"'D 	c #945C39",
")D 	c #7A4430",
"!D 	c #BB8D62",
"~D 	c #CF9E6A",
"{D 	c #A9754C",
"]D 	c #A06C46",
"^D 	c #9E6B48",
"/D 	c #996847",
"(D 	c #8E5F40",
"_D 	c #7F4F34",
":D 	c #935B40",
"<D 	c #965736",
"[D 	c #A1653F",
"}D 	c #AC774D",
"|D 	c #A06747",
"1D 	c #AE724A",
"2D 	c #A16742",
"3D 	c #A06640",
"4D 	c #99603D",
"5D 	c #A48A78",
"6D 	c #ABA091",
"7D 	c #9E8C7A",
"8D 	c #947155",
"9D 	c #A77144",
"0D 	c #A77046",
"aD 	c #8B533B",
"bD 	c #B27646",
"cD 	c #B67E4E",
"dD 	c #AF7C4F",
"eD 	c #AA774B",
"fD 	c #A16C41",
"gD 	c #97603E",
"hD 	c #925737",
"iD 	c #A16540",
"jD 	c #BE8456",
"kD 	c #BB8351",
"lD 	c #BC8552",
"mD 	c #9D6A49",
"nD 	c #8D543A",
"oD 	c #6C4438",
"pD 	c #928B7F",
"qD 	c #A6AB9A",
"rD 	c #A8AB9A",
"sD 	c #ABA793",
"tD 	c #9B8B72",
"uD 	c #7A5646",
"vD 	c #B19B7F",
"wD 	c #9C8A73",
"xD 	c #8D7D69",
"yD 	c #836D5A",
"zD 	c #693D2E",
"AD 	c #6B3C2D",
"BD 	c #AE8E6D",
"CD 	c #BE9B71",
"DD 	c #935F40",
"ED 	c #8D593C",
"FD 	c #6C4032",
"GD 	c #764C3D",
"HD 	c #95674C",
"ID 	c #875942",
"JD 	c #733E2E",
"KD 	c #A17552",
"LD 	c #A77D57",
"MD 	c #AB7E54",
"ND 	c #D3A669",
"OD 	c #B28458",
"PD 	c #9A6543",
"QD 	c #8D583F",
"RD 	c #7E4B3A",
"SD 	c #84503D",
"TD 	c #747D82",
"UD 	c #A9B6B9",
"VD 	c #B1C2B8",
"WD 	c #C0CCBC",
"XD 	c #C7D1C1",
"YD 	c #CED7C8",
"ZD 	c #CFD9CA",
"`D 	c #ADB2AD",
" E 	c #696A71",
".E 	c #423D47",
"+E 	c #260F1E",
"@E 	c #412026",
"#E 	c #70685D",
"$E 	c #DBDED9",
"%E 	c #CDD2C8",
"&E 	c #B9C0B6",
"*E 	c #999E97",
"=E 	c #645E60",
"-E 	c #4B3538",
";E 	c #60403F",
">E 	c #6D4131",
",E 	c #B26946",
"'E 	c #C8854E",
")E 	c #C8864E",
"!E 	c #C3804B",
"~E 	c #BF7E4C",
"{E 	c #704033",
"]E 	c #7F4937",
"^E 	c #7B4731",
"/E 	c #945931",
"(E 	c #955C35",
"_E 	c #9D643C",
":E 	c #AA7142",
"<E 	c #B57C4C",
"[E 	c #B47E4E",
"}E 	c #B4804D",
"|E 	c #AE7B4B",
"1E 	c #A9764D",
"2E 	c #AC7248",
"3E 	c #B17748",
"4E 	c #A97349",
"5E 	c #916045",
"6E 	c #A9774F",
"7E 	c #A97448",
"8E 	c #A9774B",
"9E 	c #976545",
"0E 	c #8B593C",
"aE 	c #986341",
"bE 	c #B98356",
"cE 	c #B78254",
"dE 	c #B37E52",
"eE 	c #B37C50",
"fE 	c #AD764B",
"gE 	c #BC8554",
"hE 	c #BA8151",
"iE 	c #A97049",
"jE 	c #A36A41",
"kE 	c #855435",
"lE 	c #948277",
"mE 	c #AAA088",
"nE 	c #A09076",
"oE 	c #978166",
"pE 	c #9D6842",
"qE 	c #AC7346",
"rE 	c #9E6742",
"sE 	c #C48E57",
"tE 	c #AF7C4D",
"uE 	c #A17248",
"vE 	c #B27E50",
"wE 	c #AE7A4C",
"xE 	c #C3915F",
"yE 	c #8A583F",
"zE 	c #966444",
"AE 	c #B57D52",
"BE 	c #B8804E",
"CE 	c #BB8353",
"DE 	c #AC764C",
"EE 	c #AC754D",
"FE 	c #785141",
"GE 	c #928C80",
"HE 	c #A3A598",
"IE 	c #9A9889",
"JE 	c #847A6E",
"KE 	c #756154",
"LE 	c #AB8868",
"ME 	c #C8B895",
"NE 	c #AA9B83",
"OE 	c #8E7F6C",
"PE 	c #785C4C",
"QE 	c #703E2E",
"RE 	c #73402F",
"SE 	c #966D4E",
"TE 	c #98704C",
"UE 	c #875239",
"VE 	c #945E3D",
"WE 	c #9E6A46",
"XE 	c #A4734F",
"YE 	c #784F3D",
"ZE 	c #714A39",
"`E 	c #724534",
" F 	c #6A352C",
".F 	c #9C724F",
"+F 	c #AB8157",
"@F 	c #82573D",
"#F 	c #9A714A",
"$F 	c #A3724E",
"%F 	c #966042",
"&F 	c #603B32",
"*F 	c #77838D",
"=F 	c #CBDCDA",
"-F 	c #B5C3B5",
";F 	c #B9C6B7",
">F 	c #BEC9BA",
",F 	c #C8D4C5",
"'F 	c #5D575F",
")F 	c #584E59",
"!F 	c #403540",
"~F 	c #1E061A",
"{F 	c #6F6564",
"]F 	c #BFC4B6",
"^F 	c #C5C8BF",
"/F 	c #B2B5AC",
"(F 	c #A6A8A0",
"_F 	c #716D68",
":F 	c #8B7D7C",
"<F 	c #857574",
"[F 	c #402738",
"}F 	c #64382E",
"|F 	c #7F4133",
"1F 	c #BA7649",
"2F 	c #C47F4D",
"3F 	c #C5824D",
"4F 	c #C5844D",
"5F 	c #BD7D4A",
"6F 	c #4D1E22",
"7F 	c #925237",
"8F 	c #8F5338",
"9F 	c #945634",
"0F 	c #AF7248",
"aF 	c #B6804E",
"bF 	c #B47F4E",
"cF 	c #A26C45",
"dF 	c #BE8552",
"eF 	c #945D3E",
"fF 	c #9C663F",
"gF 	c #A87247",
"hF 	c #A87147",
"iF 	c #A87348",
"jF 	c #9A6544",
"kF 	c #9E6946",
"lF 	c #945F3E",
"mF 	c #A06846",
"nF 	c #B37F52",
"oF 	c #B37D4F",
"pF 	c #A67049",
"qF 	c #A66D45",
"rF 	c #AE754A",
"sF 	c #8B593B",
"tF 	c #8C7A6E",
"uF 	c #9D927D",
"vF 	c #978C76",
"wF 	c #8F7966",
"xF 	c #9F6946",
"yF 	c #A56C43",
"zF 	c #9D673F",
"AF 	c #C7915A",
"BF 	c #A17047",
"CF 	c #B88254",
"DF 	c #A66F44",
"EF 	c #BD8958",
"FF 	c #A37153",
"GF 	c #BA8053",
"HF 	c #B97F4F",
"IF 	c #B67F50",
"JF 	c #B88050",
"KF 	c #B78051",
"LF 	c #BA8454",
"MF 	c #7B5744",
"NF 	c #6C6864",
"OF 	c #8B897F",
"PF 	c #898075",
"QF 	c #7B6D62",
"RF 	c #7D675B",
"SF 	c #9D7C5E",
"TF 	c #A2937B",
"UF 	c #8F826F",
"VF 	c #7D6D5F",
"WF 	c #6A4C3E",
"XF 	c #874D33",
"YF 	c #8F5435",
"ZF 	c #844D34",
"`F 	c #85513A",
" G 	c #915E41",
".G 	c #936949",
"+G 	c #7B553F",
"@G 	c #6D3E2F",
"#G 	c #704030",
"$G 	c #774730",
"%G 	c #794A34",
"&G 	c #774933",
"*G 	c #996A49",
"=G 	c #A8734D",
"-G 	c #AF764D",
";G 	c #A46B49",
">G 	c #6B473A",
",G 	c #666E77",
"'G 	c #BECDCA",
")G 	c #ADB7AE",
"!G 	c #AFBAAE",
"~G 	c #ABB4A7",
"{G 	c #50484B",
"]G 	c #685E65",
"^G 	c #665E63",
"/G 	c #4E444D",
"(G 	c #21091B",
"_G 	c #6D6365",
":G 	c #CDD2C6",
"<G 	c #A7AAA2",
"[G 	c #95968E",
"}G 	c #8D8D84",
"|G 	c #79766F",
"1G 	c #746768",
"2G 	c #69595D",
"3G 	c #3A2333",
"4G 	c #AB5E3A",
"5G 	c #8B4B39",
"6G 	c #8D4C37",
"7G 	c #AC6641",
"8G 	c #B16B3F",
"9G 	c #98593D",
"0G 	c #663532",
"aG 	c #64342E",
"bG 	c #67312A",
"cG 	c #985C3B",
"dG 	c #90553E",
"eG 	c #9B5D3B",
"fG 	c #BD7F50",
"gG 	c #CE925F",
"hG 	c #CD9361",
"iG 	c #B27E4C",
"jG 	c #AE7B4E",
"kG 	c #AE7B4D",
"lG 	c #A2714B",
"mG 	c #A7704A",
"nG 	c #C38C58",
"oG 	c #B27D4F",
"pG 	c #A16841",
"qG 	c #8C5235",
"rG 	c #B27A4F",
"sG 	c #A86F49",
"tG 	c #AE764D",
"uG 	c #BF8859",
"vG 	c #BB8251",
"wG 	c #A16E49",
"xG 	c #B0784C",
"yG 	c #9E6340",
"zG 	c #5B332E",
"AG 	c #230F1D",
"BG 	c #250E1D",
"CG 	c #4E2E26",
"DG 	c #B77E4F",
"EG 	c #955E3D",
"FG 	c #A8744B",
"GG 	c #B57E52",
"HG 	c #BD8F67",
"IG 	c #AF8564",
"JG 	c #A7734F",
"KG 	c #B77F4E",
"LG 	c #AF7749",
"MG 	c #BD8657",
"NG 	c #B78252",
"OG 	c #BB8656",
"PG 	c #7A5744",
"QG 	c #534B50",
"RG 	c #675C5B",
"SG 	c #82726A",
"TG 	c #7C6C64",
"UG 	c #7F6A5D",
"VG 	c #926F59",
"WG 	c #786055",
"XG 	c #68554E",
"YG 	c #624F47",
"ZG 	c #5D3C31",
"`G 	c #A26A48",
" H 	c #A66C47",
".H 	c #9C6542",
"+H 	c #B48055",
"@H 	c #B58055",
"#H 	c #B57F52",
"$H 	c #B98C60",
"%H 	c #B28B66",
"&H 	c #6C3D2D",
"*H 	c #7A4B37",
"=H 	c #815438",
"-H 	c #84563B",
";H 	c #895A3F",
">H 	c #835840",
",H 	c #A26F4E",
"'H 	c #AD754D",
")H 	c #A26946",
"!H 	c #6D493B",
"~H 	c #57585F",
"{H 	c #9FA6A5",
"]H 	c #6B6D73",
"^H 	c #635D66",
"/H 	c #544D56",
"(H 	c #504950",
"_H 	c #665E62",
":H 	c #6C6566",
"<H 	c #72696A",
"[H 	c #574E54",
"}H 	c #220B1B",
"|H 	c #4D3B41",
"1H 	c #7C787A",
"2H 	c #888885",
"3H 	c #96988F",
"4H 	c #92938B",
"5H 	c #83837D",
"6H 	c #594D56",
"7H 	c #493641",
"8H 	c #3C2432",
"9H 	c #AB5C3B",
"0H 	c #94533D",
"aH 	c #66322F",
"bH 	c #5A2429",
"cH 	c #79352F",
"dH 	c #652E2A",
"eH 	c #67352F",
"fH 	c #9B623F",
"gH 	c #A46440",
"hH 	c #A3613B",
"iH 	c #80513F",
"jH 	c #9E6642",
"kH 	c #976446",
"lH 	c #AE7A52",
"mH 	c #A7774D",
"nH 	c #986E4D",
"oH 	c #BC8E5F",
"pH 	c #BE9161",
"qH 	c #A27755",
"rH 	c #9E6B49",
"sH 	c #C48B5A",
"tH 	c #C18B5A",
"uH 	c #BC8858",
"vH 	c #935239",
"wH 	c #B27B54",
"xH 	c #AC7650",
"yH 	c #B17754",
"zH 	c #D19C6E",
"AH 	c #A66D49",
"BH 	c #AC6F48",
"CH 	c #BA8150",
"DH 	c #BE8753",
"EH 	c #BE8854",
"FH 	c #BD8A56",
"GH 	c #A16E4B",
"HH 	c #8F5B3F",
"IH 	c #81523B",
"JH 	c #80533C",
"KH 	c #805439",
"LH 	c #A16842",
"MH 	c #AF7B58",
"NH 	c #CBA681",
"OH 	c #BB8453",
"PH 	c #BA8250",
"QH 	c #A5704F",
"RH 	c #C59468",
"SH 	c #AF774D",
"TH 	c #A6714E",
"UH 	c #C48F5D",
"VH 	c #C28D5B",
"WH 	c #C49164",
"XH 	c #B98255",
"YH 	c #906B53",
"ZH 	c #6C574F",
"`H 	c #4C383C",
" I 	c #5C4744",
".I 	c #5C4642",
"+I 	c #7E6051",
"@I 	c #BE9A77",
"#I 	c #957560",
"$I 	c #705045",
"%I 	c #563A31",
"&I 	c #5A352C",
"*I 	c #A46C49",
"=I 	c #B07B4F",
"-I 	c #AA7B51",
";I 	c #895E43",
">I 	c #7F4F37",
",I 	c #815137",
"'I 	c #855439",
")I 	c #A06E4B",
"!I 	c #AD774F",
"~I 	c #AA7149",
"{I 	c #A26843",
"]I 	c #6F4839",
"^I 	c #1F1429",
"/I 	c #321F3F",
"(I 	c #4C445A",
"_I 	c #463D4B",
":I 	c #423844",
"<I 	c #473D47",
"[I 	c #524753",
"}I 	c #574E59",
"|I 	c #59505B",
"1I 	c #3E353F",
"2I 	c #2D1220",
"3I 	c #361E29",
"4I 	c #645F6B",
"5I 	c #646069",
"6I 	c #656169",
"7I 	c #5B555C",
"8I 	c #564650",
"9I 	c #564349",
"0I 	c #563F41",
"aI 	c #B4613C",
"bI 	c #AF6741",
"cI 	c #9D5E42",
"dI 	c #663832",
"eI 	c #421028",
"fI 	c #4F1A27",
"gI 	c #6B312D",
"hI 	c #945639",
"iI 	c #B56E38",
"jI 	c #B16939",
"kI 	c #80553E",
"lI 	c #B9804E",
"mI 	c #9C6643",
"nI 	c #694031",
"oI 	c #885C42",
"pI 	c #A88369",
"qI 	c #BA9D80",
"rI 	c #80543D",
"sI 	c #8B6146",
"tI 	c #8F6548",
"uI 	c #A46D47",
"vI 	c #B0784F",
"wI 	c #B78456",
"xI 	c #B78657",
"yI 	c #B78659",
"zI 	c #A87A51",
"AI 	c #A9724F",
"BI 	c #C69164",
"CI 	c #B57E55",
"DI 	c #B57D50",
"EI 	c #BF8B54",
"FI 	c #A6734C",
"GI 	c #976447",
"HI 	c #B47D52",
"II 	c #BF8655",
"JI 	c #BA8452",
"KI 	c #C18D58",
"LI 	c #A06544",
"MI 	c #A47053",
"NI 	c #BC926C",
"OI 	c #935D3E",
"PI 	c #BD8653",
"QI 	c #BC8551",
"RI 	c #AA724A",
"SI 	c #B88458",
"TI 	c #AF774C",
"UI 	c #AC784E",
"VI 	c #A4704C",
"WI 	c #BF8554",
"XI 	c #BE8355",
"YI 	c #BC8555",
"ZI 	c #A67550",
"`I 	c #A77049",
" J 	c #C69265",
".J 	c #BB8457",
"+J 	c #BA8558",
"@J 	c #8E6952",
"#J 	c #81695A",
"$J 	c #68504A",
"%J 	c #765444",
"&J 	c #6E4D3C",
"*J 	c #664339",
"=J 	c #77503E",
"-J 	c #774E3E",
";J 	c #8F694F",
">J 	c #9C7653",
",J 	c #9D6746",
"'J 	c #A3704B",
")J 	c #AD784C",
"!J 	c #B27F51",
"~J 	c #B28152",
"{J 	c #A8784F",
"]J 	c #83533D",
"^J 	c #6F3F2F",
"/J 	c #7F4E35",
"(J 	c #855237",
"_J 	c #9E6B4A",
":J 	c #986246",
"<J 	c #A06A4A",
"[J 	c #A26743",
"}J 	c #211021",
"|J 	c #281632",
"1J 	c #453F51",
"2J 	c #4D404E",
"3J 	c #4C424B",
"4J 	c #4B404B",
"5J 	c #4A3F4A",
"6J 	c #443A4B",
"7J 	c #2A2231",
"8J 	c #422024",
"9J 	c #4F292D",
"0J 	c #352832",
"aJ 	c #524B5C",
"bJ 	c #51475A",
"cJ 	c #54485A",
"dJ 	c #4B3C49",
"eJ 	c #524149",
"fJ 	c #594649",
"gJ 	c #563E3E",
"hJ 	c #8A4D38",
"iJ 	c #92543F",
"jJ 	c #784634",
"kJ 	c #481F26",
"lJ 	c #430E2C",
"mJ 	c #68292E",
"nJ 	c #833B32",
"oJ 	c #894739",
"pJ 	c #825136",
"qJ 	c #7F4E32",
"rJ 	c #6F4E38",
"sJ 	c #835135",
"tJ 	c #6A3D30",
"uJ 	c #9C7B69",
"vJ 	c #B0977F",
"wJ 	c #6C3B30",
"xJ 	c #784A34",
"yJ 	c #BA8453",
"zJ 	c #BA8557",
"AJ 	c #B98357",
"BJ 	c #B98557",
"CJ 	c #B98759",
"DJ 	c #B9875A",
"EJ 	c #8F6046",
"FJ 	c #AF774B",
"GJ 	c #BA8357",
"HJ 	c #B88051",
"IJ 	c #AB7147",
"JJ 	c #C28E56",
"KJ 	c #946142",
"LJ 	c #925F46",
"MJ 	c #B78055",
"NJ 	c #BC8353",
"OJ 	c #BC8556",
"PJ 	c #B98351",
"QJ 	c #B37D4E",
"RJ 	c #B0794E",
"SJ 	c #AD794E",
"TJ 	c #BD8755",
"UJ 	c #BB8553",
"VJ 	c #B98354",
"WJ 	c #AE794A",
"XJ 	c #AB7B4D",
"YJ 	c #A5744C",
"ZJ 	c #8B5E40",
"`J 	c #8A583E",
" K 	c #A67348",
".K 	c #C18C58",
"+K 	c #BF8955",
"@K 	c #67473F",
"#K 	c #633F37",
"$K 	c #9E7457",
"%K 	c #855B44",
"&K 	c #784E3E",
"*K 	c #7D5240",
"=K 	c #8F694D",
"-K 	c #947050",
";K 	c #61362E",
">K 	c #895439",
",K 	c #9B6A49",
"'K 	c #B17D51",
")K 	c #B27F52",
"!K 	c #B28153",
"~K 	c #A37751",
"{K 	c #693B2D",
"]K 	c #6D3F30",
"^K 	c #976647",
"/K 	c #986446",
"(K 	c #A06D49",
"_K 	c #A67451",
":K 	c #92583C",
"<K 	c #935839",
"[K 	c #8C5136",
"}K 	c #6B3B35",
"|K 	c #4C2731",
"1K 	c #18011C",
"2K 	c #0E0013",
"3K 	c #2E1F2B",
"4K 	c #32222E",
"5K 	c #30202F",
"6K 	c #301B2B",
"7K 	c #372634",
"8K 	c #0C000F",
"9K 	c #0E0111",
"0K 	c #572D2A",
"aK 	c #6D3832",
"bK 	c #250515",
"cK 	c #25172B",
"dK 	c #26152B",
"eK 	c #28172A",
"fK 	c #382333",
"gK 	c #402934",
"hK 	c #462F37",
"iK 	c #39222D",
"jK 	c #311728",
"kK 	c #4A2037",
"lK 	c #4B2A2B",
"mK 	c #512A2D",
"nK 	c #470F2A",
"oK 	c #6D2B31",
"pK 	c #7B3633",
"qK 	c #6B2F32",
"rK 	c #320926",
"sK 	c #2C0520",
"tK 	c #583C2F",
"uK 	c #A76D44",
"vK 	c #9A5C3C",
"wK 	c #94573B",
"xK 	c #9A5F3F",
"yK 	c #875139",
"zK 	c #6B3B30",
"AK 	c #8A4F37",
"BK 	c #894F34",
"CK 	c #864F37",
"DK 	c #8D5A3B",
"EK 	c #835437",
"FK 	c #80523B",
"GK 	c #7F533D",
"HK 	c #80553F",
"IK 	c #845B45",
"JK 	c #875F47",
"KK 	c #876046",
"LK 	c #865D43",
"MK 	c #6F4234",
"NK 	c #915A3C",
"OK 	c #B47E4D",
"PK 	c #9F6440",
"QK 	c #A26541",
"RK 	c #B27C4D",
"SK 	c #89563F",
"TK 	c #AB7149",
"UK 	c #AF7347",
"VK 	c #A56F4A",
"WK 	c #A9744D",
"XK 	c #AD774E",
"YK 	c #AB744B",
"ZK 	c #8E5337",
"`K 	c #AF7A4C",
" L 	c #9F6A43",
".L 	c #855034",
"+L 	c #9A6744",
"@L 	c #94623E",
"#L 	c #936441",
"$L 	c #936542",
"%L 	c #966845",
"&L 	c #956644",
"*L 	c #936440",
"=L 	c #966541",
"-L 	c #916440",
";L 	c #8C5D3D",
">L 	c #996141",
",L 	c #A16946",
"'L 	c #AA7249",
")L 	c #895538",
"!L 	c #673930",
"~L 	c #6A3D35",
"{L 	c #6F4237",
"]L 	c #74483B",
"^L 	c #774D3D",
"/L 	c #825644",
"(L 	c #784C3E",
"_L 	c #73473C",
":L 	c #653830",
"<L 	c #724134",
"[L 	c #8B5E49",
"}L 	c #7B4F3D",
"|L 	c #875C42",
"1L 	c #A5754A",
"2L 	c #A4744D",
"3L 	c #A8774F",
"4L 	c #AF8054",
"5L 	c #B28559",
"6L 	c #AA8057",
"7L 	c #683B2F",
"8L 	c #A37C5A",
"9L 	c #95684A",
"0L 	c #88593F",
"aL 	c #87583D",
"bL 	c #9C6E4E",
"cL 	c #8E5A41",
"dL 	c #8D563A",
"eL 	c #925A3C",
"fL 	c #774434",
"gL 	c #58312B",
"hL 	c #4A1F28",
"iL 	c #492025",
"jL 	c #482024",
"kL 	c #421A21",
"lL 	c #39151E",
"mL 	c #61302F",
"nL 	c #6B382F",
"oL 	c #703C35",
"pL 	c #3B1723",
"qL 	c #260C1B",
"rL 	c #210916",
"sL 	c #1F0616",
"tL 	c #250A1D",
"uL 	c #2C0E1F",
"vL 	c #371726",
"wL 	c #381927",
"xL 	c #27041A",
"yL 	c #200412",
"zL 	c #885B47",
"AL 	c #895845",
"BL 	c #33081F",
"CL 	c #2E0720",
"DL 	c #2A061C",
"EL 	c #341221",
"FL 	c #512E2D",
"GL 	c #2E091C",
"HL 	c #AA673D",
"IL 	c #B27044",
"JL 	c #BB7B4D",
"KL 	c #B37546",
"LL 	c #B27547",
"ML 	c #A36F4C",
"NL 	c #BA7F54",
"OL 	c #B57B52",
"PL 	c #9A603A",
"QL 	c #854A32",
"RL 	c #7E442E",
"SL 	c #79432E",
"TL 	c #774B3A",
"UL 	c #6D4536",
"VL 	c #7A4C3B",
"WL 	c #623832",
"XL 	c #653B36",
"YL 	c #754C3A",
"ZL 	c #714736",
"`L 	c #AD7247",
" M 	c #A56140",
".M 	c #A66542",
"+M 	c #B87D56",
"@M 	c #9B6549",
"#M 	c #A16340",
"$M 	c #925938",
"%M 	c #985D3B",
"&M 	c #9E623F",
"*M 	c #9F6541",
"=M 	c #9F6642",
"-M 	c #9E6441",
";M 	c #9F6944",
">M 	c #7D4634",
",M 	c #784534",
"'M 	c #734634",
")M 	c #835B41",
"!M 	c #7F523C",
"~M 	c #7D4E39",
"{M 	c #A46D49",
"]M 	c #B2865D",
"^M 	c #B38056",
"/M 	c #BD8858",
"(M 	c #BB8354",
"_M 	c #BC8354",
":M 	c #B87F51",
"<M 	c #B0754B",
"[M 	c #7B4435",
"}M 	c #804837",
"|M 	c #925C41",
"1M 	c #82523C",
"2M 	c #855540",
"3M 	c #6E3D31",
"4M 	c #7B4A38",
"5M 	c #7A473A",
"6M 	c #7B483B",
"7M 	c #784638",
"8M 	c #6A3B30",
"9M 	c #764430",
"0M 	c #7A4933",
"aM 	c #774734",
"bM 	c #6F4031",
"cM 	c #6E3E31",
"dM 	c #703E34",
"eM 	c #784335",
"fM 	c #7A4536",
"gM 	c #7D4836",
"hM 	c #7E4735",
"iM 	c #7E4632",
"jM 	c #7D4832",
"kM 	c #774531",
"lM 	c #7D4B34",
"mM 	c #885133",
"nM 	c #854D33",
"oM 	c #804832",
"pM 	c #7F4832",
"qM 	c #844A34",
"rM 	c #8D5139",
"sM 	c #8D4F38",
"tM 	c #8E4E38",
"uM 	c #965A40",
"vM 	c #8D5439",
"wM 	c #653A31",
"xM 	c #3C1421",
"yM 	c #4C222B",
"zM 	c #4F212B",
"AM 	c #6D4B3A",
"BM 	c #6A4939",
"CM 	c #583A2D",
"DM 	c #3C1E23",
"EM 	c #3C1324",
"FM 	c #4C1B2D",
"GM 	c #401822",
"HM 	c #704936",
"IM 	c #6B392D",
"JM 	c #602D2A",
"KM 	c #622C2A",
"LM 	c #662F28",
"MM 	c #7A4938",
"NM 	c #62362E",
"OM 	c #6E4030",
"PM 	c #B57240",
"QM 	c #C17F4B",
"RM 	c #C48350",
"SM 	c #B87949",
"TM 	c #B6794A",
"UM 	c #AF7449",
"VM 	c #B67D52",
"WM 	c #C68E5D",
"XM 	c #C0865B",
"YM 	c #9F633A",
"ZM 	c #865035",
"`M 	c #79452F",
" N 	c #795240",
".N 	c #754A3B",
"+N 	c #744637",
"@N 	c #794938",
"#N 	c #7F5442",
"$N 	c #6F4338",
"%N 	c #6B4133",
"&N 	c #A6714C",
"*N 	c #C08451",
"=N 	c #BD8352",
"-N 	c #BD8251",
";N 	c #AC6F44",
">N 	c #AD6E46",
",N 	c #BC8154",
"'N 	c #C1885A",
")N 	c #A56C4D",
"!N 	c #AA7247",
"~N 	c #AA7246",
"{N 	c #AB7345",
"]N 	c #8A5336",
"^N 	c #865338",
"/N 	c #80553C",
"(N 	c #B8915C",
"_N 	c #A67B4D",
":N 	c #8A5A3B",
"<N 	c #A1724A",
"[N 	c #AA7B52",
"}N 	c #805135",
"|N 	c #7A4834",
"1N 	c #D3AC78",
"2N 	c #AD7C57",
"3N 	c #BD8856",
"4N 	c #B98151",
"5N 	c #B2774A",
"6N 	c #895139",
"7N 	c #986342",
"8N 	c #BA8855",
"9N 	c #A7754B",
"0N 	c #9C6B45",
"aN 	c #8A5A3E",
"bN 	c #8D5F43",
"cN 	c #9D6E4B",
"dN 	c #9F694A",
"eN 	c #8B5241",
"fN 	c #8D5541",
"gN 	c #8D5740",
"hN 	c #89543C",
"iN 	c #834F38",
"jN 	c #7F4C36",
"kN 	c #7D4D35",
"lN 	c #7D4E35",
"mN 	c #7D4B32",
"nN 	c #995934",
"oN 	c #8D5135",
"pN 	c #874D37",
"qN 	c #8E553B",
"rN 	c #955D3D",
"sN 	c #9B6140",
"tN 	c #9E623E",
"uN 	c #985C3A",
"vN 	c #915637",
"wN 	c #774232",
"xN 	c #683D2C",
"yN 	c #C69E68",
"zN 	c #AF814C",
"AN 	c #A06F3F",
"BN 	c #AF7C45",
"CN 	c #AF7C46",
"DN 	c #A67143",
"EN 	c #A67244",
"FN 	c #A26F43",
"GN 	c #6A5952",
"HN 	c #A69380",
"IN 	c #704E4B",
"JN 	c #7D5941",
"KN 	c #886646",
"LN 	c #83613F",
"MN 	c #58392F",
"NN 	c #2F0E22",
"ON 	c #230A1D",
"PN 	c #703C30",
"QN 	c #6E3C2E",
"RN 	c #5A3129",
"SN 	c #9E6F48",
"TN 	c #9C6A43",
"UN 	c #764B37",
"VN 	c #4D2929",
"WN 	c #77523D",
"XN 	c #C28952",
"YN 	c #A76D3E",
"ZN 	c #B97F4E",
"`N 	c #774732",
" O 	c #8F5D3F",
".O 	c #C09266",
"+O 	c #C0925F",
"@O 	c #865238",
"#O 	c #B59374",
"$O 	c #A77B56",
"%O 	c #8B5D44",
"&O 	c #B38961",
"*O 	c #91684D",
"=O 	c #79513D",
"-O 	c #6D4434",
";O 	c #BE8151",
">O 	c #BE8351",
",O 	c #B0794D",
"'O 	c #B17D4F",
")O 	c #AD794D",
"!O 	c #AF784A",
"~O 	c #AB7346",
"{O 	c #A97345",
"]O 	c #A87246",
"^O 	c #B78550",
"/O 	c #AF7C4E",
"(O 	c #A77447",
"_O 	c #B17B4E",
":O 	c #A06B44",
"<O 	c #845F49",
"[O 	c #856248",
"}O 	c #825B41",
"|O 	c #936547",
"1O 	c #AF8158",
"2O 	c #A4744C",
"3O 	c #A2714C",
"4O 	c #976A49",
"5O 	c #B8865B",
"6O 	c #78533F",
"7O 	c #B7865D",
"8O 	c #B58354",
"9O 	c #B17A4A",
"0O 	c #854F38",
"aO 	c #AA7953",
"bO 	c #B88A59",
"cO 	c #B1845B",
"dO 	c #9F6D49",
"eO 	c #9B6B47",
"fO 	c #986A47",
"gO 	c #916547",
"hO 	c #7A4E38",
"iO 	c #724332",
"jO 	c #A3774F",
"kO 	c #BF9367",
"lO 	c #BB8F61",
"mO 	c #B78A5C",
"nO 	c #B58857",
"oO 	c #906344",
"pO 	c #956949",
"qO 	c #8D5132",
"rO 	c #8A4E32",
"sO 	c #A06D45",
"tO 	c #AE804B",
"uO 	c #AD7C4A",
"vO 	c #AA7849",
"wO 	c #A57045",
"xO 	c #A36D44",
"yO 	c #9E6842",
"zO 	c #9D6542",
"AO 	c #86553C",
"BO 	c #946246",
"CO 	c #93674C",
"DO 	c #B2804D",
"EO 	c #B4814B",
"FO 	c #B17F49",
"GO 	c #A06B43",
"HO 	c #A67347",
"IO 	c #4B3132",
"JO 	c #79665D",
"KO 	c #856A5B",
"LO 	c #846449",
"MO 	c #836244",
"NO 	c #76563A",
"OO 	c #766051",
"PO 	c #66544A",
"QO 	c #493131",
"RO 	c #6D342B",
"SO 	c #5C2827",
"TO 	c #452624",
"UO 	c #563129",
"VO 	c #82523D",
"WO 	c #C59259",
"XO 	c #BE8C51",
"YO 	c #754333",
"ZO 	c #815140",
"`O 	c #633C34",
" P 	c #684A3C",
".P 	c #BF8650",
"+P 	c #AF7A50",
"@P 	c #BD9061",
"#P 	c #C19463",
"$P 	c #835239",
"%P 	c #89563B",
"&P 	c #926041",
"*P 	c #BC9B76",
"=P 	c #B0875E",
"-P 	c #9F7352",
";P 	c #966B4F",
">P 	c #9D7352",
",P 	c #895F48",
"'P 	c #744A38",
")P 	c #966041",
"!P 	c #B77B4E",
"~P 	c #BA8658",
"{P 	c #B78150",
"]P 	c #B78354",
"^P 	c #B17F51",
"/P 	c #AD784D",
"(P 	c #AD7449",
"_P 	c #B0774A",
":P 	c #A87347",
"<P 	c #AD7A4C",
"[P 	c #AF7D4D",
"}P 	c #B17E52",
"|P 	c #895234",
"1P 	c #8B5F42",
"2P 	c #866149",
"3P 	c #88614B",
"4P 	c #926950",
"5P 	c #A16F4A",
"6P 	c #A4724A",
"7P 	c #926241",
"8P 	c #BE8A5E",
"9P 	c #94694D",
"0P 	c #C08B5C",
"aP 	c #B78251",
"bP 	c #B47F50",
"cP 	c #B47F4F",
"dP 	c #B37E4E",
"eP 	c #89573E",
"fP 	c #97694D",
"gP 	c #AB7F55",
"hP 	c #B08258",
"iP 	c #976849",
"jP 	c #9C6D49",
"kP 	c #9E704B",
"lP 	c #9C704E",
"mP 	c #7B4C37",
"nP 	c #9C714F",
"oP 	c #9F724B",
"pP 	c #A3754D",
"qP 	c #A4754B",
"rP 	c #A36D45",
"sP 	c #A17046",
"tP 	c #B2885D",
"uP 	c #B38963",
"vP 	c #784734",
"wP 	c #935A3D",
"xP 	c #A46D4D",
"yP 	c #996546",
"zP 	c #A8764C",
"AP 	c #A77549",
"BP 	c #A27147",
"CP 	c #8B5A3D",
"DP 	c #976040",
"EP 	c #B87E55",
"FP 	c #AD7C51",
"GP 	c #B58550",
"HP 	c #B6834D",
"IP 	c #B4824F",
"JP 	c #AE7D58",
"KP 	c #A37149",
"LP 	c #9E6A42",
"MP 	c #46292E",
"NP 	c #494045",
"OP 	c #806B60",
"PP 	c #856855",
"QP 	c #83644C",
"RP 	c #745545",
"SP 	c #776252",
"TP 	c #7A6658",
"UP 	c #725D50",
"VP 	c #280D17",
"WP 	c #572221",
"XP 	c #A36948",
"YP 	c #A5653F",
"ZP 	c #945B3C",
"`P 	c #74402F",
" Q 	c #89553B",
".Q 	c #8F5B44",
"+Q 	c #C88658",
"@Q 	c #AC7351",
"#Q 	c #5E4039",
"$Q 	c #B6794F",
"%Q 	c #BB8052",
"&Q 	c #BB8759",
"*Q 	c #C18F62",
"=Q 	c #BF8D61",
"-Q 	c #B38359",
";Q 	c #A77951",
">Q 	c #7D4C39",
",Q 	c #8C5C42",
"'Q 	c #835743",
")Q 	c #7B5040",
"!Q 	c #AD8562",
"~Q 	c #BC9469",
"{Q 	c #784B39",
"]Q 	c #92674D",
"^Q 	c #946C50",
"/Q 	c #BE895C",
"(Q 	c #784B3A",
"_Q 	c #BF8E5E",
":Q 	c #C18E5B",
"<Q 	c #BB8756",
"[Q 	c #B68455",
"}Q 	c #AF7C53",
"|Q 	c #B37F56",
"1Q 	c #9E684B",
"2Q 	c #A16548",
"3Q 	c #B2774B",
"4Q 	c #AA7040",
"5Q 	c #955F3A",
"6Q 	c #865335",
"7Q 	c #804D32",
"8Q 	c #B98758",
"9Q 	c #8B5437",
"0Q 	c #885739",
"aQ 	c #835539",
"bQ 	c #A27757",
"cQ 	c #AE825E",
"dQ 	c #A26F49",
"eQ 	c #A06E49",
"fQ 	c #BD8C5B",
"gQ 	c #B27E4F",
"hQ 	c #B07B4D",
"iQ 	c #B07C4D",
"jQ 	c #8A5940",
"kQ 	c #8F6955",
"lQ 	c #A47C5D",
"mQ 	c #B78A60",
"nQ 	c #A97B55",
"oQ 	c #8E5E41",
"pQ 	c #AE7E56",
"qQ 	c #A2714A",
"rQ 	c #A4744F",
"sQ 	c #A17151",
"tQ 	c #926145",
"uQ 	c #85523A",
"vQ 	c #895338",
"wQ 	c #956042",
"xQ 	c #BB8D5F",
"yQ 	c #BA8E67",
"zQ 	c #7F4D37",
"AQ 	c #9A654A",
"BQ 	c #C89169",
"CQ 	c #976248",
"DQ 	c #925C3E",
"EQ 	c #935C3B",
"FQ 	c #935D3B",
"GQ 	c #99643F",
"HQ 	c #AC7A4B",
"IQ 	c #845C3E",
"JQ 	c #7E503B",
"KQ 	c #B47E54",
"LQ 	c #8F593D",
"MQ 	c #925839",
"NQ 	c #905638",
"OQ 	c #966142",
"PQ 	c #D7AF84",
"QQ 	c #9E7057",
"RQ 	c #5F342A",
"SQ 	c #6B686C",
"TQ 	c #BBC9C7",
"UQ 	c #7D6359",
"VQ 	c #896C59",
"WQ 	c #8F705E",
"XQ 	c #5C4743",
"YQ 	c #71635A",
"ZQ 	c #A89983",
"`Q 	c #56282A",
" R 	c #81432D",
".R 	c #A76843",
"+R 	c #B27248",
"@R 	c #B2794B",
"#R 	c #714032",
"$R 	c #754130",
"%R 	c #925B3F",
"&R 	c #784036",
"*R 	c #76493C",
"=R 	c #B97F53",
"-R 	c #BA8556",
";R 	c #B48056",
">R 	c #A6714B",
",R 	c #BD895D",
"'R 	c #9F6F4C",
")R 	c #7E513B",
"!R 	c #7D4E3B",
"~R 	c #A67652",
"{R 	c #A27250",
"]R 	c #996C4E",
"^R 	c #8A604B",
"/R 	c #7C4F3F",
"(R 	c #7E523F",
"_R 	c #805340",
":R 	c #7D523D",
"<R 	c #7A4F3D",
"[R 	c #724738",
"}R 	c #C4895A",
"|R 	c #C18A5B",
"1R 	c #C28E60",
"2R 	c #9C6A4A",
"3R 	c #AA7751",
"4R 	c #B68454",
"5R 	c #B58255",
"6R 	c #B78558",
"7R 	c #AA714D",
"8R 	c #935E40",
"9R 	c #9D7F6F",
"0R 	c #A0877B",
"aR 	c #9B8C7E",
"bR 	c #9C6E54",
"cR 	c #A56C48",
"dR 	c #AB7046",
"eR 	c #8E5636",
"fR 	c #915D3C",
"gR 	c #956444",
"hR 	c #976749",
"iR 	c #9C6D4C",
"jR 	c #88573D",
"kR 	c #936141",
"lR 	c #8D5B3F",
"mR 	c #9F6D4C",
"nR 	c #B7804E",
"oR 	c #BA8656",
"pR 	c #B58251",
"qR 	c #B37D50",
"rR 	c #9E6743",
"sR 	c #8D5438",
"tR 	c #B27C54",
"uR 	c #C7925E",
"vR 	c #C5AD8B",
"wR 	c #BCA582",
"xR 	c #865741",
"yR 	c #86553D",
"zR 	c #9A6949",
"AR 	c #D5A36E",
"BR 	c #AD754B",
"CR 	c #B7855B",
"DR 	c #B6845A",
"ER 	c #A46744",
"FR 	c #A76B45",
"GR 	c #A56C45",
"HR 	c #A36B44",
"IR 	c #9A6340",
"JR 	c #855137",
"KR 	c #AF7851",
"LR 	c #A8714D",
"MR 	c #976041",
"NR 	c #9F6741",
"OR 	c #9F673F",
"PR 	c #814F36",
"QR 	c #805139",
"RR 	c #774F39",
"SR 	c #714737",
"TR 	c #7F5743",
"UR 	c #D0A87F",
"VR 	c #A4714F",
"WR 	c #A77146",
"XR 	c #C18D55",
"YR 	c #C18E57",
"ZR 	c #A56E4C",
"`R 	c #7F5444",
" S 	c #796A67",
".S 	c #97A3A9",
"+S 	c #74686F",
"@S 	c #5F3E40",
"#S 	c #593638",
"$S 	c #3E1B22",
"%S 	c #694B45",
"&S 	c #785A4F",
"*S 	c #7A5952",
"=S 	c #6A322B",
"-S 	c #915036",
";S 	c #B67B4B",
">S 	c #965F3D",
",S 	c #88523F",
"'S 	c #BA7E53",
")S 	c #B67D50",
"!S 	c #B37F51",
"~S 	c #B47F55",
"{S 	c #B27950",
"]S 	c #B2774D",
"^S 	c #B27F55",
"/S 	c #A0724A",
"(S 	c #875840",
"_S 	c #865D44",
":S 	c #8E654A",
"<S 	c #8C634A",
"[S 	c #BF996E",
"}S 	c #AD865F",
"|S 	c #88523C",
"1S 	c #865B43",
"2S 	c #7C503D",
"3S 	c #AB7651",
"4S 	c #C48957",
"5S 	c #BE8555",
"6S 	c #A9744A",
"7S 	c #AE794C",
"8S 	c #B48053",
"9S 	c #AD7652",
"0S 	c #A36F47",
"aS 	c #A9A196",
"bS 	c #C2C3B9",
"cS 	c #C1C4B9",
"dS 	c #9BA098",
"eS 	c #91583F",
"fS 	c #A16743",
"gS 	c #8F5836",
"hS 	c #93603D",
"iS 	c #A77654",
"jS 	c #9B6C4A",
"kS 	c #8D5C3F",
"lS 	c #926140",
"mS 	c #936142",
"nS 	c #8E5C3F",
"oS 	c #9F6D4B",
"pS 	c #B6804F",
"qS 	c #B78353",
"rS 	c #B17D4E",
"sS 	c #A06843",
"tS 	c #C99664",
"uS 	c #CA9764",
"vS 	c #8E5F42",
"wS 	c #AA896C",
"xS 	c #A17D61",
"yS 	c #8A553F",
"zS 	c #C69361",
"AS 	c #BE8C5D",
"BS 	c #BB885E",
"CS 	c #B27F56",
"DS 	c #B07C53",
"ES 	c #9F613D",
"FS 	c #A46841",
"GS 	c #B37B4F",
"HS 	c #A56E46",
"IS 	c #9E6741",
"JS 	c #965F40",
"KS 	c #9C6543",
"LS 	c #925B3E",
"MS 	c #955E42",
"NS 	c #B47F52",
"OS 	c #82523B",
"PS 	c #8C5D43",
"QS 	c #C49869",
"RS 	c #B58352",
"SS 	c #B7814E",
"TS 	c #BC8550",
"US 	c #B8824E",
"VS 	c #925639",
"WS 	c #A97851",
"XS 	c #956D57",
"YS 	c #8E7164",
"ZS 	c #646672",
"`S 	c #4E3D46",
" T 	c #46202B",
".T 	c #421625",
"+T 	c #39111F",
"@T 	c #4D2F30",
"#T 	c #553434",
"$T 	c #5E383A",
"%T 	c #783731",
"&T 	c #8C4C35",
"*T 	c #B4774A",
"=T 	c #B67B4C",
"-T 	c #A3673E",
";T 	c #A46943",
">T 	c #A96E45",
",T 	c #A06749",
"'T 	c #BA7C50",
")T 	c #B1754A",
"!T 	c #A56940",
"~T 	c #B78156",
"{T 	c #AE7851",
"]T 	c #B27A4D",
"^T 	c #8E6145",
"/T 	c #6E443A",
"(T 	c #785041",
"_T 	c #7E5743",
":T 	c #7F5641",
"<T 	c #A6805D",
"[T 	c #AD835F",
"}T 	c #AE7E61",
"|T 	c #82513D",
"1T 	c #855943",
"2T 	c #C68A57",
"3T 	c #AE7245",
"4T 	c #B97E50",
"5T 	c #B67C4F",
"6T 	c #9D653D",
"7T 	c #B68157",
"8T 	c #C29060",
"9T 	c #955F3E",
"0T 	c #B88256",
"aT 	c #946443",
"bT 	c #A5A5A0",
"cT 	c #BCC1B8",
"dT 	c #BEC2B8",
"eT 	c #9CA19C",
"fT 	c #8F9390",
"gT 	c #4D3631",
"hT 	c #B67E52",
"iT 	c #9A623F",
"jT 	c #B7875D",
"kT 	c #946445",
"lT 	c #936244",
"mT 	c #996846",
"nT 	c #956443",
"oT 	c #A06F4E",
"pT 	c #BE8956",
"qT 	c #BA8554",
"rT 	c #B68353",
"sT 	c #C08C5B",
"tT 	c #B38058",
"uT 	c #9F6C4C",
"vT 	c #88553F",
"wT 	c #86513B",
"xT 	c #935F44",
"yT 	c #9E6B4F",
"zT 	c #B8865C",
"AT 	c #C08D5E",
"BT 	c #C08F5F",
"CT 	c #B9875C",
"DT 	c #9E6540",
"ET 	c #975737",
"FT 	c #A76B44",
"GT 	c #A97147",
"HT 	c #A26942",
"IT 	c #966141",
"JT 	c #865034",
"KT 	c #976342",
"LT 	c #A87552",
"MT 	c #A26F4D",
"NT 	c #915F43",
"OT 	c #B78257",
"PT 	c #BD8857",
"QT 	c #B57C4D",
"RT 	c #986040",
"ST 	c #C08E62",
"TT 	c #A87952",
"UT 	c #7D594A",
"VT 	c #775B51",
"WT 	c #4E4951",
"XT 	c #2B212B",
"YT 	c #555457",
"ZT 	c #7C7D7B",
"`T 	c #858580",
" U 	c #83857D",
".U 	c #6D6C67",
"+U 	c #260A1A",
"@U 	c #7B3531",
"#U 	c #7E3E31",
"$U 	c #955636",
"%U 	c #9B5A37",
"&U 	c #A5653E",
"*U 	c #AC6E42",
"=U 	c #B07446",
"-U 	c #75432F",
";U 	c #AA714A",
">U 	c #B07146",
",U 	c #AC734A",
"'U 	c #B88559",
")U 	c #BB875A",
"!U 	c #C4905E",
"~U 	c #BE8957",
"{U 	c #BE8B5A",
"]U 	c #926647",
"^U 	c #80543F",
"/U 	c #916A48",
"(U 	c #774F3E",
"_U 	c #7C523F",
":U 	c #794E3B",
"<U 	c #A47F63",
"[U 	c #D2AE87",
"}U 	c #80513B",
"|U 	c #AD7750",
"1U 	c #C98E5B",
"2U 	c #A36840",
"3U 	c #8F583B",
"4U 	c #A26B48",
"5U 	c #BA8A5F",
"6U 	c #D0A16D",
"7U 	c #925C3F",
"8U 	c #A16748",
"9U 	c #B67F56",
"0U 	c #B88356",
"aU 	c #9A6C49",
"bU 	c #8A8984",
"cU 	c #8F938A",
"dU 	c #898D84",
"eU 	c #8A8E8A",
"fU 	c #787B79",
"gU 	c #473230",
"hU 	c #B98155",
"iU 	c #A4704B",
"jU 	c #A37554",
"kU 	c #A57854",
"lU 	c #926245",
"mU 	c #A0704E",
"nU 	c #B58353",
"oU 	c #C08C5D",
"pU 	c #C69261",
"qU 	c #C4925F",
"rU 	c #A6754E",
"sU 	c #936144",
"tU 	c #85533C",
"uU 	c #A37753",
"vU 	c #BE9162",
"wU 	c #BD8C5D",
"xU 	c #BD8B5D",
"yU 	c #BF8F5F",
"zU 	c #BA895A",
"AU 	c #8D4F32",
"BU 	c #B2784C",
"CU 	c #B0794B",
"DU 	c #A46B42",
"EU 	c #9C6442",
"FU 	c #A76640",
"GU 	c #C58952",
"HU 	c #87533A",
"IU 	c #AC7B58",
"JU 	c #BA8458",
"KU 	c #B78155",
"LU 	c #B07B50",
"MU 	c #8A5A40",
"NU 	c #BA865A",
"OU 	c #BA8653",
"PU 	c #C3905B",
"QU 	c #8E6547",
"RU 	c #4D292D",
"SU 	c #280D1C",
"TU 	c #190D18",
"UU 	c #949FA1",
"VU 	c #CEDED2",
"WU 	c #D5E6D4",
"XU 	c #D2E4D2",
"YU 	c #B0BDAF",
"ZU 	c #0C010A",
"`U 	c #7C5845",
" V 	c #B57F5C",
".V 	c #7C412D",
"+V 	c #8E5035",
"@V 	c #8E5233",
"#V 	c #8E5536",
"$V 	c #8D5238",
"%V 	c #8D4E34",
"&V 	c #874B35",
"*V 	c #915338",
"=V 	c #A1714D",
"-V 	c #CFA777",
";V 	c #90684D",
">V 	c #926143",
",V 	c #BF8E5B",
"'V 	c #956948",
")V 	c #8F5E41",
"!V 	c #AC7F51",
"~V 	c #7D533F",
"{V 	c #79503E",
"]V 	c #A18164",
"^V 	c #A68567",
"/V 	c #80533B",
"(V 	c #784C37",
"_V 	c #764937",
":V 	c #AE7951",
"<V 	c #CC945D",
"[V 	c #C38E5C",
"}V 	c #C08E61",
"|V 	c #B1825E",
"1V 	c #6E3929",
"2V 	c #C79667",
"3V 	c #C18D5E",
"4V 	c #BE8C5C",
"5V 	c #C19060",
"6V 	c #AA7651",
"7V 	c #956742",
"8V 	c #3B3641",
"9V 	c #62616B",
"0V 	c #66686D",
"aV 	c #616368",
"bV 	c #56555C",
"cV 	c #3F292A",
"dV 	c #A26A47",
"eV 	c #9C6340",
"fV 	c #8E563B",
"gV 	c #9D7154",
"hV 	c #B58D6B",
"iV 	c #865942",
"jV 	c #936242",
"kV 	c #905F40",
"lV 	c #8F5D3E",
"mV 	c #A2734E",
"nV 	c #C18E59",
"oV 	c #AE7C4F",
"pV 	c #A26E48",
"qV 	c #C69363",
"rV 	c #C59261",
"sV 	c #C39160",
"tV 	c #C29160",
"uV 	c #C3935E",
"vV 	c #9C6D4B",
"wV 	c #A17244",
"xV 	c #976A44",
"yV 	c #AC7F59",
"zV 	c #BC8C5E",
"AV 	c #BB8C5E",
"BV 	c #BF9161",
"CV 	c #C29465",
"DV 	c #C29463",
"EV 	c #C39865",
"FV 	c #C99D6A",
"GV 	c #7F442E",
"HV 	c #B07E55",
"IV 	c #B68253",
"JV 	c #B17B4F",
"KV 	c #AB754A",
"LV 	c #A36E47",
"MV 	c #A9734A",
"NV 	c #A26E4B",
"OV 	c #AC7045",
"PV 	c #90593D",
"QV 	c #BB8B61",
"RV 	c #AB754C",
"SV 	c #A2704C",
"TV 	c #89563D",
"UV 	c #A46F46",
"VV 	c #A67044",
"WV 	c #925D3C",
"XV 	c #905C3C",
"YV 	c #9D6642",
"ZV 	c #714535",
"`V 	c #44262B",
" W 	c #250A16",
".W 	c #180410",
"+W 	c #BBC5C6",
"@W 	c #C1CFC9",
"#W 	c #D2E0D1",
"$W 	c #D8E5D6",
"%W 	c #D2E1D0",
"&W 	c #B0BDB3",
"*W 	c #484855",
"=W 	c #6D3B34",
"-W 	c #8E5039",
";W 	c #84462E",
">W 	c #965A39",
",W 	c #965A36",
"'W 	c #955B36",
")W 	c #945C37",
"!W 	c #985C38",
"~W 	c #A1613D",
"{W 	c #925439",
"]W 	c #71382D",
"^W 	c #743E2F",
"/W 	c #88593C",
"(W 	c #845438",
"_W 	c #935F42",
":W 	c #704637",
"<W 	c #542D29",
"[W 	c #542E27",
"}W 	c #644037",
"|W 	c #654237",
"1W 	c #634235",
"2W 	c #654336",
"3W 	c #5E3D32",
"4W 	c #5A382F",
"5W 	c #56342C",
"6W 	c #7E503A",
"7W 	c #AE7850",
"8W 	c #A6734F",
"9W 	c #A36D4D",
"0W 	c #A66E48",
"aW 	c #8B583C",
"bW 	c #B67E53",
"cW 	c #B37E51",
"dW 	c #624941",
"eW 	c #47404A",
"fW 	c #49424B",
"gW 	c #39323C",
"hW 	c #755240",
"iW 	c #AA744E",
"jW 	c #9A6240",
"kW 	c #B58058",
"lW 	c #BA865B",
"mW 	c #986444",
"nW 	c #9A6644",
"oW 	c #9D6544",
"pW 	c #91573C",
"qW 	c #8D5639",
"rW 	c #865336",
"sW 	c #855338",
"tW 	c #9E6542",
"uW 	c #A56B44",
"vW 	c #815742",
"wW 	c #6F4A38",
"xW 	c #6C4839",
"yW 	c #7F5C4A",
"zW 	c #7F5B44",
"AW 	c #76523D",
"BW 	c #6D4B3B",
"CW 	c #80563F",
"DW 	c #774E38",
"EW 	c #7B533D",
"FW 	c #734C38",
"GW 	c #6C3E2F",
"HW 	c #6B402F",
"IW 	c #6E4533",
"JW 	c #6F4735",
"KW 	c #A1754E",
"LW 	c #A0744E",
"MW 	c #6F4534",
"NW 	c #6B4335",
"OW 	c #653D32",
"PW 	c #733D31",
"QW 	c #B17D57",
"RW 	c #B9855B",
"SW 	c #AC7A55",
"TW 	c #A8734B",
"UW 	c #9C6946",
"VW 	c #915B3D",
"WW 	c #8E5537",
"XW 	c #925936",
"YW 	c #925836",
"ZW 	c #8F5936",
"`W 	c #915C39",
" X 	c #C18C5D",
".X 	c #B27D52",
"+X 	c #67463B",
"@X 	c #585A5B",
"#X 	c #727D7B",
"$X 	c #BBC9C5",
"%X 	c #C6D2C5",
"&X 	c #C6D0C2",
"*X 	c #AFB7AB",
"=X 	c #B1BBAD",
"-X 	c #9FA7A0",
";X 	c #575A66",
">X 	c #67322F",
",X 	c #96563E",
"'X 	c #9F6042",
")X 	c #924E35",
"!X 	c #9A5939",
"~X 	c #955F36",
"{X 	c #915E31",
"]X 	c #996038",
"^X 	c #AA6942",
"/X 	c #A1633E",
"(X 	c #86513A",
"_X 	c #8A533A",
":X 	c #A67650",
"<X 	c #A06F4B",
"[X 	c #996948",
"}X 	c #A57C5C",
"|X 	c #7A5745",
"1X 	c #725647",
"2X 	c #AB967F",
"3X 	c #88705B",
"4X 	c #826954",
"5X 	c #95816C",
"6X 	c #7B6350",
"7X 	c #745743",
"8X 	c #67493F",
"9X 	c #8D725A",
"0X 	c #7C6050",
"aX 	c #84513A",
"bX 	c #9E6141",
"cX 	c #BD8659",
"dX 	c #BE8455",
"eX 	c #C48956",
"fX 	c #C08756",
"gX 	c #966848",
"hX 	c #4D3739",
"iX 	c #2F1E28",
"jX 	c #2C1C25",
"kX 	c #462526",
"lX 	c #AF7850",
"mX 	c #AF7B4F",
"nX 	c #A8714B",
"oX 	c #A96F49",
"pX 	c #A86D47",
"qX 	c #996748",
"rX 	c #B8814F",
"sX 	c #B47B51",
"tX 	c #B67D53",
"uX 	c #B88154",
"vX 	c #7F5949",
"wX 	c #7F6458",
"xX 	c #AFA399",
"yX 	c #AFA49C",
"zX 	c #8F7363",
"AX 	c #785647",
"BX 	c #68483A",
"CX 	c #714B3B",
"DX 	c #714937",
"EX 	c #694130",
"FX 	c #784B37",
"GX 	c #7D503A",
"HX 	c #7E513A",
"IX 	c #794D35",
"JX 	c #A57950",
"KX 	c #A2774F",
"LX 	c #764C3C",
"MX 	c #6E4738",
"NX 	c #C4885A",
"OX 	c #BA8254",
"PX 	c #BF885A",
"QX 	c #B78256",
"RX 	c #A87249",
"SX 	c #A8744D",
"TX 	c #A7744E",
"UX 	c #A46F4C",
"VX 	c #B78A63",
"WX 	c #B1825D",
"XX 	c #925935",
"YX 	c #97623C",
"ZX 	c #A9754B",
"`X 	c #B38155",
" Y 	c #C7945F",
".Y 	c #C4915C",
"+Y 	c #C7925D",
"@Y 	c #BD8453",
"#Y 	c #696F6F",
"$Y 	c #98A8A3",
"%Y 	c #B5BDB9",
"&Y 	c #B6BCB4",
"*Y 	c #AEB4AB",
"=Y 	c #A4ABA2",
"-Y 	c #A1AAA0",
";Y 	c #979E96",
">Y 	c #585863",
",Y 	c #572A2C",
"'Y 	c #AD7050",
")Y 	c #C58D62",
"!Y 	c #99583E",
"~Y 	c #955236",
"{Y 	c #856C25",
"]Y 	c #7E7A0E",
"^Y 	c #925A30",
"/Y 	c #A96942",
"(Y 	c #A7663E",
"_Y 	c #864C32",
":Y 	c #89583B",
"<Y 	c #B5855B",
"[Y 	c #AC7C55",
"}Y 	c #A87A56",
"|Y 	c #9D7454",
"1Y 	c #6D4A3C",
"2Y 	c #7F6352",
"3Y 	c #BFAB92",
"4Y 	c #947F69",
"5Y 	c #907863",
"6Y 	c #9A8871",
"7Y 	c #806855",
"8Y 	c #7B5C48",
"9Y 	c #896952",
"0Y 	c #8D6E53",
"aY 	c #7A5A47",
"bY 	c #A77852",
"cY 	c #C9915F",
"dY 	c #BA8352",
"eY 	c #996340",
"fY 	c #C38654",
"gY 	c #B77F54",
"hY 	c #7E573D",
"iY 	c #885F40",
"jY 	c #855C3B",
"kY 	c #946241",
"lY 	c #AD774C",
"mY 	c #B17A4F",
"nY 	c #9D633B",
"oY 	c #AB764E",
"pY 	c #A36843",
"qY 	c #9A6648",
"rY 	c #A4724D",
"sY 	c #B47C50",
"tY 	c #B87E51",
"uY 	c #B77F51",
"vY 	c #BA8456",
"wY 	c #B98256",
"xY 	c #BB8055",
"yY 	c #BC8557",
"zY 	c #7D5947",
"AY 	c #7D6257",
"BY 	c #AA9C93",
"CY 	c #A79991",
"DY 	c #856657",
"EY 	c #84614E",
"FY 	c #7D5A49",
"GY 	c #734C3D",
"HY 	c #764E3D",
"IY 	c #724D3C",
"JY 	c #6A4234",
"KY 	c #7F4F39",
"LY 	c #7D4D37",
"MY 	c #8E6044",
"NY 	c #8C5E42",
"OY 	c #825339",
"PY 	c #84563F",
"QY 	c #875C46",
"RY 	c #7A523E",
"SY 	c #71493B",
"TY 	c #CB9059",
"UY 	c #B87F54",
"VY 	c #B78053",
"WY 	c #A46E46",
"XY 	c #B07954",
"YY 	c #B27D57",
"ZY 	c #B6845E",
"`Y 	c #B48A65",
" Z 	c #B38765",
".Z 	c #8E5836",
"+Z 	c #BE8B5C",
"@Z 	c #B67B4D",
"#Z 	c #6F4D3D",
"$Z 	c #666C6C",
"%Z 	c #9DA9A4",
"&Z 	c #878D8A",
"*Z 	c #777A79",
"=Z 	c #888D8B",
"-Z 	c #BDC4BE",
";Z 	c #969E98",
">Z 	c #727678",
",Z 	c #3B2D3E",
"'Z 	c #773A35",
")Z 	c #763E30",
"!Z 	c #7D4632",
"~Z 	c #71392B",
"{Z 	c #704029",
"]Z 	c #848918",
"^Z 	c #7D860D",
"/Z 	c #815A28",
"(Z 	c #884B35",
"_Z 	c #995539",
":Z 	c #864F36",
"<Z 	c #A3724A",
"[Z 	c #B08052",
"}Z 	c #A67953",
"|Z 	c #AB8058",
"1Z 	c #A27455",
"2Z 	c #B88961",
"3Z 	c #B88B5E",
"4Z 	c #976E4F",
"5Z 	c #623934",
"6Z 	c #7D5C4C",
"7Z 	c #84705E",
"8Z 	c #A3927F",
"9Z 	c #A1927C",
"0Z 	c #9B856F",
"aZ 	c #8F735E",
"bZ 	c #8C6B54",
"cZ 	c #916C53",
"dZ 	c #85624C",
"eZ 	c #765346",
"fZ 	c #C48A58",
"gZ 	c #BD8354",
"hZ 	c #B27C4E",
"iZ 	c #C28453",
"jZ 	c #BA8354",
"kZ 	c #A2663E",
"lZ 	c #A06A42",
"mZ 	c #663A30",
"nZ 	c #B37C51",
"oZ 	c #B57B51",
"pZ 	c #B97E52",
"qZ 	c #B67D51",
"rZ 	c #B67F4F",
"sZ 	c #BC8254",
"tZ 	c #BC8155",
"uZ 	c #BD8658",
"vZ 	c #7F5A48",
"wZ 	c #69483E",
"xZ 	c #927F74",
"yZ 	c #99877B",
"zZ 	c #6F493B",
"AZ 	c #8F674E",
"BZ 	c #8F6549",
"CZ 	c #704737",
"DZ 	c #5E332C",
"EZ 	c #82533A",
"FZ 	c #8B5B3E",
"GZ 	c #8A593E",
"HZ 	c #86563B",
"IZ 	c #8C5C40",
"JZ 	c #B08867",
"KZ 	c #B39171",
"LZ 	c #71483B",
"MZ 	c #C18957",
"NZ 	c #B77D51",
"OZ 	c #A87449",
"PZ 	c #C69167",
"QZ 	c #C89268",
"RZ 	c #C79269",
"SZ 	c #C69670",
"TZ 	c #9E6949",
"UZ 	c #99603F",
"VZ 	c #824A30",
"WZ 	c #C99562",
"XZ 	c #B17C4F",
"YZ 	c #8D583C",
"ZZ 	c #AE7348",
"`Z 	c #714D3C",
" ` 	c #5B5F61",
".` 	c #8F9895",
"+` 	c #848A87",
"@` 	c #7D8280",
"#` 	c #797E7D",
"$` 	c #767B7B",
"%` 	c #636468",
"&` 	c #574F5A",
"*` 	c #413341",
"=` 	c #934D38",
"-` 	c #663129",
";` 	c #6A392A",
">` 	c #76562F",
",` 	c #8E862B",
"'` 	c #899812",
")` 	c #80900B",
"!` 	c #7E880A",
"~` 	c #6D4826",
"{` 	c #5D2F2C",
"]` 	c #BB8A59",
"^` 	c #B68654",
"/` 	c #B18258",
"(` 	c #AD8258",
"_` 	c #9E7757",
":` 	c #744A3C",
"<` 	c #9B6D4F",
"[` 	c #9B6E4F",
"}` 	c #835C44",
"|` 	c #6A4639",
"1` 	c #A07B5A",
"2` 	c #9C8B76",
"3` 	c #ABA08D",
"4` 	c #A79B86",
"5` 	c #8E7864",
"6` 	c #6C4436",
"7` 	c #6C4335",
"8` 	c #7F5A49",
"9` 	c #734F44",
"0` 	c #BE8553",
"a` 	c #B98451",
"b` 	c #BC8052",
"c` 	c #C28352",
"d` 	c #AB7248",
"e` 	c #AB7146",
"f` 	c #AA7046",
"g` 	c #AA7145",
"h` 	c #A86F44",
"i` 	c #9E643D",
"j` 	c #B3784B",
"k` 	c #B27849",
"l` 	c #AD7445",
"m` 	c #AC6F45",
"n` 	c #BC8153",
"o` 	c #BD8254",
"p` 	c #8D6149",
"q` 	c #7E5A44",
"r` 	c #552F2B",
"s` 	c #5E3833",
"t` 	c #946F52",
"u` 	c #A37B58",
"v` 	c #9F7455",
"w` 	c #A07653",
"x` 	c #AF895B",
"y` 	c #8D6549",
"z` 	c #85513B",
"A` 	c #915D3E",
"B` 	c #8F5E3E",
"C` 	c #89583C",
"D` 	c #83523A",
"E` 	c #AF8A69",
"F` 	c #AF8D6C",
"G` 	c #6D4237",
"H` 	c #BD8B60",
"I` 	c #C28E63",
"J` 	c #C08C5F",
"K` 	c #B5825D",
"L` 	c #663534",
"M` 	c #A06B48",
"N` 	c #B47A4E",
"O` 	c #C48E59",
"P` 	c #A26B46",
"Q` 	c #885034",
"R` 	c #975F3E",
"S` 	c #785441",
"T` 	c #505356",
"U` 	c #858B8B",
"V` 	c #7B8082",
"W` 	c #777B7E",
"X` 	c #747779",
"Y` 	c #67676B",
"Z` 	c #5A555D",
"`` 	c #4D454F",
"  .	c #3E303E",
". .	c #B66742",
"+ .	c #623023",
"@ .	c #5B5818",
"# .	c #667613",
"$ .	c #677C10",
"% .	c #84A70E",
"& .	c #6A6C1C",
"* .	c #926F36",
"= .	c #B07952",
"- .	c #4C2829",
"; .	c #764231",
"> .	c #8A6046",
", .	c #98674A",
"' .	c #8E5F49",
") .	c #885B45",
"! .	c #794C3F",
"~ .	c #6F4433",
"{ .	c #683E31",
"] .	c #6F483C",
"^ .	c #8E6950",
"/ .	c #A59586",
"( .	c #AFA490",
"_ .	c #ABA18A",
": .	c #98806B",
"< .	c #7D523F",
"[ .	c #774E3A",
"} .	c #88624D",
"| .	c #775545",
"1 .	c #6D4A3F",
"2 .	c #9E6C46",
"3 .	c #BB8857",
"4 .	c #BD8758",
"5 .	c #BB8456",
"6 .	c #996341",
"7 .	c #BA8451",
"8 .	c #BB8653",
"9 .	c #B88253",
"0 .	c #AD7045",
"a .	c #B07647",
"b .	c #AD7143",
"c .	c #AB6F43",
"d .	c #9C613B",
"e .	c #B77E53",
"f .	c #AE764C",
"g .	c #B07649",
"h .	c #AF7546",
"i .	c #C08657",
"j .	c #BF8355",
"k .	c #8C5F47",
"l .	c #774D3B",
"m .	c #744938",
"n .	c #B99062",
"o .	c #A27756",
"p .	c #9E7354",
"q .	c #A17856",
"r .	c #AD855C",
"s .	c #997254",
"t .	c #5E3530",
"u .	c #8A573D",
"v .	c #936041",
"w .	c #92603F",
"x .	c #734536",
"y .	c #6A3B32",
"z .	c #6C4235",
"A .	c #B77D50",
"B .	c #AF7B56",
"C .	c #8B5C45",
"D .	c #72433B",
"E .	c #BE8557",
"F .	c #BD8255",
"G .	c #9C5C38",
"H .	c #A1623D",
"I .	c #AC774E",
"J .	c #B88455",
"K .	c #AE7A51",
"L .	c #B57A4A",
"M .	c #3A363D",
"N .	c #545059",
"O .	c #6D6E79",
"P .	c #63646D",
"Q .	c #625F67",
"R .	c #3C2A39",
"S .	c #443443",
"T .	c #3E2F3F",
"U .	c #3A2B3C",
"V .	c #744336",
"W .	c #9F6245",
"X .	c #CC9162",
"Y .	c #4A2A22",
"Z .	c #696E1C",
"` .	c #40361B",
" ..	c #825942",
"...	c #B77D4C",
"+..	c #9E6447",
"@..	c #4E2627",
"#..	c #8F5C41",
"$..	c #B7835B",
"%..	c #A97551",
"&..	c #A77857",
"*..	c #B78965",
"=..	c #7F503C",
"-..	c #A46F4D",
";..	c #674336",
">..	c #827167",
",..	c #7D7067",
"'..	c #A28D79",
")..	c #A68462",
"!..	c #A27451",
"~..	c #966D4D",
"{..	c #674239",
"]..	c #6C4A40",
"^..	c #6B493E",
"/..	c #A06D48",
"(..	c #BC8A58",
"_..	c #B98858",
":..	c #A0673D",
"<..	c #945B3A",
"[..	c #C08452",
"}..	c #BF8C58",
"|..	c #8D5539",
"1..	c #C08958",
"2..	c #C08859",
"3..	c #B17546",
"4..	c #B17547",
"5..	c #B3784A",
"6..	c #855941",
"7..	c #C38B57",
"8..	c #AF7649",
"9..	c #C99265",
"0..	c #BF8658",
"a..	c #BF8659",
"b..	c #8D5E46",
"c..	c #8D664E",
"d..	c #7E5745",
"e..	c #7F5841",
"f..	c #92684A",
"g..	c #A1785B",
"h..	c #A68263",
"i..	c #8C6855",
"j..	c #856451",
"k..	c #623A34",
"l..	c #8C583F",
"m..	c #8F593E",
"n..	c #8B573D",
"o..	c #8D5A3E",
"p..	c #905F3F",
"q..	c #9F6E4C",
"r..	c #8A553D",
"s..	c #7D4E3C",
"t..	c #764B3E",
"u..	c #BF8456",
"v..	c #B98051",
"w..	c #B27A4E",
"x..	c #BD8A62",
"y..	c #B88760",
"z..	c #805242",
"A..	c #845943",
"B..	c #B4784C",
"C..	c #AB6E45",
"D..	c #B5784C",
"E..	c #9E6643",
"F..	c #83492F",
"G..	c #A97248",
"H..	c #C19162",
"I..	c #916141",
"J..	c #724837",
"K..	c #532F2F",
"L..	c #523D48",
"M..	c #6C646E",
"N..	c #463B49",
"O..	c #3B2D3B",
"P..	c #402F3E",
"Q..	c #3D2837",
"R..	c #251224",
"S..	c #120316",
"T..	c #0B000C",
"U..	c #5D312F",
"V..	c #7D4738",
"W..	c #8B5742",
"X..	c #936047",
"Y..	c #3F141F",
"Z..	c #340F1F",
"`..	c #2B0C1C",
" +.	c #6A4837",
".+.	c #986742",
"++.	c #84523B",
"@+.	c #512728",
"#+.	c #794631",
"$+.	c #88553C",
"%+.	c #905E41",
"&+.	c #A57452",
"*+.	c #AE815C",
"=+.	c #A27558",
"-+.	c #764A38",
";+.	c #644036",
">+.	c #746057",
",+.	c #6B554D",
"'+.	c #937159",
")+.	c #9B7451",
"!+.	c #AB8A6D",
"~+.	c #9E8067",
"{+.	c #9B7D64",
"]+.	c #7D5D49",
"^+.	c #BD8859",
"/+.	c #BC8857",
"(+.	c #B88656",
"_+.	c #A36E4A",
":+.	c #B97E51",
"<+.	c #95633F",
"[+.	c #A47A53",
"}+.	c #AF7B4B",
"|+.	c #BE8858",
"1+.	c #B37A4A",
"2+.	c #B88662",
"3+.	c #C49673",
"4+.	c #8F6344",
"5+.	c #BA8655",
"6+.	c #BB8357",
"7+.	c #BB8658",
"8+.	c #8A5E43",
"9+.	c #9C7C60",
"0+.	c #8F735F",
"a+.	c #775C50",
"b+.	c #74503F",
"c+.	c #8D664A",
"d+.	c #936E56",
"e+.	c #977B65",
"f+.	c #79584C",
"g+.	c #6F4B41",
"h+.	c #6C463F",
"i+.	c #965E40",
"j+.	c #955B3E",
"k+.	c #905C41",
"l+.	c #B3835C",
"m+.	c #84533C",
"n+.	c #926648",
"o+.	c #AD845C",
"p+.	c #936746",
"q+.	c #7B5142",
"r+.	c #C08455",
"s+.	c #BD8152",
"t+.	c #BD8456",
"u+.	c #A27152",
"v+.	c #9F6F4F",
"w+.	c #A2714D",
"x+.	c #BB8051",
"y+.	c #B97E4F",
"z+.	c #A66D46",
"A+.	c #774831",
"B+.	c #AE8057",
"C+.	c #704232",
"D+.	c #4F2328",
"E+.	c #4A343F",
"F+.	c #625A62",
"G+.	c #3E293A",
"H+.	c #361C2F",
"I+.	c #241221",
"J+.	c #160416",
"K+.	c #0F0113",
"L+.	c #0E000F",
"M+.	c #4C1B26",
"N+.	c #693234",
"O+.	c #60292E",
"P+.	c #5A232A",
"Q+.	c #491727",
"R+.	c #4A2328",
"S+.	c #57322F",
"T+.	c #562B2E",
"U+.	c #5D2D31",
"V+.	c #431823",
"W+.	c #683D35",
"X+.	c #7C4A32",
"Y+.	c #B07D50",
"Z+.	c #A57048",
"`+.	c #A26B47",
" @.	c #9A6746",
".@.	c #BD8F6D",
"+@.	c #8A5942",
"@@.	c #764C3F",
"#@.	c #A48366",
"$@.	c #715548",
"%@.	c #865E48",
"&@.	c #724B3D",
"*@.	c #7B5844",
"=@.	c #876249",
"-@.	c #AA8C70",
";@.	c #A98C6F",
">@.	c #A6896C",
",@.	c #8B6A53",
"'@.	c #A6643E",
")@.	c #BF865B",
"!@.	c #9B5F3A",
"~@.	c #9C5D39",
"{@.	c #CC9560",
"]@.	c #C68C5A",
"^@.	c #C18854",
"/@.	c #CA9863",
"(@.	c #A7744F",
"_@.	c #8D5F3E",
":@.	c #8D5F40",
"<@.	c #BB8655",
"[@.	c #BB8754",
"}@.	c #986140",
"|@.	c #BB8252",
"1@.	c #B87F4F",
"2@.	c #B88151",
"3@.	c #B2805B",
"4@.	c #C19468",
"5@.	c #744C3A",
"6@.	c #B6855B",
"7@.	c #BA8756",
"8@.	c #AF764C",
"9@.	c #B88558",
"0@.	c #7A5B4F",
"a@.	c #8B7364",
"b@.	c #8B7467",
"c@.	c #502E2A",
"d@.	c #7B5B49",
"e@.	c #7B6257",
"f@.	c #B3A995",
"g@.	c #8A7669",
"h@.	c #6C4F47",
"i@.	c #84675C",
"j@.	c #8A5239",
"k@.	c #8D5B43",
"l@.	c #C19268",
"m@.	c #A27555",
"n@.	c #774635",
"o@.	c #8F684C",
"p@.	c #BB9666",
"q@.	c #906C4F",
"r@.	c #7D5244",
"s@.	c #BD8454",
"t@.	c #723C2C",
"u@.	c #BA7F50",
"v@.	c #C18354",
"w@.	c #BE8758",
"x@.	c #955D3E",
"y@.	c #B98457",
"z@.	c #AF7B50",
"A@.	c #724A3B",
"B@.	c #412033",
"C@.	c #3A2C37",
"D@.	c #3D2937",
"E@.	c #372330",
"F@.	c #1C051A",
"G@.	c #220B1F",
"H@.	c #281220",
"I@.	c #321F28",
"J@.	c #2F0C19",
"K@.	c #5D272E",
"L@.	c #56212A",
"M@.	c #562326",
"N@.	c #784737",
"O@.	c #A47456",
"P@.	c #AF7E59",
"Q@.	c #794439",
"R@.	c #471C25",
"S@.	c #5E2E2E",
"T@.	c #A47349",
"U@.	c #9A6643",
"V@.	c #9B6947",
"W@.	c #9F6C4A",
"X@.	c #A67552",
"Y@.	c #B1805A",
"Z@.	c #825A49",
"`@.	c #A98868",
" #.	c #775D4D",
".#.	c #855D47",
"+#.	c #805946",
"@#.	c #7B5544",
"##.	c #7B5541",
"$#.	c #896753",
"%#.	c #8C6B55",
"&#.	c #927258",
"*#.	c #825D49",
"=#.	c #9E6744",
"-#.	c #B47448",
";#.	c #AA6B44",
">#.	c #AE7047",
",#.	c #A16C4A",
"'#.	c #B1764D",
")#.	c #945F44",
"!#.	c #C08554",
"~#.	c #AD7A52",
"{#.	c #BB8755",
"]#.	c #B98653",
"^#.	c #B68151",
"/#.	c #AB7854",
"(#.	c #BD8E60",
"_#.	c #B68556",
":#.	c #B48150",
"<#.	c #B68457",
"[#.	c #855940",
"}#.	c #6F4B3F",
"|#.	c #876E5F",
"1#.	c #8B7462",
"2#.	c #735145",
"3#.	c #7C6054",
"4#.	c #887A6C",
"5#.	c #755B52",
"6#.	c #714F44",
"7#.	c #6B453B",
"8#.	c #88533B",
"9#.	c #844F3B",
"0#.	c #814D38",
"a#.	c #7C4A36",
"b#.	c #764635",
"c#.	c #7B553E",
"d#.	c #7A5441",
"e#.	c #7C5241",
"f#.	c #C38955",
"g#.	c #B57F53",
"h#.	c #BD8B62",
"i#.	c #B8865D",
"j#.	c #BA8356",
"k#.	c #B88052",
"l#.	c #775142",
"m#.	c #36152B",
"n#.	c #1F0B1B",
"o#.	c #251020",
"p#.	c #504E52",
"q#.	c #7B7875",
"r#.	c #746D61",
"s#.	c #4A3939",
"t#.	c #42282F",
"u#.	c #4F3034",
"v#.	c #491B25",
"w#.	c #996A50",
"x#.	c #AD7751",
"y#.	c #CC915D",
"z#.	c #C2885A",
"A#.	c #9E6343",
"B#.	c #683330",
"C#.	c #351220",
"D#.	c #4D2424",
"E#.	c #6D483A",
"F#.	c #A27449",
"G#.	c #966644",
"H#.	c #946242",
"I#.	c #8E5B3C",
"J#.	c #88563B",
"K#.	c #BC8C60",
"L#.	c #AF7F5A",
"M#.	c #714435",
"N#.	c #704A3E",
"O#.	c #7E5644",
"P#.	c #7C5340",
"Q#.	c #754D3D",
"R#.	c #805845",
"S#.	c #784F3F",
"T#.	c #754B3C",
"U#.	c #70483A",
"V#.	c #C48856",
"W#.	c #CE9C6D",
"X#.	c #C99969",
"Y#.	c #854B34",
"Z#.	c #AF794F",
"`#.	c #C89D72",
" $.	c #A67756",
".$.	c #BA8154",
"+$.	c #B88653",
"@$.	c #A16843",
"#$.	c #B88351",
"$$.	c #B68252",
"%$.	c #B88557",
"&$.	c #A36D4C",
"*$.	c #B78458",
"=$.	c #B58253",
"-$.	c #B37F4E",
";$.	c #855A3F",
">$.	c #683A2C",
",$.	c #7F5B4B",
"'$.	c #83604D",
")$.	c #7C5240",
"!$.	c #714D40",
"~$.	c #76564A",
"{$.	c #63413C",
"]$.	c #67423C",
"^$.	c #6B433B",
"/$.	c #663B33",
"($.	c #7F4D36",
"_$.	c #784838",
":$.	c #774738",
"<$.	c #754536",
"[$.	c #754B3D",
"}$.	c #7D5040",
"|$.	c #B87D50",
"1$.	c #A66E49",
"2$.	c #B17D56",
"3$.	c #B38055",
"4$.	c #B1764A",
"5$.	c #B4784A",
"6$.	c #AD784A",
"7$.	c #A76F45",
"8$.	c #A67046",
"9$.	c #B17B51",
"0$.	c #6E4839",
"a$.	c #3B112B",
"b$.	c #240B1C",
"c$.	c #898E94",
"d$.	c #C9CFC8",
"e$.	c #AFB3A2",
"f$.	c #69615B",
"g$.	c #4D2932",
"h$.	c #58232A",
"i$.	c #360D1E",
"j$.	c #2F0A1B",
"k$.	c #CC9A6F",
"l$.	c #D99D63",
"m$.	c #D79C63",
"n$.	c #CB905F",
"o$.	c #935338",
"p$.	c #784035",
"q$.	c #885944",
"r$.	c #1D0314",
"s$.	c #422725",
"t$.	c #744633",
"u$.	c #714233",
"v$.	c #64372A",
"w$.	c #7C4B36",
"x$.	c #794736",
"y$.	c #734432",
"z$.	c #713F31",
"A$.	c #68382D",
"B$.	c #6C3F32",
"C$.	c #7C4E3D",
"D$.	c #97694A",
"E$.	c #774B39",
"F$.	c #693E31",
"G$.	c #694032",
"H$.	c #643B30",
"I$.	c #7D4D39",
"J$.	c #95684E",
"K$.	c #93654B",
"L$.	c #84523E",
"M$.	c #885B44",
"N$.	c #855C46",
"O$.	c #7F4F3B",
"P$.	c #B07449",
"Q$.	c #B7794A",
"R$.	c #B57A4D",
"S$.	c #9D6743",
"T$.	c #8C5139",
"U$.	c #A76E46",
"V$.	c #925C3B",
"W$.	c #AB7148",
"X$.	c #B1794A",
"Y$.	c #9F6545",
"Z$.	c #AD7047",
"`$.	c #AB7045",
" %.	c #AE7447",
".%.	c #B37E56",
"+%.	c #B17C52",
"@%.	c #76412F",
"#%.	c #7F4A35",
"$%.	c #8D593F",
"%%.	c #9A6848",
"&%.	c #6D4032",
"*%.	c #85533E",
"=%.	c #AB724C",
"-%.	c #94613F",
";%.	c #9D6D48",
">%.	c #AC7D51",
",%.	c #AA7B4E",
"'%.	c #AE7E52",
")%.	c #B18055",
"!%.	c #A16241",
"~%.	c #A16240",
"{%.	c #A56843",
"]%.	c #B1764F",
"^%.	c #AE724C",
"/%.	c #A46944",
"(%.	c #A26845",
"_%.	c #9F6543",
":%.	c #9A5F3E",
"<%.	c #723E2B",
"[%.	c #784532",
"}%.	c #AE835E",
"|%.	c #C99C6D",
"1%.	c #AB7852",
"2%.	c #865133",
"3%.	c #9D653F",
"4%.	c #A26A3E",
"5%.	c #80523C",
"6%.	c #4F2C2D",
"7%.	c #1F0C1C",
"8%.	c #A6B4B6",
"9%.	c #BFCEC5",
"0%.	c #CBD2C7",
"a%.	c #BDC5B6",
"b%.	c #888B86",
"c%.	c #59545B",
"d%.	c #220F18",
"e%.	c #744F3D",
"f%.	c #CA9167",
"g%.	c #C78D5E",
"h%.	c #B4784F",
"i%.	c #A05D3B",
"j%.	c #AB6A47",
"k%.	c #B57B53",
"l%.	c #522C2D",
"m%.	c #492D2C",
"n%.	c #81513A",
"o%.	c #986847",
"p%.	c #8E5E40",
"q%.	c #804E3B",
"r%.	c #9A6B4A",
"s%.	c #936443",
"t%.	c #8A5D40",
"u%.	c #8B6049",
"v%.	c #986F5A",
"w%.	c #986F59",
"x%.	c #A87A52",
"y%.	c #B38152",
"z%.	c #8D6048",
"A%.	c #774B3D",
"B%.	c #7B523D",
"C%.	c #895F49",
"D%.	c #8D6043",
"E%.	c #926342",
"F%.	c #8D5D3E",
"G%.	c #A17453",
"H%.	c #96684A",
"I%.	c #845443",
"J%.	c #7D513F",
"K%.	c #774B37",
"L%.	c #B67B4E",
"M%.	c #B9895B",
"N%.	c #915B3E",
"O%.	c #855138",
"P%.	c #B2754A",
"Q%.	c #A86D42",
"R%.	c #A66E46",
"S%.	c #BB8758",
"T%.	c #BB8958",
"U%.	c #A76E49",
"V%.	c #B77B4B",
"W%.	c #AD7344",
"X%.	c #BA8759",
"Y%.	c #C8996B",
"Z%.	c #B68055",
"`%.	c #8C5941",
" &.	c #97613D",
".&.	c #9B6741",
"+&.	c #A7724B",
"@&.	c #A6724B",
"#&.	c #966245",
"$&.	c #85523B",
"%&.	c #A8794E",
"&&.	c #AB6F47",
"*&.	c #BD8A59",
"=&.	c #C08F5E",
"-&.	c #A37347",
";&.	c #A9794B",
">&.	c #BD8D5B",
",&.	c #BA8956",
"'&.	c #995C38",
")&.	c #AB6D45",
"!&.	c #AA6C44",
"~&.	c #B47C4E",
"{&.	c #BA8853",
"]&.	c #C4955C",
"^&.	c #784832",
"/&.	c #6F3F2B",
"(&.	c #B5855C",
"_&.	c #C49264",
":&.	c #B68357",
"<&.	c #C08C5E",
"[&.	c #8C583A",
"}&.	c #754B38",
"|&.	c #5E3836",
"1&.	c #1A091A",
"2&.	c #8D989A",
"3&.	c #9CA8A3",
"4&.	c #A1A9A3",
"5&.	c #A4ADA2",
"6&.	c #767B77",
"7&.	c #351F27",
"8&.	c #8E644B",
"9&.	c #DD9561",
"0&.	c #C47B51",
"a&.	c #A15D3F",
"b&.	c #9C5A3B",
"c&.	c #A56139",
"d&.	c #AB6944",
"e&.	c #56302E",
"f&.	c #492F2C",
"g&.	c #AC774F",
"h&.	c #936248",
"i&.	c #A6764F",
"j&.	c #855B45",
"k&.	c #A37C5F",
"l&.	c #B29378",
"m&.	c #A9886D",
"n&.	c #9D6B48",
"o&.	c #926045",
"p&.	c #9E6E4D",
"q&.	c #8D5F44",
"r&.	c #885B42",
"s&.	c #8F5D3D",
"t&.	c #936140",
"u&.	c #9E6C49",
"v&.	c #976845",
"w&.	c #926448",
"x&.	c #8F6346",
"y&.	c #7E5440",
"z&.	c #7C523D",
"A&.	c #794D39",
"B&.	c #B77B4F",
"C&.	c #AA7C57",
"D&.	c #A17655",
"E&.	c #B38B69",
"F&.	c #A9825F",
"G&.	c #8A563A",
"H&.	c #C08457",
"I&.	c #AE7F53",
"J&.	c #A67A4F",
"K&.	c #B1754C",
"L&.	c #B57A4E",
"M&.	c #C28F61",
"N&.	c #C99669",
"O&.	c #C59367",
"P&.	c #B67F54",
"Q&.	c #915C43",
"R&.	c #9A633D",
"S&.	c #9A663F",
"T&.	c #B2794D",
"U&.	c #AA754D",
"V&.	c #9E6F51",
"W&.	c #B68655",
"X&.	c #B3794C",
"Y&.	c #AC7249",
"Z&.	c #C28E61",
"`&.	c #C28F63",
" *.	c #BD8C5A",
".*.	c #9F613F",
"+*.	c #AD7046",
"@*.	c #B2744B",
"#*.	c #B97D52",
"$*.	c #BE895A",
"%*.	c #C38B5C",
"&*.	c #B37A4F",
"**.	c #BE8A57",
"=*.	c #9A6D49",
"-*.	c #774832",
";*.	c #966542",
">*.	c #B68053",
",*.	c #BA8659",
"'*.	c #C08C60",
")*.	c #C99567",
"!*.	c #9A6845",
"~*.	c #6F4033",
"{*.	c #674136",
"]*.	c #5E3D35",
"^*.	c #2F1A1E",
"/*.	c #63656C",
"(*.	c #64656D",
"_*.	c #5B5C66",
":*.	c #606468",
"<*.	c #535056",
"[*.	c #503F46",
"}*.	c #705555",
"|*.	c #936B4E",
"1*.	c #E4A067",
"2*.	c #C68152",
"3*.	c #AD6D49",
"4*.	c #C58554",
"5*.	c #B27247",
"6*.	c #A3603A",
"7*.	c #935536",
"8*.	c #53202B",
"9*.	c #310C1F",
"0*.	c #50352B",
"a*.	c #8B5D3B",
"b*.	c #905E3D",
"c*.	c #996242",
"d*.	c #B4845D",
"e*.	c #A47659",
"f*.	c #885641",
"g*.	c #946245",
"h*.	c #855842",
"i*.	c #9A7458",
"j*.	c #B79578",
"k*.	c #B18E70",
"l*.	c #8B553D",
"m*.	c #A16D4A",
"n*.	c #A16F4E",
"o*.	c #7E503C",
"p*.	c #9D6643",
"q*.	c #9E6A45",
"r*.	c #9B6843",
"s*.	c #9B6C45",
"t*.	c #9A6D48",
"u*.	c #81533E",
"v*.	c #875B42",
"w*.	c #7E523A",
"x*.	c #BB7F50",
"y*.	c #7D4734",
"z*.	c #CFB089",
"A*.	c #C3A683",
"B*.	c #784633",
"C*.	c #C6925F",
"D*.	c #885D40",
"E*.	c #6D4C38",
"F*.	c #C28E5C",
"G*.	c #C08A60",
"H*.	c #C48E63",
"I*.	c #B88358",
"J*.	c #8D5A40",
"K*.	c #814E36",
"L*.	c #906043",
"M*.	c #B68763",
"N*.	c #B17E56",
"O*.	c #AB764D",
"P*.	c #A6714A",
"Q*.	c #82503D",
"R*.	c #A37855",
"S*.	c #CA9E68",
"T*.	c #BC8C59",
"U*.	c #B3744A",
"V*.	c #A76F4B",
"W*.	c #B07C52",
"X*.	c #9C6741",
"Y*.	c #A8734A",
"Z*.	c #A16947",
"`*.	c #AF724B",
" =.	c #BE8051",
".=.	c #C38C5C",
"+=.	c #AE744C",
"@=.	c #643029",
"#=.	c #B9814F",
"$=.	c #B88457",
"%=.	c #955C3C",
"&=.	c #C59060",
"*=.	c #835944",
"==.	c #3C1C23",
"-=.	c #52322D",
";=.	c #2E141F",
">=.	c #2B1629",
",=.	c #2F1A2E",
"'=.	c #321E31",
")=.	c #352433",
"!=.	c #594345",
"~=.	c #765C5A",
"{=.	c #764032",
"]=.	c #662F2A",
"^=.	c #552529",
"/=.	c #642E28",
"(=.	c #7E3E33",
"_=.	c #955C46",
":=.	c #4C2B25",
"<=.	c #704230",
"[=.	c #9A5D41",
"}=.	c #A06241",
"|=.	c #9A5E45",
"1=.	c #9C6544",
"2=.	c #966242",
"3=.	c #915F40",
"4=.	c #8A583C",
"5=.	c #7E4C3A",
"6=.	c #864F3B",
"7=.	c #874F39",
"8=.	c #844C37",
"9=.	c #A06C48",
"0=.	c #A67448",
"a=.	c #A47249",
"b=.	c #955E39",
"c=.	c #C4966C",
"d=.	c #C09569",
"e=.	c #9A7154",
"f=.	c #936043",
"g=.	c #A16B44",
"h=.	c #A06D47",
"i=.	c #8B5B41",
"j=.	c #7D523A",
"k=.	c #B37850",
"l=.	c #B97C4F",
"m=.	c #B98558",
"n=.	c #C08E63",
"o=.	c #814A33",
"p=.	c #6D3A2E",
"q=.	c #4D2A2A",
"r=.	c #603C33",
"s=.	c #8A5640",
"t=.	c #B98455",
"u=.	c #BB8253",
"v=.	c #B2794E",
"w=.	c #BA8051",
"x=.	c #C18B61",
"y=.	c #B67B53",
"z=.	c #B77D55",
"A=.	c #C28E5F",
"B=.	c #915F44",
"C=.	c #7F4F38",
"D=.	c #8F6247",
"E=.	c #B88964",
"F=.	c #A5734E",
"G=.	c #98643F",
"H=.	c #B5855A",
"I=.	c #AB7B52",
"J=.	c #AC784D",
"K=.	c #B06C44",
"L=.	c #B3704A",
"M=.	c #BD835A",
"N=.	c #B07E5A",
"O=.	c #844F34",
"P=.	c #B17950",
"Q=.	c #A16943",
"R=.	c #96613C",
"S=.	c #BF8054",
"T=.	c #B98251",
"U=.	c #8C573B",
"V=.	c #945B3D",
"W=.	c #AE734B",
"X=.	c #AC704A",
"Y=.	c #AF734A",
"Z=.	c #AD6F47",
"`=.	c #AA6D46",
" -.	c #B07549",
".-.	c #B5784D",
"+-.	c #AD754E",
"@-.	c #B89676",
"#-.	c #7D6459",
"$-.	c #392225",
"%-.	c #7A5D4D",
"&-.	c #3C2627",
"*-.	c #250A19",
"=-.	c #2E0D1C",
"--.	c #1F0715",
";-.	c #230214",
">-.	c #543A3C",
",-.	c #6C514F",
"'-.	c #673D36",
")-.	c #501D29",
"!-.	c #9F6F51",
"~-.	c #986646",
"{-.	c #7F4031",
"]-.	c #6F2E29",
"^-.	c #7B352C",
"/-.	c #9E5234",
"(-.	c #A2553B",
"_-.	c #59332C",
":-.	c #825239",
"<-.	c #9A6043",
"[-.	c #A16745",
"}-.	c #A36E4D",
"|-.	c #996442",
"1-.	c #926144",
"2-.	c #7A4635",
"3-.	c #834A35",
"4-.	c #9E6B45",
"5-.	c #CA9D73",
"6-.	c #C4996D",
"7-.	c #997354",
"8-.	c #935E41",
"9-.	c #A77148",
"0-.	c #A1734E",
"a-.	c #82563E",
"b-.	c #B67A4F",
"c-.	c #BD8253",
"d-.	c #AA704A",
"e-.	c #AD7C56",
"f-.	c #7E4D38",
"g-.	c #7A4A34",
"h-.	c #C28C59",
"i-.	c #B98053",
"j-.	c #885237",
"k-.	c #BF875C",
"l-.	c #B88054",
"m-.	c #BC8859",
"n-.	c #96603E",
"o-.	c #9A623D",
"p-.	c #985E3C",
"q-.	c #9B6541",
"r-.	c #96613D",
"s-.	c #B58156",
"t-.	c #A97951",
"u-.	c #AF6841",
"v-.	c #B37249",
"w-.	c #AF744D",
"x-.	c #A16B46",
"y-.	c #935937",
"z-.	c #9D6339",
"A-.	c #A36940",
"B-.	c #A57047",
"C-.	c #9A6141",
"D-.	c #BD7F52",
"E-.	c #B87F4D",
"F-.	c #AE7249",
"G-.	c #B77B51",
"H-.	c #B47950",
"I-.	c #AE7148",
"J-.	c #AE7147",
"K-.	c #966F56",
"L-.	c #614842",
"M-.	c #341D21",
"N-.	c #765847",
"O-.	c #462B2B",
"P-.	c #3F1F26",
"Q-.	c #5A4C2D",
"R-.	c #85863F",
"S-.	c #5E4C3A",
"T-.	c #402A2C",
"U-.	c #3A262E",
"V-.	c #360F26",
"W-.	c #4A172B",
"X-.	c #B1815B",
"Y-.	c #A77853",
"Z-.	c #6A2B28",
"`-.	c #975939",
" ;.	c #A36239",
".;.	c #9A5337",
"+;.	c #9D5135",
"@;.	c #96503A",
"#;.	c #6A4735",
"$;.	c #AB7448",
"%;.	c #B88C63",
"&;.	c #CF9F6A",
"*;.	c #A87857",
"=;.	c #824A38",
"-;.	c #9B6441",
";;.	c #9C6644",
">;.	c #9D6A47",
",;.	c #936346",
"';.	c #875842",
");.	c #784B3B",
"!;.	c #945D40",
"~;.	c #AE744A",
"{;.	c #A7754A",
"];.	c #A6774F",
"^;.	c #895B3F",
"/;.	c #C79060",
"(;.	c #C8935F",
"_;.	c #8E5438",
":;.	c #BB8559",
"<;.	c #B47F53",
"[;.	c #9A6546",
"};.	c #86523A",
"|;.	c #824D33",
"1;.	c #825037",
"2;.	c #C38C59",
"3;.	c #AE7650",
"4;.	c #AC744B",
"5;.	c #9A633F",
"6;.	c #AD774A",
"7;.	c #BB8355",
"8;.	c #8B5A3E",
"9;.	c #B0794C",
"0;.	c #B67B49",
"a;.	c #9C6540",
"b;.	c #BA8551",
"c;.	c #CD9F6A",
"d;.	c #CEAB7B",
"e;.	c #A36E45",
"f;.	c #AA6540",
"g;.	c #B5764C",
"h;.	c #AB6F4A",
"i;.	c #A46A40",
"j;.	c #A0663B",
"k;.	c #AD774B",
"l;.	c #9D6442",
"m;.	c #BD7E51",
"n;.	c #BF8150",
"o;.	c #BB814E",
"p;.	c #BF8354",
"q;.	c #B1754B",
"r;.	c #B27549",
"s;.	c #BC804F",
"t;.	c #A86B42",
"u;.	c #AB7144",
"v;.	c #985C37",
"w;.	c #BD8558",
"x;.	c #AD7954",
"y;.	c #7A584B",
"z;.	c #250718",
"A;.	c #31101C",
"B;.	c #3E1D23",
"C;.	c #4E2A29",
"D;.	c #696235",
"E;.	c #8B9538",
"F;.	c #887B43",
"G;.	c #695738",
"H;.	c #1D021C",
"I;.	c #371323",
"J;.	c #612030",
"K;.	c #783936",
"L;.	c #71342C",
"M;.	c #72362B",
"N;.	c #C08351",
"O;.	c #CD8A49",
"P;.	c #A96D40",
"Q;.	c #481B24",
"R;.	c #2C0A1B",
"S;.	c #5F4030",
"T;.	c #A56E41",
"U;.	c #A26C42",
"V;.	c #9F6E47",
"W;.	c #A36F4A",
"X;.	c #AE774F",
"Y;.	c #915E44",
"Z;.	c #935A40",
"`;.	c #9C6645",
" >.	c #9B6948",
".>.	c #966546",
"+>.	c #976C4E",
"@>.	c #896047",
"#>.	c #976042",
"$>.	c #B0744A",
"%>.	c #8F6040",
"&>.	c #B48356",
"*>.	c #B38256",
"=>.	c #89593E",
"->.	c #9F6847",
";>.	c #B98254",
">>.	c #BB8455",
",>.	c #BA8353",
"'>.	c #BF8656",
")>.	c #C28B59",
"!>.	c #C59565",
"~>.	c #A67654",
"{>.	c #A06A48",
"]>.	c #AD7747",
"^>.	c #A5714D",
"/>.	c #C49B77",
"(>.	c #A1734F",
"_>.	c #AA835B",
":>.	c #B3926C",
"<>.	c #9A6743",
"[>.	c #844C31",
"}>.	c #8C5437",
"|>.	c #905739",
"1>.	c #9A6241",
"2>.	c #B47E53",
"3>.	c #B07A4C",
"4>.	c #AE7D54",
"5>.	c #A47755",
"6>.	c #996040",
"7>.	c #BD7D4F",
"8>.	c #BD8250",
"9>.	c #BB8350",
"0>.	c #9F633F",
"a>.	c #A46741",
"b>.	c #A96D43",
"c>.	c #C28954",
"d>.	c #CC955E",
"e>.	c #AE7345",
"f>.	c #A46840",
"g>.	c #A0673E",
"h>.	c #2B0A1B",
"i>.	c #37171F",
"j>.	c #5A352A",
"k>.	c #653E2B",
"l>.	c #68462A",
"m>.	c #7B7127",
"n>.	c #90853A",
"o>.	c #7D6F3B",
"p>.	c #22051B",
"q>.	c #94604C",
"r>.	c #C08759",
"s>.	c #BC814B",
"t>.	c #A0653B",
"u>.	c #6B3228",
"v>.	c #8C5539",
"w>.	c #905A3D",
"x>.	c #492527",
"y>.	c #614032",
"z>.	c #A46D42",
"A>.	c #9D6640",
"B>.	c #986541",
"C>.	c #B57F56",
"D>.	c #C38A5A",
"E>.	c #BA8158",
"F>.	c #A16945",
"G>.	c #9A6545",
"H>.	c #9B6849",
"I>.	c #A37A56",
"J>.	c #936C50",
"K>.	c #B5774A",
"L>.	c #AD734A",
"M>.	c #A5724E",
"N>.	c #B8885D",
"O>.	c #B6865B",
"P>.	c #A1704B",
"Q>.	c #89573B",
"R>.	c #8B5433",
"S>.	c #BF8A5B",
"T>.	c #996646",
"U>.	c #743C2D",
"V>.	c #915E43",
"W>.	c #AF7D56",
"X>.	c #B68056",
"Y>.	c #BD8553",
"Z>.	c #BC8852",
"`>.	c #BE8953",
" ,.	c #B98453",
".,.	c #8A533B",
"+,.	c #91583C",
"@,.	c #AA7754",
"#,.	c #D5AE86",
"$,.	c #7E5B48",
"%,.	c #69463C",
"&,.	c #A97C57",
"*,.	c #75402F",
"=,.	c #854F36",
"-,.	c #8D5739",
";,.	c #9C6341",
">,.	c #B58961",
",,.	c #C5A072",
"',.	c #A06848",
"),.	c #BC7C4D",
"!,.	c #BF8250",
"~,.	c #BC8553",
"{,.	c #C48F5C",
"],.	c #A06745",
"^,.	c #C58E5F",
"/,.	c #975D3B",
"(,.	c #B87F4B",
"_,.	c #B37949",
":,.	c #AD7244",
"<,.	c #B47C4A",
"[,.	c #80604F",
"},.	c #4C322B",
"|,.	c #A7764E",
"1,.	c #A37147",
"2,.	c #412C24",
"3,.	c #52452E",
"4,.	c #392F23",
"5,.	c #855E49",
"6,.	c #C58F63",
"7,.	c #A27247",
"8,.	c #895A3E",
"9,.	c #552625",
"0,.	c #5E3027",
"a,.	c #6E3F2E",
"b,.	c #7E4B36",
"c,.	c #955E3E",
"d,.	c #915F41",
"e,.	c #A16A3F",
"f,.	c #A5704B",
"g,.	c #B17A54",
"h,.	c #A9714E",
"i,.	c #956146",
"j,.	c #AD744C",
"k,.	c #A36A46",
"l,.	c #9B6544",
"m,.	c #906547",
"n,.	c #704031",
"o,.	c #976141",
"p,.	c #B47548",
"q,.	c #AF7147",
"r,.	c #B8845B",
"s,.	c #A77754",
"t,.	c #9F6F4D",
"u,.	c #8E593D",
"v,.	c #BB7F55",
"w,.	c #A76D4A",
"x,.	c #B37A50",
"y,.	c #BA8255",
"z,.	c #BF8855",
"A,.	c #BE8A58",
"B,.	c #B27B50",
"C,.	c #AE784C",
"D,.	c #A9744C",
"E,.	c #B27C50",
"F,.	c #BA834F",
"G,.	c #B7804A",
"H,.	c #B7824F",
"I,.	c #B58252",
"J,.	c #B68355",
"K,.	c #B37F53",
"L,.	c #B47E52",
"M,.	c #9D6444",
"N,.	c #8B583F",
"O,.	c #7E523E",
"P,.	c #88624A",
"Q,.	c #AE8259",
"R,.	c #95664A",
"S,.	c #845237",
"T,.	c #A56F46",
"U,.	c #B88B5C",
"V,.	c #B6895C",
"W,.	c #AF7A54",
"X,.	c #B27447",
"Y,.	c #C08857",
"Z,.	c #BE8856",
"`,.	c #B57C4A",
" '.	c #B47E4C",
".'.	c #B8814E",
"+'.	c #B57F4D",
"@'.	c #C28D59",
"#'.	c #7D5B49",
"$'.	c #59312E",
"%'.	c #804032",
"&'.	c #C99157",
"*'.	c #9D6C4B",
"='.	c #4A2727",
"-'.	c #432426",
";'.	c #250818",
">'.	c #5C3938",
",'.	c #885447",
"''.	c #3D141E",
")'.	c #38111D",
"!'.	c #43131D",
"~'.	c #4E2220",
"{'.	c #6D3D2D",
"]'.	c #61352B",
"^'.	c #814E37",
"/'.	c #8B5539",
"('.	c #986137",
"_'.	c #CB9E69",
":'.	c #A17051",
"<'.	c #A87351",
"['.	c #A46F51",
"}'.	c #975F46",
"|'.	c #A86F4C",
"1'.	c #AB724B",
"2'.	c #A26C49",
"3'.	c #945F45",
"4'.	c #A26944",
"5'.	c #9F6743",
"6'.	c #9C6945",
"7'.	c #905F46",
"8'.	c #714031",
"9'.	c #A0714C",
"0'.	c #C48E58",
"a'.	c #C38E5A",
"b'.	c #C2905E",
"c'.	c #BE9263",
"d'.	c #98613F",
"e'.	c #C58958",
"f'.	c #C28658",
"g'.	c #C38E59",
"h'.	c #C38C57",
"i'.	c #A66E45",
"j'.	c #BE8C5A",
"k'.	c #B58054",
"l'.	c #A67146",
"m'.	c #B87D4B",
"n'.	c #B67D4B",
"o'.	c #C08C58",
"p'.	c #BB8858",
"q'.	c #B98656",
"r'.	c #B98358",
"s'.	c #AC764F",
"t'.	c #9E6442",
"u'.	c #9A6142",
"v'.	c #AA7955",
"w'.	c #B6895F",
"x'.	c #B7895F",
"y'.	c #996745",
"z'.	c #956140",
"A'.	c #945E3F",
"B'.	c #B17D52",
"C'.	c #B5885C",
"D'.	c #BA8B5F",
"E'.	c #B6855A",
"F'.	c #B27F53",
"G'.	c #C08E5B",
"H'.	c #BE8C59",
"I'.	c #BD8A58",
"J'.	c #C28F5F",
"K'.	c #BF8B5B",
"L'.	c #BD8A5B",
"M'.	c #B88456",
"N'.	c #AE7748",
"O'.	c #BD8E5A",
"P'.	c #BE9059",
"Q'.	c #BF8E57",
"R'.	c #C19057",
"S'.	c #C7945E",
"T'.	c #8D6452",
"U'.	c #6A3133",
"V'.	c #955F47",
"W'.	c #875447",
"X'.	c #BB7E54",
"Y'.	c #A86C48",
"Z'.	c #88573F",
"`'.	c #35131E",
" ).	c #21081B",
".).	c #27061A",
"+).	c #63302C",
"@).	c #8E4D34",
"#).	c #A3623C",
"$).	c #A4633B",
"%).	c #341A19",
"&).	c #572F28",
"*).	c #32101E",
"=).	c #4A292B",
"-).	c #663A2D",
";).	c #764D3C",
">).	c #976E52",
",).	c #855645",
"').	c #7D4E3F",
")).	c #78493C",
"!).	c #734438",
"~).	c #7C4C3B",
"{).	c #7A4B3A",
"]).	c #714232",
"^).	c #965A3C",
"/).	c #9B6444",
"().	c #7A4A35",
"_).	c #804F3A",
":).	c #7B4938",
"<).	c #724637",
"[).	c #855C41",
"}).	c #875E44",
"|).	c #875C43",
"1).	c #875A42",
"2).	c #754A38",
"3).	c #774936",
"4).	c #734431",
"5).	c #9D684A",
"6).	c #9E6746",
"7).	c #996645",
"8).	c #93654A",
"9).	c #94664A",
"0).	c #835241",
"a).	c #794A39",
"b).	c #8D6045",
"c).	c #8E5F41",
"d).	c #87583E",
"e).	c #8A573C",
"f).	c #91583A",
"g).	c #8C5538",
"h).	c #955F43",
"i).	c #8F593C",
"j).	c #92583D",
"k).	c #8B4F3B",
"l).	c #9A6348",
"m).	c #AB7451",
"n).	c #B07A51",
"o).	c #B58259",
"p).	c #B8895F",
"q).	c #784830",
"r).	c #AF8160",
"s).	c #966342",
"t).	c #8E5838",
"u).	c #905A37",
"v).	c #955A3B",
"w).	c #88553D",
"x).	c #925E41",
"y).	c #8E5B41",
"z).	c #87573F",
"A).	c #80523D",
"B).	c #7F503D",
"C).	c #7E4E3B",
"D).	c #7C4C38",
"E).	c #7E523B",
"F).	c #7C533A",
"G).	c #8B5D41",
"H).	c #805240",
"I).	c #563035",
"J).	c #693432",
"K).	c #844230",
"L).	c #C4845A",
"M).	c #C18057",
"N).	c #B87950",
"O).	c #CD8C5C",
"P).	c #B1714F",
"Q).	c #B47955",
"R).	c #321A20",
"S).	c #A07958",
"T).	c #CB935E",
"U).	c #C28450",
"V).	c #C0824F",
"W).	c #704E35",
"X).	c #805734",
"Y).	c #331522",
"Z).	c #472E2C",
"`).	c #774F3D",
" !.	c #744D3D",
".!.	c #856049",
"+!.	c #835E47",
"@!.	c #7D5843",
"#!.	c #775041",
"$!.	c #7B5244",
"%!.	c #72493C",
"&!.	c #6E4539",
"*!.	c #B87E50",
"=!.	c #C49566",
"-!.	c #966345",
";!.	c #784837",
">!.	c #8A614B",
",!.	c #CDAF85",
"'!.	c #B49268",
")!.	c #835E45",
"!!.	c #6B4538",
"~!.	c #815A45",
"{!.	c #694235",
"]!.	c #7B523E",
"^!.	c #784A39",
"/!.	c #8A6450",
"(!.	c #8C6751",
"_!.	c #7F5843",
":!.	c #724635",
"<!.	c #704233",
"[!.	c #936646",
"}!.	c #9D724F",
"|!.	c #936647",
"1!.	c #885E4B",
"2!.	c #A2765A",
"3!.	c #84573F",
"4!.	c #6D3D30",
"5!.	c #754636",
"6!.	c #7E4F38",
"7!.	c #885A3F",
"8!.	c #7E5037",
"9!.	c #794C35",
"0!.	c #9C704F",
"a!.	c #9A6E4A",
"b!.	c #8A5D44",
"c!.	c #7B4D38",
"d!.	c #80533D",
"e!.	c #916747",
"f!.	c #8D6344",
"g!.	c #8C583B",
"h!.	c #8D593B",
"i!.	c #88553A",
"j!.	c #88543A",
"k!.	c #8B563B",
"l!.	c #844E3A",
"m!.	c #A9704D",
"n!.	c #C28D5D",
"o!.	c #BE8959",
"p!.	c #A16B4B",
"q!.	c #C99665",
"r!.	c #C39162",
"s!.	c #C09163",
"t!.	c #BC8D60",
"u!.	c #7F4B36",
"v!.	c #BB9875",
"w!.	c #BC936D",
"x!.	c #9C613D",
"y!.	c #B37C55",
"z!.	c #C28E62",
"A!.	c #C08E5F",
"B!.	c #B7865A",
"C!.	c #784733",
"D!.	c #A77B53",
"E!.	c #B88960",
"F!.	c #82543C",
"G!.	c #80543B",
"H!.	c #794A35",
"I!.	c #743F30",
"J!.	c #7A4530",
"K!.	c #824B31",
"L!.	c #80472F",
"M!.	c #824A31",
"N!.	c #7E4B34",
"O!.	c #7C4832",
"P!.	c #8B5C47",
"Q!.	c #633C2D",
"R!.	c #AC683E",
"S!.	c #D4945F",
"T!.	c #D4935E",
"U!.	c #D0905C",
"V!.	c #C98858",
"W!.	c #A56346",
"X!.	c #BA7E48",
"Y!.	c #C9905C",
"Z!.	c #C8905C",
"`!.	c #B7784B",
" ~.	c #A56B45",
".~.	c #784932",
"+~.	c #663B28",
"@~.	c #301220",
"#~.	c #503831",
"$~.	c #855F41",
"%~.	c #825D44",
"&~.	c #8C664B",
"*~.	c #886347",
"=~.	c #7D5A44",
"-~.	c #8C6F5D",
";~.	c #A48C75",
">~.	c #A58D73",
",~.	c #89654F",
"'~.	c #795142",
")~.	c #92664B",
"!~.	c #B88759",
"~~.	c #9C6A47",
"{~.	c #996945",
"]~.	c #86583D",
"^~.	c #855D4A",
"/~.	c #C5AA84",
"(~.	c #A08160",
"_~.	c #7A5040",
":~.	c #714A3B",
"<~.	c #865F47",
"[~.	c #7F5845",
"}~.	c #805441",
"|~.	c #784C38",
"1~.	c #9E7C60",
"2~.	c #9A7758",
"3~.	c #997559",
"4~.	c #744735",
"5~.	c #8B5C3F",
"6~.	c #906142",
"7~.	c #916444",
"8~.	c #936243",
"9~.	c #A3724C",
"0~.	c #9A6B49",
"a~.	c #8D614C",
"b~.	c #895D44",
"c~.	c #AE895A",
"d~.	c #835B43",
"e~.	c #7E533F",
"f~.	c #7B5037",
"g~.	c #92684B",
"h~.	c #B1865E",
"i~.	c #A87D59",
"j~.	c #8D6147",
"k~.	c #7B4B37",
"l~.	c #8B5C3E",
"m~.	c #955E3C",
"n~.	c #945F3D",
"o~.	c #8D5D42",
"p~.	c #8C5940",
"q~.	c #AF7750",
"r~.	c #BF895A",
"s~.	c #BA875B",
"t~.	c #AF7F57",
"u~.	c #BF9063",
"v~.	c #7E5C4A",
"w~.	c #7D5949",
"x~.	c #764536",
"y~.	c #A96B42",
"z~.	c #A76A42",
"A~.	c #A86E46",
"B~.	c #B88158",
"C~.	c #C18C5F",
"D~.	c #C18B5E",
"E~.	c #B38156",
"F~.	c #76422F",
"G~.	c #7C4B34",
"H~.	c #7D4C34",
"I~.	c #AA7A53",
"J~.	c #BC885C",
"K~.	c #8C5C3F",
"L~.	c #85573B",
"M~.	c #865339",
"N~.	c #814935",
"O~.	c #8E583A",
"P~.	c #824930",
"Q~.	c #90603E",
"R~.	c #916546",
"S~.	c #855139",
"T~.	c #8A563E",
"U~.	c #81523E",
"V~.	c #47282B",
"W~.	c #5C332B",
"X~.	c #A5603E",
"Y~.	c #D6935F",
"Z~.	c #D3905C",
"`~.	c #D08F59",
" {.	c #C78657",
".{.	c #9B573E",
"+{.	c #A76A47",
"@{.	c #C78E53",
"#{.	c #C2754C",
"${.	c #CA8D5E",
"%{.	c #B0704C",
"&{.	c #AD6C46",
"*{.	c #985B3C",
"={.	c #92543A",
"-{.	c #AC6F4D",
";{.	c #7D422B",
">{.	c #834936",
",{.	c #6F4336",
"'{.	c #7F563F",
"){.	c #825B42",
"!{.	c #865F46",
"~{.	c #896148",
"{{.	c #835D45",
"]{.	c #967E6C",
"^{.	c #B8A68C",
"/{.	c #B5A286",
"({.	c #B49670",
"_{.	c #774534",
":{.	c #8F5234",
"<{.	c #A5724C",
"[{.	c #9B6742",
"}{.	c #A26A42",
"|{.	c #9D6847",
"1{.	c #8C5B44",
"2{.	c #7F5443",
"3{.	c #805642",
"4{.	c #6F4737",
"5{.	c #724F3D",
"6{.	c #AB8361",
"7{.	c #A07655",
"8{.	c #956A4E",
"9{.	c #61332C",
"0{.	c #957054",
"a{.	c #926D51",
"b{.	c #957155",
"c{.	c #734939",
"d{.	c #9A6847",
"e{.	c #935F3E",
"f{.	c #925B39",
"g{.	c #916247",
"h{.	c #865E44",
"i{.	c #CCA86D",
"j{.	c #7B5A43",
"k{.	c #795440",
"l{.	c #815339",
"m{.	c #764934",
"n{.	c #BA906B",
"o{.	c #BC9168",
"p{.	c #986E4F",
"q{.	c #794833",
"r{.	c #7F4A31",
"s{.	c #AB734A",
"t{.	c #8E5A3C",
"u{.	c #916448",
"v{.	c #AF8B6B",
"w{.	c #81533C",
"x{.	c #BE8656",
"y{.	c #B0764D",
"z{.	c #AB7246",
"A{.	c #8D573B",
"B{.	c #69382D",
"C{.	c #5C2E26",
"D{.	c #743E2B",
"E{.	c #A76941",
"F{.	c #A86B3F",
"G{.	c #CA9264",
"H{.	c #C08A5C",
"I{.	c #BD895C",
"J{.	c #B17E54",
"K{.	c #77422E",
"L{.	c #885337",
"M{.	c #8B573B",
"N{.	c #915E3C",
"O{.	c #AB7B54",
"P{.	c #A47653",
"Q{.	c #70402D",
"R{.	c #7D4B31",
"S{.	c #995D3B",
"T{.	c #A36744",
"U{.	c #9A623E",
"V{.	c #824931",
"W{.	c #956749",
"X{.	c #AE8357",
"Y{.	c #B08B63",
"Z{.	c #4C2526",
"`{.	c #5B3630",
" ].	c #3C181F",
".].	c #532125",
"+].	c #5A2322",
"@].	c #733B31",
"#].	c #D19561",
"$].	c #CF905B",
"%].	c #CC8D58",
"&].	c #C38254",
"*].	c #A86444",
"=].	c #B06E49",
"-].	c #72362C",
";].	c #BD6945",
">].	c #8B5140",
",].	c #7A4139",
"'].	c #753C33",
")].	c #7A3F34",
"!].	c #905137",
"~].	c #B27347",
"{].	c #C58356",
"]].	c #8F5237",
"^].	c #5A2F29",
"/].	c #512929",
"(].	c #704037",
"_].	c #7F5441",
":].	c #A77957",
"<].	c #986F58",
"[].	c #8B6451",
"}].	c #915434",
"|].	c #A26E49",
"1].	c #A8704B",
"2].	c #C58F65",
"3].	c #9C6E51",
"4].	c #96694C",
"5].	c #663C31",
"6].	c #5F382E",
"7].	c #825540",
"8].	c #885B40",
"9].	c #88583D",
"0].	c #906245",
"a].	c #95654A",
"b].	c #A37653",
"c].	c #A17658",
"d].	c #76503E",
"e].	c #A7754E",
"f].	c #955D3B",
"g].	c #985F3B",
"h].	c #A3704D",
"i].	c #956448",
"j].	c #6D3D2B",
"k].	c #68392C",
"l].	c #572E2B",
"m].	c #865B3F",
"n].	c #94613E",
"o].	c #89593B",
"p].	c #885639",
"q].	c #8D5738",
"r].	c #9A643F",
"s].	c #996642",
"t].	c #9B6945",
"u].	c #986745",
"v].	c #643A30",
"w].	c #E0C18F",
"x].	c #A28569",
"y].	c #A87854",
"z].	c #C68F5C",
"A].	c #B47A4C",
"B].	c #C08D5F",
"C].	c #925A3B",
"D].	c #8B5134",
"E].	c #966144",
"F].	c #B37B51",
"G].	c #9C603D",
"H].	c #A67A58",
"I].	c #B38059",
"J].	c #BD875C",
"K].	c #7B442F",
"L].	c #8D5638",
"M].	c #915937",
"N].	c #945D3D",
"O].	c #8F5A3C",
"P].	c #835036",
"Q].	c #B27851",
"R].	c #B0774E",
"S].	c #9A6A45",
"T].	c #895C3C",
"U].	c #A36E48",
"V].	c #BA7F53",
"W].	c #C18151",
"X].	c #9A5D3C",
"Y].	c #955C40",
"Z].	c #905037",
"`].	c #9B5E40",
" ^.	c #B0593C",
".^.	c #763E38",
"+^.	c #703A35",
"@^.	c #773E34",
"#^.	c #6B342F",
"$^.	c #96583A",
"%^.	c #B17148",
"&^.	c #9A5B37",
"*^.	c #502729",
"=^.	c #452126",
"-^.	c #693B31",
";^.	c #A37051",
">^.	c #956248",
",^.	c #A67655",
"'^.	c #B0805A",
")^.	c #A0785B",
"!^.	c #775246",
"~^.	c #6B453D",
"{^.	c #6E4840",
"]^.	c #87573C",
"^^.	c #96623F",
"/^.	c #AD754F",
"(^.	c #B87F52",
"_^.	c #A77651",
":^.	c #92644A",
"<^.	c #764A39",
"[^.	c #97664A",
"}^.	c #794C3A",
"|^.	c #97684C",
"1^.	c #8E5E42",
"2^.	c #9B6744",
"3^.	c #956241",
"4^.	c #9D6A4C",
"5^.	c #BC895D",
"6^.	c #996E4D",
"7^.	c #744D3A",
"8^.	c #A26F4A",
"9^.	c #935C3D",
"0^.	c #965E3A",
"a^.	c #A7714D",
"b^.	c #956245",
"c^.	c #6D3B2B",
"d^.	c #875E47",
"e^.	c #643C32",
"f^.	c #8C5F45",
"g^.	c #A36F48",
"h^.	c #986542",
"i^.	c #96633F",
"j^.	c #905A3C",
"k^.	c #9B6440",
"l^.	c #915D3D",
"m^.	c #905E3C",
"n^.	c #835D49",
"o^.	c #AD9673",
"p^.	c #6F5748",
"q^.	c #502526",
"r^.	c #A47550",
"s^.	c #C38B59",
"t^.	c #BD8A5E",
"u^.	c #8C5134",
"v^.	c #B78862",
"w^.	c #DCAD79",
"x^.	c #D2A16F",
"y^.	c #522A28",
"z^.	c #93634A",
"A^.	c #BD865B",
"B^.	c #BD865C",
"C^.	c #B37F55",
"D^.	c #7D4731",
"E^.	c #9A5E3A",
"F^.	c #965B38",
"G^.	c #945A38",
"H^.	c #99603C",
"I^.	c #945F42",
"J^.	c #925F3B",
"K^.	c #7F4B30",
"L^.	c #955839",
"M^.	c #AD6F49",
"N^.	c #965B3C",
"O^.	c #B3764A",
"P^.	c #C98551",
"Q^.	c #BB7B4A",
"R^.	c #703727",
"S^.	c #72382A",
"T^.	c #82422F",
"U^.	c #884931",
"V^.	c #8E4C32",
"W^.	c #8B4B35",
"X^.	c #814B36",
"Y^.	c #80302C",
"Z^.	c #662C29",
"`^.	c #68322B",
" /.	c #85493A",
"./.	c #6D3731",
"+/.	c #8F5036",
"@/.	c #965436",
"#/.	c #905135",
"$/.	c #8F5035",
"%/.	c #A6846A",
"&/.	c #836555",
"*/.	c #65372C",
"=/.	c #A57352",
"-/.	c #AC7954",
";/.	c #98694C",
">/.	c #94674C",
",/.	c #AA7F5B",
"'/.	c #AC815D",
")/.	c #78503F",
"!/.	c #764E40",
"~/.	c #A97047",
"{/.	c #935D3F",
"]/.	c #875238",
"^/.	c #AA724C",
"//.	c #B78056",
"(/.	c #AF7C55",
"_/.	c #93664C",
":/.	c #6D4335",
"</.	c #8B5942",
"[/.	c #774939",
"}/.	c #895840",
"|/.	c #996545",
"1/.	c #92613F",
"2/.	c #A97954",
"3/.	c #CA9A69",
"4/.	c #896046",
"5/.	c #6A4333",
"6/.	c #B37E57",
"7/.	c #824C31",
"8/.	c #985F3A",
"9/.	c #A06842",
"0/.	c #976243",
"a/.	c #713E2E",
"b/.	c #A27E5A",
"c/.	c #8A664A",
"d/.	c #AA7B53",
"e/.	c #8C5A3F",
"f/.	c #8E573B",
"g/.	c #AF835F",
"h/.	c #9D6D4D",
"i/.	c #966645",
"j/.	c #A97E59",
"k/.	c #A67F62",
"l/.	c #2F0F17",
"m/.	c #482126",
"n/.	c #5A2A29",
"o/.	c #C28B56",
"p/.	c #D5A471",
"q/.	c #A96F41",
"r/.	c #B3794E",
"s/.	c #BC895C",
"t/.	c #B78763",
"u/.	c #AB7E5F",
"v/.	c #9F7A5A",
"w/.	c #9A7454",
"x/.	c #B88156",
"y/.	c #BA8257",
"z/.	c #B07B52",
"A/.	c #9F623E",
"B/.	c #9D603C",
"C/.	c #955A39",
"D/.	c #B5784A",
"E/.	c #B0764A",
"F/.	c #82563F",
"G/.	c #B4825B",
"H/.	c #B17A51",
"I/.	c #9B613C",
"J/.	c #9F663F",
"K/.	c #AF7149",
"L/.	c #A96C46",
"M/.	c #8A533D",
"N/.	c #A56A4B",
"O/.	c #C27B4A",
"P/.	c #CB8954",
"Q/.	c #773D2D",
"R/.	c #7D412F",
"S/.	c #924E34",
"T/.	c #985439",
"U/.	c #8D4C32",
"V/.	c #7F412F",
"W/.	c #744030",
"X/.	c #411922",
"Y/.	c #7C3931",
"Z/.	c #905040",
"`/.	c #84483A",
" (.	c #733B36",
".(.	c #8E5037",
"+(.	c #894831",
"@(.	c #793D2B",
"#(.	c #CFA678",
"$(.	c #A07E5B",
"%(.	c #6D3E32",
"&(.	c #8C5F40",
"*(.	c #7A4D3A",
"=(.	c #653831",
"-(.	c #865A46",
";(.	c #94684E",
">(.	c #7D5442",
",(.	c #835039",
"'(.	c #985D3E",
")(.	c #AE7C55",
"!(.	c #6E4235",
"~(.	c #946C54",
"{(.	c #986A4E",
"](.	c #A4724B",
"^(.	c #84593E",
"/(.	c #744937",
"((.	c #6C4737",
"_(.	c #BD875D",
":(.	c #89533A",
"<(.	c #B57D55",
"[(.	c #B47E57",
"}(.	c #AA724D",
"|(.	c #723F2F",
"1(.	c #89624C",
"2(.	c #A48360",
"3(.	c #7E5A48",
"4(.	c #4F272A",
"5(.	c #593533",
"6(.	c #896853",
"7(.	c #8C593E",
"8(.	c #915E3F",
"9(.	c #CEAA7C",
"0(.	c #AF8C66",
"a(.	c #9E775B",
"b(.	c #CCA980",
"c(.	c #663E32",
"d(.	c #734637",
"e(.	c #7D4C37",
"f(.	c #C18D59",
"g(.	c #C18756",
"h(.	c #BC8A5C",
"i(.	c #90573A",
"j(.	c #DAAE7C",
"k(.	c #B38761",
"l(.	c #6C3B2F",
"m(.	c #6A3D2C",
"n(.	c #C79058",
"o(.	c #A26945",
"p(.	c #BA8258",
"q(.	c #B07951",
"r(.	c #894F37",
"s(.	c #A46641",
"t(.	c #A2643F",
"u(.	c #9F6641",
"v(.	c #B47848",
"w(.	c #B4794A",
"x(.	c #966143",
"y(.	c #764537",
"z(.	c #5B312A",
"A(.	c #935B39",
"B(.	c #C18A54",
"C(.	c #C18954",
"D(.	c #B2764B",
"E(.	c #B2764E",
"F(.	c #7F5342",
"G(.	c #7E4D3D",
"H(.	c #BB6945",
"I(.	c #BF724B",
"J(.	c #763B2D",
"K(.	c #844B35",
"L(.	c #8C4F34",
"M(.	c #8B4C32",
"N(.	c #854834",
"O(.	c #8F5537",
"P(.	c #9A5E39",
"Q(.	c #2F0B19",
"R(.	c #541F24",
"S(.	c #925343",
"T(.	c #834738",
"U(.	c #995945",
"V(.	c #A46140",
"W(.	c #915034",
"X(.	c #7C4935",
"Y(.	c #C69154",
"Z(.	c #CB9659",
"`(.	c #9F7655",
" _.	c #714338",
"._.	c #764B3A",
"+_.	c #8E6349",
"@_.	c #93684E",
"#_.	c #90674E",
"$_.	c #845B46",
"%_.	c #7E5542",
"&_.	c #7C5140",
"*_.	c #774D3A",
"=_.	c #976546",
"-_.	c #CA9561",
";_.	c #A56C42",
">_.	c #A56D44",
",_.	c #9F704E",
"'_.	c #6A3F30",
")_.	c #CDAC83",
"!_.	c #BC9871",
"~_.	c #905F44",
"{_.	c #916649",
"]_.	c #8F664C",
"^_.	c #634033",
"/_.	c #99613E",
"(_.	c #B47C51",
"__.	c #A8724C",
":_.	c #AB734F",
"<_.	c #512D29",
"[_.	c #563D37",
"}_.	c #B68F67",
"|_.	c #A47B56",
"1_.	c #5C3330",
"2_.	c #26101C",
"3_.	c #7A5147",
"4_.	c #89593F",
"5_.	c #9A6649",
"6_.	c #BF885B",
"7_.	c #7D533E",
"8_.	c #956747",
"9_.	c #8B573F",
"0_.	c #BF8958",
"a_.	c #BF8856",
"b_.	c #BE8C5E",
"c_.	c #935B3F",
"d_.	c #8B573A",
"e_.	c #AD6E42",
"f_.	c #75482F",
"g_.	c #915839",
"h_.	c #B37A52",
"i_.	c #AC744D",
"j_.	c #9D5F40",
"k_.	c #A86A43",
"l_.	c #A56640",
"m_.	c #9B613A",
"n_.	c #B7804F",
"o_.	c #9A6647",
"p_.	c #7B4A3A",
"q_.	c #8C5C45",
"r_.	c #B07847",
"s_.	c #A76B42",
"t_.	c #A97654",
"u_.	c #67483D",
"v_.	c #3D1829",
"w_.	c #492431",
"x_.	c #92614F",
"y_.	c #895443",
"z_.	c #6E3830",
"A_.	c #7B422E",
"B_.	c #A57151",
"C_.	c #AB7350",
"D_.	c #391A22",
"E_.	c #633231",
"F_.	c #763B36",
"G_.	c #642E2D",
"H_.	c #B57250",
"I_.	c #AC6646",
"J_.	c #B97B4A",
"K_.	c #926443",
"L_.	c #765746",
"M_.	c #875B44",
"N_.	c #855B47",
"O_.	c #976D4E",
"P_.	c #976C4D",
"Q_.	c #8E654B",
"R_.	c #7E5643",
"S_.	c #7A5240",
"T_.	c #C18556",
"U_.	c #B07B51",
"V_.	c #BE8D63",
"W_.	c #8C5C3E",
"X_.	c #A97953",
"Y_.	c #9D6D4C",
"Z_.	c #855E46",
"`_.	c #937153",
" :.	c #815E4F",
".:.	c #91664C",
"+:.	c #9D6C4A",
"@:.	c #A17252",
"#:.	c #A57957",
"$:.	c #A07652",
"%:.	c #8D674A",
"&:.	c #947459",
"*:.	c #714C3C",
"=:.	c #B57C51",
"-:.	c #A97146",
";:.	c #A56A45",
">:.	c #AF7950",
",:.	c #542A27",
"':.	c #4A2826",
"):.	c #503731",
"!:.	c #A07555",
"~:.	c #8C6148",
"{:.	c #6A3F34",
"]:.	c #8B5D42",
"^:.	c #A26D4D",
"/:.	c #CA905E",
"(:.	c #AC754C",
"_:.	c #A36F46",
"::.	c #905F3E",
"<:.	c #8E5942",
"[:.	c #C18A58",
"}:.	c #BF8959",
"|:.	c #BE8958",
"1:.	c #A96D45",
"2:.	c #B0794F",
"3:.	c #AD744B",
"4:.	c #AA6A42",
"5:.	c #A66940",
"6:.	c #BE8A5A",
"7:.	c #6A4439",
"8:.	c #8F624A",
"9:.	c #B1895C",
"0:.	c #BC8D56",
"a:.	c #B98851",
"b:.	c #B98853",
"c:.	c #A66F40",
"d:.	c #73533C",
"e:.	c #21041F",
"f:.	c #2C0928",
"g:.	c #8E5C47",
"h:.	c #7E493C",
"i:.	c #521A25",
"j:.	c #592427",
"k:.	c #875443",
"l:.	c #885142",
"m:.	c #723E32",
"n:.	c #402226",
"o:.	c #884D44",
"p:.	c #511E26",
"q:.	c #512328",
"r:.	c #733532",
"s:.	c #6B292B",
"t:.	c #B47B47",
"u:.	c #B87E47",
"v:.	c #79462B",
"w:.	c #451522",
"x:.	c #4A312D",
"y:.	c #8B5F43",
"z:.	c #7A4E3A",
"A:.	c #774C36",
"B:.	c #7C5137",
"C:.	c #856048",
"D:.	c #79533F",
"E:.	c #77503C",
"F:.	c #734D39",
"G:.	c #704937",
"H:.	c #926747",
"I:.	c #B27D54",
"J:.	c #AC7851",
"K:.	c #B27D53",
"L:.	c #7C4F38",
"M:.	c #A37452",
"N:.	c #9A6D4E",
"O:.	c #815B44",
"P:.	c #906C50",
"Q:.	c #85573D",
"R:.	c #A27554",
"S:.	c #986D4F",
"T:.	c #845E47",
"U:.	c #B1906B",
"V:.	c #7C5541",
"W:.	c #AD7752",
"X:.	c #AD7548",
"Y:.	c #9C653E",
"Z:.	c #B78255",
"`:.	c #AF8055",
" <.	c #542D27",
".<.	c #56312B",
"+<.	c #613C34",
"@<.	c #865B45",
"#<.	c #794E3E",
"$<.	c #885832",
"%<.	c #966540",
"&<.	c #996742",
"*<.	c #85503A",
"=<.	c #9C6949",
"-<.	c #C58D5B",
";<.	c #BC8758",
"><.	c #CEA370",
",<.	c #9E714D",
"'<.	c #956145",
")<.	c #C28C58",
"!<.	c #BD8957",
"~<.	c #BD8C58",
"{<.	c #BD8B59",
"]<.	c #BB8A5D",
"^<.	c #A36947",
"/<.	c #B67E58",
"(<.	c #A06746",
"_<.	c #AF774A",
":<.	c #AB7449",
"<<.	c #A97348",
"[<.	c #AA7045",
"}<.	c #AC7145",
"|<.	c #AC7047",
"1<.	c #A86D43",
"2<.	c #A86F46",
"3<.	c #C08E60",
"4<.	c #BF8D5D",
"5<.	c #B28053",
"6<.	c #B17E50",
"7<.	c #8E6548",
"8<.	c #4E2C2E",
"9<.	c #3B1626",
"0<.	c #31101F",
"a<.	c #AC8C61",
"b<.	c #B8935B",
"c<.	c #BA915C",
"d<.	c #C09760",
"e<.	c #AE7F4E",
"f<.	c #AC7A4C",
"g<.	c #644437",
"h<.	c #290C1B",
"i<.	c #3F2022",
"j<.	c #814D3D",
"k<.	c #693831",
"l<.	c #431221",
"m<.	c #401321",
"n<.	c #612C31",
"o<.	c #441829",
"p<.	c #36131F",
"q<.	c #5F2B2E",
"r<.	c #1D0412",
"s<.	c #1B0312",
"t<.	c #1F0213",
"u<.	c #210418",
"v<.	c #21041A",
"w<.	c #25061B",
"x<.	c #371722",
"y<.	c #310C21",
"z<.	c #442B2B",
"A<.	c #774D3E",
"B<.	c #683E33",
"C<.	c #673934",
"D<.	c #62342F",
"E<.	c #5C322C",
"F<.	c #5A352D",
"G<.	c #613B33",
"H<.	c #643D34",
"I<.	c #633B31",
"J<.	c #552F27",
"K<.	c #62382F",
"L<.	c #744135",
"M<.	c #6F3C31",
"N<.	c #6C3D31",
"O<.	c #6D4035",
"P<.	c #6A392D",
"Q<.	c #67362D",
"R<.	c #734535",
"S<.	c #6A4032",
"T<.	c #764A36",
"U<.	c #7E4C35",
"V<.	c #836336",
"W<.	c #816430",
"X<.	c #6F3D2E",
"Y<.	c #754432",
"Z<.	c #82503B",
"`<.	c #774432",
" [.	c #7E4B37",
".[.	c #87543F",
"+[.	c #8E573C",
"@[.	c #90573B",
"#[.	c #8A5137",
"$[.	c #834D38",
"%[.	c #7B4634",
"&[.	c #744232",
"*[.	c #744332",
"=[.	c #74493B",
"-[.	c #6C4138",
";[.	c #6D4138",
">[.	c #6D4033",
",[.	c #A47149",
"'[.	c #784736",
")[.	c #67382F",
"![.	c #885740",
"~[.	c #845540",
"{[.	c #855641",
"][.	c #7F563E",
"^[.	c #845C45",
"/[.	c #87553C",
"([.	c #844F3A",
"_[.	c #7C4836",
":[.	c #865439",
"<[.	c #8F5C3F",
"[[.	c #7B4533",
"}[.	c #A06546",
"|[.	c #B47953",
"1[.	c #A56A47",
"2[.	c #9A6140",
"3[.	c #985E40",
"4[.	c #9D6646",
"5[.	c #8F5838",
"6[.	c #875136",
"7[.	c #65322C",
"8[.	c #683730",
"9[.	c #7A493B",
"0[.	c #6F3C30",
"a[.	c #6D392D",
"b[.	c #6F392E",
"c[.	c #713A2E",
"d[.	c #743B2D",
"e[.	c #814831",
"f[.	c #5F332A",
"g[.	c #2F0D1C",
"h[.	c #300C1B",
"i[.	c #502830",
"j[.	c #552B30",
"k[.	c #542B2D",
"l[.	c #522A2C",
"m[.	c #603537",
"n[.	c #582B32",
"o[.	c #4D232B",
"p[.	c #3E1828",
"q[.	c #684A3D",
"r[.	c #9D7B49",
"s[.	c #523827",
"t[.	c #210A13",
"u[.	c #1D0710",
"v[.	c #1A0310",
"w[.	c #3E252B",
"x[.	c #573337",
"y[.	c #1E0416",
"z[.	c #190716",
"A[.	c #7F8481",
"B[.	c #B6C2B5",
"C[.	c #93998E",
"D[.	c #351823",
"E[.	c #492828",
"F[.	c #54252E",
"G[.	c #260619",
"H[.	c #3F2A2B",
"I[.	c #71483A",
"J[.	c #9A7E62",
"K[.	c #97795C",
"L[.	c #693730",
"M[.	c #5A2E2E",
"N[.	c #512B2C",
"O[.	c #725349",
"P[.	c #988069",
"Q[.	c #936D51",
"R[.	c #6F4937",
"S[.	c #854D3C",
"T[.	c #9A765C",
"U[.	c #95735B",
"V[.	c #927560",
"W[.	c #60352D",
"X[.	c #6B3E31",
"Y[.	c #845C43",
"Z[.	c #886144",
"`[.	c #7D4937",
" }.	c #8E533A",
".}.	c #918531",
"+}.	c #908D28",
"@}.	c #9C6B38",
"#}.	c #965D39",
"$}.	c #A56C41",
"%}.	c #A56D40",
"&}.	c #72392E",
"*}.	c #764037",
"=}.	c #783F35",
"-}.	c #BD7F51",
";}.	c #BE7E4D",
">}.	c #BC7F4E",
",}.	c #743D36",
"'}.	c #88503D",
")}.	c #693829",
"!}.	c #7D4F3A",
"~}.	c #7F553F",
"{}.	c #7B5340",
"]}.	c #A6704B",
"^}.	c #734337",
"/}.	c #6D3E33",
"(}.	c #744436",
"_}.	c #7A4737",
":}.	c #7A503D",
"<}.	c #80543E",
"[}.	c #A17551",
"}}.	c #AD7E55",
"|}.	c #9B6B46",
"1}.	c #7A4433",
"2}.	c #794634",
"3}.	c #834C35",
"4}.	c #895035",
"5}.	c #8C553C",
"6}.	c #8A553C",
"7}.	c #844C38",
"8}.	c #A96D49",
"9}.	c #BA7C54",
"0}.	c #B87A51",
"a}.	c #B5774D",
"b}.	c #B5774B",
"c}.	c #CB9866",
"d}.	c #B48459",
"e}.	c #D3A264",
"f}.	c #AA7F59",
"g}.	c #582F2C",
"h}.	c #623733",
"i}.	c #764E43",
"j}.	c #B69473",
"k}.	c #683C32",
"l}.	c #66342D",
"m}.	c #68352D",
"n}.	c #6B352B",
"o}.	c #71372C",
"p}.	c #8A4D34",
"q}.	c #63382E",
"r}.	c #6D5B52",
"s}.	c #A99882",
"t}.	c #9C8976",
"u}.	c #91816C",
"v}.	c #92846C",
"w}.	c #857763",
"x}.	c #552C2F",
"y}.	c #683A3A",
"z}.	c #A48D69",
"A}.	c #79614E",
"B}.	c #391B28",
"C}.	c #65572E",
"D}.	c #7B6D26",
"E}.	c #4D3924",
"F}.	c #413623",
"G}.	c #656C36",
"H}.	c #BAC77E",
"I}.	c #675D4F",
"J}.	c #51303A",
"K}.	c #684644",
"L}.	c #636C73",
"M}.	c #8B9A9C",
"N}.	c #B7C4C4",
"O}.	c #C7D6CE",
"P}.	c #929F9C",
"Q}.	c #421F27",
"R}.	c #512D28",
"S}.	c #62382B",
"T}.	c #5C2E33",
"U}.	c #33181E",
"V}.	c #3B2625",
"W}.	c #6D4436",
"X}.	c #9F8066",
"Y}.	c #AB8969",
"Z}.	c #8E6049",
"`}.	c #6C4536",
" |.	c #583835",
".|.	c #7E6155",
"+|.	c #986B4C",
"@|.	c #75453A",
"#|.	c #865440",
"$|.	c #664E44",
"%|.	c #856E60",
"&|.	c #836B5E",
"*|.	c #6D4239",
"=|.	c #9C7453",
"-|.	c #966D4C",
";|.	c #8E6647",
">|.	c #7D563F",
",|.	c #A46946",
"'|.	c #988336",
")|.	c #949728",
"!|.	c #9B6F32",
"~|.	c #9E6339",
"{|.	c #9F6238",
"]|.	c #A1653D",
"^|.	c #AA7044",
"/|.	c #975F3D",
"(|.	c #814731",
"_|.	c #8D5940",
":|.	c #B07B4B",
"<|.	c #B77847",
"[|.	c #A76F40",
"}|.	c #A46B4C",
"||.	c #74432D",
"1|.	c #7D4E36",
"2|.	c #724232",
"3|.	c #8B553B",
"4|.	c #905738",
"5|.	c #8C5537",
"6|.	c #925E3E",
"7|.	c #7D4D38",
"8|.	c #82553F",
"9|.	c #7C533F",
"0|.	c #9B6F4F",
"a|.	c #8C6146",
"b|.	c #8C5D42",
"c|.	c #855337",
"d|.	c #835238",
"e|.	c #87523D",
"f|.	c #B67C53",
"g|.	c #9F6745",
"h|.	c #945F40",
"i|.	c #915A3F",
"j|.	c #B57951",
"k|.	c #BA7A51",
"l|.	c #B87A4F",
"m|.	c #B7794E",
"n|.	c #B97C4E",
"o|.	c #B58659",
"p|.	c #C2905C",
"q|.	c #AC805A",
"r|.	c #552C2A",
"s|.	c #786058",
"t|.	c #B39E87",
"u|.	c #B79D7D",
"v|.	c #875F4A",
"w|.	c #AF8866",
"x|.	c #6D352B",
"y|.	c #83472F",
"z|.	c #6F6059",
"A|.	c #A89E8B",
"B|.	c #A69C87",
"C|.	c #9C927C",
"D|.	c #928971",
"E|.	c #8A7E6A",
"F|.	c #7A5749",
"G|.	c #AC9774",
"H|.	c #846C57",
"I|.	c #462831",
"J|.	c #70662C",
"K|.	c #685D25",
"L|.	c #3C2C1E",
"M|.	c #5F4A32",
"N|.	c #8A7442",
"O|.	c #ACAE6F",
"P|.	c #6E5F52",
"Q|.	c #55373C",
"R|.	c #694843",
"S|.	c #7A8391",
"T|.	c #C2D8D9",
"U|.	c #D6E5E1",
"V|.	c #B8C9C4",
"W|.	c #728889",
"X|.	c #53322D",
"Y|.	c #694535",
"Z|.	c #502F2B",
"`|.	c #3C2523",
" 1.	c #6E4335",
".1.	c #693D33",
"+1.	c #92694E",
"@1.	c #B9885E",
"#1.	c #B28158",
"$1.	c #9E7152",
"%1.	c #7C5341",
"&1.	c #875A44",
"*1.	c #966244",
"=1.	c #794C3B",
"-1.	c #96664A",
";1.	c #1E0D16",
">1.	c #6D5D57",
",1.	c #715C57",
"'1.	c #7B513F",
")1.	c #B48D64",
"!1.	c #976E4D",
"~1.	c #8F6648",
"{1.	c #935C3F",
"]1.	c #90613B",
"^1.	c #8E5639",
"/1.	c #854633",
"(1.	c #905237",
"_1.	c #A06541",
":1.	c #814B33",
"<1.	c #9F6B46",
"[1.	c #D09659",
"}1.	c #B67444",
"|1.	c #B37243",
"11.	c #AE7040",
"21.	c #916349",
"31.	c #8C543C",
"41.	c #93583D",
"51.	c #A9693E",
"61.	c #9C6040",
"71.	c #8F5638",
"81.	c #A46E49",
"91.	c #945E3E",
"01.	c #835138",
"a1.	c #774837",
"b1.	c #996849",
"c1.	c #9A6B48",
"d1.	c #9A6D4C",
"e1.	c #6A4336",
"f1.	c #A77C5A",
"g1.	c #875E48",
"h1.	c #976F50",
"i1.	c #7D4F3B",
"j1.	c #946346",
"k1.	c #B37C54",
"l1.	c #B47A52",
"m1.	c #8E5A3D",
"n1.	c #946344",
"o1.	c #B38052",
"p1.	c #844D39",
"q1.	c #B97D51",
"r1.	c #B7784C",
"s1.	c #B6784C",
"t1.	c #B67A4E",
"u1.	c #C5915C",
"v1.	c #C18F5E",
"w1.	c #A06C47",
"x1.	c #B3845E",
"y1.	c #4F2927",
"z1.	c #73625C",
"A1.	c #B8A690",
"B1.	c #AF9A7E",
"C1.	c #653C30",
"D1.	c #9A7960",
"E1.	c #D0AD80",
"F1.	c #B58E69",
"G1.	c #80442F",
"H1.	c #6D5F5C",
"I1.	c #A69B8C",
"J1.	c #A99F8C",
"K1.	c #9A8D79",
"L1.	c #84725E",
"M1.	c #7A6756",
"N1.	c #7A6153",
"O1.	c #A28871",
"P1.	c #876757",
"Q1.	c #7E5C4D",
"R1.	c #4C3130",
"S1.	c #5A522F",
"T1.	c #302522",
"U1.	c #959B91",
"V1.	c #96917F",
"W1.	c #805F45",
"X1.	c #452526",
"Y1.	c #6C5E56",
"Z1.	c #7E6A5F",
"`1.	c #7B6258",
" 2.	c #585761",
".2.	c #828A91",
"+2.	c #899396",
"@2.	c #6E7679",
"#2.	c #3A3F47",
"$2.	c #210C18",
"%2.	c #51362D",
"&2.	c #6A4738",
"*2.	c #663F30",
"=2.	c #492326",
"-2.	c #4D2D2C",
";2.	c #7F5338",
">2.	c #805438",
",2.	c #694134",
"'2.	c #90654A",
")2.	c #7D5440",
"!2.	c #A37148",
"~2.	c #7E4D3B",
"{2.	c #996C58",
"]2.	c #432829",
"^2.	c #422128",
"/2.	c #AC7C4E",
"(2.	c #87593D",
"_2.	c #8D6042",
":2.	c #906849",
"<2.	c #805941",
"[2.	c #9E5E3A",
"}2.	c #8B4F37",
"|2.	c #905838",
"12.	c #955E3B",
"22.	c #945A39",
"32.	c #985D3F",
"42.	c #A36A45",
"52.	c #925A40",
"62.	c #784738",
"72.	c #7A4336",
"82.	c #92593E",
"92.	c #AC6B3F",
"02.	c #B27045",
"a2.	c #B57147",
"b2.	c #B36F46",
"c2.	c #B07349",
"d2.	c #C59767",
"e2.	c #8D523B",
"f2.	c #9A5E41",
"g2.	c #A36C47",
"h2.	c #A16C48",
"i2.	c #955D3C",
"j2.	c #A7724A",
"k2.	c #975F41",
"l2.	c #885439",
"m2.	c #905C42",
"n2.	c #915C41",
"o2.	c #915C40",
"p2.	c #85543A",
"q2.	c #8A5B3F",
"r2.	c #A16E4C",
"s2.	c #83573E",
"t2.	c #A67E5B",
"u2.	c #D0A976",
"v2.	c #7A4835",
"w2.	c #B07F5D",
"x2.	c #AC7C5A",
"y2.	c #714130",
"z2.	c #A8714A",
"A2.	c #8D583D",
"B2.	c #B3764B",
"C2.	c #B6784D",
"D2.	c #B5794D",
"E2.	c #966442",
"F2.	c #C08855",
"G2.	c #C69263",
"H2.	c #B7855E",
"I2.	c #5F3632",
"J2.	c #563332",
"K2.	c #503335",
"L2.	c #6D4B42",
"M2.	c #4F2825",
"N2.	c #452021",
"O2.	c #4D2423",
"P2.	c #895336",
"Q2.	c #A3683E",
"R2.	c #9F643D",
"S2.	c #724A39",
"T2.	c #635553",
"U2.	c #8E7F75",
"V2.	c #957D6A",
"W2.	c #8E755F",
"X2.	c #816955",
"Y2.	c #705446",
"Z2.	c #7D6254",
"`2.	c #A28872",
" 3.	c #866657",
".3.	c #7A5849",
"+3.	c #4A2F2E",
"@3.	c #260515",
"#3.	c #514A3B",
"$3.	c #B8C6B1",
"%3.	c #A1A693",
"&3.	c #4D292E",
"*3.	c #3B1E25",
"=3.	c #6C5C57",
"-3.	c #76635B",
";3.	c #6F554C",
">3.	c #433842",
",3.	c #4B414F",
"'3.	c #453F50",
")3.	c #36303F",
"!3.	c #2F2E36",
"~3.	c #959C9E",
"{3.	c #969693",
"]3.	c #8F8174",
"^3.	c #897A6D",
"/3.	c #4C2A28",
"(3.	c #85593A",
"_3.	c #734732",
":3.	c #794D36",
"<3.	c #966D52",
"[3.	c #967057",
"}3.	c #8A5F40",
"|3.	c #A16B45",
"13.	c #8E5E3F",
"23.	c #BA9069",
"33.	c #9D7858",
"43.	c #85654C",
"53.	c #A25F3E",
"63.	c #965D3E",
"73.	c #9F653F",
"83.	c #9A613C",
"93.	c #A06741",
"03.	c #A87A59",
"a3.	c #845843",
"b3.	c #9A6343",
"c3.	c #A76842",
"d3.	c #AD6A42",
"e3.	c #B16D46",
"f3.	c #B16E45",
"g3.	c #AF6C44",
"h3.	c #A46544",
"i3.	c #B27E56",
"j3.	c #8A4E39",
"k3.	c #965B3D",
"l3.	c #86503C",
"m3.	c #A06C4A",
"n3.	c #9D6843",
"o3.	c #975F3C",
"p3.	c #99613D",
"q3.	c #945D3C",
"r3.	c #6D382A",
"s3.	c #945F41",
"t3.	c #A36B47",
"u3.	c #905B43",
"v3.	c #965F44",
"w3.	c #9D6543",
"x3.	c #8B563C",
"y3.	c #905C40",
"z3.	c #865540",
"A3.	c #AA7752",
"B3.	c #9A694C",
"C3.	c #68382C",
"D3.	c #925F40",
"E3.	c #976341",
"F3.	c #A36E46",
"G3.	c #C4945F",
"H3.	c #B07448",
"I3.	c #B5794E",
"J3.	c #854F35",
"K3.	c #663933",
"L3.	c #693D32",
"M3.	c #673F34",
"N3.	c #8B6141",
"O3.	c #7B4F37",
"P3.	c #5D2B2A",
"Q3.	c #935639",
"R3.	c #AC6F41",
"S3.	c #B0764C",
"T3.	c #7A5444",
"U3.	c #4A2D36",
"V3.	c #5A3D3A",
"W3.	c #826553",
"X3.	c #826451",
"Y3.	c #7B5F4E",
"Z3.	c #77594C",
"`3.	c #8A7261",
" 4.	c #A28A75",
".4.	c #7E5E50",
"+4.	c #735041",
"@4.	c #462626",
"#4.	c #2D0818",
"$4.	c #686047",
"%4.	c #818D61",
"&4.	c #727157",
"*4.	c #502B2C",
"=4.	c #3C1E29",
"-4.	c #594240",
";4.	c #6C5148",
">4.	c #35182B",
",4.	c #200D1D",
"'4.	c #210F1F",
")4.	c #3D353B",
"!4.	c #707073",
"~4.	c #BFCFCE",
"{4.	c #ADBCB7",
"]4.	c #88807D",
"^4.	c #877F79",
"/4.	c #625456",
"(4.	c #4B2A29",
"_4.	c #704330",
":4.	c #9C7150",
"<4.	c #B28D67",
"[4.	c #B48E6B",
"}4.	c #8B5C3D",
"|4.	c #744830",
"14.	c #81513E",
"24.	c #A97550",
"34.	c #A57750",
"44.	c #906C53",
"54.	c #7A5D4B",
"64.	c #8B543A",
"74.	c #AB6741",
"84.	c #9D623F",
"94.	c #8F5439",
"04.	c #8D5035",
"a4.	c #9E633D",
"b4.	c #AD8058",
"c4.	c #BC7C4C",
"d4.	c #BB784A",
"e4.	c #B47145",
"f4.	c #AB6B45",
"g4.	c #A46542",
"h4.	c #92523E",
"i4.	c #955644",
"j4.	c #874D3B",
"k4.	c #6C3729",
"l4.	c #AA724E",
"m4.	c #9B6540",
"n4.	c #97603B",
"o4.	c #97603C",
"p4.	c #9B633D",
"q4.	c #966044",
"r4.	c #935B3E",
"s4.	c #986145",
"t4.	c #A56B47",
"u4.	c #A16643",
"v4.	c #925C3D",
"w4.	c #87523A",
"x4.	c #86503B",
"y4.	c #894F3B",
"z4.	c #A6704E",
"A4.	c #89563A",
"B4.	c #AB774E",
"C4.	c #AB774A",
"D4.	c #A6724C",
"E4.	c #8D593A",
"F4.	c #AD7147",
"G4.	c #A46C48",
"H4.	c #A56943",
"I4.	c #9D643F",
"J4.	c #A2714F",
"K4.	c #6C3C37",
"L4.	c #81493E",
"M4.	c #A0623E",
"N4.	c #A3643C",
"O4.	c #AD6E3E",
"P4.	c #825138",
"Q4.	c #46262C",
"R4.	c #3E212A",
"S4.	c #5F403C",
"T4.	c #6A4C42",
"U4.	c #6C4C42",
"V4.	c #927964",
"W4.	c #A69076",
"X4.	c #A7947D",
"Y4.	c #7C645A",
"Z4.	c #78544A",
"`4.	c #754E3F",
" 5.	c #4A2927",
".5.	c #2A0717",
"+5.	c #453A31",
"@5.	c #504A3A",
"#5.	c #483632",
"$5.	c #4B242D",
"%5.	c #401E24",
"&5.	c #827065",
"*5.	c #67554E",
"=5.	c #493336",
"-5.	c #411B31",
";5.	c #1F0416",
">5.	c #1E0217",
",5.	c #473F44",
"'5.	c #87878A",
")5.	c #BBCAC9",
"!5.	c #A1ADAA",
"~5.	c #675B60",
"{5.	c #615559",
"]5.	c #4E3F46",
"^5.	c #7E4931",
"/5.	c #9C704B",
"(5.	c #885E45",
"_5.	c #9E6A44",
":5.	c #8B5E3D",
"<5.	c #744934",
"[5.	c #724133",
"}5.	c #9D6446",
"|5.	c #B3815B",
"15.	c #B07F5A",
"25.	c #966846",
"35.	c #7D5441",
"45.	c #683F38",
"55.	c #AC6B46",
"65.	c #9D6345",
"75.	c #985E41",
"85.	c #8E543A",
"95.	c #864A32",
"05.	c #A36841",
"a5.	c #C18B5F",
"b5.	c #916343",
"c5.	c #7E4E3A",
"d5.	c #8C583E",
"e5.	c #BF7C47",
"f5.	c #BE7A49",
"g5.	c #7B4832",
"h5.	c #744435",
"i5.	c #8F5941",
"j5.	c #854D3B",
"k5.	c #794333",
"l5.	c #6F3B2C",
"m5.	c #9D6441",
"n5.	c #965B39",
"o5.	c #9A603B",
"p5.	c #995F3C",
"q5.	c #9D643E",
"r5.	c #936046",
"s5.	c #885A43",
"t5.	c #C59568",
"u5.	c #B27B51",
"v5.	c #976343",
"w5.	c #BB885B",
"x5.	c #A9764B",
"y5.	c #B17C53",
"z5.	c #A76D45",
"A5.	c #8B5538",
"B5.	c #A4663B",
"C5.	c #B27749",
"D5.	c #BA8050",
"E5.	c #683C38",
"F5.	c #7B463D",
"G5.	c #B07F54",
"H5.	c #B07443",
"I5.	c #B37544",
"J5.	c #B87B49",
"K5.	c #4F2C30",
"L5.	c #5C3A39",
"M5.	c #5A3B37",
"N5.	c #5D4139",
"O5.	c #472C28",
"P5.	c #856F5D",
"Q5.	c #A18C72",
"R5.	c #A08D78",
"S5.	c #5E423E",
"T5.	c #765044",
"U5.	c #55332E",
"V5.	c #300C1D",
"W5.	c #1D0413",
"X5.	c #443030",
"Y5.	c #4B3437",
"Z5.	c #421D30",
"`5.	c #250615",
" 6.	c #988978",
".6.	c #8F7E6F",
"+6.	c #695856",
"@6.	c #4C1B23",
"#6.	c #532025",
"$6.	c #270419",
"%6.	c #331E2A",
"&6.	c #5D4E55",
"*6.	c #51494F",
"=6.	c #50464C",
"-6.	c #54484C",
";6.	c #584A4D",
">6.	c #2E121D",
",6.	c #52342B",
"'6.	c #9B643F",
")6.	c #9E6F4D",
"!6.	c #996C4D",
"~6.	c #8A5F46",
"{6.	c #724838",
"]6.	c #895E3F",
"^6.	c #795139",
"/6.	c #704D39",
"(6.	c #6D4637",
"_6.	c #744737",
":6.	c #8C5F48",
"<6.	c #835543",
"[6.	c #9A6A47",
"}6.	c #A7744C",
"|6.	c #7F543F",
"16.	c #794F3F",
"26.	c #804E39",
"36.	c #986141",
"46.	c #CC9A69",
"56.	c #C89565",
"66.	c #C79364",
"76.	c #A46B40",
"86.	c #9C603B",
"96.	c #945636",
"06.	c #925C3C",
"a6.	c #A27650",
"b6.	c #8B6046",
"c6.	c #623A31",
"d6.	c #5A342D",
"e6.	c #764C38",
"f6.	c #824F36",
"g6.	c #89533D",
"h6.	c #88523B",
"i6.	c #8B543B",
"j6.	c #865237",
"k6.	c #9B603A",
"l6.	c #9F633B",
"m6.	c #A56B42",
"n6.	c #945B39",
"o6.	c #7C4931",
"p6.	c #CF9B65",
"q6.	c #C68E5A",
"r6.	c #7C4D3B",
"s6.	c #966448",
"t6.	c #AF7C59",
"u6.	c #CA9F7C",
"v6.	c #5F322A",
"w6.	c #B37D57",
"x6.	c #B57D53",
"y6.	c #7B4B38",
"z6.	c #8D5D41",
"A6.	c #865842",
"B6.	c #A97B53",
"C6.	c #BF8B58",
"D6.	c #965E3B",
"E6.	c #995D3C",
"F6.	c #A16D46",
"G6.	c #AE7A4E",
"H6.	c #77442F",
"I6.	c #734231",
"J6.	c #8C5A39",
"K6.	c #9C643C",
"L6.	c #6B4736",
"M6.	c #51312E",
"N6.	c #533235",
"O6.	c #6D4D45",
"P6.	c #866D5B",
"Q6.	c #7F6754",
"R6.	c #5D453B",
"S6.	c #5C4239",
"T6.	c #5F423C",
"U6.	c #5B3B36",
"V6.	c #53332D",
"W6.	c #472326",
"X6.	c #3E1322",
"Y6.	c #5D3A30",
"Z6.	c #968973",
"`6.	c #8F8779",
" 7.	c #655B60",
".7.	c #230818",
"+7.	c #240A17",
"@7.	c #584847",
"#7.	c #705E5B",
"$7.	c #4A1C23",
"%7.	c #62312B",
"&7.	c #512E2B",
"*7.	c #452527",
"=7.	c #443139",
"-7.	c #3B2D35",
";7.	c #3D2F36",
">7.	c #413337",
",7.	c #523F41",
"'7.	c #3F2728",
")7.	c #583A2C",
"!7.	c #98623D",
"~7.	c #845A40",
"{7.	c #805740",
"]7.	c #734B3A",
"^7.	c #603C2F",
"/7.	c #694332",
"(7.	c #6F4634",
"_7.	c #6E4236",
":7.	c #6E4135",
"<7.	c #7C533D",
"[7.	c #714A3C",
"}7.	c #784B38",
"|7.	c #B5835C",
"17.	c #8D553A",
"27.	c #A1683F",
"37.	c #A77448",
"47.	c #6C3B33",
"57.	c #764133",
"67.	c #72402F",
"77.	c #613227",
"87.	c #956144",
"97.	c #9A6041",
"07.	c #8D553C",
"a7.	c #8C5639",
"b7.	c #845036",
"c7.	c #754230",
"d7.	c #814C31",
"e7.	c #834C32",
"f7.	c #9A5E38",
"g7.	c #A76B40",
"h7.	c #A2673F",
"i7.	c #A57350",
"j7.	c #91593B",
"k7.	c #7E5042",
"l7.	c #996A53",
"m7.	c #B08361",
"n7.	c #AA7349",
"o7.	c #905E42",
"p7.	c #84563C",
"q7.	c #754734",
"r7.	c #946846",
"s7.	c #A67449",
"t7.	c #B17F5C",
"u7.	c #B87E4E",
"v7.	c #AF794E",
"w7.	c #76432F",
"x7.	c #7C4737",
"y7.	c #AB804B",
"z7.	c #9C6E3F",
"A7.	c #966744",
"B7.	c #8F6245",
"C7.	c #724F43",
"D7.	c #613F3A",
"E7.	c #60423C",
"F7.	c #47292B",
"G7.	c #7C634E",
"H7.	c #7C634C",
"I7.	c #705647",
"J7.	c #5F443A",
"K7.	c #593C36",
"L7.	c #583935",
"M7.	c #52322F",
"N7.	c #4D2D2B",
"O7.	c #492429",
"P7.	c #917752",
"Q7.	c #958876",
"R7.	c #A4B0A7",
"S7.	c #9FB3AF",
"T7.	c #5A4046",
"U7.	c #2B0F1D",
"V7.	c #34252B",
"W7.	c #46363A",
"X7.	c #4A2227",
"Y7.	c #56302C",
"Z7.	c #502C29",
"`7.	c #1C0414",
" 8.	c #38232A",
".8.	c #402B2E",
"+8.	c #72594E",
"@8.	c #5F4038",
"#8.	c #563327",
"$8.	c #845333",
"%8.	c #784931",
"&8.	c #633C2C",
"*8.	c #7A6762",
"=8.	c #7A6864",
"-8.	c #6F5C57",
";8.	c #6E5B56",
">8.	c #6F5B58",
",8.	c #63443C",
"'8.	c #603E2C",
")8.	c #785033",
"!8.	c #6C4236",
"~8.	c #683F32",
"{8.	c #694034",
"]8.	c #6E4435",
"^8.	c #7A503B",
"/8.	c #734935",
"(8.	c #724935",
"_8.	c #6A4335",
":8.	c #613C33",
"<8.	c #744A36",
"[8.	c #864F38",
"}8.	c #623531",
"|8.	c #9F6F44",
"18.	c #A4744B",
"28.	c #A67651",
"38.	c #835A45",
"48.	c #6B392F",
"58.	c #7F4632",
"68.	c #824831",
"78.	c #78422F",
"88.	c #834E32",
"98.	c #8E5B35",
"08.	c #835032",
"a8.	c #75432C",
"b8.	c #6D392A",
"c8.	c #683729",
"d8.	c #804F35",
"e8.	c #A36B48",
"f8.	c #965A3B",
"g8.	c #9A6242",
"h8.	c #B47E58",
"i8.	c #6E463C",
"j8.	c #996D56",
"k8.	c #9F6740",
"l8.	c #9C683D",
"m8.	c #9A663B",
"n8.	c #9D693D",
"o8.	c #A37043",
"p8.	c #9B663E",
"q8.	c #98613A",
"r8.	c #A77041",
"s8.	c #7E5039",
"t8.	c #875C40",
"u8.	c #865B41",
"v8.	c #7E4F37",
"w8.	c #7B4934",
"x8.	c #B48358",
"y8.	c #B87F55",
"z8.	c #935B3C",
"A8.	c #A8714C",
"B8.	c #955B3C",
"C8.	c #8B5336",
"D8.	c #C18B58",
"E8.	c #BE8853",
"F8.	c #B07C56",
"G8.	c #582D2C",
"H8.	c #91593E",
"I8.	c #945D43",
"J8.	c #C49C5E",
"K8.	c #A37545",
"L8.	c #683D32",
"M8.	c #552629",
"N8.	c #5D3230",
"O8.	c #855E4C",
"P8.	c #462729",
"Q8.	c #56352F",
"R8.	c #5B382C",
"S8.	c #60392E",
"T8.	c #624034",
"U8.	c #5C4033",
"V8.	c #52332D",
"W8.	c #492C2B",
"X8.	c #3E2026",
"Y8.	c #3F2028",
"Z8.	c #53312D",
"`8.	c #8A764C",
" 9.	c #7F6F60",
".9.	c #929390",
"+9.	c #909C9A",
"@9.	c #5D4046",
"#9.	c #2E1321",
"$9.	c #21091A",
"%9.	c #1C0315",
"&9.	c #2E081D",
"*9.	c #3F1320",
"=9.	c #431C24",
"-9.	c #3F1D21",
";9.	c #32121A",
">9.	c #280818",
",9.	c #270617",
"'9.	c #442C2F",
")9.	c #61403A",
"!9.	c #402024",
"~9.	c #533027",
"{9.	c #532F26",
"]9.	c #351F1E",
"^9.	c #CCD6CF",
"/9.	c #D1DECF",
"(9.	c #D3DDD0",
"_9.	c #D5E0D2",
":9.	c #D9E8DB",
"<9.	c #59595A",
"[9.	c #1E071A",
"}9.	c #55292C",
"|9.	c #5A2D2F",
"19.	c #562D2B",
"29.	c #542B29",
"39.	c #4F282A",
"49.	c #593028",
"59.	c #552B29",
"69.	c #4D2327",
"79.	c #481E26",
"89.	c #64362E",
"99.	c #7B4531",
"09.	c #521D21",
"a9.	c #50191E",
"b9.	c #7D4B3A",
"c9.	c #83523F",
"d9.	c #714036",
"e9.	c #63342E",
"f9.	c #441E23",
"g9.	c #31141C",
"h9.	c #62292C",
"i9.	c #8F5137",
"j9.	c #9F5A36",
"k9.	c #814431",
"l9.	c #6B352C",
"m9.	c #72392F",
"n9.	c #69342B",
"o9.	c #4D2427",
"p9.	c #532421",
"q9.	c #683629",
"r9.	c #814B2F",
"s9.	c #8C5637",
"t9.	c #634038",
"u9.	c #8C553D",
"v9.	c #884E34",
"w9.	c #8F553A",
"x9.	c #A56840",
"y9.	c #A96A3F",
"z9.	c #865137",
"A9.	c #55363B",
"B9.	c #6B4F4F",
"C9.	c #5E3A3A",
"D9.	c #6A4233",
"E9.	c #754B39",
"F9.	c #774D40",
"G9.	c #724841",
"H9.	c #61382E",
"I9.	c #613931",
"J9.	c #5F3830",
"K9.	c #56312C",
"L9.	c #4A2829",
"M9.	c #502D2E",
"N9.	c #533130",
"O9.	c #522E2B",
"P9.	c #461F25",
"Q9.	c #4C2129",
"R9.	c #441C27",
"S9.	c #6B3931",
"T9.	c #9A5C3A",
"U9.	c #A3643D",
"V9.	c #A46642",
"W9.	c #773E32",
"X9.	c #7D4537",
"Y9.	c #87513F",
"Z9.	c #461F27",
"`9.	c #905542",
" 0.	c #D39261",
".0.	c #D19363",
"+0.	c #4F201E",
"@0.	c #854D39",
"#0.	c #7C4236",
"$0.	c #7D4337",
"%0.	c #210514",
"&0.	c #1D0418",
"*0.	c #714D39",
"=0.	c #DBA56D",
"-0.	c #C08556",
";0.	c #8F6044",
">0.	c #3C1920",
",0.	c #3F1D23",
"'0.	c #300F1C",
")0.	c #331220",
"!0.	c #2B0D1C",
"~0.	c #381924",
"{0.	c #502B2D",
"]0.	c #4F2E2D",
"^0.	c #645456",
"/0.	c #6E616A",
"(0.	c #695C65",
"_0.	c #4C323B",
":0.	c #290E1C",
"<0.	c #1F0315",
"[0.	c #1C0214",
"}0.	c #371620",
"|0.	c #612F2E",
"10.	c #4B2229",
"20.	c #868482",
"30.	c #BBBCB3",
"40.	c #B7B7AD",
"50.	c #B8BAAF",
"60.	c #A9A8A1",
"70.	c #170418",
"80.	c #1B041B",
"90.	c #25061E",
"00.	c #300A1F",
"a0.	c #928E89",
"b0.	c #BDC2B4",
"c0.	c #CFD6CA",
"d0.	c #CED6C8",
"e0.	c #CDD6C9",
"f0.	c #C9D9CC",
"g0.	c #CAE5DD",
"h0.	c #787C80",
"i0.	c #433E4A",
"j0.	c #49252A",
"k0.	c #7F513F",
"l0.	c #A3754E",
"m0.	c #62302F",
"n0.	c #622E2C",
"o0.	c #8D664C",
"p0.	c #CCA977",
"q0.	c #895A45",
"r0.	c #8C573E",
"s0.	c #84503B",
"t0.	c #63312A",
"u0.	c #6C342B",
"v0.	c #84503C",
"w0.	c #844F37",
"x0.	c #854C36",
"y0.	c #8D523C",
"z0.	c #8C4E3B",
"A0.	c #8A4637",
"B0.	c #7B4034",
"C0.	c #492323",
"D0.	c #946448",
"E0.	c #A06647",
"F0.	c #8A4B36",
"G0.	c #7B4133",
"H0.	c #69322B",
"I0.	c #69312A",
"J0.	c #70352D",
"K0.	c #8C523C",
"L0.	c #A96744",
"M0.	c #B4734E",
"N0.	c #8C4B32",
"O0.	c #9B5C34",
"P0.	c #CE8E5B",
"Q0.	c #CC8D59",
"R0.	c #8C4F36",
"S0.	c #713829",
"T0.	c #90543C",
"U0.	c #BC7A48",
"V0.	c #CC874A",
"W0.	c #624A4A",
"X0.	c #82716A",
"Y0.	c #574041",
"Z0.	c #623A36",
"`0.	c #613F3D",
" a.	c #49282D",
".a.	c #775045",
"+a.	c #765142",
"@a.	c #694539",
"#a.	c #6E4A3E",
"$a.	c #6C473A",
"%a.	c #623C33",
"&a.	c #714C43",
"*a.	c #91705A",
"=a.	c #A6886F",
"-a.	c #634541",
";a.	c #7B654F",
">a.	c #8B7759",
",a.	c #A26446",
"'a.	c #8B4A35",
")a.	c #C2895C",
"!a.	c #C98B58",
"~a.	c #AD6C42",
"{a.	c #7F4531",
"]a.	c #71382F",
"^a.	c #7A3E33",
"/a.	c #8F503B",
"(a.	c #40131F",
"_a.	c #96583E",
":a.	c #B57A52",
"<a.	c #D8A46D",
"[a.	c #C39161",
"}a.	c #884A34",
"|a.	c #7B3D35",
"1a.	c #461922",
"2a.	c #5A332F",
"3a.	c #A7704F",
"4a.	c #D08E5B",
"5a.	c #DA9A65",
"6a.	c #B7764C",
"7a.	c #B47B52",
"8a.	c #C49665",
"9a.	c #C99C6A",
"0a.	c #6A3630",
"aa.	c #6D3335",
"ba.	c #4B232B",
"ca.	c #43262C",
"da.	c #6C4644",
"ea.	c #724C4B",
"fa.	c #301320",
"ga.	c #26061A",
"ha.	c #190410",
"ia.	c #614043",
"ja.	c #5A3B3B",
"ka.	c #1E0414",
"la.	c #2A0F1C",
"ma.	c #462122",
"na.	c #848682",
"oa.	c #9C9E9A",
"pa.	c #BCC0B2",
"qa.	c #C8C5B9",
"ra.	c #C5C3B5",
"sa.	c #BEC2B4",
"ta.	c #8A9DA0",
"ua.	c #3E3A43",
"va.	c #21051C",
"wa.	c #412D39",
"xa.	c #93918C",
"ya.	c #C6CBB9",
"za.	c #C3C9B9",
"Aa.	c #C3CABA",
"Ba.	c #C6CFC2",
"Ca.	c #CEDFD7",
"Da.	c #ACB9BA",
"Ea.	c #63646A",
"Fa.	c #342B3A",
"Ga.	c #643B2F",
"Ha.	c #945A3C",
"Ia.	c #854F3A",
"Ja.	c #824933",
"Ka.	c #8F5B40",
"La.	c #B18159",
"Ma.	c #8B523E",
"Na.	c #713C32",
"Oa.	c #6B362B",
"Pa.	c #79412F",
"Qa.	c #7D4630",
"Ra.	c #885036",
"Sa.	c #8C5034",
"Ta.	c #94583C",
"Ua.	c #95563D",
"Va.	c #98523C",
"Wa.	c #773631",
"Xa.	c #481F24",
"Ya.	c #815741",
"Za.	c #854636",
"`a.	c #965D3D",
" b.	c #874C34",
".b.	c #AE6F4C",
"+b.	c #AD6742",
"@b.	c #C17B4E",
"#b.	c #9F5D36",
"$b.	c #975631",
"%b.	c #B97747",
"&b.	c #C5814C",
"*b.	c #C3814A",
"=b.	c #B67143",
"-b.	c #B87B4E",
";b.	c #AE6E45",
">b.	c #9F643C",
",b.	c #8C5D44",
"'b.	c #816359",
")b.	c #503332",
"!b.	c #583839",
"~b.	c #8B6650",
"{b.	c #7E5C49",
"]b.	c #4A2B2D",
"^b.	c #5F453E",
"/b.	c #775346",
"(b.	c #82604E",
"_b.	c #6E4D3D",
":b.	c #4E2B2B",
"<b.	c #5D3A33",
"[b.	c #6D4B43",
"}b.	c #785950",
"|b.	c #755147",
"1b.	c #836351",
"2b.	c #9E8168",
"3b.	c #7D6154",
"4b.	c #7E674F",
"5b.	c #3F1723",
"6b.	c #8E5339",
"7b.	c #B7754A",
"8b.	c #BE7C4C",
"9b.	c #9D5D39",
"0b.	c #9F6242",
"ab.	c #9F6240",
"bb.	c #8E523C",
"cb.	c #834438",
"db.	c #562425",
"eb.	c #7D3D2D",
"fb.	c #A77659",
"gb.	c #B98761",
"hb.	c #CD925F",
"ib.	c #D59E67",
"jb.	c #CE9661",
"kb.	c #9A5B40",
"lb.	c #9E674A",
"mb.	c #955E40",
"nb.	c #804A3A",
"ob.	c #BB7650",
"pb.	c #D28D58",
"qb.	c #D18C58",
"rb.	c #C5844E",
"sb.	c #CA9055",
"tb.	c #D4A064",
"ub.	c #D6A268",
"vb.	c #91563F",
"wb.	c #633534",
"xb.	c #42222C",
"yb.	c #3F2229",
"zb.	c #5A3337",
"Ab.	c #4F2C2F",
"Bb.	c #8E8373",
"Cb.	c #72665B",
"Db.	c #2C0719",
"Eb.	c #2E081A",
"Fb.	c #4C2C32",
"Gb.	c #4D2D32",
"Hb.	c #3F2127",
"Ib.	c #281D25",
"Jb.	c #241C24",
"Kb.	c #B2B9B3",
"Lb.	c #ADB5A8",
"Mb.	c #BFC3B3",
"Nb.	c #C4C3B2",
"Ob.	c #C8C8B5",
"Pb.	c #C7CABB",
"Qb.	c #ADC6C7",
"Rb.	c #4A464D",
"Sb.	c #1E081A",
"Tb.	c #584C57",
"Ub.	c #918E89",
"Vb.	c #C3C8B6",
"Wb.	c #B7BCAC",
"Xb.	c #BAC1B1",
"Yb.	c #C4CDC0",
"Zb.	c #C1CFCB",
"`b.	c #413944",
" c.	c #4A4152",
".c.	c #382D3F",
"+c.	c #6B4131",
"@c.	c #9B5A3A",
"#c.	c #824934",
"$c.	c #935836",
"%c.	c #925837",
"&c.	c #9A603D",
"*c.	c #975E3F",
"=c.	c #87513D",
"-c.	c #784232",
";c.	c #794332",
">c.	c #7B4632",
",c.	c #905635",
"'c.	c #8E5432",
")c.	c #8D5332",
"!c.	c #8A5231",
"~c.	c #834C33",
"{c.	c #6D382D",
"]c.	c #4D2225",
"^c.	c #552023",
"/c.	c #6B312A",
"(c.	c #894A33",
"_c.	c #AB6F42",
":c.	c #BB7D50",
"<c.	c #CF9057",
"[c.	c #C68452",
"}c.	c #A66141",
"|c.	c #B37248",
"1c.	c #975634",
"2c.	c #934F2F",
"3c.	c #B36E40",
"4c.	c #BB7544",
"5c.	c #B97342",
"6c.	c #AB643A",
"7c.	c #C17E4C",
"8c.	c #C68552",
"9c.	c #C3824E",
"0c.	c #B06E44",
"ac.	c #864C34",
"bc.	c #563535",
"cc.	c #6E5551",
"dc.	c #664A44",
"ec.	c #795645",
"fc.	c #6A4A3F",
"gc.	c #4B3130",
"hc.	c #8C7666",
"ic.	c #856E5B",
"jc.	c #836753",
"kc.	c #523530",
"lc.	c #5D433E",
"mc.	c #8C786B",
"nc.	c #AB9C8D",
"oc.	c #7A6963",
"pc.	c #422B2D",
"qc.	c #6E5549",
"rc.	c #8B715E",
"sc.	c #866A59",
"tc.	c #593B39",
"uc.	c #3D1923",
"vc.	c #421E26",
"wc.	c #AB673E",
"xc.	c #AF6D42",
"yc.	c #915032",
"zc.	c #915132",
"Ac.	c #AE7048",
"Bc.	c #B07246",
"Cc.	c #834F3D",
"Dc.	c #572A27",
"Ec.	c #CB966A",
"Fc.	c #DBA56F",
"Gc.	c #D59964",
"Hc.	c #B26E45",
"Ic.	c #A65E3A",
"Jc.	c #B06D46",
"Kc.	c #DA9B62",
"Lc.	c #D59658",
"Mc.	c #9D6749",
"Nc.	c #8E5A44",
"Oc.	c #D49159",
"Pc.	c #D28E54",
"Qc.	c #D19251",
"Rc.	c #CE8F4F",
"Sc.	c #C07A46",
"Tc.	c #BA7145",
"Uc.	c #B57045",
"Vc.	c #663B31",
"Wc.	c #2F1621",
"Xc.	c #361A26",
"Yc.	c #3D1A2A",
"Zc.	c #330E1F",
"`c.	c #8A8176",
" d.	c #71655D",
".d.	c #3B0E22",
"+d.	c #3B1020",
"@d.	c #381323",
"#d.	c #6A5241",
"$d.	c #6C6A6D",
"%d.	c #909295",
"&d.	c #BFC4BC",
"*d.	c #BFC5B6",
"=d.	c #C3C6B6",
"-d.	c #C6C7B7",
";d.	c #CCCDBC",
">d.	c #606E74",
",d.	c #3A2D3A",
"'d.	c #564A55",
")d.	c #6B6466",
"!d.	c #AEAFA5",
"~d.	c #B5B8AB",
"{d.	c #BBC0B3",
"]d.	c #A3A59E",
"^d.	c #4B434D",
"/d.	c #3E3340",
"(d.	c #4F4555",
"_d.	c #372D3F",
":d.	c #63392B",
"<d.	c #904F34",
"[d.	c #8B4E33",
"}d.	c #8D5233",
"|d.	c #975F3B",
"1d.	c #9B6C52",
"2d.	c #99654A",
"3d.	c #925435",
"4d.	c #854B32",
"5d.	c #955B38",
"6d.	c #8F5733",
"7d.	c #8A5431",
"8d.	c #7B472D",
"9d.	c #75432E",
"0d.	c #653429",
"ad.	c #B0714D",
"bd.	c #C68557",
"cd.	c #CB8D61",
"dd.	c #7A3B2C",
"ed.	c #884833",
"fd.	c #C2824F",
"gd.	c #99553B",
"hd.	c #7E4431",
"id.	c #AD6A41",
"jd.	c #B26C3E",
"kd.	c #B77142",
"ld.	c #B77141",
"md.	c #B06A3E",
"nd.	c #AB643B",
"od.	c #A65F39",
"pd.	c #BF7C4A",
"qd.	c #A8673E",
"rd.	c #8F563A",
"sd.	c #4C2627",
"td.	c #372527",
"ud.	c #785745",
"vd.	c #7A5846",
"wd.	c #795947",
"xd.	c #725C4D",
"yd.	c #8D7E68",
"zd.	c #8B7964",
"Ad.	c #634138",
"Bd.	c #66473B",
"Cd.	c #4B2D2A",
"Dd.	c #846E61",
"Ed.	c #766157",
"Fd.	c #6C534E",
"Gd.	c #42252B",
"Hd.	c #3A2128",
"Id.	c #5F4542",
"Jd.	c #5E433E",
"Kd.	c #5E4035",
"Ld.	c #442125",
"Md.	c #AC7251",
"Nd.	c #AE6844",
"Od.	c #A7603D",
"Pd.	c #8A442E",
"Qd.	c #A46844",
"Rd.	c #C68754",
"Sd.	c #B5764A",
"Td.	c #A7774F",
"Ud.	c #4D2827",
"Vd.	c #CF845A",
"Wd.	c #D28957",
"Xd.	c #CA8452",
"Yd.	c #B87445",
"Zd.	c #B67446",
"`d.	c #B16C42",
" e.	c #CB8553",
".e.	c #9E5D3A",
"+e.	c #694036",
"@e.	c #61332D",
"#e.	c #B76B4A",
"$e.	c #BE7447",
"%e.	c #C07845",
"&e.	c #C17945",
"*e.	c #C17A47",
"=e.	c #B96E42",
"-e.	c #D79468",
";e.	c #D3966C",
">e.	c #86614F",
",e.	c #220618",
"'e.	c #1E0616",
")e.	c #2A0A1B",
"!e.	c #391D2F",
"~e.	c #827F7F",
"{e.	c #BFBDA9",
"]e.	c #A1A48F",
"^e.	c #3D2831",
"/e.	c #604944",
"(e.	c #8A7158",
"_e.	c #69656A",
":e.	c #909294",
"<e.	c #C8CDC2",
"[e.	c #C4C8BB",
"}e.	c #C4C8B9",
"|e.	c #C5C9B7",
"1e.	c #A8A89E",
"2e.	c #706B6E",
"3e.	c #5A5259",
"4e.	c #412D3B",
"5e.	c #271129",
"6e.	c #4E424E",
"7e.	c #413344",
"8e.	c #3C2F3F",
"9e.	c #392C38",
"0e.	c #322630",
"ae.	c #4E424C",
"be.	c #483D49",
"ce.	c #463B4A",
"de.	c #3F3141",
"ee.	c #2F2535",
"fe.	c #653D2B",
"ge.	c #995835",
"he.	c #975636",
"ie.	c #905133",
"je.	c #845E4F",
"ke.	c #BBC1BB",
"le.	c #A7A097",
"me.	c #875C4D",
"ne.	c #73392D",
"oe.	c #6A382E",
"pe.	c #8F5335",
"qe.	c #A16840",
"re.	c #9B633A",
"se.	c #8B5232",
"te.	c #8E5B3D",
"ue.	c #4B221F",
"ve.	c #603329",
"we.	c #97664F",
"xe.	c #C18457",
"ye.	c #A56A4A",
"ze.	c #9F6141",
"Ae.	c #B17245",
"Be.	c #9B5F3E",
"Ce.	c #9D5D3C",
"De.	c #A35E39",
"Ee.	c #8E4A34",
"Fe.	c #7C4435",
"Ge.	c #C67E4D",
"He.	c #BC7545",
"Ie.	c #B36D40",
"Je.	c #B67041",
"Ke.	c #B77243",
"Le.	c #B36F40",
"Me.	c #B16E40",
"Ne.	c #AD6C3F",
"Oe.	c #C4854F",
"Pe.	c #763A28",
"Qe.	c #683931",
"Re.	c #4F2E35",
"Se.	c #2B131C",
"Te.	c #69483F",
"Ue.	c #775543",
"Ve.	c #8B7059",
"We.	c #8C7761",
"Xe.	c #85735E",
"Ye.	c #836C56",
"Ze.	c #472325",
"`e.	c #614B47",
" f.	c #6F5750",
".f.	c #5D4140",
"+f.	c #533837",
"@f.	c #755D51",
"#f.	c #725C43",
"$f.	c #694F3A",
"%f.	c #4C2A2C",
"&f.	c #553833",
"*f.	c #492528",
"=f.	c #B27349",
"-f.	c #B97045",
";f.	c #B87146",
">f.	c #A5633D",
",f.	c #7A3C2D",
"'f.	c #68342E",
")f.	c #773B31",
"!f.	c #CF8154",
"~f.	c #D28856",
"{f.	c #CC8654",
"]f.	c #B77347",
"^f.	c #B77545",
"/f.	c #B77445",
"(f.	c #CD884F",
"_f.	c #D59155",
":f.	c #875036",
"<f.	c #542626",
"[f.	c #451822",
"}f.	c #61322F",
"|f.	c #984D3D",
"1f.	c #C17C4D",
"2f.	c #C27B48",
"3f.	c #C27B47",
"4f.	c #B86D42",
"5f.	c #D99B6D",
"6f.	c #C2845B",
"7f.	c #855442",
"8f.	c #340F1C",
"9f.	c #27081A",
"0f.	c #7E7C7C",
"af.	c #B2B5A5",
"bf.	c #929A95",
"cf.	c #3E2D36",
"df.	c #351E29",
"ef.	c #514B55",
"ff.	c #6B6970",
"gf.	c #888988",
"hf.	c #878984",
"if.	c #8B8D86",
"jf.	c #9B998B",
"kf.	c #6C666A",
"lf.	c #615861",
"mf.	c #5D565D",
"nf.	c #483444",
"of.	c #28112A",
"pf.	c #170918",
"qf.	c #2B202B",
"rf.	c #413440",
"sf.	c #3B2E3A",
"tf.	c #372935",
"uf.	c #4A3C49",
"vf.	c #423643",
"wf.	c #483D4A",
"xf.	c #4A3D51",
"yf.	c #352A3D",
"zf.	c #5A3125",
"Af.	c #8C482D",
"Bf.	c #945136",
"Cf.	c #904F32",
"Df.	c #B4724C",
"Ef.	c #BB7B4F",
"Ff.	c #957D71",
"Gf.	c #9FA8A5",
"Hf.	c #9DACAA",
"If.	c #8B9A98",
"Jf.	c #7A7B7C",
"Kf.	c #93543D",
"Lf.	c #C87448",
"Mf.	c #A45A3F",
"Nf.	c #965B3B",
"Of.	c #BB8451",
"Pf.	c #7B4C36",
"Qf.	c #3D191C",
"Rf.	c #C08A65",
"Sf.	c #D29360",
"Tf.	c #B97B53",
"Uf.	c #B7774E",
"Vf.	c #B77748",
"Wf.	c #8C543B",
"Xf.	c #72362A",
"Yf.	c #813E2F",
"Zf.	c #843F32",
"`f.	c #95543A",
" g.	c #B46F47",
".g.	c #BF7B4C",
"+g.	c #A8633B",
"@g.	c #985130",
"#g.	c #AC6940",
"$g.	c #BA7A47",
"%g.	c #B87848",
"&g.	c #B17244",
"*g.	c #85462A",
"=g.	c #793C2A",
"-g.	c #763C2B",
";g.	c #65352C",
">g.	c #4D282A",
",g.	c #6B4A41",
"'g.	c #85654F",
")g.	c #947860",
"!g.	c #7B6352",
"~g.	c #725648",
"{g.	c #795745",
"]g.	c #7E593F",
"^g.	c #754D3A",
"/g.	c #553839",
"(g.	c #796C68",
"_g.	c #675959",
":g.	c #41202A",
"<g.	c #473639",
"[g.	c #A3A095",
"}g.	c #999889",
"|g.	c #74534A",
"1g.	c #49292F",
"2g.	c #41232A",
"3g.	c #482427",
"4g.	c #B16F46",
"5g.	c #A05734",
"6g.	c #B36F44",
"7g.	c #BF7D4D",
"8g.	c #B47649",
"9g.	c #652F25",
"0g.	c #783B2F",
"ag.	c #834C3A",
"bg.	c #8D5941",
"cg.	c #A3563F",
"dg.	c #AC5C3F",
"eg.	c #AE5B3F",
"fg.	c #AC5F40",
"gg.	c #B77346",
"hg.	c #C47F48",
"ig.	c #BB7442",
"jg.	c #B77144",
"kg.	c #481C1A",
"lg.	c #A47753",
"mg.	c #D29867",
"ng.	c #934B36",
"og.	c #B26C47",
"pg.	c #C7824C",
"qg.	c #C6814B",
"rg.	c #C6804C",
"sg.	c #AD633F",
"tg.	c #9E563F",
"ug.	c #75382F",
"vg.	c #662D2D",
"wg.	c #3B1520",
"xg.	c #281923",
"yg.	c #645C59",
"zg.	c #949795",
"Ag.	c #878B8D",
"Bg.	c #36262F",
"Cg.	c #2F1A25",
"Dg.	c #4D474F",
"Eg.	c #686670",
"Fg.	c #686872",
"Gg.	c #626169",
"Hg.	c #626168",
"Ig.	c #5E525B",
"Jg.	c #5E555C",
"Kg.	c #5F575F",
"Lg.	c #493A4A",
"Mg.	c #2B162E",
"Ng.	c #140114",
"Og.	c #1A0D1A",
"Pg.	c #261824",
"Qg.	c #41303E",
"Rg.	c #4B3946",
"Sg.	c #574654",
"Tg.	c #3F3243",
"Ug.	c #3D3142",
"Vg.	c #140819",
"Wg.	c #1A0E1F",
"Xg.	c #6C4130",
"Yg.	c #A15D39",
"Zg.	c #965435",
"`g.	c #935134",
" h.	c #975535",
".h.	c #7E807F",
"+h.	c #A9B5B4",
"@h.	c #99A6A4",
"#h.	c #8A9896",
"$h.	c #737878",
"%h.	c #773E30",
"&h.	c #AE583D",
"*h.	c #AE6E50",
"=h.	c #CF976B",
"-h.	c #7E4434",
";h.	c #662F2B",
">h.	c #501F23",
",h.	c #522526",
"'h.	c #6A3130",
")h.	c #AA6940",
"!h.	c #AD6B45",
"~h.	c #653329",
"{h.	c #552727",
"]h.	c #91553A",
"^h.	c #803D2D",
"/h.	c #803F31",
"(h.	c #72372C",
"_h.	c #502A25",
":h.	c #AE734C",
"<h.	c #B97449",
"[h.	c #C58354",
"}h.	c #C68555",
"|h.	c #965F42",
"1h.	c #774231",
"2h.	c #7B3B2D",
"3h.	c #783929",
"4h.	c #672E27",
"5h.	c #50282D",
"6h.	c #502C2F",
"7h.	c #836254",
"8h.	c #8A6953",
"9h.	c #7D5F50",
"0h.	c #62453F",
"ah.	c #674840",
"bh.	c #724F3F",
"ch.	c #7F5A41",
"dh.	c #77513D",
"eh.	c #6E6260",
"fh.	c #CCD1C0",
"gh.	c #A7A99E",
"hh.	c #351221",
"ih.	c #4D4044",
"jh.	c #A4B0B0",
"kh.	c #95A6A7",
"lh.	c #4C3641",
"mh.	c #3C2224",
"nh.	c #53352E",
"oh.	c #5C342C",
"ph.	c #AD683F",
"qh.	c #BC8963",
"rh.	c #A27353",
"sh.	c #AC693E",
"th.	c #A3623B",
"uh.	c #935336",
"vh.	c #CC995F",
"wh.	c #682F24",
"xh.	c #663029",
"yh.	c #7D3C2F",
"zh.	c #914E36",
"Ah.	c #BE7B49",
"Bh.	c #C28047",
"Ch.	c #501C20",
"Dh.	c #652F29",
"Eh.	c #7F4736",
"Fh.	c #B37C53",
"Gh.	c #D19760",
"Hh.	c #C88C5E",
"Ih.	c #8E573F",
"Jh.	c #88513A",
"Kh.	c #975C40",
"Lh.	c #A96B47",
"Mh.	c #B8754F",
"Nh.	c #6A322C",
"Oh.	c #5B2B2C",
"Ph.	c #441A20",
"Qh.	c #260A19",
"Rh.	c #3E323A",
"Sh.	c #C8C9BA",
"Th.	c #867F76",
"Uh.	c #341726",
"Vh.	c #240918",
"Wh.	c #230917",
"Xh.	c #381C2A",
"Yh.	c #64524A",
"Zh.	c #8D7862",
"`h.	c #362D37",
" i.	c #48414D",
".i.	c #5E5E69",
"+i.	c #595962",
"@i.	c #5B5A62",
"#i.	c #514550",
"$i.	c #4F404F",
"%i.	c #524855",
"&i.	c #382D38",
"*i.	c #241124",
"=i.	c #26091A",
"-i.	c #240815",
";i.	c #1E0817",
">i.	c #9E9FA6",
",i.	c #C1C2B6",
"'i.	c #BEBDAF",
")i.	c #2E2135",
"!i.	c #2A2031",
"~i.	c #5D4D4E",
"{i.	c #5C4A43",
"]i.	c #754838",
"^i.	c #9E5B3A",
"/i.	c #965636",
"(i.	c #975536",
"_i.	c #9F5C39",
":i.	c #965839",
"<i.	c #2E2634",
"[i.	c #484250",
"}i.	c #47424D",
"|i.	c #48444D",
"1i.	c #3C353E",
"2i.	c #793C2F",
"3i.	c #A6533A",
"4i.	c #A66549",
"5i.	c #AD734E",
"6i.	c #6B2C2C",
"7i.	c #5F2327",
"8i.	c #795243",
"9i.	c #B4865D",
"0i.	c #6E3C30",
"ai.	c #7A4631",
"bi.	c #834D36",
"ci.	c #834B34",
"di.	c #804934",
"ei.	c #904F33",
"fi.	c #8B4732",
"gi.	c #995A3B",
"hi.	c #A26544",
"ii.	c #482121",
"ji.	c #AB6541",
"ki.	c #B16C47",
"li.	c #8B5139",
"mi.	c #7E493A",
"ni.	c #A86B41",
"oi.	c #8D5036",
"pi.	c #773E2C",
"qi.	c #6C392B",
"ri.	c #533233",
"si.	c #7A6151",
"ti.	c #896B5A",
"ui.	c #5A423A",
"vi.	c #745A4D",
"wi.	c #5D3F39",
"xi.	c #744F3C",
"yi.	c #513B3C",
"zi.	c #878485",
"Ai.	c #868585",
"Bi.	c #BBBCB8",
"Ci.	c #9EA19C",
"Di.	c #5B5D5F",
"Ei.	c #515357",
"Fi.	c #78665A",
"Gi.	c #9A886E",
"Hi.	c #937F62",
"Ii.	c #4A2824",
"Ji.	c #AA693F",
"Ki.	c #AC734E",
"Li.	c #9A6547",
"Mi.	c #854E35",
"Ni.	c #AC6A3F",
"Oi.	c #A5653D",
"Pi.	c #87553D",
"Qi.	c #734F3D",
"Ri.	c #8D4B37",
"Si.	c #AA6347",
"Ti.	c #A76243",
"Ui.	c #A36641",
"Vi.	c #734336",
"Wi.	c #542327",
"Xi.	c #572126",
"Yi.	c #92553C",
"Zi.	c #BD7E50",
"`i.	c #B37750",
" j.	c #A06A4C",
".j.	c #BF7C52",
"+j.	c #AF764B",
"@j.	c #7B4736",
"#j.	c #6C382F",
"$j.	c #824C3B",
"%j.	c #975A44",
"&j.	c #673230",
"*j.	c #451D24",
"=j.	c #4B2228",
"-j.	c #3B1924",
";j.	c #32242B",
">j.	c #918982",
",j.	c #635352",
"'j.	c #716B67",
")j.	c #827F79",
"!j.	c #2C1220",
"~j.	c #66524C",
"{j.	c #937D67",
"]j.	c #170215",
"^j.	c #170116",
"/j.	c #4B4B55",
"(j.	c #4A4751",
"_j.	c #504C55",
":j.	c #433746",
"<j.	c #3C2C3F",
"[j.	c #3D2C40",
"}j.	c #35283A",
"|j.	c #221221",
"1j.	c #220519",
"2j.	c #512629",
"3j.	c #3F1A1F",
"4j.	c #1E0B16",
"5j.	c #A4A6AE",
"6j.	c #D0D5C6",
"7j.	c #C0C3B5",
"8j.	c #291227",
"9j.	c #21111C",
"0j.	c #6F5A51",
"aj.	c #79604E",
"bj.	c #8B5A42",
"cj.	c #9B583A",
"dj.	c #A6603B",
"ej.	c #673F35",
"fj.	c #2F2534",
"gj.	c #281C2C",
"hj.	c #201425",
"ij.	c #411C26",
"jj.	c #975940",
"kj.	c #6F3F34",
"lj.	c #632B28",
"mj.	c #6A312D",
"nj.	c #6A322E",
"oj.	c #724A40",
"pj.	c #522829",
"qj.	c #63302E",
"rj.	c #6D362E",
"sj.	c #8B4E36",
"tj.	c #85442F",
"uj.	c #904D32",
"vj.	c #994F2E",
"wj.	c #8E5135",
"xj.	c #87523C",
"yj.	c #4B2025",
"zj.	c #5E2627",
"Aj.	c #853E30",
"Bj.	c #873B2F",
"Cj.	c #873B2E",
"Dj.	c #71362A",
"Ej.	c #5B2C2B",
"Fj.	c #A3603D",
"Gj.	c #864E36",
"Hj.	c #733A2B",
"Ij.	c #59413F",
"Jj.	c #BCB299",
"Kj.	c #917F6C",
"Lj.	c #6F5649",
"Mj.	c #675145",
"Nj.	c #71584A",
"Oj.	c #583B3B",
"Pj.	c #8B5E47",
"Qj.	c #774E40",
"Rj.	c #452A2C",
"Sj.	c #636065",
"Tj.	c #979996",
"Uj.	c #B6B8AE",
"Vj.	c #A1A199",
"Wj.	c #2E1C25",
"Xj.	c #290F1E",
"Yj.	c #645140",
"Zj.	c #81694C",
"`j.	c #806C55",
" k.	c #A2603F",
".k.	c #985739",
"+k.	c #9A6042",
"@k.	c #905639",
"#k.	c #AB6A41",
"$k.	c #9F6139",
"%k.	c #9E603D",
"&k.	c #8C543A",
"*k.	c #86583F",
"=k.	c #542328",
"-k.	c #7C4037",
";k.	c #A15B40",
">k.	c #904E3B",
",k.	c #6D3530",
"'k.	c #5C252A",
")k.	c #5D272C",
"!k.	c #4D1822",
"~k.	c #6B3229",
"{k.	c #985537",
"]k.	c #AB6B46",
"^k.	c #87503E",
"/k.	c #582630",
"(k.	c #905239",
"_k.	c #592425",
":k.	c #5E2C28",
"<k.	c #6E3930",
"[k.	c #5C2E2C",
"}k.	c #431D23",
"|k.	c #613233",
"1k.	c #492129",
"2k.	c #2B101E",
"3k.	c #44292C",
"4k.	c #736C69",
"5k.	c #7B7873",
"6k.	c #27071A",
"7k.	c #5A4C48",
"8k.	c #746861",
"9k.	c #8B7B6E",
"0k.	c #300522",
"ak.	c #320523",
"bk.	c #170113",
"ck.	c #230B23",
"dk.	c #321C33",
"ek.	c #362137",
"fk.	c #352337",
"gk.	c #322233",
"hk.	c #0F0010",
"ik.	c #140013",
"jk.	c #250617",
"kk.	c #6F4134",
"lk.	c #6E4D39",
"mk.	c #481D29",
"nk.	c #1F0515",
"ok.	c #372D49",
"pk.	c #3C2D52",
"qk.	c #381E2D",
"rk.	c #5F3B44",
"sk.	c #4F3232",
"tk.	c #603F35",
"uk.	c #9B6C47",
"vk.	c #BE8650",
"wk.	c #6D382B",
"xk.	c #B87349",
"yk.	c #AF693E",
"zk.	c #AC653C",
"Ak.	c #875134",
"Bk.	c #331A1D",
"Ck.	c #442522",
"Dk.	c #3F1F1F",
"Ek.	c #81533D",
"Fk.	c #4F2629",
"Gk.	c #7B4B3C",
"Hk.	c #733D32",
"Ik.	c #774033",
"Jk.	c #723E33",
"Kk.	c #834C3E",
"Lk.	c #9C694C",
"Mk.	c #4F2A32",
"Nk.	c #502026",
"Ok.	c #A45F3D",
"Pk.	c #88432F",
"Qk.	c #722B28",
"Rk.	c #6B2A27",
"Sk.	c #9B5330",
"Tk.	c #592628",
"Uk.	c #5E2929",
"Vk.	c #873A2F",
"Wk.	c #81352E",
"Xk.	c #6E252D",
"Yk.	c #66222B",
"Zk.	c #3A0E20",
"`k.	c #3E1323",
" l.	c #622729",
".l.	c #5E2226",
"+l.	c #4D1824",
"@l.	c #3A1020",
"#l.	c #3C1827",
"$l.	c #553C3E",
"%l.	c #ADA591",
"&l.	c #8A7D71",
"*l.	c #6D594B",
"=l.	c #6C564A",
"-l.	c #654B45",
";l.	c #3A1A2A",
">l.	c #6A433C",
",l.	c #6C433B",
"'l.	c #6A443D",
")l.	c #382226",
"!l.	c #717175",
"~l.	c #BABCB5",
"{l.	c #B7B6AC",
"]l.	c #84827E",
"^l.	c #443B3D",
"/l.	c #2F1520",
"(l.	c #31101E",
"_l.	c #351323",
":l.	c #5D3536",
"<l.	c #873E31",
"[l.	c #8D4336",
"}l.	c #7A4335",
"|l.	c #AE6B42",
"1l.	c #824A34",
"2l.	c #975C3D",
"3l.	c #703131",
"4l.	c #521A28",
"5l.	c #69292A",
"6l.	c #4C1421",
"7l.	c #410F1E",
"8l.	c #4E1B24",
"9l.	c #622E2F",
"0l.	c #6E3430",
"al.	c #934D35",
"bl.	c #86412C",
"cl.	c #6F3223",
"dl.	c #461927",
"el.	c #47162F",
"fl.	c #4A182D",
"gl.	c #6A2433",
"hl.	c #5C2129",
"il.	c #4D1925",
"jl.	c #3E1221",
"kl.	c #340C1C",
"ll.	c #381424",
"ml.	c #83493D",
"nl.	c #64312D",
"ol.	c #350F1F",
"pl.	c #320A1F",
"ql.	c #380D20",
"rl.	c #1E0413",
"sl.	c #54474E",
"tl.	c #574451",
"ul.	c #2C0726",
"vl.	c #867366",
"wl.	c #807667",
"xl.	c #585356",
"yl.	c #29061D",
"zl.	c #2A061D",
"Al.	c #1B0216",
"Bl.	c #1C0218",
"Cl.	c #1C061B",
"Dl.	c #1A071B",
"El.	c #1A091C",
"Fl.	c #1C0B1C",
"Gl.	c #180216",
"Hl.	c #190115",
"Il.	c #C3956C",
"Jl.	c #BC936A",
"Kl.	c #52242C",
"Ll.	c #3E1726",
"Ml.	c #1D0B1B",
"Nl.	c #120113",
"Ol.	c #281020",
"Pl.	c #442338",
"Ql.	c #2C0D25",
"Rl.	c #4A2828",
"Sl.	c #774536",
"Tl.	c #814533",
"Ul.	c #6D3A31",
"Vl.	c #BF794D",
"Wl.	c #BB7246",
"Xl.	c #B26A41",
"Yl.	c #A96241",
"Zl.	c #A35C41",
"`l.	c #A65F42",
" m.	c #944F38",
".m.	c #7C3A2D",
"+m.	c #612A27",
"@m.	c #310E1E",
"#m.	c #8C6248",
"$m.	c #DDAA6E",
"%m.	c #8E5F48",
"&m.	c #844F3C",
"*m.	c #673534",
"=m.	c #3B0324",
"-m.	c #2D051F",
";m.	c #30071F",
">m.	c #451725",
",m.	c #712C2F",
"'m.	c #64212C",
")m.	c #56212B",
"!m.	c #441F2D",
"~m.	c #341826",
"{m.	c #2D0F1E",
"]m.	c #3A1C25",
"^m.	c #9B513F",
"/m.	c #9C4B38",
"(m.	c #9C4432",
"_m.	c #883730",
":m.	c #6B2329",
"<m.	c #5E2028",
"[m.	c #2D091B",
"}m.	c #330C21",
"|m.	c #341E26",
"1m.	c #331420",
"2m.	c #421526",
"3m.	c #340F20",
"4m.	c #2E0F22",
"5m.	c #432331",
"6m.	c #5F4D4F",
"7m.	c #5F4C4B",
"8m.	c #5D4441",
"9m.	c #5E433F",
"0m.	c #482D32",
"am.	c #543234",
"bm.	c #512B33",
"cm.	c #633C3D",
"dm.	c #381F26",
"em.	c #1A0717",
"fm.	c #39273E",
"gm.	c #5C4668",
"hm.	c #35233A",
"im.	c #3F2B33",
"jm.	c #80585A",
"km.	c #755551",
"lm.	c #4D282F",
"mm.	c #51252D",
"nm.	c #5E3636",
"om.	c #391122",
"pm.	c #783B38",
"qm.	c #703839",
"rm.	c #B27148",
"sm.	c #A7663F",
"tm.	c #BA7246",
"um.	c #BB7143",
"vm.	c #875140",
"wm.	c #602139",
"xm.	c #6A2637",
"ym.	c #642334",
"zm.	c #4A1727",
"Am.	c #1A0319",
"Bm.	c #160418",
"Cm.	c #170112",
"Dm.	c #99594D",
"Em.	c #B2604E",
"Fm.	c #B46A53",
"Gm.	c #431826",
"Hm.	c #3B0E24",
"Im.	c #411527",
"Jm.	c #471A2A",
"Km.	c #411928",
"Lm.	c #4D1123",
"Mm.	c #2A0818",
"Nm.	c #160516",
"Om.	c #1E0E1D",
"Pm.	c #62393A",
"Qm.	c #764038",
"Rm.	c #623335",
"Sm.	c #320D1F",
"Tm.	c #330B1E",
"Um.	c #380E1F",
"Vm.	c #291F28",
"Wm.	c #251C24",
"Xm.	c #1E091C",
"Ym.	c #31092F",
"Zm.	c #401D32",
"`m.	c #33142B",
" n.	c #31102B",
".n.	c #1D0617",
"+n.	c #1F0617",
"@n.	c #200517",
"#n.	c #210519",
"$n.	c #240B1F",
"%n.	c #260C20",
"&n.	c #260C21",
"*n.	c #23081D",
"=n.	c #23051B",
"-n.	c #200318",
";n.	c #28131F",
">n.	c #695148",
",n.	c #654E46",
"'n.	c #341D2F",
")n.	c #2C172C",
"!n.	c #251025",
"~n.	c #1F0A1D",
"{n.	c #2B1024",
"]n.	c #270B21",
"^n.	c #240B19",
"/n.	c #371C23",
"(n.	c #593D45",
"_n.	c #7E5B58",
":n.	c #714E50",
"<n.	c #624147",
"[n.	c #58383F",
"}n.	c #4E2D39",
"|n.	c #3F1F2E",
"1n.	c #371624",
"2n.	c #4E3635",
"3n.	c #6E4F49",
"4n.	c #5F3E3F",
"5n.	c #603C3E",
"6n.	c #684641",
"7n.	c #644045",
"8n.	c #5A373C",
"9n.	c #613D39",
"0n.	c #48282F",
"an.	c #26071C",
"bn.	c #20051A",
"cn.	c #25081C",
"dn.	c #2D0C1D",
"en.	c #36111F",
"fn.	c #391421",
"gn.	c #4C3538",
"hn.	c #4E3B3B",
"in.	c #4E383B",
"jn.	c #3F2A2D",
"kn.	c #413035",
"ln.	c #94756A",
"mn.	c #734643",
"nn.	c #4B1F25",
"on.	c #401922",
"pn.	c #34101F",
"qn.	c #2F0E1F",
"rn.	c #23091D",
"sn.	c #2A0E1F",
"tn.	c #625959",
"un.	c #4F393D",
"vn.	c #3E1426",
"wn.	c #2E0D1F",
"xn.	c #1F071B",
"yn.	c #240A1E",
"zn.	c #260F20",
"An.	c #2E1A25",
"Bn.	c #39232E",
"Cn.	c #3F2633",
"Dn.	c #472D37",
"En.	c #61514A",
"Fn.	c #483639",
"Gn.	c #2E1122",
"Hn.	c #321823",
"In.	c #1E0717",
"Jn.	c #190315",
"Kn.	c #21091E",
"Ln.	c #281227",
"Mn.	c #220B20",
"Nn.	c #220C1E",
"On.	c #301A2E",
"Pn.	c #36243D",
"Qn.	c #281226",
"Rn.	c #290E1E",
"Sn.	c #2B121E",
"Tn.	c #21061C",
"Un.	c #452A38",
"Vn.	c #523748",
"Wn.	c #4F3645",
"Xn.	c #4C2F3F",
"Yn.	c #472C3C",
"Zn.	c #472C36",
"`n.	c #4E3039",
" o.	c #3F2637",
".o.	c #2A0B28",
"+o.	c #270A22",
"@o.	c #26091B",
"#o.	c #1F0619",
"$o.	c #565361",
"%o.	c #5C616D",
"&o.	c #5E6773",
"*o.	c #251027",
"=o.	c #2A0F25",
"-o.	c #271022",
";o.	c #1A061C",
">o.	c #170316",
",o.	c #1E051B",
"'o.	c #2E1027",
")o.	c #331528",
"!o.	c #2D1324",
"~o.	c #271126",
"{o.	c #3B303C",
"]o.	c #554E59",
"^o.	c #514452",
"/o.	c #412739",
"(o.	c #25071A",
"_o.	c #200417",
":o.	c #1D0315",
"<o.	c #290C1A",
"[o.	c #575E65",
"}o.	c #545C60",
"|o.	c #44464F",
"1o.	c #23142D",
"2o.	c #201428",
"3o.	c #1C1023",
"4o.	c #170B1F",
"   .  +  @  #  $  %  &  *  =  -  ;  >  ,  '  )  !  ~  {  ]  ^  /  (  _  :  <  [  }  |  1  2  3  4  5  6  7  8  9  0  a  b  c  d  e  f  g  h  i  j  k  l  m  n  o  p  q  r  s  t  u  v  w  x  y  z  A  B  C  D  E  F  G  H  I  J  K  L  M  N  O  P  Q  R  S  T  U  V  W  X  Y  Z  `   . .. +. @. #. $. %. &. *. =. -. ;. >. ,. '. ). !. ~. {. ]. ^. /. (. _. :. <. [. }. |. 1. 2. 3. 4. 5. 6. 7. ",
"8. 9. 0. a. b. c. d. e. f. g. h. i. j. k. l. m. n. o. p. q. r. s. t. u. v. w. x. y. z. A. B. C. D. E. F. G. H. I. J. K. L. M. N. O. P. Q. R. S. T. U. V. W. X. Y. Z. `.  + .+ ++ @+ #+ $+ %+ &+ *+ =+ -+ ;+ >+ ,+ '+ )+ !+ ~+ {+ ]+ ^+ /+ (+ _+ :+ <+ [+ }+ |+ 1+ 2+ 3+ 4+ 5+ 6+ 7+ 8+ 9+ 0+ a+ b+ c+ d+ e+ f+ g+ h+ i+ j+ k+ l+ m+ n+ o+ p+ q+ r+ s+ t+ u+ v+ w+ x+ y+ z+ A+ B+ C+ D+ E+ F+ G+ ",
"H+ I+ J+ K+ L+ M+ N+ O+ P+ Q+ R+ S+ T+ U+ V+ W+ X+ Y+ Z+ `+  @ .@ +@ @@ #@ $@ %@ &@ *@ =@ -@ ;@ >@ ,@ '@ )@ !@ ~@ {@ ]@ ^@ /@ (@ _@ :@ <@ [@ }@ |@ 1@ 2@ 3@ 4@ 5@ 6@ 7@ 8@ 9@ 0@ a@ b@ c@ d@ e@ f@ g@ h@ i@ j@ k@ l@ m@ n@ o@ p@ q@ r@ s@ t@ u@ v@ w@ x@ y@ z@ A@ B@ C@ D@ E@ F@ G@ H@ I@ J@ K@ L@ M@ N@ O@ P@ Q@ R@ S@ T@ U@ V@ W@ X@ Y@ Z@ `@  # .# +# @# ## $# %# &# *# =# -# ;# ># ,# '# )# ",
"!# ~# {# ]# ^# /# (# _# :# <# [# }# |# 1# 2# 3# 4# 5# 6# 7# 8# 9# 0# a# b# c# d# e# f# g# h# i# j# k# l# m# n# o# p# q# r# s# t# u# v# w# x# y# z# A# B# C# D# E# F# G# H# I# J# K# L# M# N# O# P# Q# R# S# T# U# V# W# X# Y# Z# `#  $ .$ +$ @$ #$ $$ %$ &$ *$ =$ -$ ;$ >$ ,$ '$ )$ !$ ~$ {$ ]$ ^$ /$ ($ _$ :$ <$ [$ }$ |$ 1$ 2$ 3$ 4$ 5$ 6$ 7$ 8$ 9$ 0$ a$ b$ c$ d$ e$ f$ g$ h$ i$ j$ k$ l$ m$ ",
"n$ o$ p$ q$ r$ s$ t$ u$ v$ w$ x$ y$ z$ A$ B$ C$ D$ E$ F$ G$ H$ I$ J$ K$ L$ M$ N$ O$ P$ Q$ R$ S$ T$ U$ V$ W$ X$ Y$ Z$ `$  % .% +% @% #% $% %% &% *% =% -% ;% >% ,% '% )% !% ~% {% ]% ^% /% (% _% :% <% [% }% |% 1% 2% 3% 4% 5% 6% 7% 8% 9% 0% a% b% c% d% e% f% g% h% i% j% k% l% m% n% o% p% q% r% s% t% u% v% w% x% y% z% A% B% C% D% E% F% G% H% I% J% K% L% M% N% O% P% Q% R% S% T% U% V% W% ",
"X% Y% Z% `%  & .& +& @& #& $& %& && *& =& -& ;& >& ,& '& )& !& ~& {& ]& ^& /& (& _& :& <& [& }& |& 1& 2& 3& 4& 5& 6& 7& 8& 9& 0& a& b& c& d& e& f& g& h& i& j& k& l& m& n& o& p& q& r& s& t& u& v& w& x& y& z& A& B& C& D& E& F& G& H& I& J& K& L& M& N& O& P& Q& R& S& T& U& V& W& X& Y& Z& `&  * .* +* @* #* $* %* &* ** =* -* ;* >* ,* '* )* !* ~* {* ]* ^* /* (* _* :* <* [* }* |* 1* 2* 3* ",
"4* 5* 6* 7* 8* 8* 9* 0* a* b* c* d* e* f* g* h* i* j* k* l* m* n* o* p* q* r* s* t* u* v* w* x* y* z* A* B* C* D* E* F* G* H* I* J* K* L* M* N* O* P* Q* R* S* T* U* V* W* X* Y* Z* `*  = .= += @= #= $= %= &= *= == -= ;= >= ,= '= )= != ~= {= ]= ^= s& /= (= _= := <= [= }= |= 1= 2= 3= 4= 5= 6= 7= 8= 9= 0= a= b= c= d= e= f= g= h= i= j= k= l= m= n= o= p= q= r= s= t= u= v= w= x= y= 0& z= ",
"A= B= C= D= E= F= G= H= I= J= K= L= M= N= O= P= Q= R= S= T= U= _= V= W= X= Y= Z= `=  - .- +- @- #- $- %- &- *- =- -- ;- >- ,- '- )- !- ~- {- ]- ^- /- (- _- :- <- [- }- |- 1- 2- 3- 4- 5- 6- 7- 8- 9- 0- a- b- c- d- e- f- g- h- i- j- k- l- m- n- o- p- q- r- s- t- u- v- w- x- y- z- A- B- C- D- E- F- G- H- I- J- K- L- M- N- O- P- Q- R- S- T- U- V- W- X- Y- Z- `-  ; .; +; @; #; $; %; &; ",
"*; =; -; ;; >; ,; '; ); !; ~; {; ]; ^; /; (; _; :; <; [; }; |; 1; 2; 3; 4; 5; 6; f% 7; 8; 9; 0; a; b; c; d; e; f; g; h; i; j; k; l; m; n; o; p; q; r; s; t; u; v; w; x; y; z; A; B; C; D; E; F; G; H; I; J; K; L; M; N; O; P; Q; R; S; T; U; V; W; X; Y; Z; `;  > .> +> @> #> $> %> &> *> => -> ;> >> ,> '> )> !> ~> {> ]> ^> /> (> _> :> <> [> }> |> 1> 2> 3> 4> 5> 6> 7> 8> 9> 0> a> b> c> d> ",
"e> f> g> h> i> j> k> l> m> n> o> p> q> r> s> t> u> v> w> x> y> z> A> B> C> D> E> F> G> H> I> J> K> L> M> N> O> P> Q> R> S> T> U> V> W> X> Y> Z> `>  , ., +, @, #, $, %, &, *, =, -, ;, >, ,, ', ), !, ~, {, ], ^, /, (, _, :, <, [, }, |, 1, 2, 3, 4, 5, 6, 7, 8, 9, 0, a, b, c, d, e, f, g, %> h, i, j, k, l, m, n, o, p, q, r, s, t, u, v, w, x, y, z, A, B, C, D, E, F, G, H, I, J, K, L, M, ",
"N, O, P, Q, R, S, T, U, V, W, X, Y, Z, `,  ' .' +' @' #' C# $' %' &' *' =' -' ;' >' ,' '' )' !' ~' {' ]' ^' /' (' _' :' <' [' }' |' 1' 2' 3' 4' 5' 6' 7' 8' 9' 0' a' b' c' d' e' f' g' h' i' j' k' l' m' n' o' p' q' 2= r' s' t' u' v' w' x' y' z' A' B' C' D' E' F' G' H' I' J' K' L' M' N' O' P' Q' R' S' T' U' V' W' X' Y' Z' `'  ) .) +) @) #) $) %) &) *) =) -) ;) >) ,) ') )) !) ~) {) ]) ",
"^) /) () _) :) <) [) }) |) 1) 2) 3) 4) 5) 6) 7) 8) 9) 0) a) b) c) d) e) f) g) h) i) j) k) l) m) n) o) p) q) r) s) t) u) v) w) x) y) z) A) B) C) D) E) F) G) H) I) J) K) L) M) N) O) P) Q) R) S) T) U) V) W) X) Y) Z) `)  ! .! +! @! #! $! %! &! *! =! -! ;! >! ,! '! )! !! ~! {! ]! ^! /! (! _! :! <! [! }! |! 1! 2! 3! }, 4! 5! 6! 7! 8! 9! 0! a! b! c! d! e! f! g! h! i! j! k! l! m! n! o! p! ",
"q! r! s! t! u! v! w! x! y! z! A! B! C! D! E! F! G! H! I! J! K! L! M! N! O! P! Q! R! S! T! U! V! W! X! !- Y! Z! `!  ~ .~ +~ @~ #~ $~ %~ &~ *~ =~ -~ ;~ >~ ,~ '~ )~ !~ ~~ {~ ]~ ^~ /~ (~ _~ :~ <~ [~ }~ |~ 1~ 2~ 3~ 4~ 5~ 6~ 7~ 8~ 9~ 0~ a~ b~ c~ d~ e~ f~ g~ h~ i~ j~ k~ l~ m~ n~ o~ p~ q~ r~ s~ t~ u~ v~ w~ x~ y~ z~ A~ B~ C~ D~ E~ F~ G~ H~ I~ J~ K~ L~ M~ N~ O~ P~ Q~ R~ S~ T~ U~ V~ W~ X~ Y~ ",
"Z~ `~  { .{ +{ @{ #{ ${ %{ &{ *{ ={ -{ ;{ >{ ,{ '{ ){ !{ ~{ {{ ]{ ^{ /{ ({ _{ :{ <{ [{ }{ |{ 1{ 2{ 3{ 4{ 5{ 6{ 7{ 8{ 9{ 0{ a{ b{ c{ d{ e{ f{ g{ h{ i{ j{ k{ l{ m{ n{ o{ p{ q{ r{ s{ t{ u{ v{ w{ S> x{ y{ z{ A{ B{ C{ D{ E{ F{ G{ H{ I{ J{ K{ L{ M{ N{ O{ P{ Q{ R{ S{ .* T{ U{ V{ W{ X{ Y{ Z{ `{  ] .] +] @] #] $] %] &] *] =] -] ;] >] ,] '] )] !] ~] {] ]] ^] /] (] _] :] <] [] }] |] 1] 2] 3] ",
"4] 5] 6] 7] 8] 9] 0] a] b] c] d] e] f] g] h] i] j] k] l] m] n] o] p] q] r] s] t] u] v] w] x] y] z] A] B] C] D] E] F] G] H] I] J] K] L] M] N] O] P] Q] R] S] T] U] V] W] X] Y] Z] `]  ^ .^ +^ @^ #^ $^ %^ &^ *^ =^ -^ ;^ >^ ,^ '^ )^ !^ ~^ {^ ]^ ^^ /^ (^ _^ :^ B@ <^ [^ }^ |^ 1^ 2^ 3^ 4^ 5^ 6^ 7^ 8^ 9^ 0^ a^ b^ c^ d^ e^ f^ g^ h^ i^ j^ k^ l^ m^ n^ o^ p^ q^ r^ s^ t^ u^ v^ w^ x^ y^ z^ A^ B^ ",
"C^ D^ E^ F^ G^ H^ I^ J^ K^ L^ M^ N^ O^ P^ Q^ R^ S^ T^ U^ V^ W^ X^ Y^ Z^ n@ `^  / ./ +/ @/ #/ $/ %/ &/ */ =/ -/ ;/ >/ ,/ '/ )/ !/ ~/ ~/ {/ ]/ ^/ // (/ _/ :/ </ [/ }/ |/ 1/ 2/ 3/ 4/ 5/ 6/ 7/ 8/ 9/ 0/ a/ b/ c/ d/ e/ f/ g/ h/ i/ j/ k/ l/ m/ n/ o/ p/ q/ r/ s/ t/ u/ v/ w/ x/ y/ z/ A/ B/ C/ D/ E/ F/ G/ H/ I/ J/ K/ L/ M/ N/ O/ P/ Q/ R/ S/ T/ U/ V/ W/ X/ Y/ Z/ `/  ( .( +( @( #( $( %( &( *( ",
"=( -( ;( >( ,( '( )( !( ~( {( ]( ^( /( (( _( :( <( [( }( |( 1( 2( 3( 4( 5( 6( 7( 8( 9( 0( a( b( c( d( e( f( g( h( i( j( k( l( m( n( o( p( q( r( s( t( u( v( Q= w( x( y( z( A( B( C( D( E( F( G( H( I( J( K( L( M( N( O( P( Q( R( S( T( U( V( W( X( Y( Z( `(  _ ._ +_ @_ #_ $_ %_ &_ *_ =_ -_ ;_ @- >_ E  ,_ '_ )_ !_ ~_ {_ ]_ ^_ /_ (_ __ :_ <_ [_ }_ |_ 1_ 2_ 3_ 4_ 5_ 6_ 7_ 8_ 9_ 0_ a_ b_ ]( ",
"c_ d_ e_ f_ g_ h_ i_ j_ k_ l_ m_ n_ o_ w' p_ q_ r_ s_ t_ u_ v_ w_ x_ y_ z_ A_ B_ C_ D_ E_ F_ G_ H_ I_ J_ K_ L_ M_ N_ O_ P_ Q_ R_ S_ 0' T_ U_ V_ W_ W_ X_ Y_ Z_ `_  : .: +: @: #: $: %: &: *: =: -: ;: >: ,: ': ): !: ~: {: Y$ ]: ^: /: (: $! _: :: <: [: }: |: 1: 2: 3: 4: 5: 6: 7: 8: 9: 0: a: b: c: d: e: f: g: h: i: j: k: l: m: n: o: p: q: r: s: t: u: v: w: x: y: z: A: B: C: D: E: F: G: ",
"H: I: J: K: L: M: N: O: P: Q: R: S: T: U: V: W: X: Y: Z: `:  < .< +< @< #< $< %< ;{ &< *< =< -< ;< >< ,< '< )< !< ~< {< ]< ^< /< (< _< :< << [< }< |< 1< 2< 3< 4< 5< 6< 7< 8< 9< 0< a< b< c< d< e< f< g< h< i< j< k< l< m< n< o< p< q< r< s< t< u< v< w< x< y< z< A< B< C< D< E< F< G< H< I< J< K< L< M< N< O< P< Q< R< S< T< U< V< W< X< Y< Z< `<  [ .[ +[ @[ #[ $[ %[ &[ *[ =[ -[ ;[ >[ ,[ '[ ",
")[ ![ ~[ {[ ][ ^[ /[ ([ _[ :[ <[ [[ }[ |[ 1[ 2[ 3[ 4[ 5[ 6[ 7[ 8[ 9[ 0[ a[ b[ c[ d[ e[ f[ g[ h[ i[ j[ k[ l[ m[ n[ o[ p[ q[ r[ s[ t[ u[ v[ w[ x[ y[ z[ A[ B[ C[ D[ E[ F[ G[ H[ I[ J[ K[ L[ ]- M[ N[ O[ P[ Q[ R[ S[ T[ U[ V[ W[ X[ Y[ Z[ `[  } .} +} @} #} $} C& %} &} *} =} -} ;} >} y/ ,} '} )} !} ~} {} ]} ^} /} (} _} :} <} [} }} |} 1} 2} 3} 4} 5} 6} 7} 8} 9} 0} a} b} c} d} e} f} g} h} i} ",
"j} k} l} m} n} o} p} q} r} s} t} u} v} w} x} y} z} A} B} C} D} E} F} G} H} I} J} K} L} M} N} O} P} Q} R} S} T} U} V} W} X} Y} Z} `}  | .| +| @| #| $| %| &| *| =| -| ;| >| ,| '| )| !| ~| {| ]| ^| /| (| _| :| <| g< [| }| || 1| 2| 3| 4| 5| 6| 7| 8| 9| 0| a| b| c| d| e| f| g| h| i| j| k| l| m| n| o| p| q| r| s| t| u| v| w| x| y| z| A| B| C| D| E| F| G| H| I| J| K| L| M| N| O| P| Q| R| ",
"S| T| U| V| W| X| Y| Z| `|  1 .1 +1 @1 #1 $1 %1 &1 *1 =1 -1 ;1 >1 ,1 f| D: '1 '1 )1 !1 ~1 {1 ]1 ^1 /1 (1 _1 :1 <1 [1 }1 |1 11 21 31 41 51 61 71 81 91 01 a1 b1 c1 d1 e1 f1 g1 h1 i1 j1 k1 l1 m1 n1 o1 p1 q1 r1 s1 t1 u1 v1 w1 x1 y1 z1 A1 B1 C1 D1 E1 F1 G1 H1 I1 J1 y} K1 L1 j| M1 K| N1 O1 P1 Q1 R1 S1 T1 U1 V1 W1 X1 Y1 Z1 `1  2 .2 +2 @2 #2 $2 %2 &2 *2 =2 -2 ;2 >2 ,2 '2 )2 !2 ~2 I> {2 ]2 ",
"^2 /2 (2 _2 :2 <2 [2 }2 |2 12 22 32 42 52 62 72 j| 82 92 02 a2 b2 c2 w} d2 '1 )1 )1 e2 f2 g2 h2 i2 j2 k2 l2 :& m2 n2 o2 p2 q2 r2 s2 t2 u2 v2 w2 x2 y2 z2 A2 B2 C2 D2 E2 F2 G2 H2 I2 J2 K2 L2 M2 N2 O2 P2 Q2 R2 S2 T2 U2 V2 W2 X2 Y2 Z2 `2  3 .3 +3 @3 #3 $3 %3 &3 *3 =3 -3 ;3 >3 >3 .} ,3 '3 )3 $( !3 ~3 {3 ]3 ^3 /3 (3 _3 :3 <3 [3 }3 |3 13 23 33 43 53 63 73 83 93 03 a3 b3  = c3 d3 e3 f3 g3 ",
"h3 i3 j3 k3 l3 m3 n3 o3 p3 q3 r3 s3 t3 u3 v3 w3 x3 y3 z3 A3 B3 C3 D3 E3 F3 )1 G3 H3 H3 I3 J3 K3 L3 M3 N3 O3 P3 Q3 R3 S3 T3 U3 V3 W3 X3 Y3 Z3 `3  4 .4 +4 @4 #4 $4 %4 &4 *4 =4 -4 ;4 >4 ,4 '4 )4 !4 ~4 {4 ]4 ^4 /4 (4 _4 :4 <4 [4 }4 |4 14 24 34 d~ 44 54 64 74 84 94 =3 04 a4 b4 c4 d4 e4 f4 g4 h4 i4 j4 k4 l4 <} m4 n4 o4 p4 q4 r4 s4 t4 u4 v4 w4 x4 y4 z4 A4 B4 C4 D4 E4 F4 G4 H4 I4 J4 v@ K4 ",
"L4 M4 N4 O4 P4 Q4 R4 S4 T4 U4 V4 W4 X4 Y4 Z4 `4  5 .5 +5 @5 #5 $5 %5 &5 *5 ^^ =5 -5 ;5 >5 ,5 '5 )5 !5 ~5 O3 {5 P3 ]5 :3 ^5 /5 (5 _5 :5 <5 [5 }5 |5 15 25 35 45 55 65 75 85 95 05 a5 b5 c5 d5 e5 f5 g5 h5 i5 j5 k5 l5 m5 n5 o5 p5 q5 r5 s5 t5 u5 K- v5 w5 x5 y5 z5 A5 B5 C5 8| D5 E5 F5 G5 H5 I5 J5 K5 L5 M5 N5 O5 P5 Q5 R5 S5 T5 U5 V5 W5 X5 Y5 Z5 `5  6 .6 +6 @6 #6 $6 %6 &6 *6 =6 -6 ;6 >6 ,6 ",
"'6 )6 !6 ~6 {6 ]6 ^6 /6 (6 _6 :6 <6 [6 }6 |6 16 26 36 46 56 ;{ 66 k| 76 86 96 06 a6 b6 c6 d6 e6 f6 g6 h6 i6 j6 k6 l6 m6 n6 o6 p6 q6 r6 s6 t6 u6 v6 w6 x6 y6 z6 A6 B6 C6 D6 E6 F6 G6 H6 I6 J6 K6 L6 M6 N6 O6 P6 Q6 R6 S6 T6 U6 V6 W6 X6 Y6 Z6 `6  7 .7 +7 @7 #7 u& $7 %7 &7 *7 =7 -7 ;7 .  >7 ,7 '7 )7 !7 ~7 {7 ]7 ^7 /7 (7 _7 :7 <7 u^ [7 }7 |7 17 27 37 47 57 67 77 87 ._ 97 07 a7 b7 X; c7 d7 ",
"e7 f7 g7 h7 i7 j7 k7 l7 m7 n7 o7 p7 q7 r7 s7 t7 u7  7 v7 w7 x7 y7 z7 A7 B7 C7 D7 E7 F7 G7 H7 I7 J7 K7 L7 M7 N7 O7 9| P7 Q7 -= R7 S7 T7 U7 V7 W7 X7 Y7 Z7 `7  8 .8 +8 @8 #8 $8 %8 &8 *8 =8 -8 ;8 >8 ,8 '8 )8 !8 ~8 {8 ]8 ^8 /8 (8 _8 :8 <8 [8 }8 |8 18 28 38 48 58 68 78 88 98 08 a8 b8 c8 d8 e8 f8 g8 h8 i8 j8 k8 a} l8 m8 n8 o8 p8 q8 r8 s8 t8 u8 v8 w8 x8 y8 z8 A8 B8 C8 D8 E8 F8 G8 H8 I8 J8 ",
"K8 L8 M8 N8 O8 P8 Q8 R8 S8 T8 U8 !_ V8 W8 X8 Y8 Z8 `8  9 .9 +9 @9 #9 $9 %9 &9 *9 =9 -9 ;9 >9 ,9 '9 )9 !9 ~9 {9 ]9 ^9 /9 (9 _9 :9 <9 q6 [9 g{ }9 |9 19 29 D[ 39 49 59 69 79 89 99 09 a9 -~ b9 c9 d9 e9 f9 L6 g9 h9 i9 j9 k9 l9 m9 n9 o9 p9 q9 r9 s9 t9 u9 v9 w9 x9 y9 z9 A9 B9 C9 D9 E9 F9 G9 H9 :: I9 J9 K9 L9 M9 N9 O9 P9 Q9 }{ R9 S9 T9 U9 V9 W9 X9 Y9 Y$ Z9 `9  0 .0 +0 @0 #0 $0 %0 &0 *0 =0 ",
"4& -0 ;0 >0 ,0 '0 )0 !0 K+ ~0 {0 l: ]0 ^0 /0 l& (0 _0 :0 <0 [0 }0 |0 10 ._ 20 30 40 50 60 70 80 90 00 a0 b0 c0 d0 e0 f0 g0 h0 i0 j0 k0 l0 m0 n0 o0 p0 20 q0 r0 P< s0 t0 u0 v0 w0 x0 y0 z0 A0 B0 C0 D0 E0 F0 G0 H0 I0 J0 K0 L0 M0 N0 O0 P0 Q0 R0 S0 T0 U0 V0 W0 X0 Y0 Z0 `0  a l0 .a +a @a #a $a h: %a &a *a =a -a ;a >a ,a 'a )a !a ~a {a ]a ^a /a (a _a :a <a [a }a |a 1a 2a 3a 4a 5a 6a 7a 8a ",
"9a 0a aa ba ca da ea fa ga ha ia ja ka la ma na oa pa qa ra sa ta ua va wa xa ya za Aa Ba Ca Da Ea Fa Ga Ha Ia Ja Ka La L; Ma Na Oa Pa Qa Ra Sa Ta R@ Ua Va Wa Xa Ya Za ,3 `a  b .b +b @b #b $b %b &b *b =b -b ;b >b ,b 'b )b !b ~b {b h^ M3 ]b ^b /b (b _b :b M6 <b [b }b |b e6 1b 2b 3b 4b 5b 6b 7b 8b 9b 0b ab bb cb db eb E< fb h0 gb hb ib jb kb lb 48 mb nb ob pb qb rb sb tb ub vb wb xb ",
"yb zb Ab Bb Cb Db Eb Fb Gb Hb Ib Jb Kb Lb Mb Nb Ob Pb Qb Rb Sb Tb Ub Vb z3 Wb Xb Yb Zb `b  c .c +c @c #c $c %c &c *c l5 =c -c ;c >c ,c 'c )c !c 2, ~c {c ]c ^c /c (c _c :c <c [c }c |c 1c 2c @a 3c 4c 5c 6c 7c 8c 9c 0c ac 20 bc cc dc ec fc gc hc ga ic jc kc lc mc nc oc pc qc rc eb 78 sc tc uc vc wc xc yc 82 zc Ac eb Bc Cc Dc gb Ec Fc Gc Hc Ic Jc Kc Lc Mc Nc Oc Pc Qc Rc Sc B; Tc Uc Vc ",
"Wc Xc Yc Zc `c  d  # .d +d @d L> #d $d %d &d *d =d -d ;d >d ,d 'd )d !d ~d %} {d ]d ^d /d (d a) _d )b :d <d n5 [d }d |d 1d 2d 3d 4d 5d E' 6d 7d 8d 9d 0d ad bd cd dd dd ed fd gd hd id jd E< kd ld md nd od pd qd rd sd td ud td vd wd xd yd zd Ad Bd Cd Dd Ed Fd Gd Hd Id Jd Kd Ld Md Nd Md Od Pd Qd Rd Sd Td y3 Ud Vd Wd Xd Yd Zd `d  e .e +e @e ^^ #e $e %e &e *e =e -e ;e >e ,e 'e )e !e ~e ",
"{e ]e ^e /e (e _e :e <e [e }e |e 1e 2e 3e 4e 5e r) 6e 7e 8e 9e 0e 1: ae be ce Y4 de ee fe ge he ie je ke le me ne oe pe qe re se te ue ve we xe ye ze Ae Be Ce De Ee Fe Ge ;5 He Ie Je f8 Ke Bc F1 Le Me Ne Oe Pe Qe Re Se P3 Te Ue Ve We d4 Xe Ye Ze `e O3  f .f +f @f #f $f %f &f *f =f -f ;f =3 >f ,f 'f l| u< y3 )f !f ~f {f ]f ^f /f (f _f :f <f [f }f |f 1f 2f w] 3f 4f 5f 6f 7f 8f 9f L/ ",
"0f af bf cf df ef ff gf hf if jf s> kf lf mf nf of pf qf rf sf tf `6 j| uf vf wf xf yf zf Af Bf Cf Df Ef Ff Gf Hf If Jf Kf Lf Mf Nf Of D5 5b e6 Pf Qf Rf Sf Tf Uf Vf Wf Xf Yf Zf `f  g .g +g @g #g $g %g &g *g =g -g ;g >g ,g 'g )g !g ~g {g ]g ^g /g (g _g :g <g [g }g |g 1g 2g +! 3g 4g @g 5g 6g ,f 7g G< +5 8g 8g 9g 0g ag bg cg dg eg fg gg hg ig jg Y4 kg lg mg ng og pg qg rg sg tg ug vg ",
"wg xg yg zg Ag Bg Cg Dg Eg Fg Gg Hg Ig {[ Jg Kg Lg Mg Ng Og Pg Qg Rg K| Sg Tg Ug Vg sc Wg Xg q/ Yg Zg `g  h .h w9 +h @h #h $h %h &h *h =h -h ;h B3 >h ,h 'h )h !h ~h {h ]h ;, ^h (% /h (h _h :h <h [h }h |h 1h 2h 3h 4h ;a 5h #} 6h 7h 8h 9h 0h ah bh ch dh eh fh gh hh ih jh kh lh mh [8 nh oh ph qh rh sh th uh vh wh xh yh zh Ah Bh Ch Dh J3 Eh D< Fh Gh Hh Ih Jh Kh Lh Mh Nh Oh Ph Qh Rh Sh ",
"Th Uh Vh Wh Xh Yh Zh `h  i .i +i @i #i $i %i &i *i =i -i ;i >i ,i 'i )i !i !f %7 ~i {i ]i ^i /i (i _i :i <i [i }i |i 1i 2i 3i 4i 5i %5 6i 7i 8i 9i 0i ai bi ci di =3 ei fi gi Ma hi ii ji ki He li mi ni oi pi qi ri si @} ti ui Pe W7 vi wi xi yi zi s0 Ai Bi Ci Di Ei Fi Gi Hi Ii Ji Ki Li Mi Ni Oi :c Pi uh Qi Ri Si Ti n6 Ui Vi 'c Wi Xi .g Yi Zi `i  j .j +j @j #j $j %j &j *j =j -j ;j >j ",
",j 'j )j !j ~j {j ]j ^j /j (j _j 7( :j <j [j }j |j 1j -i 2j 3j 4j 5j 6j 7j 8j &7 7| 9j 0j aj >3 bj cj dj ej l& fj gj hj ij jj kj lj s5 mj nj oj pj qj rj sj tj uj vj wj xj yj zj Aj Bj Cj Dj Ej /9 .c Fj Gj Hj Ij Jj Kj Lj Mj Nj r1 Oj Pj Qj z< Rj Rj Te ]7 Sj Tj Uj Vj Wj Xj Yj Zj `j  k .k +k @k #k )f $k  5 %k &k *k :3 =k .a -k ;k >k ,k 'k )k !k ~k {k ]k ^k /k (k _k :k <k [k }k |k 0_ 1k ",
"2k 3k 4k 5k 6k 7k 8k 9k 0k ak bk ck dk ek fk gk hk ik jk kk lk mk nk ok pk %} qk rk sk tk ~d uk vk wk xk yk zk Ak Bk Ck Q2 Dk ]9 Ek Fk Gk Hk Ik Jk Kk .9 Lk Mk Nk Ok Pk Qk Rk Sk Tk Uk Vk Wk Xk Yk Zk `k  l .l +l Rk %f @l #l -= $l %l &l si *l =l -l ;l >l ,l 'l )l !l ~l {l ]l ^l /l (l _l :l <l [l }l Bc Wd |l 1l <| 2l 3l 4l 5l 6l r~ 7l 8l 9l 0l al bl cl dl el fl gl hl il jl kl ll ml nl ",
"ol pl ql rl sl tl ul vl wl xl yl zl Ng z) Al Bl Cl Dl El Fl Gl T1 Hl Il +l Jl Kl :7 Ll Ml Nl hi Ol Pl Ql Rl Sl Tl Ul Vl [4 Wl Xl +_ Yl Zl `l  m .m +m @m Ga #m $m %m &m *m =m -m ;m >m Tb ,m 'm )m !m %a _b ~m {m ]m ^m /m .h Gf (m _m :m <m [m }m |m 1m v8 2m 3m 4m 5m 6m 7m 8m 9m 0m am bm cm dm em fm fc gm ^7 hm im jm km lm mm nm om pm q| qm rm 5l sm tm um vm wm xm ym zm Am Bm Cm Dm Em ",
"Fm Gm Hm Im Jm Km Lm Mm Nm Om Pm Qm Rm Sm Tm Um Vm e< Wm Xm R1 Ym Zm md `m  n .n +n @n #n $n %n &n *n =n -n ;n >n ,n 'n )n !n ~n Ma {n ]n J0 =9 <m ^n /n h0 (n _n Y2 :n <n [n [n }n |n 1n 2n 3n 4n 5n 5n 6n 7n 8n Je 9n 0n qi an bn cn dn en fn gn hn in G_ jn kn ln mn nn on pn qn rn sn Xe tn un vn wn xn yn zn An Bn Cn Dn En Fn Pf Gn i2 Hn In Jn Kn Ln Mn Nn On Pn Qn Rn Sn Tn Un Vn Wn Xn ",
"Yn Zn `n  o .o +o @o #o $o @j %o &o *o =o wd  ! -o ;o >o <g ,o 'o )o !o ~o {o ]o 9m ^o ac /o (o _o :o <o [o }o |o 1o 2o 3o 4o Hn 5o d6 6o 7o 8o 9o 28 0o ao bo co 3g 48 D< do eo fo go ho io jo ko lo mo no oo po )b qo ro so to uo vo wo T6 xo yo zo Ao Bo Co Do >b Eo Fo Go Ho Io Jo Ko Lo Mo No Oo Po Qo Ro So U[ To Uo Vo Wo Xo Yo @a Zo `o  p .p +p @p #p $p %p .6 &p *p =p -p ;p >p ,p 'p ",
")p !p ~p {p ]p ^p /p (p _p :p <p [p }p |p 1p 2p 3p 4p 5p 6p 7p 8p 9p 0p ap bp ]9 cp dp ep fp gp hp ip 0j jp Te 30 kp lp {b mp np op E1 pp pp qp tj ]5 rp sp tp up vp wp I3 D< xp yp -7 zp 7o Ap d, Bp #m Cp Dp Ep [m Fp mc Gp Hp .h Ip Jp Kp )h Lp Mp Np Op Pp Qp :m Rp Sp Tp Up Vp Wp Xp Yp Zp `p  q .q +q @q #q $q %q &q *q =q -q ;q ._ >q ,q 'q )q !q ~q {q ]q ^q /q (q _q :q <q 8h [q }q |q ",
"1q 2q 3q 4q 5q 6q 7q 8q 9q 0q aq bq cq dq eq fq gq hq iq jq kq F1 lq mq nq B1 oq pq qq f8 rq sq 1: 6j tq uq z< >g vq wq xq ij yq zq C1 Aq Bq Cq Dq 5o Eq Fq Gq Hq >3 wp Iq 'g Jq Kq Lq Kj Qk Ua 9| Mq Nq Oq Pq Qq Rq Sq Tq Uq e8 Vq Wq Xq Yq Zq `q  r .r +r @r <g !7 #r $r %r &r 0j *r =r -r ;r >r ,r 'r )r 4j !r ~r {r ]r ^r /r (r _r :r ,i <r [r }r |r 1r 2r 3r 4r 5r 6r K6 7r 8r 9r 0r ar br ",
"cr dr er fr gr hr ir jr kr lr mr nr or pr qr rr sr tr ur vr wr ]n xr yr zr C< Ar Br Cr Dr Er Fr Gr '1 Hr Ir Jr Kr Lr Mr Nr Or Pr Qr Rr Sr Tr Ur Vr c4 Wr Xr Yr Zr `r  s ig .s +s @s #s ;} $s %s &s )^ *s =s -s ;s >s ,s 's )s !s ~s {s ]s ^s /s (s _s :s <s [s }s |s 1s 2s 3s 4s Aq D< 5s 6s 7s p9 8s 9s 0s as bs cs ds es fs gs hs is ~, js ks ls ms ns os ps qs rs ss ts us vs ws xs ys zs As ",
"Bs Cs l{ Ds Es Fs Gs Hs Is Js Ks Ls Ms Ns Os Ps Qs Os Rs Ss Ts J0 Us Vs Ws Xs Ys Zs `s  t .t +t @t #t !1 K; $t %t Rj &t *t =t -t ;t =h >t ,t >} 't )t Y4 !t ~t {t ]t ^t /t (t _t :t ji ;} <t [t }t |t 1t 2t 3t 4t 5t 6t 7t 8t 9t 0t at bt ct dt et H! ft gt ht it jt kt lt mt `a C1 nt ot Zl op pt qt rt st tt ut vt wt xt yt zt At Bt Ct Dt Et Ft Gt Ht It Jt Kt Lt Mt Nt Ot Pt Qt Rt St 3d Tt ",
"Ut Vt Wt Xt Yt Zt `t  u .u +u @u #u $u %u P7 &u *u =u -u ;u >u ,u 'u )u !u ~u Tq {u Fr ]u ^u /u (u _u <f :u x< 2c <u Te [u }u |u 1u 2u uj 3u 4u kd 5u Zi 6u 7u F! 8u Kc 9u 0u au Lq bu cu du e, eu fu J/ gu hu iu ju ku lu Kj mu nu <4 ou pu sr qu ru su 2p tu Da uu vu wu xu =7 yu zu Au Er ]u Bu Cu Du Eu Fu Gu Hu Iu Ju +q Ku Lu 4s Mu Nu Ou Pu Qu Ru Vj Su H7 6p Tu Uu Vu Wu Xu Yu Zu `u  v ",
".v +v @v #v $v %v &v K, *v =v -v ;v >v ,v 'v )v !v ~v {v ]v ^v /v (v _v :v <v [v }v 18 |v )s Lq 1v 2v 3v 4v 5v 6v io 7v 8v 9v 0v av 04 wp bv cv kd dv 5b ev fv gv uk +} F< U3 hv iv jv Jd kv _3 [: lv mv nv ya ov pv qv rv sv tv ]m uv vv wv xv yv zv Av Bv Cv b_ Dv Ev Fv Gv Hv Iv Jv Gd Kv Lv Mv Nv Ov Pv Qv Rv +n Sv Tv Uv Vv 50 `r Wv Xv Yv Zv `v  w 6| 18 [v .w +w @w #w $w %w &w *w c@ =w ",
"-w ;w >w ,w 'w )w !w C* ~w {w )8 ]w ^w 'v /w (w _w :w <w [w }w ij |w 1w 2w 3w 4w 5w tv 6w 7w 8w Ok 9w 5| 0w aw Kj bw {5 cw dw ew fw gw A3 hw Iq 6v A_ 1f b| Nk K  82 iw jw kw lw mw nw ow Ni pw qw Nk 4h rw sw tw uw vw 9r ww xw -t `p yw zw Aw Bw Cw 3c Dw Ew Fw Gw Hw Hp Iw Jw Kw Lw %} Mw Nw Ow Pw Qw Rw Sw Tw Uw Vw Ww Xw Yw Zw  3 `w  x .x +x @x >, #x Hv $x %x &x *x =x -x ;x >x ,x 'x )x ",
"!x ~x {x ]x ^x /x (x _x :x <x [x I1 }x |x 1x 2x 3x 4x 5x `^ 6x 7x 8x 9x 0x 0x ax bx cx dx dx ex fx k| `6 *7 gx kh hx ix d6 jx kx lx mx +g 7| !{ nx ox 9: px qx rx sx tx ux vx wx xx yx zx al Ax Bx Cx Fh He Dx >g Ex Fx Gx ww Hx Ix Jx Kx :a Lx &b et eh Mx Nx Ox Px Nw Pd Qx Rx Sx rc qk hv Tx Ux Vx Wx Xx Yx Zx `x  y .y +y @y #y 7g 'f x3 $y %y &y *y =y -y ;y >y ,y 'y )y !y ~y {y ]y ^y /y ",
"(y _y :y <y [y }y |y 1y 2y ip 3y 4y 5y Wp 6y 7y X2 8y 9y 0y ay by cy dy ey fy gy hy iy jy ky ly my ny Cx oy py qy ry sy !_ ty uy vy wy xy #l yy zy Ay #l By t_ Cy E< Dy v| Ey x9 Fy Gy Hy Iy Jy Ky Ly lg My Ny Lx F9 Oy Py Qy Ry Sy Ty Uy xo Vy Wy Xy Yy Zy `y  z .z +z @z #z _8 Ns $z %z ]} &z *z =z -z ;z >z ,z 'z Oq )z !z ~z {z ]z @z ^z /z (z _z :z <z [z }z |z 1z 2z 3z 4z 5z 6z 7z 8z 9z ",
"0z az bz cz dz ez fz I6 gz hz iz jz kz lz mz nz oz pz Nl qz rz sz tz uz vz wz xz yz zz Az Bz Cz Rv Dz Ez Fz Gz Hz Iz yv Jz Kz Lz Mz Nz Oz Pz Qz Rz Sz Tz Uz Vz Wz Xz Yz Zz `z  A .A +A @A #A $A %A &A *A =A ri -A ;A >A ,A 'A )A !A ~A }9 {A ]A A] ^A /A (A _A :A <A [A }A |A |A 1A 2A 3A 4A  ! 5A 6A 7A 8A 9A 0A aA bA cA dA eA fA gA hA iA jA kA lA mA nA oA pA qA $4 rA sA tA uA vA wA xA yA ",
"zA AA BA CA DA EA vu FA GA HA IA JA 3, 6: KA LA MA go NA _3 OA PA QA &< i: RA SA TA UA VA WA XA YA ZA '5 `A to 5h d6 Gp  B .B +B a~ @B #B Nz $B %B &B *B =B -B 2f mt Cq ;B >B ,B 'B )B !B ~B {B ]B ^B /B (B _B Sx :B <B [B }B |B 1B 2B 3B 4B 5B 6B 7B 8B 9B 0B aB bB 2x Hn Xa cB dB eB fB gB hB iB jB kB lB RA mB nB oB pB qB rB um sB p# tB uB vB wB xB yB zB AB BB CB DB EB FB GB HB IB JB KB ",
"LB MB NB OB &6 PB QB RB SB TB UB VB WB XB Rj YB '5 ZB go `B  C .C +C @C #C $C Dp Zx %C &C *C =C -C ;C >C ,C to 'C 6v )C !C ~C {C ]C ^C /C (C _C :C <C [C 9o }C rj 3v |C 1C 6u 2C #l ~B 3C [u 4C :n &s 5C D5 =7 6C 7C 4v 8C 9C 0C kq aC bC cC dC eC fC gC hC iC jC kC lC mC C. nC oC pC qC rC sC tC uC vC wC d4 xC $h yC zC AC BC CC DC EC FC GC HC IC JC KC LC MC NC OC PC QC RC SC TC UC VC WC ",
"XC YC ZC `C  D .D +D @D #D $D %D jg 6C 6C &D *D =D -D ;D >D ,D 'D pv )D !D ~D {D ]D ^D /D (D _D :D <D [D Kk Dj 8w xp }D |D 1D lt 2D 3D 4D 5D 6D 7D 8D 9D Z1 0D aD bD cD Yi zp Lk dD eD fD ty gD hD iD jD qk kD kD qk lD -1 mD nD oD pD qD rD sD tD uD vD wD xD yD zD AD BD CD DD ED -c FD GD HD ID JD KD LD MD ND OD PD QD RD SD }9 TD UD VD WD XD YD ZD `D  E .E +E @E #E $E %E &E *E =E -E ;E ",
">E ,E *j v- 'E )E !E ~E {E ]E ^E /E (E _E :E <E [E }E |E 4C 1E 2E 3E 4E 5E 6E 7E By 8E 7x 9E 0E aE Cp bE cE dE eE xp fE gE hE iE B7 jE kE lE mE nE oE pE qE 1f rE sE tE uE sd vE dD wE xE yE zE AE 3s ~f BE rk CE ]u Gp pc DE EE FE GE HE IE JE KE LE ME NE OE PE QE RE SE TE UE VE WE XE YE ZE `E  F .F +F @F #F $F &f Yp 3c %F &F *F =F -F ;F >F JC ,F 'F )F !F ~F {F ]F ^F /F (F _F :F <F [F ",
"}F |F 1F 2F 3F 4F 5F @t 6F 7F 8F 9F W) m) 0F @x aF bF <u a| cF zq dF  7 eF fF gF hF iF jF kF lF mF 8C ;} nF Q1 5h _B oF Kw Qx pF qF rF sF tF uF vF wF xF K; yF zF AF BF d4 CF Qk ny DF EF qm FF GF 6g HF nt hv nc Cc IF JF KF LF MF NF OF PF QF RF SF TF UF VF WF XF YF ZF `F  G bc 3u #s .G +G @G ;^ #G $G %G &G *G >9 =G -G ;G >G ,G 'G )G )G !G ~G {G ]G ^G /G (G _G :G <G [G }G |G 1G 2G 3G ",
"4G 5G 6G 7G 8G 9G 0G aG bG cG dG eG fG gG hG >} iG jG al kG lG mG nG n6 oG hF pG Hq qG rG 02 p_ sG lx tG rG uG hw vG lD Qx tv wG xG L1 yG zG AG BG CG DG :c t0 EG Gv Rj FG hE _B ox Pk GG HG IG JG rk KG LG MG {l NG d6 Ys du OG PG QG RG SG TG UG VG WG XG YG ZG `G  H .H Ra +H @H Nj #H $H %H &H *H =H 'z We -H ;H >H ,H 'H )H !H ~H {H ]H ^H /H (H _H :H <H [H }H |H 1H 2H 3H 4H 5H 6H 7H 8H ",
"9H 0H aH bH cH dH eH fH gH hH iH -, jH kH lH 1E mH nH oH pH qH rH sH tH uH ;} tG vH wH #s $( xH yH zH AH BH CH CH &7 DH EH FH GH C& Rg _h HH IH JH KH LH MH NH x9 =k mx OH PH YB QH RH SH  m JG TH Xd &7 |v UH VH }D WH 'a XH e8 YH ZH `H  I .I +I @I #I $I %I &I ru *I Ml =G =I Qk vE nF -I ;I #G >I ,I C. 'I ,I )I d8 !I ~I {I ]I ^I /I (I _I :I <I [I }I |I 1I 2I 3I <I 4I 5I 6I 7I 8I 9I 0I ",
"aI bI cI dI eI fI gI hI iI jI kI lI mI nI ~- oI pI qI rI sI tI uI nh >} Jd ww Kj vI wI xI yI zI AI BI CI DI hE PH &y #x EI FI GI HI II 8j hv KF JI KI LI MI NI OI =k PI QI kD RI O< SI TI UI o9 VI WI XI YI fc ZI `I  J 5b .J +J @J #J $J %J &J *J =J -J ;J >J }F ,J kx 'J FI )J 8w !J ~J {J ]J ^J Da /J (J [m _J :J <J oc [J %^ Nc }J |J 1J 2J 3J 4J 5J 4J 6J 7J 8J 9J 0J aJ bJ cJ dJ eJ fJ gJ ",
"hJ iJ jJ kJ lJ mJ nJ oJ pJ qJ rJ Iv Dy sJ d] tJ uJ vJ (, wJ xJ N5 gi yJ rq zJ AJ BJ CJ DJ C} EJ L5 FJ GJ Fr HJ JF IJ Cp JJ KJ LJ MJ NJ OJ )s du PJ QJ jd RJ SJ ch 1b TJ UJ qk VJ >B WJ wE XJ YJ -C tk nc Od ZJ `J Gp  K .K +K )C kq @K #K $K mf %K &K *K =K -K ;K >K Bi #y ,K wE 'K )K !K ey ~K {K ]K Bf ^K /K (K _K |s :K <K [K }K |K 1K 2K 3K 4K 5K 6K 7K 8K 9K 0K aK bK cK dK eK fK gK hK iK ",
"jK kK lK mK nK oK pK qK rK sK tK uK w' vK wK xK yK zK AK BK O/ CK DK EK FK GK HK IK JK KK LK MK NK uq xh 'g 9j OK PK QK RK /w SK TK UK VK WK XK YK ZK p4 `K  L .L +L @L #L $L %L &L *L =L -L ;L C0 >L $m ,L ru kF 'L )L Zp eu %b R9 !L ~L {L ]L ^L t~ /L (L _L :L <L [L }L |L 1L 2L 3L 4L 5L 6L 7L -: 8L 9L 0L aL bL cL dL eL &= fL 7) *. gL hL iL jL j} kL lL mL nL oL pL qL rL sL tL uL vL wL ",
"xL yL zL AL BL CL DL EL FL GL Xm HL IL JL KL LL qF ML NL OL PL QL RL SL TL UL >E VL WL XL YL ZL PD uk NJ &7 +g Kw `L  M .M +M @M #M 1~ $M %M &M jb *M =M -M ;M _9 >M ,M 'M )M !M ~M $c p| ^v X| r0 {M ]M %g ^M /M 92 (M _M :M <M K  [M }M |M F1 *c l5 1M 2M ~5 3M 4M 5M 6M 7M K9 8M Mq 9M 0M aM bM cM dM yz eM fM gM hM iM jM kM lM mM nM oM pM qM rM sM tM uM vM wM xM yM zM AM BM CM DM EM FM ",
"GM HM *H IM JM KM LM MM Ge NM OM PM QM RM SM TM UM VM WM XM YM ZM `M ht  N .N +N @N #N $N Wm %N &N *N =N -N %7 CH ;N >N ,N 'N )N r- 8: !N ~N {N ~N ny DE fE tc -@ ]N ^N /N (N _N :N <N [N }N |N uo Lw 1N s_ 2N 3N Wb 4N b4 >5 5N 6N 7N 'v -C 8N 9N 0N aN bN cN R0 P5 dN eN fN gN hN iN jN kN lN mN nN oN pN qN rN sN y7 tN uN vN wN ay xN yN zN AN BN CN DN EN FN 4{ GN HN IN JN KN LN MN NN ON ",
"PN QN RN RN tC SN TN cM UN VN WN XN YN Ir HF ZN Hl `N  O .O +O @O @n p| #O $O !r %O &O *O =O -O xF ;O j| >O v< $t G9 ,O ih 'O )O !O ~O {O ]O WJ `B ^O /O (O _O :O mM Tf <O [O }O |O 1O 2O 3O Sv 4O 5O 6O 7O 8O -7 IF xa 9O kg (t 0O aO bO cO m5 dO eO fO gO hO iO jO kO lO mO nO 1L oq E0 oO pO nn qO rO sO tO uO vO wO xO yO zO sz AO BO CO XJ DO EO FO GO By HO g[ IO JO KO LO MO NO OO PO QO ",
"RO SO TO UO VO WO XO YO ZO `O  P .P 3, *t kw 8| +P l5 X8 @P #P $P %P &P *P =P -P ;P >P Z8 ,P 'P )P !P ^u t_ ~P iv {P ]P ^P Rk /P (P _P 5v ~O :P <P [P }P -= 6o N5 |P 1P 2P 3P 4P |O kc 5P 6P 7P 'd 8P 9P 0P aP bP cP dP &D Fh d6 eP fP gP hP iP /D jP kP lP Pj mP ,l nP oP pP qP rP Zm sP tP uP vP wP xP yP zP AP BP Ai Ai ad CP r2 DP EP 3A FP GP HP IP JP KP LP &4 MP NP OP PP QP RP SP TP UP ",
"VP WP XP YP ZP `P  Q .Q +Q @Q #Q $Q %Q -3 kw lw &Q *Q =Q -Q ;Q >Q ,Q /m 'Q )Q !Q ~Q {Q ]Q ^Q =O sy Ii /Q (Q _Q :Q <Q [Q }Q |Q 1Q 2Q 3Q z3 4Q 5Q 6Q 7Q k8 8Q nx N5 9Q 0Q aQ bQ cQ {d $h dQ eQ ,9 p9 C7 fQ NA fp 6o gQ hQ iQ _} =k jQ kQ lQ mQ nQ oQ pQ qQ rQ sQ tQ uQ >A vQ wQ :m bw Ap Ap xQ yQ zQ AQ BQ CQ DQ EQ FQ GQ ko HQ IQ JQ KQ .J LQ {t MQ NQ OQ PQ QQ _n RQ SQ TQ 1H UQ VQ WQ XQ YQ ZQ ",
"`Q  R .R +R @R 8w #R $R %R &R *R =R vx kw 92 -R ;R >R ,R 'R )R !R ~R {R ]R ^R /R (R _R :R <R [R AI }R |R 1R 2R 3R Ni 4R 5R 6R )m 7R @R @R 8R 9R 0R aR bR cR dR t& eR fR gR hR iR iP jR 'o kR lR mR nR oR au pR qR Mk rR sR tR uR i4 vR wR xR yR zR AR BR lH CR DR ER FR GR Yr t0 :r eu L} HR IR JR f' KR LR MR NR jE OR PR QR RR %N SR TR UR VR WR XR YR mF ZR y9 `R  S .S +S @S #S $S %S &S *S ",
"=S -S %! ;S CH DH R@ 4c >S D{ ,S 'S i| )S Gp !S ~S {S ]S ^S /S (S _S :S '8 <S [S }S |S VO 1S 2S 3S 4S 5S ph 6S `( LF 7o 7S 8S pu 9S VM 0S aS bS cS dS H2 eS %t fS gS hS M0 iS jS >9 kS lS mS nS oS pS gx qS pR rS }h sS ~S tS uS vS wS xS yS MH [c zS AS BS CS DS ES FS 66 3D si ,g GS ki HS IS [n JS KS Y[ sS LS MS NS ,9 1d kj OS PS I' QS RS SS TS US VS dp WS XS YS ZS `S  T .T +T @T #T $T ",
"%T &T *T g, =T |C 0u -T ;T >T ,T 'T )T !T ~T Os {T +t ]T Ni al ^T /T (T _T :T <T [T }T |T ja 1T Cv 2T 3T 4T Ii 5T 6T 7T 8T 9T ac CI 0T aT bT cT dT eT fT gT hT 20 iT gD M0 jT kT Je lT mT nT [m oT pT qT -D rT !S ~N -7 sT tT uT vT wT xT yT zT AT #3 BT CT DT $_ ET #M FT )i Dq ,g eE qR GT HT IT V0 JT 4h 2| KT LT rd &N MT oT NT OT CF VJ PT DH QT $b RT ST TT UT VT WT XT YT ZT `T  U .U +U ",
"@U #U $U %U &U *U =U 3Q -U `I ;U >U ,U 'U *1 )U 2w !U ~U ~U {U ]U ^U /U (U _U :U <U [U }U 75 2S |U 1U 2U 3U {a eu 4U 5U 6U 7U 8U 9U 0U aU bU cU dU eU fU gU hU zq UM iU jU kU lU <w m5 as nT kR mU 08 H7 ww nU Jj oU pU qU rU sU tU ne uU vU wU xU #3 yU #3 )K zU AU Zl BU FJ CU J3 GS !N uK DU EU FU GU 0c HU IU JU KU LU 5R Bu MU NU -R -R oR Gx qT qT OU PU QU RU O( SU TU UU VU WU XU YU ZU ",
"`U  V .V +V AU @V 9f #V $V %V &V *V =V -V ;V >V lS ^c zx :} ,V 'V )V !V ~V {V ]V ^V /V hO (V _V :V <V [V }V |V 1V 2V 3V 4V 5V 6V tw &D 7V 8V 9V 0V aV bV cV dV eV fV gV hV iV kT (4 jV kV lV ci mV nV Hx rT oV pV qV rV sV tV uV vV wV xV yV zV AV BV CV DV EV FV GV HV IV JV KV LV *9 2| HS MV NV |t OV PV Bk QV :r 5o RV Yp SV ~m TV UV VV WV XV EQ :f YV -c ZV `V  W .W +W @W #W $W %W &W *W ",
"=W -W ;W >W ,W 'W )W !W ~W {W ]W ^W @O /W aU S2 (W Pr KJ _W z] :W <W [W }W |W 1W <s 2W 3W 4W 5W 6W JS 7W UI 8W 9W pV :7 0W MV aW bW Wd cW dW eW fW eW gW hW iW jW kW lW mW nW oW pW qW rW vo sW 2x tW ,U uW 5: #_ VM TI ,C ,O 7S vW wW xW yW zW AW BW CW DW EW FW GW HW IW JW @6 (5 KW LW MW NW OW PW QW RW SW g0 b| He TW .m UW VW WW XW YW ZW `W O< IF PT  X .X +X @X #X $X %X &X *X =X -X ;X ",
">X ,X 'X )X !X ~X {X ]X ^X /X (X v  _X Jp &L $c Je :X <X [X }X |X 1X 2X 3X 4X 5X 6X 7X 8X 9X 0X aX bX cX LF Yd bu oF sq ox sq Gz dX eX fX gX hX iX jX kX _1 LU lX m6 zJ r/ mX /P nX oX pX (w qX Bv ~I Id JF rX Wb mc sX {S tX uX vX wX xX yX zX AX BX CX ZE DX EX FX GX HX IX Ve 1e JX KX LX MX 3{ NX OX PX QX .a RX B3 SX TX UX VX WX Tp XX YX ZX `X  Y .Y +Y @Y &J #Y $Y %Y &Y *Y =Y -Y ;Y >Y ",
",Y 'Y )Y !Y ~Y {Y ]Y ^Y /Y (Y :K _Y <h :Y $P le -Q <Y [Y }Y |Y 1Y 2Y 3Y 4Y 5Y 6Y 7Y 8Y 9Y 0Y aY bY cY OH (M dY hv 0j Zi Cq 'a eY =3 fY tk gY hY iY jY kY lY rv mY nY uX rv mX SJ oY pY {C qY rY sY tY uY D5 nR 92 vY Kq wY xY yY zY AY BY CY DY EY FY GY HY IY JY Pe KY kj LY MY NY OY PY QY RY SY TY GF UY VY Jj WY XY YY vv ZY `Y  Z .Z 2[ }P -= Kt +Z TJ lD @Z #Z $Z %Z &Z *Z =Z -Z ;Z >Z ,Z ",
"'Z )Z !Z ~Z {Z ]Z ^Z /Z (Z _Z $> :Z <Z [Z kc }Z |Z 1Z 2Z 3Z 4Z 5Z 6Z 7Z 8Z 9Z 0Z aZ bZ cZ dZ eZ XE fZ gZ (M &7 (M HJ !k ,5 hZ o~ zr iZ 7j CE jZ Pd Yi 5b Q1 Q1 &f kZ TI SH /P KV lZ ZF mZ yw nZ oZ pZ qZ Bt mt rZ KF qZ sZ tZ uZ vZ wZ xZ yZ zZ AZ BZ BZ LK CZ DZ EZ B- /a 1x FZ GZ HZ IZ JZ KZ LZ MZ NZ qZ d6 oF OZ PZ QZ RZ SZ TZ UZ VZ Kt WZ XZ Zd YZ 'a 5v ZZ `Z  ` .` +` @` #` $` %` &` *` ",
"=` -` ;` >` ,` '` )` !` ~` X] {` (9 ]` ^` /` (` _` :` <` [` }` |` 1` 2` 3` 4` 5` 6` 7` wr 8` 9` Zw yc 0` gE Iw ]u a` HJ ,5 hZ o~ b` c` gw &7 dY Cc bu HJ fp 0l d` UK e` f` g` h` i` bh lc lH $a )S ;C ,g j` k` Nu l` m` n` o` MG p` q` r` s` t` u` v` w` x` y` $; 1M z` A` s| B` D9 C` D` E` F` G` td :r 5h DI Kj H` I` J` K` L` M` N` Dq FJ P3 nZ O` P` Q` R` :M S` T` U` V` W` X` Y` Z` ``   .",
". .+ .@ .# .$ .% .& .* .= .6> - .; .> .6R , .' .) .! .Vv ~ .{ .] .^ ./ .( ._ .: .< .[ .} .| .1 .2 .Ud II [v 3 .uH 4 .5 .fp qR 6 .y} j|  7 7 .8 .~U /M go jv 9 .si 0 .a .!1 ^^ b .c .d .t0 e .wx 'C f .Bt cv g .h .{N ti i .j .Id k .l .m .Y8 n .o .p .q .r .s .t .93 u .2x v .%g w .<w FK x .y .z .Cp A .,5 ,5 Kj H` B .9E C .D .Wj E .F .G .H .I .J .He K .Lx L .rs M .N .O .P .Q .R .S .T .U .",
"V .W .e .X .Y .Z .` . .....+..@..Le (s #..$..%..&..*..=..v8 -..LY ;..>..,..'..)..!..~..{..]..^../..,k =k EF (.._..zQ (K !k :..<..y} [..`6 }..5V |..F; #c 1..2..jH 6g $y wp 3..4..5..v< i| uY 8C qu 6..7..,k HJ 8..e` 9..0..a..PX b..c..d..e..TE f..g..h..i..j..k..l..m..n..o..kR p..q..`J r..s..t..u..%Q v..Gp w..x..y..z..A..`l zh 3Q B..C..D..E..F..G..H..I..J..K..L..M..N..O..P..Q..R..S..T..",
"U..V..W..X..Y..Z..`.. +..+.++.@+.#+.$+.%+.g2 +P &+.*+.=+.:4 gd -+.;+.>+.,+.M: '+.)+.!+.~+.{+.]+.{a te ^+./+.H7 (+.ld gu g| !U _+.:+.uk <+.[+.=P 6v }+._} TJ |+.hx Xd lI +7 ;, 1+.,5 D5 IF 5h '5 2+.3+.4+.DJ 5+.lx q2 HI Gd 6+.7+.8+.9+.0+.a+.b+.c+.d+.e+.f+.g+.h+.i+.j+.k+.l+.oe m+.n+.o+.p+.$8 q+.r+.s+.t+.)s bo u+.v+.w+.vy NS d| c| x+.y+.)i z+.{5 30 A+.B+.C+.D+.E+.F+.P..G+.H+.I+.J+.K+.L+.",
"M+.N+.O+.P+.Q+.R+.S+.T+.U+.V+.W+.X+.(4 Y+.Z+.`+. @.bs .@.+@.N6 @@.#@.$@.%@.&@.*@.=@.-@.;@.>@.,@.>S '@.)@.!@.~@.dR {@.]@.^@./@.(@.Ii v.._@.bB :@.ow Jw <@.[@.oR }@.%} |@.1@.DG D5 2@.bu 9 .Cx 5o 3@.4@.5@.6@.7@.qS ;U 8@.nx au 9@.{8 0@.a@.b@.c@.d@.e@.f@.g@.h@.i@.:n j@.k@.l@.m@.n@.o@.p@.q@.h+.r@.6g s+.s@.|+.|g jN t@.mz #s Jj u@.v@.dX w@.x@.LH $} 'a 7x y@.z@.A@.B@.C@.D@.E@.4* F@.G@.H@.I@.",
"J@.K@.L@.M@.N@.O@.P@.Q@.R@.S@.@r T@.U@.K0 W6 hi V@.W@.X@.Y@.Ky Z@.`@. #..#.+#.@#.##.$#.%#.&#.*#.=#.-#.5C ,C ;#.>#.,#.w< '#.~v )#.Ii !#.3N SX ~#.Jd {#.oR ]#.rT Nk %} dY 2@.^#.Lq 9 .Uq sv Ap tw /#.(#.zT _#.[Q :#.Mj uX lx KU <#.[#.}#.|#.1#.I[ 2#.3#.4#.5#.6#.7#.8#.Na 9#.0#.a#.b#.Uw c#.zn d#.e#.f#.ez s@.#H g#.h#.i#.Aj J .IV vp fG aj j#.q/ Ex B3 k#.Gp #H =I l#.m#.n#.o#.p#.q#.r#.s#.t#.u#.",
"H8 v#.w#.x#.y#.z#.A#.B#.C#.D#.E#.F#.G#.H#.I#.J#.In 8p 3L K#.L#.M#.6` N#.O#.P#.Q#.R#.S#.T#.HY U#.*9 V#.W#.X#.e8 )T Y#.Z#./Q `#. $..$.WI MG du CF 7w H7 H7 +$.-D @$.gE #$.jv $$.IV J .%$.GR ud mG &$.9C *$.nU =$.-$.5b oR ji KU <#.;$.>$.,$.'$.)$.!$.~$.{$.]$.^$./$.($.J7 g8 T0 N6 _$.:$.<$.e#.[$.}$.|$.*t 8@.0W 1$.2$.mz 3$.!S oG 4$.5$.jd .X 6$.7$.8$.y< C< 9$.lY 0$.a$.b$.e> c$.d$.e$.f$.g$.h$.",
"i$.j$.k$.l$.m$.n$.o$.p$.q$.r$.s$.t$.u$.v$.b= w$.x$.R0 y$.h^ z$.A$.B$.C$.(Q Pj D$.E$.F$.{ .G$.H$.I$.Dp J$.K$.l: U2 L$.U{ M$.N$.O$.P$.Q$.;S R$.mY >R *9 xF S$.1s T$.Yr Rj }h KV U$.jH V$.W$.X$.Dc Y$.;#.Z$.`$. %._P W( ~I .%.+%.Dc D` @%.#%.$%.%%.%a &%.*%.kn MM x$.=%.$_ KS -%.;%.>%.,%.'%.)%.(3 {7 +* !%.~%.{%.]%.^%./%.(%._%.:%.Rz <%.[%.K7 }%.|%.1%.2%.$z 3%.4%.5%.6%.7%.8%.9%.0%.a%.b%.c%.d%.",
"e%.eq f%.g%.u..h%.i%.j%.k%.l%.m%.n%.o%.p%.q%.jN IZ r%.s%.B9 t%.{Q u%.v%.w%.x%.y%.z%.A%.[$.B%.C%.D%.E%.F%.`p G%.H%.I%._R J%.C6 K%.L%.'f y+.a4 M%.Mv 0c N%.^n /n O%.P%.sv Hx dP Q%.R%.z@.S%.{U T%.U%.V%.3g W%.KG Wb cu X%.Y%.Di Z%.`%.w_  &..&.jG +&.@&.db #&.$&.%&._: &&.`+.*&.=&.-&.;&.>&.,&.$$._O '&.)&.!&.&r O` ^5 ~&.to {&.]&.3r ^&./&.Tb (&._&.5R :&.<&.Go [&.}&.|&.1&.2&.3&.4&.5&.6&.fW 7&.",
"8&.9&.0&.a&.b&.i%.c&.d&.TH e&.f&.nw mw g&.Yg h&.[X i&.pi ij a0 j&.k&.l&.m&.n&.s| o&.p&.q&.r&.ma _d s&.t&.u&.u&.v&.w&.x&.y&.z&.A&.B&.8u v..92 C&.D&.<m E&.F&.G&.jN H&.I&.J&.gE cD NG 7@._} ;} #H K&.A1 @Z L&.kw ]u [v M&.N&.O&.P&.Q&.]B R&.S&.:: C& T&.U&.V&.|Z W&.X&.Y&.!b Z&.`&.A` WE  *.ih hZ ,g .*.+*.@*.#*.$*.%*.Jk &*.go **.=*.-*.;*.cE Pd >*.,*.'*.)*.!*.~*.{*.]*.^*./*.(*._*.:*.<*.[*.}*.",
"|*.1*.2*.3*.4*.5*.6*.7*.8*.9*.0*.a*.b*.l4 c*.d*.e*.f*.g*.]c [( h*.i*.j*.k*.l*.&= m*.g&.n*.At o*.pC <n p*.q*.x@ r*.s*.t*.u*.v*.w*.oZ x*.Mw db 2f y*.9c z*.A*.z` B*.C*.D*.E*.F*.Qx qT bu !{ 'a &*.;q @} Vr D5 &7 Gv |+.&f G*.H*.I*.J*.K*.L*.M*.N*.O*.P*.Q*.R*.S*.T*.U*.>#.V*.LS 0c +H W*.X*.Dx Y*.Z*.`*. =.b` Ys &< .=.jD 2s +=.cb n..@=.4N b4 #=.a` $=.%=.&=.|+.*=.I6 ==.-=.;=.>=.,=.'=.)=.!=.~=.",
"N7 {=.]=.8#.lq -M ^=./=.(=._=.:=.<=.[=.}=.LI |=.1=.nW 2=.3=.4=.5=.6=.7=.8=.9=.0=.a=.b=.c=.d=.e=.f=.=l B3 ]5 g=.K0 h=._8 i=.r%.j=.k=.l=.&r m=.n=.o=.p=.q=.r=.s=.=c .=.t=.db (M u=.hv HJ uY qZ zq v=.w=.mc $a 92 lw )v x=.y=.z=.A=.B=.C=.D=.E=.F=.G=.<} H=.H=.I=.J=.K=.L=.M=.N=.O=.P=.-l Q=._g R=.b: S=.;O -3 04 T=.U=.V=.W=.X=.Y=.Z=.`=. -..-.Vr D5 lx 'C +-.g#.@-.#-.$-.%-.&-.*-.=-.--.;-.>-.,-.",
"'-.)-.!-.~-.-W {-.]-.^-./-.(-._-.:-.<-.[-. H }-.m*.|-.a( fz 1-.2-.3-.hx =9 /5 *9 4-.Ny 5-.6-.7-.8-.u0 )i }: >g FG 9-.WJ -t 0-.a-.b-.c-.d-.Nl e-.qw mD t1 %N f-.g-.h-.Ld kD CE lw 2@.D5 i| uY sX ;t kw i-.Kj !} iU j-.k-.l-.wY m-.IZ n-.o-.p-.p_ q-.r-.W*.s-.t-.4E u-.v-.w-.x-.y-.z-.A-.KV B-.l4 C-.D-.;O C5 6| E-.Y&.F-.G-.H-.Bt I-.!&.J-.UM 3E cv 8v cb i-.qZ K-.L-.M-.N-.O-.P-.Q-.R-.S-.T-.U-.",
"V-.W-.X-.Y-.Z-.`-. ;..;.+;.@;.#;.io $;.u* kG %;.yV 7P T1 &;.*;.=;.(! -;.X  ;;.:g kF >;.,;.';.);.!;.0F %t ~;.mY 0l )O {;.];.Qe ^;./;.(;.,v _;.3c :;.<;.[;.};.|;.1;.2;.^5 +g PJ 4N rZ >5 tY jd 3;.4;.&7 {u ^#.q/ 5;.6;.Fx 7;.5 .&Q 8;.9;.0;.qx IS a;.VE b;.c;.d;.e;.f;.g;.h;.Up i;.j;.1f k;.sw an l;.m;.n;.%1 o;.0g ux `4 p;.r+.p;.q;.r;.s;.t;.$! u;.v;.TK w;.Tq x;.y;.z;.A;.B;.C;.D;.E;.F;.G;.H;.",
"I;.J;.K;.L;.M;.N;.O;.P;.Q;.R;.S;.T;.U;.[C =B V;.W;.X;.XY l2 Y;.Z;.R; YV EU sy `;.ld  >..>.+>.@>.#>.P%.$>.v0 -c %>.wI &>.*>.aO =>.#f [v ->.;>.|v >>.dY ,>.nc '>.jj )>.|8 UJ jv fp Cx 0D !>.~>.7=.{>.qk 8j jv ]>.e, 3 .m-.uH al zx )V 'b 8..qF Q=.^>./>.(>._>.:>.<>.[>.}>.|>.1>.2>.!} qR 3>.4>.5>.6>.7>.n;.8>.9>.z3 Bc KG 0>.a>.b>.G9 c>.d>.e>.e>.nt f>.g>.ox Id rc EY h>.i>.j>.k>.l>.m>.n>.o>.p>.",
"q>.r>.s>.t>.u>.)D v>.w>.*< x>.y>.z>.A>.M} B>.4-.C>.D>.E>.,J yS |s O< F>.EU V8 eh G>.H>.Ak I>.J>.MR K>.$>.L>.M>.Sl [( N>.O>.P>.Q>.p~ R>.S>.1..%} nc .7 8j nc OJ T>.n6 rc Jd bo Fh #l U>.V>.W>.X>.o/ ~f Y>.Z>.`>. ,.HO :3 Su $f 8S ]} .,.+,.qF qx @,.#,.$,.D[ %,.&,.*,.=,.-,.`+..g )b ;,.jb >,.,,.',.),.!,.dF ~,.Iw 1b {,.],.)a ;t .J ^,./,.(,._,.:,.l` <,.nb (h Qx [,.},.%a |,.1,._< 2,.3,.4,.R8 ",
"5,.6,.7,.8,.9,.0,.a,.b,.c,.d,.(s e,.gD Jf 7U f,.g,.VM 7R h,.dt i,.j,.k,.p*.l,.ld  @.&c OD m,.n,.o,.p,.q,.&^ r,.Ux H%.s,.t,.,9 u,.v,.w,.x,.y,.oh z,.z,.mx ~,.uY ox ow A,.al B,.C,.O< ld D,.E,.6v :M =N kD F,.G,.H,.I,.J,.K,.:3 L,.Kk M,.x@.Y1 =_ $_  _ N,.O,.P,.Q,.R,.S,.)L o~ T,.!b e| `X U,.V,.W,.X,.HT Y,.Kd Jd bu E5 JV $} T=.Z,.t=.*l `,.Aq OK  '.US .'.+'.@'.#'.$'.%'.&'.mx *'.W% ='.-'.;'.",
">'.,'.''.)'.!'.~'.{'.]'.^'./'.nd ('.H%._'.:'.<'.['.}'.|'.1'.2'.3'.>C 4'.5'.=#.6'.mD 7'.:|  y 8'.9'.0'.a'.b'.wU @P c'.le yq l2 d'.e'.f'._P 18 g'.h'.h'.0'.Ji |: i'.0U 4V j'.k'.-R l'.<Q Qk Q1 ui :M bg m'.n'.DH o'.p'.q'.$$.eE GS Uq r'.s'.ZP iT v3 t'.u'.v'.w'.V,.x'.y'.z'.A'.v9 `W }: B'.C'.D'.E'.e6 F'.G'.H'.I'.H7  ,.J'.K'.Ni al L'.M'.N'.Yd O'.P'.ax Q'.R'.S'.T'.U'.~x V'.W'.AL X'.Y'.Z'.`'.",
" )..).+).@).#).$).(! %).&).*).=).-).;).>).,).').)).!).~).{).]).~b ^)./).LQ Jn ()._).:)._$.v8 <).wW Ws [).}).|).1).HK 2).p5 3).4).5).6).eh F1 7).H#.L*.8).9).0).a).s1 b).#' yo B0 kY c).+q d).e).Nn 2n f).g).h).gq u,.i).6>.j).k).l).m).[b RV n).yv !h .X o).p).V;.q).r).Iu s).t).u).:h v).w).x).y).w$.Fw z).U2 Uy A).o*.B).B).C).D).E).F).1;.mo :1 1P G).8,.CQ H).I).J).K).L).M).N).O).P).Q).8C ",
"R).S).xU T).U).V).x< W).X).Y).Z).`). !..!.+!.@!.1_ #!.$!.%!.&!.HD *!.=!.-!..h !M ;!.>!.,!.'!.)!.!!.~!.{!.`).]!.^!./!.(!._!.:!.<!.$h [!.}!.oO >l vV kc |!.1!.2!.3!.4!.5!.6!.7!.8!.9!.0!.a!.b!.c!.d!.e!.f!.g!.h!.P< i!.j!.k!.cm l!.m!.jD n!.8b o!.Z%.p!.q!.r!.s!.t!.u!.v!.w!.,K 1: x!.Tc y!.z!.A!.B!.7u C!.on D!.E!.0M 1d TA F!.G!.H!.I!.J!.K!.L!.M!.N!.O!.H{ JS P!.M@ Q!.R!.S!.T!.U!.V!.W!.m& X!.",
"Xm k-.Y!.Z!.RB `!. ~..~.+~.@~.#~.$~.%~.&~.*~.=~.-~.;~.>~.,~.'~.)~.4u !~.W@.~~.{~.]~.^~./~.(~._~.:~.<~.[~.}~.{Q |~.1~.2~.3~.m .4~.5~.6~.7~.s9 8~.9~.3L 0~.a~.oe b~.C6 c~.d~.e~.#* f~.g~.h~.i~.j~.k~.l~.W8 m~.n~.ED 0E o~.Pe i4 p~.q~.,k |g r~..J hU w@.F*.s~.t~.u~.UE v~.w~.x~.y~.z~.A~.B~.C~.D~.E~.F~.G~.H~.I~.J~.K~.=>.at L~.-H M~.N~.O~.1n P~.Q~.R~.!M S~.T~.U~.V~.W~.X~.Y~.Z~.`~. {..{.+{.@{.",
"#{.${.%{.&{.z1 *{.={.-{.;{.>{.,{.'{.){.!{.~{.{{.]{.^{./{.({.za _{.:{.<{.W;.[{.}{.|{.1{.2{.3{.XC 4{.5{.6{.7{.8{.9{.0{.a{.b{.c{.FD F%.*c nT d{.e{.f{.a| =9 u&.=V g{.h{.i{.j{.k{.F).l{.m{.n{.o{.p{.q{.r{.s{.A>.w9 t{.In u{.v{.Rb w{.wq }l Sq x{.CE kw hv y{.z{.+%.n=.A{.B{.C{.D{.E{.F{.G{.N' H{.I{.J{.K{.oq L{.M{.N{.O{.P{.xo Q{.R{.!7 S{.T{.U{.V{.W{.X{.Y{.Z{.`{. ]..].+].@].#].$].%].&].*].=].-].",
";].>].,].'].)].!].~].{].]].^]./].(].:T _].mf :].<].H[ [].} .Xs L7 }].+B |].1].cb HI 2].;!.3].4].5].6].>!.7].8].9].0].a].b].c].d].:Y wG e].D9 L{.f].g].-;.|].h].i].j].k].l].X! m].n].nW  G o].p].l@ q].rR r].s].t].u].v].w].x]./  y].z].hE A].y+.6| Mw 4s b4 o!.B].C].D].E].LT F].G].H].I]._^ J].C>.K].L].)_ M].Rp N].O].P].q~.IJ T{.C' Q].R].CU S].T].U].`G _g r].V].W].X].2=.1=.}4 Y].Z].z; `].",
" ^..^.+^.@^.#^.$^.(: %^.&^.*^.=^.-^.;^.>^.,^.'^.)^.!^.~^.{^.wM ]^.2u 9| ^^./^.N` (^.j#.3S _^.:^.<^.[^.}^.|^.1^.2^.3^.4^.5^.6^.7^.sW ]n 8^.vy 9^.0^.pv a;.f,.a^.b^.c^.u*.d^.e^.f^..9 g^.h^.i^.z'.j^.k^.YV l^.m^.>n w  n^.o^.p^.q^.r^.s^.4N rq bv w=.04 vG !k cb t^.E_ u^.v^.w^.x^.V=.y^.z^.A^.B^.C^.D^.E^.!@.E^.F^.G^.H^.*T ed 3Q I^.k@.Ev 5h FJ J^.K^.L^.M^.{%.N^.O^.P^.Q^.R^.S^.T^.U^.V^.W^.X^.",
"Y^.Z^.`^. /../.+/.@/.#/.$/.%/.&/.*/.=/.-/.;/.>/.,/.'/.)/.!/.)8 ]^.~/.{/.]/.^/.=R Ys mc //.(/._/.:/.</.[/.}/.g*.|/.1/.2/.3/.4/.5/.W,.6/.7/.+Z e8 t| 8/.9/.Av ;r 0/.a/.8&.b/.d..c/.d/.bt e/.s&.(n f/. &.FQ g/.h/.i/.j/.k/.l/.m/.n/._^.o/.@'.p/.q/.x+.Xd ]u 2@.r/.s/._;.t/.u/.v/.w/.-G CI x/.y/.A^.z/.pM A/.ES B/.S{.C/.3n D/.=h E/.Rq F/.G/.H/.t| I/.J/.1: K/.L/.M/.N/.O/.P/.Q/.R/.S/.T/.U/.V/.W/.",
"X/.Y/.Z/.`/. (..(.+(.@(.c*.#(.$(.%(.zK &(.*(.=(.-(.;(.>(.)Q 'P ,(.'(.UX h: Nk (P &*.m| KQ )(.]R !(.gn ~(.{(.B0 ](.A9 ^(./(.d1 ((._(.D~.:(.$n NK KS Rj <(.[(.}(.O3 |(.1(.2(.3(.4(.5(.6(.)Q jR 7(.g0 8(.D9 9(.0(.a(.b(.%; c(.d(.e(.`( nG 8x f(.w3 g(.fX }l Gv [v h(.i(.j(.k(.l(.m(.Vg n(.&t o(.p(.q(.r(.s(.t(.Ah y/ H^.u(.v(.w(.Ir x(.y(.z(.9S A(.RJ B(.C(.D(.E(.F(.G(.H(.I(.J(.K(.L(.M(.N(.O(.P(.",
"Q(.R(.S(.T(.U(.V(.W(.X(.Y(.Z(.`(.ou  _.._.+_.@_.#_.$_.%_.&_.*_.=_.y} -_.LV gg ;_.>_.DE +%.yi ,_.v8 '_.)_.!_.g*.~_.$h {_.]_.^_.e5 XY tX ;k |../_.(_.eE 'H __.:_. f :, <_.[_.}_.|_.1_.2_.3_.4_.lR 5_.6_.$a 7_.*(.pz B+.z(.8_.9E 9_.eE )>.1..0_.ph a_.fX ph ~U Ni b_.c_.wn d_.e_.=T #} f_.g_.h2 h_.i_.j_.k_.l_.8f m_.c4 dY n_.4N J3 o_.p_.q_.9( t| 02 r_.ox s_.w< t_.u_.v_.w_.x_.y_.z_.A_.B_.C_.YW ",
"D_.E_.F_.G_.H_.I_.J_.QT U;.K_.L_.M_.p6 N_.O_.P_.Q_.R_.S_.g9 5@.%%.T_.m6 rv RI >g U_.V_.W_.X_.Y_.Z_.`_. :..:.+:.@:.#:.$:.%:.&:.*:.9S =:.Ar uq (h xG -:.;:.-r >:.hi ,:.':.):.!:.~:.{:..1 ]:.,9 hN ^:./:.'a &+.^c (:._:.::.M0 Vj <:.E,.[:.}:.|+.=k pk Z,.|:.|:.I'.wU yh Q2 #>.1:.b4 D5 _o YK Dc 2:.3:.;#.)&.4:.5:.6:.9x }../+.NG 7o oO 7:.8:.F$.9:.0:.a:.b:.c:.,5 ZB d:.e:.f:.g:.h:.i:.j:.k:.l:.m:.",
"n:.o:.p:.q:.r:.s:.t:.u:.v:.w:.x:.y:.z:.A:.B:.^0 C:.D:.E:.F:.G:.H:.F- +H I:.J:.K:..a ]c L:.M:.N:.O:.P:.8y Q:.kV qm R:.S:.T:.U:.V:.W:.0j ,g yp $b X:.Y:.%b Z:._3 `:. <..<.+<.@<.#<.,{.$<.%<.&<.*<.=<.-<.5 .;<./M !s AS ><.,<.-!.'<.Lk )<.A,.!<.$x kv 3N hj ~<.{<.]<.^<./<.y9 (<.HJ 8C _B _<.:<.<<.[<.}<.|<.1<.2<.3<.4<.fQ zU 5<.6<.7<.8<.9<.0<.a<.b<.c<.d<.e<.ep f<.g<.h<.i<.j<.k<.l<.m<.n<.Em o<.",
"p<.q<.r<.s<.t<.u<.v<.w<.x<.y<.z<.A<.B<.C<.D<.E<.F<.G<.H<.I<.J<.K<.L<.M<.N<.O<.*s P<.Q<.R<.S<.nI T<.U<.a#.V<.W<.X<. ' Y<.Z<.pC `<. [..[.9#.+[.@[.#[.Wz {$ $[.%[.&[.*[.3).=[.-[.;[.>[.,[.x9 '[.)[.[/.T2 ![.~[.{[.][.qf ^[.C$.~n /[.([.5c _[.bl sz %A 8#.:[.(m <[.[[.}[.|[.1[.2[.AH 3[.4[.:n 9^.5[.6[.7[.el 8[.9[.0[.a[.b[.c[.d[.e[.f[.g[.h[.U@ i[.j[.k[.l[.m[.n[.o[.p[.q[.r[.s[.t[.u[.v[.s<.w[.x[.",
"y[.z[.A[.B[.C[.D[.E[.n* F[.G[.H[.I[.J[.K[.L[.M[.N[.O[.P[.Q[.R[.!L S[.T[.U[.V[.W[.X[.Y[.4Z Z[.j< `[. }.+,..}.+}.@}.#}.m_.$}.%}.:f &}.*}.=}.-}.;}.>}.yP ,}.'}.Qs G! )}.!}.~}.{}.;% <).g#.]}.^}./}.(}._}.7M 2m :!.<: :}.<}.[}.}}.|}.8@ 1}.Ru N!.2}.3}.4}.fV 5}.6}.7}.8}.9}.0}.a}.b}.1f c}.$F d}.e}.f}.g}.h}.i}.j}.k}.l}.m}.n}.o}.p}.q}.r}.s}.t}.u}.v}.w}.x}.y}.z}.A}.B}.C}.D}.E}.F}.G}.H}.I}.J}.K}.",
"L}.M}.N}.O}.P}.Q}.R}.S}.T}.U}.V}.W}.X}.Y}.Z}.:4 `}. |..|.+|.T1 @|.#|.$|.%|.&|.*|.Xl =|.-|.;|.>|.9_.,|.sN '|.)|.!|.~|.{|.]|.^|./|.(|._|.:|.iw <|.76 [|.HU @N }|.F! ||.1|.6W [3 2|.3|.4|.5|.6|.&b %P N@.7|.=..8|.9|.SY 0|.a|.x&.b|.~b sW c|.d|.0v e|.f|.g|.h|.i|.l!.j|.k|.l|.m|.n|.;>.o|.kh (+.p|.q|.r|.s|.t|.u|.mZ v|.w|.Ef x|.y|.!9 z|.A|.B|.C|.D|.E|.Z> F|.G|.H|.I|.J|.K|.L|.M|.N|.O|.P|.Q|.R|.",
"S|.T|.U|.V|.W|.m} O~ X|.Y|.Z|.`|. 1..1.+1.@1.#1.$1.%1.&1.*1.pr =1.-1.;1.>1.,1.'1.Jb )1.!1.~1. ..{1.%^.Y'.8(.]1.^1./1.(1._1.g .jH :1.<1.[1.[6 }1.|1.11.jH 21.31.41.51.61.(g rx 71.lu Nz 4U 81.91.01.a1.Do b1.c1.d1.e1.f1.g1.h1.i1.O0 ,;.j1.w).k1.l1.hl m1.n1.o1.p1.q1.r1.s1.t1.w=.u1.uy v1.(+.w1.x1.y1.z1.A1.B1.C1.D1.E1.F1.e/ G1.H) H1.I1.J1.K1.L1.M1.N1.O1.P1.Q1.R1.S1.T1.U1.V1.W1.X1.Y1.Z1.`1.",
" 2..2.+2.@2.#2.$2.%2.&2.*2.=2.-2.;2.>2.,2.]8 'V '2.)2./..!2.NY ~> ~2.{2.]2.^2./2.#l (2._2.:2.<2.F; [2.}2.|2.12.22.32.42.'a 52.62.72.82.92.02.a2.b2.c2.#3 d2.e2.f2.&l g2.kx h2.i2.j0 |2.j2.gp k2.l2.m2.n2.o2.p2.q2.r2.s2.t2.u2.8e v2.w2.x2.y2.qu z2.Lx A2.l2 <P +z 1v B2.C2.D2.j,.E2.F2.jg du G2.H2.I2.J2.K2.L2.M2.N2.O2.P2.Q2.R2.S2.T2.U2.V2.W2.X2.Y2.Z2.`2. 3..3.+3.@3.#3.$3.%3.&3.*3.=3.-3.;3.",
">3.,3.'3.)3.!3.~3.{3.]3.^3.gJ /3.8!.(3._3.:3.y[ <3.[3.Kl qQ }3.IH fx |3.13.23.YA nW kV >9 33.43.@9 53.63.J/.73.83.93.=M 41.03.a3.b3.c3.d3.e3.f3.g3.h3.i3.oo j3.k3.l3.m3.g^.n3.o3.p3.q3.r3.s3.t3.#>.u3.v3.w3.x3.y3.Qj @c W:.z3.Jh z` A3.B3.C3.Hf D3.E3.F3.)B 8E G3.H3.z{ QB I3.=%.J3.gw #=.sv |:.v'.K3.b, L3.M3.N3.O3.P3.Q3.R3.S3.T3.U3.V3.W3.X3.Y3.Z3.`3. 4..4.+4.@4.#4.$4.%4.&4.r@ *4.=4.-4.;4.",
">4.,4.'4.)4.!4.~4.{4.]4.^4./4.(4.B*.$g _4.L:.:4.<4.[4.W;.}4.|4.14.2u !C 24.34.Ie  G jV &L 44.54.64.74.84.:%.94.04.a4.(P Ik b4.[#.+-.c4.d4.e4.f4.g4.h4.i4.j4.<& k4.20 l4.m4.n4.o4.p4.>1 q4.r4.Ey Me { .s4.t4.u4.v4.2=.D~.+f |{.*1.w4.x4.l3.y4.z4.VR A4.B4.C4.D4.E4.$>.F4.V8 G4.H4.I4.4s 1@.iv dY J4.K4.R^ L4.!L J{.ox M4.N4.O4.P4.Q4.R4.S4.T4.U4.V4.W4.X4.Y4.Z4.`4. 5..5.+5.@5.#5.$5.%5.&5.*5.=5.",
"-5.;5.>5.,5.'5.)5.!5.~5.{5.]5.6] ^5.v4.Do #' /5.(5..y _5.:5.<5.[5.}5.|5.15.'o <m v .mT 25.35.45.3|.55.65.75.85.95.05.!{ a5.b5.c5.d5._h e5.f5.g5.h5.i5.j5.k5.`m l5.m5.n5.o5.p5.H^.q5.Se mY 9/.T; n4 r5.y3.Z*./%.O].s5.t5.[l u5.XK Q>.y. v5.Y[ &Q w5.o..FI x5.y5.u. UM z5.Y, A5.B5.C5.D5.<c #=.7 .HV E5.@|.F5.:L G5.0g H5.I5.J5.cc K5.L5.M5.N5.O5.P5.Q5.R5.S5.T5.{}.U5.V5.W5.X5.Y5.Z5.`5. 6..6.+6.",
"@6.#6.$6.%6.&6.*6.=6.-6.;6.>6.,6.If '6.Zw )6.!6.~6.{6.]6.^6./6.(6._6.:6.<6.[6.]} }6.bt NY |6.16.26.36.46.56.66.76.86.96.06.a6.b6.c6.d6.e6.f6.r..g6.h6.>A i6.j6.g5.k6.!W l6.kz m6.n6.o6.p6.q6..! r6.s6.6b </.X8 t6.u6.v6.w6.x6..g 70 y6.z6.K~.A6.B6.C6.BO v .Qk D6.x*.@t E6.F6.nV H'.U3 +7 6| #$.G6.H6.}0 fM I6.J6.K6.l` p~ L6.M6.N6.O6.g= P6.Q6.p^.R6.S6.T6.U6.V6.W6.X6.Y6.Z6.`6. 7..7.+7.@7.#7.",
"$7.%7.&7.*7.=7.-7.;7.>7.,7.'7.)7.!7.VE (2.~7.{7.l< e1.]7.Q5 ^7./7.(7._7.:7.8,.-!. >.X: <7.7^.[7.}7.:[.|7.0P .J /} 17.27.37.];.sI 47.57.67.77.87.97.07.>A a7.b7.c7.d7.e7.f7.g7.h7.2[.i7.+> uI j7.Zq k7.l7.)A $m h].m7.yq U&.n7.gp o7.xo p7.]v q7.r7.s7.t7..9 L,.2D &h K3 pc X%.Jl :X =, ZN 4b u7.v7.w7.f6 x7.l~.y7.z7.A7.B7.(' C7.D7.E7.F7.G7.H7.I7.J7.K7.L7.M7.N7.U$ O7.P7.Q7.R7.S7.T7.U7.V7.W7.",
"X7.aG Y7.Z7.DM `7. 8..8.+8.@8.#8.$8.%8.&8.*8.=8.-8.;8.>8.,8.]k '8.)8.!8.~8.{8.]8.^8./8.(8._8.:8.<8.pC [8.FS k,.}8.Da |8.18.28.38.48.58.68.78.E..LI a7.88.98.08.a8.b8.c8.d8.e8.f8.g8.h8.#u pW i` @h i8.j8.k8.l8.m8.n8.o8.p8.q8.r8.yq s8.t8.u8.jj v8.w8.x8.y8.q(.z8.(_.A8.B'.>*.B8.C8.D8.z,.E8.pS F8.G8.H8.I8.eO J8.K8.L8.M8.N8.O8.}j P8.Q8.R8.S8.T8.U8.V8.M7.W8.X8.Y8.Z8.`8. 9..9.+9.@9.#9.$9.%9.",
"&9.*9.=9.-9.;9.>9.,9.'9.DY )9.!9.~9.{9.]9.^9./9.(9._9.:9.<9.[9.@4.}9.|9.19.29.39.5& 49.59.69.79.89.99.09.a9.b9.c9.@N d9.e9.f9.g9.h9..^ i9.j9.k9.l9.m9.n9.o9.p9.q9.r9.s9.t9.d* u9.v9.I{ w9.x9.y9.z9.A9.B9.C9.D9.E9.F9.xn G9.H9.67 19.k[.I9.J9.K9.L9.M9.N9.O9.- .P9.Q9.R9.S9.T9.U9.V9.K@ W9.X9.Y9.Z9.`9. 0..0.N~.+0.@0.`# #0.$0.%0.&0.*0.hG =0.-0.;0.>0.,0.'0.)0.!0.~0.{0.]0.^0./0.(0._0.:0.<0.[0.",
"}0.|0.10.20.30.40.50.60.70.80.90.00.a0.b0.c0.d0.e0.f0.g0.h0.i0.j0.k0.l0.P<.m0.n0.o0.p0.q0.r0.s0.t0.x|.u0.v0.w0.x0.y0.z0.A0.B0.C0.D0.E0.F0.G0.H0.I0.J0.K0.L0.M0.N0.O0.K- P0.Q0.R0.U>.S0.T0.U0.V0.x7 W0.X0.Y0.Z0.+<.`0. a..a.+a.@a.39.#a.$a.%a.&a.*a.=a.-a.;a.>a.q@ ,a.'a.)a.!a.~a.y] {a.]a.^a./a.(a.F0._a.>^.hM :a.<a.[a.}a.|a.1a.2a.3a.4a.5a.6a.7a.8a.9a.0a.aa.ba.ca.da.ea.fa.ga.j7 ha.ia.ja.ka.",
"la.ma.na.oa.pa.qa.ra.sa.ta.ua.va.wa.xa.ya.za.Aa.Ba.Ca.Da.Ea.Fa.Ga.Ha.KT y*.Ia.Ja.Ka.La.Ma.fM Na.Oa.Pa.Qa.Ra.D].Sa.Ta.Ua.Va.Wa.Xa.Ya.Ka.Za.`a. b.,v J5 .b.+b.@b.#b.$b.%b.&b.*b.=b.>c a: -b.;b.>b.,b.'b.)b.!b.~b.{b.]b.^b./b.(b._b.:b.<b.[b.}b.|b.1b.2b.3b.4X 4b.5b.MM 6b.7b.8b.9b.'c 0b.ab.bb.cb.db.0^ eb.fb.gb.hb.ib.jb.kb.lb.mb.nb.ob.pb.qb.rb.sb.tb.ub.vb.wb.xb.yb.zb.Ab.Bb.Cb.Db.Eb.Fb.Gb.Hb.",
"Ib.Jb.Kb.Lb.Mb.Nb.Ob.Pb.Qb.Rb.Sb.Tb.Ub.Vb.Wb.Xb.Yb.Zb.`b. c..c.+c.@c.#c.58.PA $c.%c.&c.*c.=c.-c.;c.>c.,c.'c.)c.!c.l4 |-.~c.{c.]c.^c./c.(c._c.X].:c.<c.[c.}c.|c.1c.2c.3c.4c.5c.6c.7c.8c.9c.0c.ac.bc.cc.dc.^..ec.fc.gc.hc.ic.jc.Y_ kc.lc.mc.nc.oc.pc.qc.rc.sc.tc.uc.vc.qN wc.xc.yc.zc.Ac.Bc.*I Cc.aH Dc.8=.Ec.Fc.Gc.Hc.Ic.Jc.Kc.Lc.Mc.Nc.Oc.Pc.Qc.Rc.Sc.Tc.Uc.Vc.Wc.Xc.Yc.Zc.`c. d..d.+d.@d.IO #d.",
"$d.%d.&d.*d.=d.-d.;d./e >d.,d.L~ 'd.)d.!d.~d.{d.]d.^d./d.(d._d.:d.<d.[d.}d.YF YF $c.|d.1d.2d.3d.4d.-: J{ 5d.6d.7d.8d.9d.[%.mn 0d.ad.bd.cd.dd.ed.>N %5 fd.gd.hd.id.U& jd.kd.ld.md.nd.od.pd.qd.rd.sd.td.P: ud.vd.wd.xd.yd.zd.Ad.Bd.Cd.ZH Dd.Ed.Fd.Gd.Hd.Id.Jd.Kd.Ld.Md.Nd.Od.Pd.Qd.Rd.Sd.+R NJ Td.Ud.Vd.Wd.Xd.Yd.Zd.`d. e.cz .e.gN +e.@e.#e.$e.%e.&e.*e.=e.-e.;e.>e.,e.'e.)e.!e.~e.{e.]e.^e./e.(e.",
"_e.:e.<e.[e.}e.|e.1e.2e.3e.4e.5e.6e.7e.8e.9e.0e.ae.be.ce.de.ee.fe.ge.he.ie.`-.y/ C8.je.ke.le.me.ne.oe.pe.qe.re.se.ri te.ue.ve.we.xe.ws ye.ze.Ae.Be.Ce.De.Ee.Fe.Ge.He.Ie.Je.Ke.Le.Me.Ne.Oe.*A Pe.Qe.Re.Se.Te.Ue.Ve.We.Xe.Ye.%: *. Ze.`e. f..f.+f.@f.#f.$f.%f.&f.*f.=f.-f.;f.>f.G9 `4 !, ,f.|% 'f.)f.!f.~f.{f.]f.^f./f.(f._f.:f.<f.[f.}f.|f.1f.2f.M| 3f.4f.5f.6f.7f.8f.'e.9f.e  0f.af.bf.cf.df.3} ",
"ef.ff.gf.hf.if.jf.kf.lf.mf.nf.of.pf.qf.rf.sf.tf.uf.vf.wf.xf.yf.zf.Af.Bf.Cf.Df.Ef.Ff.Gf.Hf.If.Jf.Kf.Lf.Mf.Mh Nf.Of.N< Pf.y^.Qf.Rf.Sf.Tf._y Uf.Vf.Wf.Xf.Yf.Zf.`f. g..g.+g.@g.#g.$g.%g.&g.*g.=g.-g.;g.>g.5# ,g.'g.)g.!g.~g.{g.]g.^g./g.(g._g.:g.<g.[g.}g.|g.1g.2g.3g.4g.5g.6g.7g.8g.<  9g.0g.ag.bg.cg.dg.eg.fg.gg.hg.2f.ig.jg.kg.a+ lg.mg.ng.og.pg.qg.rg.sg.tg.ug.vg.wg.xg.a0.yg.$d.zg.Ag.Bg.Cg.%& ",
"Dg.Eg.Fg.Gg.Hg.Ig.Jg.Jg.Kg.Lg.Mg.Ng.Og.Pg.Qg.Rg.Sg.Tg.Ug.Vg.Wg.Xg.Yg.Zg.`g. h.`-..h.+h.@h.#h.$h.%h.&h.*h.=h.61.-h.;h.>h.,h.'h.32.)h.1{ !h.~h.{h.eS ]h.^h./h.(h._h.:h.<h.[h.}h.F' |h.1h.2h.3h.4h.G@ 5h.6h.7h.8h.9h.0h.ah.bh.ch.dh.eh.fh.gh.hh.ih.jh.kh.lh.mh.nh.oh.ph.qh.rh.~c sh.th.hH uh.Bv vh.wh.xh.yh.zh.Ah.Bh.p_ zs Ch.Dh.Eh.Fh.Gh.Hh.Ih.Jh.Kh.Lh.Mh.Nh.Oh.Ph.Qh.Rh.Sh.Th.Uh.Vh.Wh.Xh.Yh.Zh.",
"`h. i..i.+i.@i.#i.$i.2J %i.&i.*i.=i.-i.;i.>i.,i.'i.)i.!i.~i.{i.]i.^i./i.(i._i.:i.<i.[i.}i.|i.1i.2i.3i.4i.5i.0^ 6i.7i.8i.9i.s~ 0i.ai.bi.ci.di.8=.4, ei.fi.gi.hi.ii.c{.o@ ji.ki.li.mi.*r ni.oi.pi.qi.ri.si.ti.Z3.ui.vi.wi.^R _!.xi.yi.zi.Ai.Bi.Ci.Di.Ei.Fi.Gi.Hi.Ii.Ji.Ki.Li.Mi.f).U( Ni.Oi.Pi.Qi.#6 Ri.Si.Ti.Ui.PV Vi.Wi.Xi.Yi.Zi.`i. j..j.+j.@j.#j.$j.%j.&j.*j.=j.-j.;j.>j.,j.'j.)j.z;.!j.~j.{j.",
"]j.^j./j.(j._j.:j.<j.[j.}j.|j.1j.2j.3j.4j.5j.6j.7j.8j.9j.0j.aj.bj.S; 7F cj.dj.hH ej.fj.gj.hj.ij.Nc.J| jj.kj.lj.mj.nj.oj.9$.!;.pj.qj.rj.sj.!].Z].tj.uj.vj.wj.xj.yj.zj.Aj.Bj.Cj.Dj.Ej.Fj.F{.Gj.Hj.w& Ij.Jj.Kj.Lj.Mj.Nj.Oj.Pj.Qj.] .Rj.Sj.Tj.Uj.Vj.Wj.Xj.Yj.Zj.`j.K:  k..k.Zr +k.@k.#k.$k.%k.&k.*k.=k.-k.;k.>k.,k.'k.)k.!k.~k.{k.]k.^k./k.(k.@7 O) _k.:k.<k.[k.}k.|k.1k.2k.3k.>@ 4k.5k.6k.7k.8k.9k.",
"0k.ak.bk.ck.dk.ek.fk.gk.hk.ik.jk.kk.lk.mk.nk.ok.pk.qk.rk.sk.tk.uk.vk.wk.xk.yk.zk.Ak.Bk.Ck.Dk.Rt C0 }B Ek.Fk.Gk.Hk.Ik.Jk.Kk.Lk.Mk.Nk.PN Ok.Pk.Qk.Rk.G1.Sk.~= Tk.Uk.Vk.Wk.Xk.Yk.Zk.`k. l..l.+l.@l.#l.$l.%l.&l.*l.=l.-l.;l.>l.,l.'l.)l.!l.~l.{l.]l.^l./l.0<.(l._l.:l.<l.[l.}l.Zk |l.9; 1l.2l.`i..x 3l.4l.5l.6l.7l.8l.9l.0l.al.bl.cl.dl.el.fl.gl.hl.il.jl.kl.ll.ml.nl.ol.pl.ql.rl.sl.tl.ul.vl.wl.xl.",
"yl.zl.Al.Bl.Cl.Dl.El.Fl.Gl.Hl.C2 Il.Jl.Kl.Ll.Ml.Nl.Ol.Pl.Ql.Rl.Sl.Tl.Ul.Vl.Wl.Xl.Yl.Zl.`l. m..m.+m.@m.v# #m.$m.%m.&m.6j *m.=m.-m.;m.>m.,m.'m.)m.!m.~m.{m.]m.^m./m.(m._m.:m.<m.[m.}m.|m.1m.2m.3m.4m.5m.6m.7m.([ 8m.9m.0m.am.bm.cm.dm.em.fm.gm.hm.im.jm.km.lm.mm.nm.om.pm.qm.w{.rm.sm.tm.um.vm.wm.xm.ym.zm.Am.Bm.Cm.Dm.Em.Fm.Gm.Hm.Im.Jm.Km.Lm.Mm.Nm.Om.9j.Pm.Qm.Rm.Sm.Tm.Um.Vm.Wm.Xm.Ym.Zm.`m. n.",
".n.+n.@n.#n.$n.%n.&n.*n.=n.-n.;n.>n.,n.y4 'n.)n.!n.~n.{n.]n.^n./n.bk (n._n.:n.<n.[n.}n.|n.1n.D) 2n.3n.4n.5n.6n.7n.8n.9n.0n.an.bn.cn.dn.en.fn.gn.hn.in.jn.kn.ln.mn.nn.on.pn.qn.rn.sn.tn.un.vn.wn.xn.yn.zn.An.Bn.Cn.Dn.En.Fn.Gn.Hn.In.Jn.Kn.Ln.Mn.Nn.On.Pn.Qn.Rn.Sn.Tn.Un.Vn.Wn.Xn.Yn.Zn.`n. o..o.+o.@o.#o.$o.%o.&o.*o.=o.-o.;o.>o.,o.'o.)o.!o.~o.{o.]o.^o./o.(o._o.:o.E8 <o.[o.}o.|o.1o.2o.3o.4o."};
