/* XPM */
static char * player_up_xpm[] = {
"64 64 665 2",
"  	c #785E4E",
". 	c #775E4E",
"+ 	c #775D4D",
"@ 	c #765D4D",
"# 	c #765C4D",
"$ 	c #765C4C",
"% 	c #755C4C",
"& 	c #72594A",
"* 	c #6F5748",
"= 	c #6D5547",
"- 	c #6C5547",
"; 	c #6A5346",
"> 	c #624D41",
", 	c #5C483E",
"' 	c #5A473D",
") 	c #6E5647",
"! 	c #644E40",
"~ 	c #584438",
"{ 	c #503E33",
"] 	c #4E3C31",
"^ 	c #4F3C32",
"/ 	c #775D4E",
"( 	c #755B4C",
"_ 	c #725949",
": 	c #6D5544",
"< 	c #674E3C",
"[ 	c #624933",
"} 	c #5E442D",
"| 	c #5D432B",
"1 	c #71594A",
"2 	c #6B5447",
"3 	c #695243",
"4 	c #6E533E",
"5 	c #765639",
"6 	c #7D5A34",
"7 	c #825C2F",
"8 	c #835D30",
"9 	c #735A4B",
"0 	c #604B40",
"a 	c #614A3A",
"b 	c #725438",
"c 	c #886137",
"d 	c #9A6D38",
"e 	c #A47437",
"f 	c #A77638",
"g 	c #A67638",
"h 	c #A67538",
"i 	c #705849",
"j 	c #654F41",
"k 	c #5D4739",
"l 	c #634933",
"m 	c #7C5A32",
"n 	c #996D37",
"o 	c #B17D3C",
"p 	c #BD863E",
"q 	c #C1883F",
"r 	c #C0883F",
"s 	c #C0873E",
"t 	c #BF873E",
"u 	c #755C4D",
"v 	c #705848",
"w 	c #6E5544",
"x 	c #6B513D",
"y 	c #6C5036",
"z 	c #785631",
"A 	c #8F6532",
"B 	c #A97739",
"C 	c #BE863E",
"D 	c #C98E41",
"E 	c #CD9142",
"F 	c #CC9142",
"G 	c #CB9042",
"H 	c #675041",
"I 	c #6C523D",
"J 	c #775839",
"K 	c #866036",
"L 	c #966A35",
"M 	c #B7813C",
"N 	c #C58B40",
"O 	c #D09343",
"P 	c #CF9343",
"Q 	c #CF9242",
"R 	c #604C40",
"S 	c #5C4739",
"T 	c #6B4E35",
"U 	c #845F35",
"V 	c #9D6F38",
"W 	c #AF7C3A",
"X 	c #BB843D",
"Y 	c #C38A3F",
"Z 	c #CE9242",
"` 	c #745B4B",
" .	c #685245",
"..	c #58453B",
"+.	c #533F31",
"@.	c #6A4C2E",
"#.	c #8C6433",
"$.	c #AC7939",
"%.	c #C0883E",
"&.	c #C88E41",
"*.	c #CC9042",
"=.	c #675044",
"-.	c #544239",
";.	c #503C2E",
">.	c #694B2B",
",.	c #906633",
"'.	c #B17D3B",
").	c #C68C40",
"!.	c #665044",
"~.	c #4F3B2E",
"{.	c #916633",
"].	c #B27E3B",
"^.	c #C88D40",
"/.	c #D19443",
"(.	c #CF9342",
"_.	c #675144",
":.	c #554339",
"<.	c #4F3C2E",
"[.	c #674B2B",
"}.	c #8E6432",
"|.	c #AE7B3A",
"1.	c #C38A40",
"2.	c #564339",
"3.	c #64482B",
"4.	c #875F31",
"5.	c #A57539",
"6.	c #B8833E",
"7.	c #C08840",
"8.	c #C18941",
"9.	c #685144",
"0.	c #574439",
"a.	c #4D3A2E",
"b.	c #5B422B",
"c.	c #785630",
"d.	c #926837",
"e.	c #A3753C",
"f.	c #AA793E",
"g.	c #AB7A3E",
"h.	c #685244",
"i.	c #584439",
"j.	c #4B392E",
"k.	c #513B2A",
"l.	c #674A2E",
"m.	c #7B5834",
"n.	c #896238",
"o.	c #8E663A",
"p.	c #8F673A",
"q.	c #695244",
"r.	c #584539",
"s.	c #4A382E",
"t.	c #4B3629",
"u.	c #5B3F2C",
"v.	c #6B4930",
"w.	c #765034",
"x.	c #7B5335",
"y.	c #7C5336",
"z.	c #58453A",
"A.	c #4D3327",
"B.	c #5F3928",
"C.	c #70412B",
"D.	c #7C462E",
"E.	c #81482F",
"F.	c #82492F",
"G.	c #81492F",
"H.	c #4B382E",
"I.	c #533225",
"J.	c #6B3824",
"K.	c #813F25",
"L.	c #904425",
"M.	c #964626",
"N.	c #974626",
"O.	c #57453A",
"P.	c #4D382E",
"Q.	c #5B3324",
"R.	c #783820",
"S.	c #92401E",
"T.	c #A3451C",
"U.	c #AA481B",
"V.	c #AB481B",
"W.	c #A9481B",
"X.	c #56453A",
"Y.	c #5F3323",
"Z.	c #7F391D",
"`.	c #9A4018",
" +	c #AD4614",
".+	c #B44812",
"++	c #B54911",
"@+	c #675244",
"#+	c #4E382D",
"$+	c #603322",
"%+	c #81391C",
"&+	c #9D4016",
"*+	c #B04610",
"=+	c #B7480D",
"-+	c #B9480D",
";+	c #B7480E",
">+	c #4E382E",
",+	c #B04611",
"'+	c #B8480D",
")+	c #80391C",
"!+	c #9C4017",
"~+	c #AF4612",
"{+	c #B6480F",
"]+	c #B8480E",
"^+	c #564539",
"/+	c #4D372D",
"(+	c #603222",
"_+	c #9D4017",
":+	c #B7480F",
"<+	c #B8490E",
"[+	c #554539",
"}+	c #5F3221",
"|+	c #9D4117",
"1+	c #56463A",
"2+	c #4F382E",
"3+	c #603323",
"4+	c #AE4612",
"5+	c #745B4C",
"6+	c #6A5446",
"7+	c #5B493D",
"8+	c #553E33",
"9+	c #623929",
"0+	c #7D3B22",
"a+	c #95401B",
"b+	c #A74316",
"c+	c #AF4611",
"d+	c #B34710",
"e+	c #B4470F",
"f+	c #6E5748",
"g+	c #655043",
"h+	c #60493C",
"i+	c #664334",
"j+	c #76412C",
"k+	c #874024",
"l+	c #963F1A",
"m+	c #A14113",
"n+	c #AA430F",
"o+	c #B2460B",
"p+	c #B64709",
"q+	c #B7480A",
"r+	c #B7480C",
"s+	c #B6480E",
"t+	c #6B5244",
"u+	c #6B4D3E",
"v+	c #6D4636",
"w+	c #733F2B",
"x+	c #7F3B20",
"y+	c #8E3C18",
"z+	c #9F4013",
"A+	c #AD440D",
"B+	c #B5470A",
"C+	c #715849",
"D+	c #6C5244",
"E+	c #63493C",
"F+	c #5E3F32",
"G+	c #643829",
"H+	c #793923",
"I+	c #924021",
"J+	c #A6461F",
"K+	c #B1491C",
"L+	c #B54A19",
"M+	c #B64915",
"N+	c #B64811",
"O+	c #73594A",
"P+	c #665043",
"Q+	c #59483D",
"R+	c #4D3F37",
"S+	c #503B33",
"T+	c #683E33",
"U+	c #844736",
"V+	c #9B4E37",
"W+	c #A85034",
"X+	c #AF4F2D",
"Y+	c #B34C22",
"Z+	c #B54915",
"`+	c #B6480C",
" @	c #B74709",
".@	c #B7480B",
"+@	c #6C5445",
"@@	c #644D40",
"#@	c #5B483D",
"$@	c #4D433B",
"%@	c #43403B",
"&@	c #47413E",
"*@	c #5C4843",
"=@	c #75514A",
"-@	c #8A584D",
";@	c #9A5A4B",
">@	c #A55641",
",@	c #AE5030",
"'@	c #B44A1A",
")@	c #B74705",
"!@	c #B84600",
"~@	c #B74703",
"{@	c #634D3F",
"]@	c #4C3F37",
"^@	c #433E3A",
"/@	c #3F423F",
"(@	c #444747",
"_@	c #535050",
":@	c #665B59",
"<@	c #78625E",
"[@	c #89635C",
"}@	c #995E50",
"|@	c #A7553D",
"1@	c #B14C25",
"2@	c #B64810",
"3@	c #675245",
"4@	c #5B4A3F",
"5@	c #4E423B",
"6@	c #443E3B",
"7@	c #3F403E",
"8@	c #3E4445",
"9@	c #434C4D",
"0@	c #4D5657",
"a@	c #5A6062",
"b@	c #686868",
"c@	c #7A6967",
"d@	c #8D635C",
"e@	c #9E5B4A",
"f@	c #AA5236",
"g@	c #AF4E2A",
"h@	c #B14D26",
"i@	c #B04D28",
"j@	c #B04E29",
"k@	c #6A5345",
"l@	c #644E42",
"m@	c #5C4C43",
"n@	c #544945",
"o@	c #4B4847",
"p@	c #454848",
"q@	c #42484A",
"r@	c #414A4C",
"s@	c #434F51",
"t@	c #4A585A",
"u@	c #546265",
"v@	c #616A6C",
"w@	c #706C6C",
"x@	c #826864",
"y@	c #916158",
"z@	c #9C5B4B",
"A@	c #A15845",
"B@	c #A25743",
"C@	c #A25844",
"D@	c #5F493D",
"E@	c #56453C",
"F@	c #524843",
"G@	c #524F4E",
"H@	c #525556",
"I@	c #4F5658",
"J@	c #4B5456",
"K@	c #455052",
"L@	c #445153",
"M@	c #606A6C",
"N@	c #6B6E6F",
"O@	c #776C6B",
"P@	c #89645E",
"Q@	c #8D635B",
"R@	c #8E625A",
"S@	c #685142",
"T@	c #5E4A3C",
"U@	c #58493F",
"V@	c #5A524B",
"W@	c #605E5A",
"X@	c #646765",
"Y@	c #636766",
"Z@	c #5A6060",
"`@	c #4E5757",
" #	c #475253",
".#	c #4B5759",
"+#	c #566163",
"@#	c #686E70",
"##	c #6E6F70",
"$#	c #726D6D",
"%#	c #766C6B",
"&#	c #776B6A",
"*#	c #786B6A",
"=#	c #705948",
"-#	c #705A48",
";#	c #725D49",
">#	c #756450",
",#	c #7B6D5C",
"'#	c #817669",
")#	c #837C71",
"!#	c #7E7A70",
"~#	c #706E67",
"{#	c #5C5E5A",
"]#	c #4B5251",
"^#	c #4B5455",
"/#	c #555E60",
"(#	c #60696B",
"_#	c #666F71",
":#	c #687072",
"<#	c #697072",
"[#	c #697071",
"}#	c #696F71",
"|#	c #705749",
"1#	c #685243",
"2#	c #705B49",
"3#	c #806A53",
"4#	c #90795E",
"5#	c #9B8467",
"6#	c #A28C71",
"7#	c #A69278",
"8#	c #A5947D",
"9#	c #9C8D79",
"0#	c #887C6C",
"a#	c #6C655A",
"b#	c #51514D",
"c#	c #4A4F50",
"d#	c #535B5D",
"e#	c #5F686A",
"f#	c #656F71",
"g#	c #677173",
"h#	c #667173",
"i#	c #657173",
"j#	c #647173",
"k#	c #5E4A3D",
"l#	c #A9906F",
"m#	c #BA9E7C",
"n#	c #C2A683",
"o#	c #C4AA87",
"p#	c #C1A886",
"q#	c #B59E7F",
"r#	c #9D896F",
"s#	c #7A6B59",
"t#	c #575047",
"u#	c #484B4A",
"v#	c #51585A",
"w#	c #5F6769",
"x#	c #666F70",
"y#	c #667073",
"z#	c #664F42",
"A#	c #564237",
"B#	c #564437",
"C#	c #72604A",
"D#	c #998265",
"E#	c #B99D7B",
"F#	c #CEAF88",
"G#	c #D6B78E",
"H#	c #D8B990",
"I#	c #D3B58D",
"J#	c #C5A984",
"K#	c #A99171",
"L#	c #836F58",
"M#	c #5B4F43",
"N#	c #474746",
"O#	c #4F5558",
"P#	c #5E6668",
"Q#	c #666E70",
"R#	c #687173",
"S#	c #677072",
"T#	c #644D41",
"U#	c #513E34",
"V#	c #514134",
"W#	c #73604B",
"X#	c #9D8567",
"Y#	c #C0A37F",
"Z#	c #D6B68D",
"`#	c #DFBE94",
" $	c #E0C095",
".$	c #DBBB91",
"+$	c #CCAE87",
"@$	c #AF9573",
"#$	c #877258",
"$$	c #5C4F41",
"%$	c #474544",
"&$	c #4F5456",
"*$	c #735A4A",
"=$	c #634D40",
"-$	c #513D34",
";$	c #504034",
">$	c #9E8668",
",$	c #C1A47F",
"'$	c #D7B88E",
")$	c #E2C195",
"!$	c #DCBC91",
"~$	c #CDAF87",
"{$	c #B19573",
"]$	c #887258",
"^$	c #5D4F41",
"/$	c #474543",
"($	c #5E6667",
"_$	c #654E41",
":$	c #534035",
"<$	c #534236",
"[$	c #9C8466",
"}$	c #BDA17D",
"|$	c #D2B38B",
"1$	c #DCBC92",
"2$	c #D7B78E",
"3$	c #C8AB84",
"4$	c #AC9271",
"5$	c #857056",
"6$	c #5B4E40",
"7$	c #4F5457",
"8$	c #676F71",
"9$	c #685143",
"0$	c #5A463A",
"a$	c #5A473A",
"b$	c #725F4B",
"c$	c #957E62",
"d$	c #B29775",
"e$	c #C5A882",
"f$	c #CDAF88",
"g$	c #BB9F7B",
"h$	c #A18869",
"i$	c #7D6951",
"j$	c #574B3E",
"k$	c #505557",
"l$	c #5F6668",
"m$	c #646C6E",
"n$	c #626A6B",
"o$	c #61686A",
"p$	c #606769",
"q$	c #634E40",
"r$	c #715C4A",
"s$	c #887158",
"t$	c #9C8467",
"u$	c #A98F70",
"v$	c #AE9473",
"w$	c #AB9171",
"x$	c #A08869",
"y$	c #8B755A",
"z$	c #6D5B46",
"A$	c #50453A",
"B$	c #474644",
"C$	c #525758",
"D$	c #687274",
"E$	c #646C6D",
"F$	c #5F6667",
"G$	c #5A5F60",
"H$	c #575B5C",
"I$	c #565959",
"J$	c #6F5648",
"K$	c #6D5647",
"L$	c #705949",
"M$	c #77624D",
"N$	c #7F6A53",
"O$	c #846F57",
"P$	c #857057",
"Q$	c #6D5A45",
"R$	c #584838",
"S$	c #483D35",
"T$	c #484644",
"U$	c #535858",
"V$	c #5F6768",
"W$	c #595E5F",
"X$	c #515353",
"Y$	c #4B4B49",
"Z$	c #484645",
"`$	c #6A5545",
" %	c #645141",
".%	c #604E3D",
"+%	c #5D4D3D",
"@%	c #5E4C3C",
"#%	c #5D4C3C",
"$%	c #584839",
"%%	c #4F3F31",
"&%	c #45362B",
"*%	c #413630",
"=%	c #484543",
"-%	c #555756",
";%	c #5F6465",
">%	c #656C6D",
",%	c #676F70",
"'%	c #636A6C",
")%	c #5E6364",
"!%	c #565757",
"~%	c #4D4947",
"{%	c #463D39",
"]%	c #433831",
"^%	c #5C483C",
"/%	c #4E3C32",
"(%	c #4B3A30",
"_%	c #44342A",
":%	c #3F3027",
"<%	c #3E342E",
"[%	c #48423E",
"}%	c #555250",
"|%	c #5F5F5D",
"1%	c #646564",
"2%	c #646766",
"3%	c #616565",
"4%	c #5D6162",
"5%	c #5A5B5A",
"6%	c #56524F",
"7%	c #534841",
"8%	c #504036",
"9%	c #4F3C30",
"0%	c #5E493D",
"a%	c #5C463B",
"b%	c #5B463A",
"c%	c #574238",
"d%	c #4E3B31",
"e%	c #44342B",
"f%	c #40342D",
"g%	c #483E37",
"h%	c #554B46",
"i%	c #5F5650",
"j%	c #625B56",
"k%	c #5F5A57",
"l%	c #595755",
"m%	c #555352",
"n%	c #55514E",
"o%	c #594E48",
"p%	c #5D4C42",
"q%	c #604B3E",
"r%	c #614A3C",
"s%	c #745A4B",
"t%	c #6E5648",
"u%	c #6C5546",
"v%	c #675042",
"w%	c #4C3B31",
"x%	c #43342B",
"y%	c #473930",
"z%	c #544339",
"A%	c #5D4C41",
"B%	c #5F4E44",
"C%	c #594C43",
"D%	c #514741",
"E%	c #4B443F",
"F%	c #51463F",
"G%	c #5C4C42",
"H%	c #705748",
"I%	c #614C3F",
"J%	c #503E34",
"K%	c #44332A",
"L%	c #45342A",
"M%	c #503C2F",
"N%	c #584234",
"O%	c #594335",
"P%	c #533F33",
"Q%	c #49392F",
"R%	c #44362E",
"S%	c #4E3E34",
"T%	c #5E4A3E",
"U%	c #513F34",
"V%	c #413229",
"W%	c #413026",
"X%	c #4A3629",
"Y%	c #503A2B",
"Z%	c #433025",
"`%	c #3F2F25",
" &	c #4C3A30",
".&	c #3D2E25",
"+&	c #423126",
"@&	c #463327",
"#&	c #433125",
"$&	c #3D2D23",
"%&	c #3E2E25",
"&&	c #4D3B30",
"*&	c #5F4A3D",
"=&	c #644E41",
"-&	c #554236",
";&	c #46362C",
">&	c #3F3028",
",&	c #423228",
"'&	c #423229",
")&	c #403028",
"!&	c #5D483C",
"~&	c #4D3C31",
"{&	c #4D3B31",
"]&	c #665042",
"^&	c #624C3F",
"                                                                                                                                ",
"                                        . + @ # $ $ # # # # # # # # # # # # $ $ # @ + .                                         ",
"                                      . % & * = - - - - - - - - - - - - - - - - = * & % .                                       ",
"                                      + & ; > , ' ' ' ' ' ' ' ' ' ' ' ' ' ' ' ' , > ; & +                                       ",
"                                      % ) ! ~ { ] ] ^ ^ ^ ^ ^ ^ ^ ^ ^ ^ ^ ^ ] ] { ~ ! ) %                                       ",
"                                / @ ( _ : < [ } | | | | | | | | | | | | | | | | } [ < : _ ( @ /                                 ",
"                                # 1 2 3 4 5 6 7 8 8 8 8 8 8 8 8 8 8 8 8 8 8 8 8 7 6 5 4 3 2 1 #                                 ",
"                                9 ; 0 a b c d e f g h h h h h h h h h h h h g f e d c b a 0 ; 9                                 ",
"                              $ i j k l m n o p q r s t t t t t t t t t t s r q p o n m l k j i $                               ",
"                        + u 9 v w x y z A B C D E F G G G G G G G G G G G G F E D C B A z y x w v 9 u +                         ",
"                        # 1 ; H I J K L h M N E O P Q Q Q Q Q Q Q Q Q Q Q Q P O E N M h L K J I H ; 1 #                         ",
"                        % - R S T U V W X Y D E Z Z Z Z Z Z Z Z Z Z Z Z Z Z Z Z E D Y X W V U T S R - %                         ",
"                        `  ...+.@.#.$.%.&.*.*.E E E E E E E E E E E E E E E E E E *.*.&.%.$.#.@.+... .`                         ",
"                        ` =.-.;.>.,.'.).Q O Q Z Z Z Z Z Z Z Z Z Z Z Z Z Z Z Z Z Z Q O Q ).'.,.>.;.-.=.`                         ",
"                        ` !.-.~.>.{.].^.O /.(.Z Z Z Z Z Z Z Z Z Z Z Z Z Z Z Z Z Z (./.O ^.].{.>.~.-.!.`                         ",
"                        ` _.:.<.[.}.|.1.*.E *.G G G G G G G G G G G G G G G G G G *.E *.1.|.}.[.<.:._.`                         ",
"                        ` _.2.<.3.4.5.6.7.8.7.7.7.7.7.7.7.7.7.7.7.7.7.7.7.7.7.7.7.7.8.7.6.5.4.3.<.2._.`                         ",
"                        ` 9.0.a.b.c.d.e.f.g.f.f.f.f.f.f.f.f.f.f.f.f.f.f.f.f.f.f.f.f.g.f.e.d.c.b.a.0.9.`                         ",
"                        ` h.i.j.k.l.m.n.o.p.o.o.o.o.o.o.o.o.o.o.o.o.o.o.o.o.o.o.o.o.p.o.n.m.l.k.j.i.h.`                         ",
"                        ` q.r.s.t.u.v.w.x.y.x.x.x.x.x.x.x.x.x.x.x.x.x.x.x.x.x.x.x.x.y.x.w.v.u.t.s.r.q.`                         ",
"                        ` q.z.s.A.B.C.D.E.F.G.E.E.E.E.E.E.E.E.E.E.E.E.E.E.E.E.E.E.G.F.E.D.C.B.A.s.z.q.`                         ",
"                        ` h.z.H.I.J.K.L.M.N.M.M.M.M.M.M.M.M.M.M.M.M.M.M.M.M.M.M.M.M.N.M.L.K.J.I.H.z.h.`                         ",
"                        ` h.O.P.Q.R.S.T.U.V.U.W.W.W.W.W.W.W.W.W.W.W.W.W.W.W.W.W.W.U.V.U.T.S.R.Q.P.O.h.`                         ",
"                        ` h.X.P.Y.Z.`. +.+++.+.+.+.+.+.+.+.+.+.+.+.+.+.+.+.+.+.+.+.+++.+ +`.Z.Y.P.X.h.`                         ",
"                        ` @+X.#+$+%+&+*+=+-+=+;+;+;+;+;+;+;+;+;+;+;+;+;+;+;+;+;+;+=+-+=+*+&+%+$+#+X.@+`                         ",
"                        ` @+X.>+$+%+&+,+;+'+;+;+;+;+;+;+;+;+;+;+;+;+;+;+;+;+;+;+;+;+'+;+,+&+%+$+>+X.@+`                         ",
"                        ` @+X.>+$+)+!+~+{+]+{+{+{+{+{+{+{+{+{+{+{+{+{+{+{+{+{+{+{+{+]+{+~+!+)+$+>+X.@+`                         ",
"                        ` @+^+/+(+)+_+,+:+<+:+{+{+{+{+{+{+{+{+{+{+{+{+{+{+{+{+{+{+:+<+:+,+_+)+(+/+^+@+`                         ",
"                        ` @+[+/+}+%+|+,+;+<+:+{+{+{+{+{+{+{+{+{+{+{+{+{+{+{+{+{+{+:+<+;+,+|+%+}+/+[+@+`                         ",
"                        `  .1+2+3+)+!+4+{+:+{+{+{+{+{+{+{+{+{+{+{+{+{+{+{+{+{+{+{+{+:+{+4+!+)+3+2+1+ .`                         ",
"                        5+6+7+8+9+0+a+b+c+d+e+{+{+{+{+{+{+{+{+{+{+{+{+{+{+{+{+{+{+e+d+c+b+a+0+9+8+7+6+5+                        ",
"                        $ f+g+h+i+j+k+l+m+n+o+p+q+r+s+{+{+{+{+{+{+{+{+{+{+s+r+q+p+o+n+m+l+k+j+i+h+g+f+$                         ",
"                        + 9 f+t+u+v+w+x+y+z+A+B+q+r+s+{+{+{+{+{+{+{+{+{+{+s+r+q+B+A+z+y+x+w+v+u+t+f+9 +                         ",
"                        / # ` C+D+E+F+G+H+I+J+K+L+M+N+{+{+{+{+{+{+{+{+{+{+N+M+L+K+J+I+H+G+F+E+D+C+` # /                         ",
"                        + % O+) P+Q+R+S+T+U+V+W+X+Y+Z+`+ @.@`+`+`+`+.@ @`+Z+Y+X+W+V+U+T+S+R+Q+P+) O+% +                         ",
"                        + & +@@@#@$@%@&@*@=@-@;@>@,@'@)@!@~@)@)@)@)@~@!@)@'@,@>@;@-@=@*@&@%@$@#@@@+@& +                         ",
"                        ( = {@0.]@^@/@(@_@:@<@[@}@|@1@N+ @s+2@2@2@2@s+ @N+1@|@}@[@<@:@_@(@/@^@]@0.{@= (                         ",
"                  + @ 5+i 3@4@5@6@7@8@9@0@a@b@c@d@e@f@g@h@i@j@j@j@j@i@h@g@f@e@d@c@b@a@0@9@8@7@6@5@4@3@i 5+@ +                   ",
"                  % i k@l@m@n@o@p@q@r@s@t@u@v@w@x@y@z@A@B@C@A@A@A@A@C@B@A@z@y@x@w@v@u@t@s@r@q@p@o@n@m@l@k@i %                   ",
"                  O+3 D@E@F@G@H@I@J@K@L@t@u@M@N@O@x@P@Q@R@Q@Q@Q@Q@Q@Q@R@Q@P@x@O@N@M@u@t@L@K@J@I@H@G@F@E@D@3 O+                  ",
"                % i S@T@U@V@W@X@Y@Z@`@ #.#+#M@@###$#%#&#*#&#&#&#&#&#&#*#&#%#$###@#M@+#.# #`@Z@Y@X@W@V@U@T@S@i %                 ",
"          + % & i =#-#;#>#,#'#)#!#~#{#]#^#/#(#_#:#<#[#}#}#}#}#}#}#}#}#}#}#[#<#:#_#(#/#^#]#{#~#!#)#'#,#>#;#-#=#i & % +           ",
"          $ |#q.1#2#3#4#5#6#7#8#9#0#a#b#c#d#e#f#g#h#i#i#j#i#i#i#i#i#i#j#i#i#h#g#f#e#d#c#b#a#0#9#8#7#6#5#4#3#2#1#q.|#$           ",
"          5+k@D@k#;#4#l#m#n#o#p#q#r#s#t#u#v#w#x#g#g#y#y#y#y#y#y#y#y#y#y#y#y#g#g#x#w#v#u#t#s#r#q#p#o#n#m#l#4#;#k#D@k@5+          ",
"          9 z#A#B#C#D#E#F#G#H#I#J#K#L#M#N#O#P#Q#R#R#S#S#S#S#S#S#S#S#S#S#S#S#R#R#Q#P#O#N#M#L#K#J#I#H#G#F#E#D#C#B#A#z#9           ",
"          9 T#U#V#W#X#Y#Z#`# $.$+$@$#$$$%$&$P#Q#R#R#S#S#S#S#g#g#g#g#S#S#S#S#R#R#Q#P#&$%$$$#$@$+$.$ $`#Z#Y#X#W#V#U#T#9           ",
"          *$=$-$;$W#>$,$'$ $)$!$~${$]$^$/$&$($Q#R#R#S#S#S#R#R#R#R#R#R#S#S#S#R#R#Q#($&$/$^$]${$~$!$)$ $'$,$>$W#;$-$=$*$          ",
"          9 _$:$<$W#[$}$|$.$1$2$3$4$5$6$%$7$P#Q#R#R#S#S#8$_#_#_#_#_#_#8$S#S#R#R#Q#P#7$%$6$5$4$3$2$1$.$|$}$[$W#<$:$_$9           ",
"          ` 9$0$a$b$c$d$e$+$f$3$g$h$i$j$%$k$l$Q#R#R#S#Q#m$n$o$p$p$o$n$m$Q#S#R#R#Q#l$k$%$j$i$h$g$3$f$+$e$d$c$b$a$0$9$`           ",
"          % = _$q$r$s$t$u$v$@$w$x$y$z$A$B$C$w#_#D$D$S#E$F$G$H$I$I$H$G$F$E$S#D$D$_#w#C$B$A$z$y$x$w$@$v$u$t$s$r$q$_$= %           ",
"          + 9 J$K$L$M$N$O$#$]$P$i$Q$R$S$T$U$V$_#D$R#Q#o$W$X$Y$Z$Z$Y$X$W$o$Q#R#D$_#V$U$T$S$R$Q$i$P$]$#$O$N$M$L$K$J$9 +           ",
"            + # ` i `$ %.%+%@%#%$%%%&%*%=%-%;%>%,%Q#'%)%!%~%{%]%]%{%~%!%)%'%Q#,%>%;%-%=%*%&%%%$%#%@%+%.% %`$i ` # +             ",
"                + 1 9$^%:$/%/%/%(%_%:%<%[%}%|%1%2%3%4%5%6%7%8%9%9%8%7%6%5%4%3%2%1%|%}%[%<%:%_%(%/%/%/%:$^%9$1 +                 ",
"                  ` = _$0%a%a%b%c%d%e%f%g%h%i%j%k%l%m%n%o%p%q%r%r%q%p%o%n%m%l%k%j%i%h%g%f%e%d%c%b%a%a%0%_$= `                   ",
"                  @ s%C+t%) ) u%v%b%w%x%y%z%A%B%C%D%E%F%G%3@= H%H%= 3@G%F%E%D%C%B%A%z%y%x%w%b%v%u%) ) t%C+s%@                   ",
"                    / + @ + + % t%I%J%K%L%M%N%O%P%Q%R%S%T%- 5+    5+- T%S%R%Q%P%O%N%M%L%K%J%I%t%% + + @ + /                     ",
"                              . i =$U%V%W%X%Y%Y%t.Z%`% &D@) +     + ) D@ &`%Z%t.Y%Y%X%W%V%U%=$i .                               ",
"                              . i =$U%V%.&+&@&@&#&$&%&&&*&) @     @ ) *&&&%&$&#&@&@&+&.&V%U%=$i .                               ",
"                              + C+=&-&;&>&:%,&'&)&:%e%U%I%) #     # ) I%U%e%:%)&'&,&:%>&;&-&=&C++                               ",
"                              + & q.!&:$~&w%~&~&w%{&U%0$]&i @     @ i ]&0$U%{&w%~&~&w%~&:$!&q.& +                               ",
"                              . ` t%9$^&*&k#*&*&k#*&I%]&= 9 +     + 9 = ]&I%*&k#*&*&k#*&^&9$t%` .                               ",
"                                @ ` C+J$) = = K$= = ) i 9 # .     . # 9 i ) = = K$= = ) J$C+` @                                 ",
"                                  + @ # # $ # # $ $ # @ + .         . + @ # $ $ # # $ # # @ +                                   ",
"                                                                                                                                "};
