/* XPM */
static char * player_left_xpm[] = {
"64 64 1061 2",
"  	c #785E4E",
". 	c #775D4D",
"+ 	c #765C4D",
"@ 	c #765C4C",
"# 	c #765D4D",
"$ 	c #775E4E",
"% 	c #745B4B",
"& 	c #705849",
"* 	c #6E5648",
"= 	c #6C5547",
"- 	c #6D5547",
"; 	c #6F5748",
"> 	c #72594A",
", 	c #755C4C",
"' 	c #665043",
") 	c #5F4A3F",
"! 	c #5B473D",
"~ 	c #5A473D",
"{ 	c #5C483E",
"] 	c #624D41",
"^ 	c #6A5346",
"/ 	c #775D4E",
"( 	c #735A4B",
"_ 	c #6A5344",
": 	c #5F493D",
"< 	c #544136",
"[ 	c #4F3D32",
"} 	c #4D3C31",
"| 	c #4E3C31",
"1 	c #4F3C32",
"2 	c #503E33",
"3 	c #584438",
"4 	c #644E40",
"5 	c #6E5647",
"6 	c #745A4B",
"7 	c #705747",
"8 	c #6B5240",
"9 	c #654C38",
"0 	c #604630",
"a 	c #5D432B",
"b 	c #5C432A",
"c 	c #5E442D",
"d 	c #624933",
"e 	c #674E3C",
"f 	c #6D5544",
"g 	c #725949",
"h 	c #755B4C",
"i 	c #6F5648",
"j 	c #695243",
"k 	c #6A513F",
"l 	c #71543A",
"m 	c #7A5835",
"n 	c #805B32",
"o 	c #835C30",
"p 	c #835D30",
"q 	c #825C2F",
"r 	c #7D5A34",
"s 	c #765639",
"t 	c #6E533E",
"u 	c #6B5447",
"v 	c #71594A",
"w 	c #6F5749",
"x 	c #644E42",
"y 	c #5E483B",
"z 	c #664C36",
"A 	c #7C5935",
"B 	c #916736",
"C 	c #A07237",
"D 	c #A67538",
"E 	c #A77638",
"F 	c #A67638",
"G 	c #A47437",
"H 	c #9A6D38",
"I 	c #886137",
"J 	c #725438",
"K 	c #614A3A",
"L 	c #604B40",
"M 	c #614D41",
"N 	c #5E4A3B",
"O 	c #6D5237",
"P 	c #8B6438",
"Q 	c #A6753B",
"R 	c #B7823D",
"S 	c #BF873E",
"T 	c #C1883F",
"U 	c #C0883E",
"V 	c #C0873E",
"W 	c #C0883F",
"X 	c #BD863E",
"Y 	c #B17D3C",
"Z 	c #996D37",
"` 	c #7C5A32",
" .	c #634933",
"..	c #5D4739",
"+.	c #654F41",
"@.	c #6F5949",
"#.	c #6F5B4A",
"$.	c #76614B",
"%.	c #866A4A",
"&.	c #9E7648",
"*.	c #B58345",
"=.	c #C58C43",
"-.	c #CC9042",
";.	c #CD9141",
">.	c #CD9142",
",.	c #C98E41",
"'.	c #BE863E",
").	c #A97839",
"!.	c #906633",
"~.	c #795731",
"{.	c #6D5036",
"].	c #6B513D",
"^.	c #6E5544",
"/.	c #705848",
"(.	c #755C4D",
"_.	c #6E5547",
":.	c #685143",
"<.	c #6A5445",
"[.	c #76604D",
"}.	c #867159",
"|.	c #977E61",
"1.	c #A78863",
"2.	c #B48C5D",
"3.	c #C29052",
"4.	c #CB9248",
"5.	c #D09343",
"6.	c #D19342",
"7.	c #D09342",
"8.	c #D19443",
"9.	c #CE9242",
"0.	c #C68C40",
"a.	c #B8823C",
"b.	c #A87738",
"c.	c #986C35",
"d.	c #886136",
"e.	c #795839",
"f.	c #6D523D",
"g.	c #675041",
"h.	c #664F42",
"i.	c #5D483C",
"j.	c #624F3F",
"k.	c #7B6751",
"l.	c #998266",
"m.	c #B19574",
"n.	c #BF9E76",
"o.	c #C69D6D",
"p.	c #CA995D",
"q.	c #CD944C",
"r.	c #CE9243",
"s.	c #CE9140",
"t.	c #CF9242",
"u.	c #C38A3F",
"v.	c #BB843D",
"w.	c #AF7D3A",
"x.	c #9D7038",
"y.	c #845F35",
"z.	c #6B4F35",
"A.	c #5C4739",
"B.	c #604C40",
"C.	c #705749",
"D.	c #614B3E",
"E.	c #534036",
"F.	c #5B493A",
"G.	c #7C6852",
"H.	c #9F876A",
"I.	c #BB9E7A",
"J.	c #C8A77D",
"K.	c #CBA373",
"L.	c #C99A61",
"M.	c #C7904D",
"N.	c #C68C41",
"O.	c #C68B3F",
"P.	c #C58C41",
"Q.	c #C58B41",
"R.	c #C18940",
"S.	c #B9833D",
"T.	c #886132",
"U.	c #674A2E",
"V.	c #523F31",
"W.	c #59453B",
"X.	c #685245",
"Y.	c #534336",
"Z.	c #74614B",
"`.	c #967F62",
" +	c #B09472",
".+	c #BD9C75",
"++	c #BE986C",
"@+	c #BA8E5B",
"#+	c #B68448",
"$+	c #B47F3D",
"%+	c #B47F3B",
"&+	c #B4803E",
"*+	c #B5803F",
"=+	c #B5813F",
"-+	c #B7823F",
";+	c #B6813F",
">+	c #AF7C3D",
",+	c #9C6F38",
"'+	c #805B31",
")+	c #5E442A",
"!+	c #4C3A2D",
"~+	c #554339",
"{+	c #675144",
"]+	c #5F4A3E",
"^+	c #4E3C32",
"/+	c #4D3D31",
"(+	c #665341",
"_+	c #826C53",
":+	c #987E60",
"<+	c #A38563",
"[+	c #A3815C",
"}+	c #9F784E",
"|+	c #9B7040",
"1+	c #9A6D39",
"2+	c #9A6E3A",
"3+	c #9A6F3C",
"4+	c #9B6F3C",
"5+	c #9C6F3C",
"6+	c #9E713C",
"7+	c #9E703C",
"8+	c #986C3A",
"9+	c #70502F",
"0+	c #553D29",
"a+	c #4A382D",
"b+	c #564338",
"c+	c #624C3F",
"d+	c #524035",
"e+	c #4A3A2F",
"f+	c #564435",
"g+	c #695440",
"h+	c #796049",
"i+	c #81664C",
"j+	c #84664A",
"k+	c #846344",
"l+	c #83603F",
"m+	c #825E3C",
"n+	c #825D3A",
"o+	c #815C39",
"p+	c #815B38",
"q+	c #7F5B38",
"r+	c #7A5836",
"s+	c #6E4F33",
"t+	c #5D432D",
"u+	c #4D3A2B",
"v+	c #4B3A2F",
"w+	c #59453A",
"x+	c #695244",
"y+	c #675042",
"z+	c #503D33",
"A+	c #503D30",
"B+	c #574132",
"C+	c #604937",
"D+	c #69503C",
"E+	c #745A43",
"F+	c #7D6249",
"G+	c #83664C",
"H+	c #84644A",
"I+	c #825D43",
"J+	c #7E543A",
"K+	c #7C4E34",
"L+	c #7B4B31",
"M+	c #7B4C32",
"N+	c #7C4C32",
"O+	c #7A4C32",
"P+	c #774B32",
"Q+	c #714B33",
"R+	c #6A4933",
"S+	c #624733",
"T+	c #5B4332",
"U+	c #533E30",
"V+	c #4F3C30",
"W+	c #534135",
"X+	c #6C5446",
"Y+	c #6D5546",
"Z+	c #644E41",
"`+	c #5C473B",
" @	c #564135",
".@	c #513B2F",
"+@	c #624B39",
"@@	c #79624B",
"#@	c #8E755A",
"$@	c #9B7F61",
"%@	c #9D7B5E",
"&@	c #996E51",
"*@	c #935A3F",
"=@	c #8E4B2E",
"-@	c #8C4325",
";@	c #8B4124",
">@	c #8B4225",
",@	c #8B4427",
"'@	c #8C4528",
")@	c #8C4629",
"!@	c #8D462A",
"~@	c #8D472A",
"{@	c #8A462A",
"]@	c #82442B",
"^@	c #74412C",
"/@	c #633E2E",
"(@	c #543D30",
"_@	c #4F3E33",
":@	c #594539",
"<@	c #604B3E",
"[@	c #735A4A",
"}@	c #5F493C",
"|@	c #533E33",
"1@	c #513D31",
"2@	c #66513F",
"3@	c #877157",
"4@	c #A48A6B",
"5@	c #B59774",
"6@	c #B9926F",
"7@	c #B3805E",
"8@	c #AA6544",
"9@	c #A34E2A",
"0@	c #A1431A",
"a@	c #A14219",
"b@	c #A1451D",
"c@	c #A1461E",
"d@	c #A1461F",
"e@	c #A14720",
"f@	c #A24720",
"g@	c #9F4620",
"h@	c #944322",
"i@	c #813F25",
"j@	c #683927",
"k@	c #53392C",
"l@	c #59473B",
"m@	c #644F41",
"n@	c #715849",
"o@	c #745B4C",
"p@	c #564136",
"q@	c #513F33",
"r@	c #6A5743",
"s@	c #927C60",
"t@	c #B39876",
"u@	c #C7A781",
"v@	c #CAA27B",
"w@	c #C28C67",
"x@	c #B66E49",
"y@	c #AF542C",
"z@	c #AE4C1F",
"A@	c #B05025",
"B@	c #B3552C",
"C@	c #B3552B",
"D@	c #B25126",
"E@	c #B14D1E",
"F@	c #B14918",
"G@	c #B14815",
"H@	c #B24814",
"I@	c #AE4716",
"J@	c #A34419",
"K@	c #8E3F1D",
"L@	c #753821",
"M@	c #5E3828",
"N@	c #5A3F32",
"O@	c #614A3C",
"P@	c #6B5344",
"Q@	c #685144",
"R@	c #554237",
"S@	c #4E3E34",
"T@	c #695845",
"U@	c #958063",
"V@	c #B99E7B",
"W@	c #CEAE87",
"X@	c #CFA880",
"Y@	c #C3916C",
"Z@	c #B3704D",
"`@	c #AB5833",
" #	c #AE5A34",
".#	c #B76742",
"+#	c #BE714B",
"@#	c #BF6F49",
"##	c #BD653D",
"$#	c #B9582C",
"%#	c #B74C19",
"&#	c #B7470C",
"*#	c #B7470A",
"=#	c #B4470F",
"-#	c #AB4513",
";#	c #9A4017",
">#	c #873A1B",
",#	c #753A23",
"'#	c #6C3F2E",
")#	c #6A4838",
"!#	c #6B4F41",
"~#	c #6E5546",
"{#	c #544238",
"]#	c #4C3E34",
"^#	c #695945",
"/#	c #968164",
"(#	c #BAA07C",
"_#	c #CFB088",
":#	c #CDA982",
"<#	c #BC916D",
"[#	c #A77151",
"}#	c #9E5E3F",
"|#	c #A86B4A",
"1#	c #B9805C",
"2#	c #C58D67",
"3#	c #C88A63",
"4#	c #C47B54",
"5#	c #BD643C",
"6#	c #B9501F",
"7#	c #B74707",
"8#	c #B74604",
"9#	c #B6470D",
"0#	c #B04610",
"a#	c #A74313",
"b#	c #9B3F16",
"c#	c #8E3E1D",
"d#	c #814027",
"e#	c #734330",
"f#	c #684738",
"g#	c #644C3F",
"h#	c #685345",
"i#	c #695143",
"j#	c #574137",
"k#	c #523F33",
"l#	c #6C5844",
"m#	c #977F62",
"n#	c #B99D79",
"o#	c #CCAC85",
"p#	c #C8A780",
"q#	c #B3906E",
"r#	c #9B7356",
"s#	c #92684B",
"t#	c #A37A5A",
"u#	c #BA916E",
"v#	c #CA9F78",
"w#	c #CD9B74",
"x#	c #C88862",
"y#	c #BF6D46",
"z#	c #B85324",
"A#	c #B64607",
"B#	c #B64502",
"C#	c #B44710",
"D#	c #B04611",
"E#	c #A24317",
"F#	c #92401E",
"G#	c #7B3C25",
"H#	c #643D2D",
"I#	c #584136",
"J#	c #5E4B3F",
"K#	c #6B5547",
"L#	c #705748",
"M#	c #694D3F",
"N#	c #614134",
"O#	c #633F30",
"P#	c #795640",
"Q#	c #9C795B",
"R#	c #B99571",
"S#	c #C9A47D",
"T#	c #C5A17B",
"U#	c #B2906E",
"V#	c #9C7D5F",
"W#	c #96775A",
"X#	c #A68566",
"Y#	c #BC9874",
"Z#	c #CBA27B",
"`#	c #CE9D76",
" $	c #C88963",
".$	c #BF6D47",
"+$	c #B85325",
"@$	c #B54402",
"#$	c #B6470E",
"$$	c #B6480F",
"%$	c #AD4513",
"&$	c #9B4017",
"*$	c #7F381C",
"=$	c #613524",
"-$	c #503A2F",
";$	c #58463B",
">$	c #6B5445",
",$	c #694F41",
"'$	c #6A4738",
")$	c #703F2D",
"!$	c #7B402A",
"~$	c #8D5237",
"{$	c #A46D4E",
"]$	c #B88461",
"^$	c #C4936D",
"/$	c #C39671",
"($	c #AD8D6B",
"_$	c #AA8B6B",
":$	c #BF9671",
"<$	c #C89771",
"[$	c #C98F69",
"}$	c #C47D57",
"|$	c #BD663E",
"1$	c #B85121",
"2$	c #B64609",
"3$	c #B54505",
"4$	c #B6480E",
"5$	c #B7480F",
"6$	c #B8490E",
"7$	c #9D4117",
"8$	c #80391C",
"9$	c #5F3221",
"0$	c #4D372D",
"a$	c #554539",
"b$	c #675244",
"c$	c #725A4B",
"d$	c #695345",
"e$	c #5F4437",
"f$	c #7F3D25",
"g$	c #914122",
"h$	c #A04D2A",
"i$	c #AD5D39",
"j$	c #B86D49",
"k$	c #BF7C56",
"l$	c #C28863",
"m$	c #C1936E",
"n$	c #BF9B76",
"o$	c #BF9C78",
"p$	c #C09873",
"q$	c #C28E69",
"r$	c #C2835D",
"s$	c #C17750",
"t$	c #BD6841",
"u$	c #BA592E",
"v$	c #B74D1B",
"w$	c #B6470C",
"x$	c #B6460A",
"y$	c #634F42",
"z$	c #573A2E",
"A$	c #6D3824",
"B$	c #893C1D",
"C$	c #9F4319",
"D$	c #AD491A",
"E$	c #B34E1F",
"F$	c #B7552A",
"G$	c #BB633C",
"H$	c #C07953",
"I$	c #C7906A",
"J$	c #CBA079",
"K$	c #CCA37C",
"L$	c #C99972",
"M$	c #C3845E",
"N$	c #BD6C45",
"O$	c #BA5B31",
"P$	c #B85122",
"Q$	c #B74D1A",
"R$	c #B64A13",
"S$	c #B8480E",
"T$	c #AF4612",
"U$	c #9C4017",
"V$	c #603322",
"W$	c #4E382E",
"X$	c #56453A",
"Y$	c #6F5849",
"Z$	c #604D40",
"`$	c #503F35",
" %	c #523428",
".%	c #6E341F",
"+%	c #8D3C1A",
"@%	c #A64314",
"#%	c #B3470F",
"$%	c #B74504",
"%%	c #B74709",
"&%	c #BE6C45",
"*%	c #C68660",
"=%	c #CC9871",
"-%	c #CE9C75",
";%	c #C99069",
">%	c #C17852",
",%	c #BA5C33",
"'%	c #B64A15",
")%	c #B54503",
"!%	c #9D4017",
"~%	c #603222",
"{%	c #564539",
"]%	c #5F4C40",
"^%	c #4F3E34",
"/%	c #513327",
"(%	c #8E3C1A",
"_%	c #A74314",
":%	c #B4460C",
"<%	c #B84400",
"[%	c #B74400",
"}%	c #B74B17",
"|%	c #BB5F36",
"1%	c #C1754E",
"2%	c #C6845E",
"3%	c #C78761",
"4%	c #C47D56",
"5%	c #BE6942",
"6%	c #B64506",
"7%	c #B54300",
"8%	c #B64606",
"9%	c #B7480E",
"0%	c #B9490E",
"a%	c #503F34",
"b%	c #523328",
"c%	c #B74708",
"d%	c #B64A14",
"e%	c #B85426",
"f%	c #BB6037",
"g%	c #BD6941",
"h%	c #BE6A43",
"i%	c #BC643C",
"j%	c #B64608",
"k%	c #B5480F",
"l%	c #AE4612",
"m%	c #603323",
"n%	c #4F382E",
"o%	c #56463A",
"p%	c #B34710",
"q%	c #B64911",
"r%	c #B74B16",
"s%	c #B74E1D",
"t%	c #B85021",
"u%	c #B74F1F",
"v%	c #AE4512",
"w%	c #AC4512",
"x%	c #AD4512",
"y%	c #AC4513",
"z%	c #A64316",
"A%	c #95401B",
"B%	c #7D3B22",
"C%	c #623929",
"D%	c #553E33",
"E%	c #5B493D",
"F%	c #6A5446",
"G%	c #B64505",
"H%	c #B64504",
"I%	c #B7480D",
"J%	c #A44315",
"K%	c #983F18",
"L%	c #973F18",
"M%	c #963F18",
"N%	c #933F1B",
"O%	c #883F23",
"P%	c #76402C",
"Q%	c #664334",
"R%	c #5F483B",
"S%	c #645042",
"T%	c #6E5748",
"U%	c #B54504",
"V%	c #B64503",
"W%	c #B6470A",
"X%	c #B24711",
"Y%	c #A64315",
"Z%	c #953E19",
"`%	c #853A1C",
" &	c #7B371D",
".&	c #78361E",
"+&	c #78371D",
"@&	c #773822",
"#&	c #743F2B",
"$&	c #6F4635",
"%&	c #6A4D3E",
"&&	c #6A5244",
"*&	c #B5480E",
"=&	c #B5470F",
"-&	c #AC4514",
";&	c #9C4119",
">&	c #863C1E",
",&	c #6D3722",
"'&	c #5C3324",
")&	c #553123",
"!&	c #573225",
"~&	c #5C382A",
"{&	c #624133",
"]&	c #684C3D",
"^&	c #6F5445",
"/&	c #73594A",
"(&	c #B7480C",
"_&	c #B6480C",
":&	c #B7480B",
"<&	c #B4470D",
"[&	c #B0460E",
"}&	c #AB4410",
"|&	c #A74312",
"1&	c #A54212",
"2&	c #A44213",
"3&	c #8F4020",
"4&	c #7A3E27",
"5&	c #613C2D",
"6&	c #513B30",
"7&	c #4A3A30",
"8&	c #4C3A30",
"9&	c #533F34",
"0&	c #5D483B",
"a&	c #B8480B",
"b&	c #B84808",
"c&	c #B74706",
"d&	c #B84704",
"e&	c #B74705",
"f&	c #B24507",
"g&	c #A9420C",
"h&	c #9D3F10",
"i&	c #923B13",
"j&	c #8C3A15",
"k&	c #8A3915",
"l&	c #863C1C",
"m&	c #7E4027",
"n&	c #714432",
"o&	c #644739",
"p&	c #5C493C",
"q&	c #58483D",
"r&	c #59493D",
"s&	c #5D4B3E",
"t&	c #645043",
"u&	c #6D5648",
"v&	c #B64810",
"w&	c #B74910",
"x&	c #B54810",
"y&	c #AE4613",
"z&	c #A04217",
"A&	c #8C3C1B",
"B&	c #77371E",
"C&	c #6B3420",
"D&	c #683320",
"E&	c #693320",
"F&	c #6A3826",
"G&	c #6A4130",
"H&	c #6A4A3A",
"I&	c #6B5042",
"J&	c #6B5446",
"K&	c #6E341E",
"L&	c #8E3C19",
"M&	c #B24816",
"N&	c #B54B1C",
"O&	c #B34C23",
"P&	c #B04D27",
"Q&	c #B04E29",
"R&	c #B14E2A",
"S&	c #AF4D2A",
"T&	c #A74B2B",
"U&	c #96472D",
"V&	c #7D4130",
"W&	c #623C32",
"X&	c #4F3933",
"Y&	c #4A3833",
"Z&	c #4C3933",
"`&	c #523D35",
" *	c #5B453B",
".*	c #644D41",
"+*	c #523427",
"@*	c #6F341D",
"#*	c #8F3B16",
"$*	c #A64312",
"%*	c #B1491C",
"&*	c #B04F2B",
"**	c #AA5338",
"=*	c #A45641",
"-*	c #A25845",
";*	c #A25946",
">*	c #A15846",
",*	c #9A5746",
"'*	c #8A5447",
")*	c #735048",
"!*	c #5B4D49",
"~*	c #4B4B4A",
"{*	c #454A4A",
"]*	c #474A49",
"^*	c #4D4B48",
"/*	c #544D47",
"(*	c #5D4E46",
"_*	c #655145",
":*	c #6F331C",
"<*	c #8F3B14",
"[*	c #A64313",
"}*	c #AF4B24",
"|*	c #AA543A",
"1*	c #9E5B4B",
"2*	c #926056",
"3*	c #8D635B",
"4*	c #8D645C",
"5*	c #8C635C",
"6*	c #88625C",
"7*	c #7D615C",
"8*	c #6E5F5D",
"9*	c #5F5D5D",
"0*	c #565D5E",
"a*	c #535D5E",
"b*	c #545C5D",
"c*	c #555A5A",
"d*	c #555452",
"e*	c #574F49",
"f*	c #5A4A41",
"g*	c #604B3F",
"h*	c #513428",
"i*	c #8D3C1B",
"j*	c #A34620",
"k*	c #AA4F31",
"l*	c #A15947",
"m*	c #916259",
"n*	c #806865",
"o*	c #776B69",
"p*	c #756B6A",
"q*	c #766A69",
"r*	c #746A69",
"s*	c #6F6969",
"t*	c #696969",
"u*	c #636869",
"v*	c #61686A",
"w*	c #61696B",
"x*	c #61696A",
"y*	c #5E6566",
"z*	c #595B5B",
"A*	c #514E4C",
"B*	c #4D423C",
"C*	c #534137",
"D*	c #604A3D",
"E*	c #503E34",
"F*	c #4F352A",
"G*	c #693828",
"H*	c #86422C",
"I*	c #9A4D35",
"J*	c #A05643",
"K*	c #976054",
"L*	c #856763",
"M*	c #726D6C",
"N*	c #686E70",
"O*	c #636D6F",
"P*	c #626A6C",
"Q*	c #60686A",
"R*	c #5F686A",
"S*	c #5F696B",
"T*	c #616A6D",
"U*	c #656E70",
"V*	c #5A5F60",
"W*	c #4E4E4E",
"X*	c #453E3A",
"Y*	c #4C3B32",
"Z*	c #5B4639",
"`*	c #604C3F",
" =	c #4B362D",
".=	c #603D33",
"+=	c #794A3F",
"@=	c #8B574B",
"#=	c #906056",
"$=	c #896761",
"%=	c #7B6C6A",
"&=	c #6B6F70",
"*=	c #606D70",
"==	c #58696C",
"-=	c #536367",
";=	c #506064",
">=	c #4F5E62",
",=	c #505E62",
"'=	c #536064",
")=	c #586467",
"!=	c #5F6A6D",
"~=	c #636D70",
"{=	c #636B6D",
"]=	c #5B6161",
"^=	c #4F4F4F",
"/=	c #443D39",
"(=	c #493A31",
"_=	c #5A4538",
":=	c #614C3E",
"<=	c #513F34",
"[=	c #493830",
"}=	c #55413C",
"|=	c #69514C",
"1=	c #785F5A",
"2=	c #7D6764",
"3=	c #7A6C6A",
"4=	c #726E6F",
"5=	c #606B6D",
"6=	c #576567",
"7=	c #505D60",
"8=	c #4B585B",
"9=	c #495659",
"0=	c #4A5659",
"a=	c #4D595B",
"b=	c #535E60",
"c=	c #5B6668",
"d=	c #616B6D",
"e=	c #5B6061",
"f=	c #4E4F4E",
"g=	c #433D3A",
"h=	c #4A3A31",
"i=	c #564237",
"j=	c #4C3E36",
"k=	c #504642",
"l=	c #5B5453",
"m=	c #656161",
"n=	c #6A6868",
"o=	c #6A6B6C",
"p=	c #676C6D",
"q=	c #656B6C",
"r=	c #636969",
"s=	c #616664",
"t=	c #60635E",
"u=	c #60605A",
"v=	c #5F5F58",
"w=	c #61635F",
"x=	c #626765",
"y=	c #606667",
"z=	c #585C5C",
"A=	c #4C4C4B",
"B=	c #433C38",
"C=	c #4A3B31",
"D=	c #6A5243",
"E=	c #5F4A3D",
"F=	c #56463C",
"G=	c #544B45",
"H=	c #555351",
"I=	c #585B5B",
"J=	c #5A6061",
"K=	c #5A6162",
"L=	c #5B6162",
"M=	c #5F6363",
"N=	c #6A6964",
"O=	c #777166",
"P=	c #827867",
"Q=	c #897C68",
"R=	c #8C7E69",
"S=	c #827868",
"T=	c #5C5F5E",
"U=	c #505353",
"V=	c #464443",
"W=	c #403934",
"X=	c #493930",
"Y=	c #644F43",
"Z=	c #5D4E45",
"`=	c #564F4A",
" -	c #50504E",
".-	c #4C5050",
"+-	c #4A4F50",
"@-	c #595854",
"#-	c #72695D",
"$-	c #8D7D69",
"%-	c #A28E73",
"&-	c #AE9879",
"*-	c #B39C7C",
"=-	c #8D7E6A",
"--	c #585550",
";-	c #464544",
">-	c #3E3938",
",-	c #3D342E",
"'-	c #49382F",
")-	c #5B463A",
"!-	c #6B5345",
"~-	c #665245",
"{-	c #5B4B42",
"]-	c #4F443E",
"^-	c #453F3C",
"/-	c #3C3938",
"(-	c #3E3B39",
"_-	c #534B42",
":-	c #776755",
"<-	c #9A856A",
"[-	c #B59C7A",
"}-	c #C4A884",
"|-	c #CAAE88",
"1-	c #B59C7B",
"2-	c #524941",
"3-	c #3B3432",
"4-	c #352D2A",
"5-	c #3E312A",
"6-	c #4B3B31",
"7-	c #5C483B",
"8-	c #614C40",
"9-	c #493931",
"0-	c #3C2E29",
"a-	c #392D28",
"b-	c #4E4135",
"c-	c #73614C",
"d-	c #988165",
"e-	c #B49977",
"f-	c #C4A782",
"g-	c #CAAD86",
"h-	c #4E4035",
"i-	c #382C26",
"j-	c #3A2C27",
"k-	c #47372E",
"l-	c #534136",
"m-	c #614C3F",
"n-	c #6D5647",
"o-	c #49362C",
"p-	c #402F26",
"q-	c #493A2D",
"r-	c #675541",
"s-	c #9F8768",
"t-	c #AD9372",
"u-	c #B39875",
"v-	c #4A3A2D",
"w-	c #413027",
"x-	c #49382E",
"y-	c #564337",
"z-	c #6C5445",
"A-	c #644D40",
"B-	c #574337",
"C-	c #4A382E",
"D-	c #46362B",
"E-	c #544435",
"F-	c #6A5844",
"G-	c #7C6850",
"H-	c #867157",
"I-	c #8A755A",
"J-	c #46372B",
"K-	c #4A392F",
"L-	c #584338",
"M-	c #513E34",
"N-	c #43342B",
"O-	c #42342A",
"P-	c #4C3D30",
"Q-	c #554536",
"R-	c #5A4A39",
"S-	c #5D4B3B",
"T-	c #43342A",
"U-	c #3B2D24",
"V-	c #3F2F26",
"W-	c #433227",
"X-	c #463328",
"Y-	c #473429",
"Z-	c #654E41",
"`-	c #544236",
" ;	c #44342B",
".;	c #3D2E25",
"+;	c #433126",
"@;	c #493428",
"#;	c #4D3629",
"$;	c #4E372A",
"%;	c #44342A",
"&;	c #534035",
"*;	c #423127",
"=;	c #4C382B",
"-;	c #543E2E",
";;	c #5A4131",
">;	c #5C4332",
",;	c #4F3D33",
"';	c #43332A",
");	c #433228",
"!;	c #4D392C",
"~;	c #573F30",
"{;	c #5E4533",
"];	c #45342B",
"^;	c #675143",
"/;	c #3F3027",
"(;	c #403027",
"_;	c #49362A",
":;	c #503B2D",
"<;	c #553E2F",
"[;	c #574030",
"};	c #665042",
"|;	c #5B473B",
"1;	c #403129",
"2;	c #3B2D26",
"3;	c #3C2E25",
"4;	c #463429",
"5;	c #4B372B",
"6;	c #413127",
"7;	c #42332A",
"8;	c #3F3028",
"9;	c #413128",
"0;	c #423229",
"a;	c #44332A",
"b;	c #423228",
"c;	c #48372D",
"d;	c #584439",
"e;	c #4D3B31",
"f;	c #4D3C32",
"g;	c #4C3B31",
"h;	c #5E493D",
"i;	c #6A5345",
"j;	c #624D40",
"                                                                                                                                ",
"                                                . . + + @ @ + + + + + + + + @ @ + # . $                                         ",
"                                              . % & * = = = = = = = = = = = = = - ; > , $                                       ",
"                                              , * ' ) ! ~ ~ ~ ~ ~ ~ ~ ~ ~ ~ ~ ~ { ] ^ > .                                       ",
"                                            / ( _ : < [ } | 1 1 1 1 1 1 1 1 | | 2 3 4 5 ,                                       ",
"                                        . + 6 7 8 9 0 a b a a a a a a a a a a a c d e f g h # /                                 ",
"                                      / % i j k l m n o p p p p p p p p p p p p q r s t j u v +                                 ",
"                                      # w x y z A B C D E D D D D D D D D D F E G H I J K L ^ (                                 ",
"                                    . % = M N O P Q R S T U S S S S S S S V W T X Y Z `  ...+.& @                               ",
"                                # % > & @.#.$.%.&.*.=.-.;.-.-.-.-.-.-.-.-.-.>.>.,.'.).!.~.{.].^./.( (..                         ",
"                              $ % _.:.<.[.}.|.1.2.3.4.5.6.7.5.5.5.5.5.5.5.5.8.8.9.0.a.b.c.d.e.f.g.^ v +                         ",
"                              . > h.i.j.k.l.m.n.o.p.q.r.s.9.9.9.9.9.9.9.9.9.t.t.>.,.u.v.w.x.y.z.A.B.= ,                         ",
"                              . C.D.E.F.G.H.I.J.K.L.M.N.O.0.N.N.N.N.N.N.N.N.N.N.N.P.Q.R.S.D T.U.V.W.X.%                         ",
"                              . ; : 1 Y.Z.`. +.+++@+#+$+%+&+*+=+=+=+*+*+*+*+*+*+=+=+-+;+>+,+'+)+!+~+{+%                         ",
"                              . ; ]+^+/+(+_+:+<+[+}+|+1+H 2+3+3+3+3+3+3+3+3+3+3+4+5+6+7+8+d.9+0+a+b+{+%                         ",
"                              . & c+d+e+f+g+h+i+j+k+l+m+n+o+p+p+p+p+p+p+p+p+p+p+p+p+p+q+r+s+t+u+v+w+x+%                         ",
"                              . v y+w+z+A+B+C+D+E+F+G+H+I+J+K+L+L+L+L+L+M+M+N+N+O+P+Q+R+S+T+U+V+W+]+X+h                         ",
"                              / ( Y+Z+`+ @.@U++@@@#@$@%@&@*@=@-@;@>@>@,@'@)@!@~@{@]@^@/@(@_@W+:@<@x+& @                         ",
"                                @ [@* j }@|@1@2@3@4@5@6@7@8@9@0@a@b@b@c@d@e@f@f@g@h@i@j@k@_@l@m@X+n@o@.                         ",
"                                $ . @ n@h.p@q@r@s@t@u@v@w@x@y@z@A@B@C@D@E@F@G@H@I@J@K@L@M@N@O@P@n@% # /                         ",
"                                      , Q@R@S@T@U@V@W@X@Y@Z@`@ #.#+#@###$#%#&#*#=#-#;#>#,#'#)#!#~#v o@.                         ",
"                                      + x+{#]#^#/#(#_#:#<#[#}#|#1#2#3#4#5#6#7#8#9#0#a#b#c#d#e#f#g#h#& +                         ",
"                                      % i#j#k#l#m#n#o#p#q#r#s#t#u#v#w#x#y#z#A#B#9#C#D#-#E#F#G#H#I#J#K#h                         ",
"                                . + ( L#M#N#O#P#Q#R#S#T#U#V#W#X#Y#Z#`# $.$+$A#@$#$$$$$C#%$&$*$=$-$;$h#%                         ",
"                              $ , & >$,$'$)$!$~${$]$^$/$6@($_$U#:$<$[$}$|$1$2$3$4$5$6$5$D#7$8$9$0$a$b$%                         ",
"                              . c$d$<@e$'#f$g$h$i$j$k$l$m$n$o$p$q$r$s$t$u$v$w$x$4$5$6$5$D#7$8$9$0$a$b$%                         ",
"                              . & y$b+z$A$B$C$D$E$F$G$H$I$J$K$L$M$N$O$P$Q$R$4$4$$$$$S$$$T$U$8$V$W$X$b$%                         ",
"                              . Y$Z$`$ %.%+%@%#%$%%%+$&%*%=%-%;%>%,%'%)%x$$$$$$$5$5$6$5$D#!%8$~%0${%b$%                         ",
"                              . ; ]%^%/%.%(%_%:%<%[%}%|%1%2%3%4%5%+$6%7%8%4$5$5$9%6$0%6$D#7$8$9$0$a$b$%                         ",
"                              . Y$]%a%b%.%(%@%=#c%c%d%e%f%g%h%i%u$v$w$j%w$$$$$$$k%$$5$k%l%U$8$m%n%o%X.%                         ",
"                              . Y$Z$a% %.%(%@%p%9%9%q%r%s%t%P$u%%#R$$$4$$$k%p%D#v%w%x%y%z%A%B%C%D%E%F%o@                        ",
"                              . Y$Z$a% %.%(%@%p%5$5$4$w$j%G%H%A#*#I%9%6$5$C#x%J%U$K%L%M%N%O%P%Q%R%S%T%,                         ",
"                              . Y$Z$a% %.%(%@%p%5$5$4$w$A#U%V%G%W%I%9%6$5$X%Y%Z%`% &.&+&@&#&$&%&&&* ( .                         ",
"                              . Y$Z$a% %.%(%@%p%9%5$$$$$4$4$*&=&C#p%p%p%X%-&;&>&,&'&)&!&~&{&]&^&/&, . $                         ",
"                              . Y$Z$a% %.%+%@%p%I%(&_&(&:&_&<&[&}&|&1&1&2&7$3&4&5&6&7&8&9&0&:.> .                               ",
"                              . Y$Z$a% %.%+%@%#%a&b&c&d&d&e&f&g&h&i&j&k&k&l&m&n&o&p&q&r&s&t&u&o@                                ",
"                              . Y$Z$a% %.%(%@%p%5$5$v&v&w&x&y&z&A&B&C&D&E&F&G&H&I&J&K#K#= Y$( #                                 ",
"                              . Y$Z$a% %K&L&Y%M&N&O&P&Q&R&S&T&U&V&W&X&Y&Z&`& *.*X+n@( % , + . $                                 ",
"                              . Y$Z$a%+*@*#*$*%*&***=*-*;*>*,*'*)*!*~*{*]*^*/*(*_*J&n@h /                                       ",
"                              . Y$Z$a%+*:*<*[*}*|*1*2*3*4*5*6*7*8*9*0*a*b*c*d*e*f*g*i#n@.                                       ",
"                              . Y$Z$a%h*.%i*j*k*l*m*n*o*p*q*r*s*t*u*v*w*x*y*z*A*B*C*D*Y+,                                       ",
"                              . & B.E*F*G*H*I*J*K*L*M*N*O*P*w*Q*R*S*T*O*U*P*V*W*X*Y*Z*P@h                                       ",
"                              . ; `*_@ =.=+=@=#=$=%=&=*===-=;=>=,='=)=!=~={=]=^=/=(=_=_ o@                                      ",
"                              . L#:=<=[=}=|=1=2=3=4=N*5=6=7=8=9=0=a=b=c=d=P*e=f=g=h=_=_ o@                                      ",
"                              . n@4 i=j=k=l=m=n=o=p=q=r=s=t=u=v=v=u=w=x=r=y=z=A=B=C=Z*P@h                                       ",
"                              . [@D=E=F=G=H=I=J=K=L=M=N=O=P=Q=R=R=Q=S=O=N=T=U=V=W=X=Z*_ o@                                      ",
"                              $ h L#_ Y=Z=`= -.-+-.-@-#-$-%-&-*-*-&-%-=-#---;->-,-'-)-!-o@                                      ",
"                                . , [@T%~-{-]-^-/-(-_-:-<-[-}-|-|-}-1-<-:-2-3-4-5-6-7->$h                                       ",
"                                    $ o@- 8-{#9-0-a-b-c-d-e-f-g-g-f-e-d-c-h-i-j-k-l-m-n-,                                       ",
"                                      . n@j D* @o-p-q-r-3@s-t-u-u-t-s-3@r-v-w-x-y-<@x+n@+                                       ",
"                                      $ h n@z-A-B-C-D-E-F-G-H-I-I-H-G-F-E-J-K-L-4 X+n@h .                                       ",
"                                        / . % - m-M-N-O-P-Q-R-S-S-R-Q-P-O-N-M-m-- % . /                                         ",
"                                              > +.< T-U-V-W-X-Y-Y-X-W-V-U-T-< Z-v /                                             ",
"                                              [@h.`- ;.;+;@;#;$;$;#;@;+;.;%;< +.>                                               ",
"                                            . & Z+&; ;*;=;-;;;>;>;;;-;=;*; ;l-Z+v $                                             ",
"                                      $ . , > !-E=,;';);!;~;>;{;{;>;~;!;);];E.Z+n@.                                             ",
"                                      . ( 5 ^;E=< k-/;(;_;:;<;[;[;<;:;_;(;';d+Z+n@.                                             ",
"                                      @ ; };|;<=k-1;2;3;*;4;_;5;5;_;4;6;3;';&;Z+n@.                                             ",
"                                      , - m-l-x-7;1;8;8;9;0;';a;a;';b;/;8;c;b+};> /                                             ",
"                                      @ * 4 d;2 e;e;f;f;f;f;f;f;f;f;} g;^+l-h;i;( $                                             ",
"                                      # > !-4 ]+h;E=E=E=E=E=E=E=E=E=E=E=]+j;:.; h                                               ",
"                                      / , > ; 5 - - 5 5 5 n-n-n-n-n-- - 5 ; n@% .                                               ",
"                                        $ . # + @ @ + + + + + + + + @ @ + + . .                                                 ",
"                                                                                                                                "};
