/* XPM */
static char * player_right_xpm[] = {
"64 64 1061 2",
"  	c #785E4E",
". 	c #775E4E",
"+ 	c #775D4D",
"@ 	c #765D4D",
"# 	c #765C4D",
"$ 	c #765C4C",
"% 	c #755C4C",
"& 	c #72594A",
"* 	c #6F5748",
"= 	c #6D5547",
"- 	c #6C5547",
"; 	c #6E5648",
"> 	c #705849",
", 	c #745B4B",
"' 	c #6A5346",
") 	c #624D41",
"! 	c #5C483E",
"~ 	c #5A473D",
"{ 	c #5B473D",
"] 	c #5F4A3F",
"^ 	c #665043",
"/ 	c #6E5647",
"( 	c #644E40",
"_ 	c #584438",
": 	c #503E33",
"< 	c #4E3C31",
"[ 	c #4F3C32",
"} 	c #4D3C31",
"| 	c #4F3D32",
"1 	c #544136",
"2 	c #5F493D",
"3 	c #6A5344",
"4 	c #735A4B",
"5 	c #775D4E",
"6 	c #755B4C",
"7 	c #725949",
"8 	c #6D5544",
"9 	c #674E3C",
"0 	c #624933",
"a 	c #5E442D",
"b 	c #5D432B",
"c 	c #5C432A",
"d 	c #604630",
"e 	c #654C38",
"f 	c #6B5240",
"g 	c #705747",
"h 	c #745A4B",
"i 	c #71594A",
"j 	c #6B5447",
"k 	c #695243",
"l 	c #6E533E",
"m 	c #765639",
"n 	c #7D5A34",
"o 	c #825C2F",
"p 	c #835D30",
"q 	c #835C30",
"r 	c #805B32",
"s 	c #7A5835",
"t 	c #71543A",
"u 	c #6A513F",
"v 	c #6F5648",
"w 	c #604B40",
"x 	c #614A3A",
"y 	c #725438",
"z 	c #886137",
"A 	c #9A6D38",
"B 	c #A47437",
"C 	c #A77638",
"D 	c #A67638",
"E 	c #A67538",
"F 	c #A07237",
"G 	c #916736",
"H 	c #7C5935",
"I 	c #664C36",
"J 	c #5E483B",
"K 	c #644E42",
"L 	c #6F5749",
"M 	c #654F41",
"N 	c #5D4739",
"O 	c #634933",
"P 	c #7C5A32",
"Q 	c #996D37",
"R 	c #B17D3C",
"S 	c #BD863E",
"T 	c #C1883F",
"U 	c #C0883F",
"V 	c #C0873E",
"W 	c #BF873E",
"X 	c #C0883E",
"Y 	c #B7823D",
"Z 	c #A6753B",
"` 	c #8B6438",
" .	c #6D5237",
"..	c #5E4A3B",
"+.	c #614D41",
"@.	c #755C4D",
"#.	c #705848",
"$.	c #6E5544",
"%.	c #6B513D",
"&.	c #6D5036",
"*.	c #795731",
"=.	c #906633",
"-.	c #A97839",
";.	c #BE863E",
">.	c #C98E41",
",.	c #CD9142",
"'.	c #CC9042",
").	c #CD9141",
"!.	c #C58C43",
"~.	c #B58345",
"{.	c #9E7648",
"].	c #866A4A",
"^.	c #76614B",
"/.	c #6F5B4A",
"(.	c #6F5949",
"_.	c #675041",
":.	c #6D523D",
"<.	c #795839",
"[.	c #886136",
"}.	c #986C35",
"|.	c #A87738",
"1.	c #B8823C",
"2.	c #C68C40",
"3.	c #CE9242",
"4.	c #D19443",
"5.	c #D09343",
"6.	c #D09342",
"7.	c #D19342",
"8.	c #CB9248",
"9.	c #C29052",
"0.	c #B48C5D",
"a.	c #A78863",
"b.	c #977E61",
"c.	c #867159",
"d.	c #76604D",
"e.	c #6A5445",
"f.	c #685143",
"g.	c #6E5547",
"h.	c #604C40",
"i.	c #5C4739",
"j.	c #6B4F35",
"k.	c #845F35",
"l.	c #9D7038",
"m.	c #AF7D3A",
"n.	c #BB843D",
"o.	c #C38A3F",
"p.	c #CF9242",
"q.	c #CE9140",
"r.	c #CE9243",
"s.	c #CD944C",
"t.	c #CA995D",
"u.	c #C69D6D",
"v.	c #BF9E76",
"w.	c #B19574",
"x.	c #998266",
"y.	c #7B6751",
"z.	c #624F3F",
"A.	c #5D483C",
"B.	c #664F42",
"C.	c #685245",
"D.	c #59453B",
"E.	c #523F31",
"F.	c #674A2E",
"G.	c #886132",
"H.	c #B9833D",
"I.	c #C18940",
"J.	c #C58B41",
"K.	c #C58C41",
"L.	c #C68C41",
"M.	c #C68B3F",
"N.	c #C7904D",
"O.	c #C99A61",
"P.	c #CBA373",
"Q.	c #C8A77D",
"R.	c #BB9E7A",
"S.	c #9F876A",
"T.	c #7C6852",
"U.	c #5B493A",
"V.	c #534036",
"W.	c #614B3E",
"X.	c #705749",
"Y.	c #675144",
"Z.	c #554339",
"`.	c #4C3A2D",
" +	c #5E442A",
".+	c #805B31",
"++	c #9C6F38",
"@+	c #AF7C3D",
"#+	c #B6813F",
"$+	c #B7823F",
"%+	c #B5813F",
"&+	c #B5803F",
"*+	c #B4803E",
"=+	c #B47F3B",
"-+	c #B47F3D",
";+	c #B68448",
">+	c #BA8E5B",
",+	c #BE986C",
"'+	c #BD9C75",
")+	c #B09472",
"!+	c #967F62",
"~+	c #74614B",
"{+	c #534336",
"]+	c #564338",
"^+	c #4A382D",
"/+	c #553D29",
"(+	c #70502F",
"_+	c #986C3A",
":+	c #9E703C",
"<+	c #9E713C",
"[+	c #9C6F3C",
"}+	c #9B6F3C",
"|+	c #9A6F3C",
"1+	c #9A6E3A",
"2+	c #9A6D39",
"3+	c #9B7040",
"4+	c #9F784E",
"5+	c #A3815C",
"6+	c #A38563",
"7+	c #987E60",
"8+	c #826C53",
"9+	c #665341",
"0+	c #4D3D31",
"a+	c #4E3C32",
"b+	c #5F4A3E",
"c+	c #695244",
"d+	c #59453A",
"e+	c #4B3A2F",
"f+	c #4D3A2B",
"g+	c #5D432D",
"h+	c #6E4F33",
"i+	c #7A5836",
"j+	c #7F5B38",
"k+	c #815B38",
"l+	c #815C39",
"m+	c #825D3A",
"n+	c #825E3C",
"o+	c #83603F",
"p+	c #846344",
"q+	c #84664A",
"r+	c #81664C",
"s+	c #796049",
"t+	c #695440",
"u+	c #564435",
"v+	c #4A3A2F",
"w+	c #524035",
"x+	c #624C3F",
"y+	c #6C5446",
"z+	c #534135",
"A+	c #4F3C30",
"B+	c #533E30",
"C+	c #5B4332",
"D+	c #624733",
"E+	c #6A4933",
"F+	c #714B33",
"G+	c #774B32",
"H+	c #7A4C32",
"I+	c #7C4C32",
"J+	c #7B4C32",
"K+	c #7B4B31",
"L+	c #7C4E34",
"M+	c #7E543A",
"N+	c #825D43",
"O+	c #84644A",
"P+	c #83664C",
"Q+	c #7D6249",
"R+	c #745A43",
"S+	c #69503C",
"T+	c #604937",
"U+	c #574132",
"V+	c #503D30",
"W+	c #503D33",
"X+	c #675042",
"Y+	c #604B3E",
"Z+	c #594539",
"`+	c #4F3E33",
" @	c #543D30",
".@	c #633E2E",
"+@	c #74412C",
"@@	c #82442B",
"#@	c #8A462A",
"$@	c #8D472A",
"%@	c #8D462A",
"&@	c #8C4629",
"*@	c #8C4528",
"=@	c #8B4427",
"-@	c #8B4225",
";@	c #8B4124",
">@	c #8C4325",
",@	c #8E4B2E",
"'@	c #935A3F",
")@	c #996E51",
"!@	c #9D7B5E",
"~@	c #9B7F61",
"{@	c #8E755A",
"]@	c #79624B",
"^@	c #624B39",
"/@	c #513B2F",
"(@	c #564135",
"_@	c #5C473B",
":@	c #644E41",
"<@	c #6D5546",
"[@	c #745B4C",
"}@	c #715849",
"|@	c #644F41",
"1@	c #59473B",
"2@	c #53392C",
"3@	c #683927",
"4@	c #813F25",
"5@	c #944322",
"6@	c #9F4620",
"7@	c #A24720",
"8@	c #A14720",
"9@	c #A1461F",
"0@	c #A1461E",
"a@	c #A1451D",
"b@	c #A14219",
"c@	c #A1431A",
"d@	c #A34E2A",
"e@	c #AA6544",
"f@	c #B3805E",
"g@	c #B9926F",
"h@	c #B59774",
"i@	c #A48A6B",
"j@	c #877157",
"k@	c #66513F",
"l@	c #513D31",
"m@	c #533E33",
"n@	c #5F493C",
"o@	c #735A4A",
"p@	c #6B5344",
"q@	c #614A3C",
"r@	c #5A3F32",
"s@	c #5E3828",
"t@	c #753821",
"u@	c #8E3F1D",
"v@	c #A34419",
"w@	c #AE4716",
"x@	c #B24814",
"y@	c #B14815",
"z@	c #B14918",
"A@	c #B14D1E",
"B@	c #B25126",
"C@	c #B3552B",
"D@	c #B3552C",
"E@	c #B05025",
"F@	c #AE4C1F",
"G@	c #AF542C",
"H@	c #B66E49",
"I@	c #C28C67",
"J@	c #CAA27B",
"K@	c #C7A781",
"L@	c #B39876",
"M@	c #927C60",
"N@	c #6A5743",
"O@	c #513F33",
"P@	c #564136",
"Q@	c #6E5546",
"R@	c #6B4F41",
"S@	c #6A4838",
"T@	c #6C3F2E",
"U@	c #753A23",
"V@	c #873A1B",
"W@	c #9A4017",
"X@	c #AB4513",
"Y@	c #B4470F",
"Z@	c #B7470A",
"`@	c #B7470C",
" #	c #B74C19",
".#	c #B9582C",
"+#	c #BD653D",
"@#	c #BF6F49",
"##	c #BE714B",
"$#	c #B76742",
"%#	c #AE5A34",
"&#	c #AB5833",
"*#	c #B3704D",
"=#	c #C3916C",
"-#	c #CFA880",
";#	c #CEAE87",
">#	c #B99E7B",
",#	c #958063",
"'#	c #695845",
")#	c #4E3E34",
"!#	c #554237",
"~#	c #685144",
"{#	c #685345",
"]#	c #644C3F",
"^#	c #684738",
"/#	c #734330",
"(#	c #814027",
"_#	c #8E3E1D",
":#	c #9B3F16",
"<#	c #A74313",
"[#	c #B04610",
"}#	c #B6470D",
"|#	c #B74604",
"1#	c #B74707",
"2#	c #B9501F",
"3#	c #BD643C",
"4#	c #C47B54",
"5#	c #C88A63",
"6#	c #C58D67",
"7#	c #B9805C",
"8#	c #A86B4A",
"9#	c #9E5E3F",
"0#	c #A77151",
"a#	c #BC916D",
"b#	c #CDA982",
"c#	c #CFB088",
"d#	c #BAA07C",
"e#	c #968164",
"f#	c #695945",
"g#	c #4C3E34",
"h#	c #544238",
"i#	c #6B5547",
"j#	c #5E4B3F",
"k#	c #584136",
"l#	c #643D2D",
"m#	c #7B3C25",
"n#	c #92401E",
"o#	c #A24317",
"p#	c #B04611",
"q#	c #B44710",
"r#	c #B64502",
"s#	c #B64607",
"t#	c #B85324",
"u#	c #BF6D46",
"v#	c #C88862",
"w#	c #CD9B74",
"x#	c #CA9F78",
"y#	c #BA916E",
"z#	c #A37A5A",
"A#	c #92684B",
"B#	c #9B7356",
"C#	c #B3906E",
"D#	c #C8A780",
"E#	c #CCAC85",
"F#	c #B99D79",
"G#	c #977F62",
"H#	c #6C5844",
"I#	c #523F33",
"J#	c #574137",
"K#	c #695143",
"L#	c #58463B",
"M#	c #503A2F",
"N#	c #613524",
"O#	c #7F381C",
"P#	c #9B4017",
"Q#	c #AD4513",
"R#	c #B6480F",
"S#	c #B6470E",
"T#	c #B54402",
"U#	c #B85325",
"V#	c #BF6D47",
"W#	c #C88963",
"X#	c #CE9D76",
"Y#	c #CBA27B",
"Z#	c #BC9874",
"`#	c #A68566",
" $	c #96775A",
".$	c #9C7D5F",
"+$	c #B2906E",
"@$	c #C5A17B",
"#$	c #C9A47D",
"$$	c #B99571",
"%$	c #9C795B",
"&$	c #795640",
"*$	c #633F30",
"=$	c #614134",
"-$	c #694D3F",
";$	c #705748",
">$	c #675244",
",$	c #554539",
"'$	c #4D372D",
")$	c #5F3221",
"!$	c #80391C",
"~$	c #9D4117",
"{$	c #B7480F",
"]$	c #B8490E",
"^$	c #B6480E",
"/$	c #B54505",
"($	c #B64609",
"_$	c #B85121",
":$	c #BD663E",
"<$	c #C47D57",
"[$	c #C98F69",
"}$	c #C89771",
"|$	c #BF9671",
"1$	c #AA8B6B",
"2$	c #AD8D6B",
"3$	c #C39671",
"4$	c #C4936D",
"5$	c #B88461",
"6$	c #A46D4E",
"7$	c #8D5237",
"8$	c #7B402A",
"9$	c #703F2D",
"0$	c #6A4738",
"a$	c #694F41",
"b$	c #6B5445",
"c$	c #B6460A",
"d$	c #B6470C",
"e$	c #B74D1B",
"f$	c #BA592E",
"g$	c #BD6841",
"h$	c #C17750",
"i$	c #C2835D",
"j$	c #C28E69",
"k$	c #C09873",
"l$	c #BF9C78",
"m$	c #BF9B76",
"n$	c #C1936E",
"o$	c #C28863",
"p$	c #BF7C56",
"q$	c #B86D49",
"r$	c #AD5D39",
"s$	c #A04D2A",
"t$	c #914122",
"u$	c #7F3D25",
"v$	c #5F4437",
"w$	c #695345",
"x$	c #725A4B",
"y$	c #56453A",
"z$	c #4E382E",
"A$	c #603322",
"B$	c #9C4017",
"C$	c #AF4612",
"D$	c #B8480E",
"E$	c #B64A13",
"F$	c #B74D1A",
"G$	c #B85122",
"H$	c #BA5B31",
"I$	c #BD6C45",
"J$	c #C3845E",
"K$	c #C99972",
"L$	c #CCA37C",
"M$	c #CBA079",
"N$	c #C7906A",
"O$	c #C07953",
"P$	c #BB633C",
"Q$	c #B7552A",
"R$	c #B34E1F",
"S$	c #AD491A",
"T$	c #9F4319",
"U$	c #893C1D",
"V$	c #6D3824",
"W$	c #573A2E",
"X$	c #634F42",
"Y$	c #564539",
"Z$	c #603222",
"`$	c #9D4017",
" %	c #B54503",
".%	c #B64A15",
"+%	c #BA5C33",
"@%	c #C17852",
"#%	c #C99069",
"$%	c #CE9C75",
"%%	c #CC9871",
"&%	c #C68660",
"*%	c #BE6C45",
"=%	c #B74709",
"-%	c #B74504",
";%	c #B3470F",
">%	c #A64314",
",%	c #8D3C1A",
"'%	c #6E341F",
")%	c #523428",
"!%	c #503F35",
"~%	c #604D40",
"{%	c #6F5849",
"]%	c #B9490E",
"^%	c #B7480E",
"/%	c #B64606",
"(%	c #B54300",
"_%	c #B64506",
":%	c #BE6942",
"<%	c #C47D56",
"[%	c #C78761",
"}%	c #C6845E",
"|%	c #C1754E",
"1%	c #BB5F36",
"2%	c #B74B17",
"3%	c #B74400",
"4%	c #B84400",
"5%	c #B4460C",
"6%	c #A74314",
"7%	c #8E3C1A",
"8%	c #513327",
"9%	c #4F3E34",
"0%	c #5F4C40",
"a%	c #56463A",
"b%	c #4F382E",
"c%	c #603323",
"d%	c #AE4612",
"e%	c #B5480F",
"f%	c #B64608",
"g%	c #BC643C",
"h%	c #BE6A43",
"i%	c #BD6941",
"j%	c #BB6037",
"k%	c #B85426",
"l%	c #B64A14",
"m%	c #B74708",
"n%	c #523328",
"o%	c #503F34",
"p%	c #6A5446",
"q%	c #5B493D",
"r%	c #553E33",
"s%	c #623929",
"t%	c #7D3B22",
"u%	c #95401B",
"v%	c #A64316",
"w%	c #AC4513",
"x%	c #AD4512",
"y%	c #AC4512",
"z%	c #AE4512",
"A%	c #B34710",
"B%	c #B74F1F",
"C%	c #B85021",
"D%	c #B74E1D",
"E%	c #B74B16",
"F%	c #B64911",
"G%	c #6E5748",
"H%	c #645042",
"I%	c #5F483B",
"J%	c #664334",
"K%	c #76402C",
"L%	c #883F23",
"M%	c #933F1B",
"N%	c #963F18",
"O%	c #973F18",
"P%	c #983F18",
"Q%	c #A44315",
"R%	c #B7480D",
"S%	c #B64504",
"T%	c #B64505",
"U%	c #6A5244",
"V%	c #6A4D3E",
"W%	c #6F4635",
"X%	c #743F2B",
"Y%	c #773822",
"Z%	c #78371D",
"`%	c #78361E",
" &	c #7B371D",
".&	c #853A1C",
"+&	c #953E19",
"@&	c #A64315",
"#&	c #B24711",
"$&	c #B6470A",
"%&	c #B64503",
"&&	c #B54504",
"*&	c #73594A",
"=&	c #6F5445",
"-&	c #684C3D",
";&	c #624133",
">&	c #5C382A",
",&	c #573225",
"'&	c #553123",
")&	c #5C3324",
"!&	c #6D3722",
"~&	c #863C1E",
"{&	c #9C4119",
"]&	c #AC4514",
"^&	c #B5470F",
"/&	c #B5480E",
"(&	c #5D483B",
"_&	c #533F34",
":&	c #4C3A30",
"<&	c #4A3A30",
"[&	c #513B30",
"}&	c #613C2D",
"|&	c #7A3E27",
"1&	c #8F4020",
"2&	c #A44213",
"3&	c #A54212",
"4&	c #A74312",
"5&	c #AB4410",
"6&	c #B0460E",
"7&	c #B4470D",
"8&	c #B6480C",
"9&	c #B7480B",
"0&	c #B7480C",
"a&	c #6D5648",
"b&	c #645043",
"c&	c #5D4B3E",
"d&	c #59493D",
"e&	c #58483D",
"f&	c #5C493C",
"g&	c #644739",
"h&	c #714432",
"i&	c #7E4027",
"j&	c #863C1C",
"k&	c #8A3915",
"l&	c #8C3A15",
"m&	c #923B13",
"n&	c #9D3F10",
"o&	c #A9420C",
"p&	c #B24507",
"q&	c #B74705",
"r&	c #B84704",
"s&	c #B74706",
"t&	c #B84808",
"u&	c #B8480B",
"v&	c #6B5446",
"w&	c #6B5042",
"x&	c #6A4A3A",
"y&	c #6A4130",
"z&	c #6A3826",
"A&	c #693320",
"B&	c #683320",
"C&	c #6B3420",
"D&	c #77371E",
"E&	c #8C3C1B",
"F&	c #A04217",
"G&	c #AE4613",
"H&	c #B54810",
"I&	c #B74910",
"J&	c #B64810",
"K&	c #644D41",
"L&	c #5B453B",
"M&	c #523D35",
"N&	c #4C3933",
"O&	c #4A3833",
"P&	c #4F3933",
"Q&	c #623C32",
"R&	c #7D4130",
"S&	c #96472D",
"T&	c #A74B2B",
"U&	c #AF4D2A",
"V&	c #B14E2A",
"W&	c #B04E29",
"X&	c #B04D27",
"Y&	c #B34C23",
"Z&	c #B54B1C",
"`&	c #B24816",
" *	c #8E3C19",
".*	c #6E341E",
"+*	c #655145",
"@*	c #5D4E46",
"#*	c #544D47",
"$*	c #4D4B48",
"%*	c #474A49",
"&*	c #454A4A",
"**	c #4B4B4A",
"=*	c #5B4D49",
"-*	c #735048",
";*	c #8A5447",
">*	c #9A5746",
",*	c #A15846",
"'*	c #A25946",
")*	c #A25845",
"!*	c #A45641",
"~*	c #AA5338",
"{*	c #B04F2B",
"]*	c #B1491C",
"^*	c #A64312",
"/*	c #8F3B16",
"(*	c #6F341D",
"_*	c #523427",
":*	c #604B3F",
"<*	c #5A4A41",
"[*	c #574F49",
"}*	c #555452",
"|*	c #555A5A",
"1*	c #545C5D",
"2*	c #535D5E",
"3*	c #565D5E",
"4*	c #5F5D5D",
"5*	c #6E5F5D",
"6*	c #7D615C",
"7*	c #88625C",
"8*	c #8C635C",
"9*	c #8D645C",
"0*	c #8D635B",
"a*	c #926056",
"b*	c #9E5B4B",
"c*	c #AA543A",
"d*	c #AF4B24",
"e*	c #A64313",
"f*	c #8F3B14",
"g*	c #6F331C",
"h*	c #604A3D",
"i*	c #534137",
"j*	c #4D423C",
"k*	c #514E4C",
"l*	c #595B5B",
"m*	c #5E6566",
"n*	c #61696A",
"o*	c #61696B",
"p*	c #61686A",
"q*	c #636869",
"r*	c #696969",
"s*	c #6F6969",
"t*	c #746A69",
"u*	c #766A69",
"v*	c #756B6A",
"w*	c #776B69",
"x*	c #806865",
"y*	c #916259",
"z*	c #A15947",
"A*	c #AA4F31",
"B*	c #A34620",
"C*	c #8D3C1B",
"D*	c #513428",
"E*	c #5B4639",
"F*	c #4C3B32",
"G*	c #453E3A",
"H*	c #4E4E4E",
"I*	c #5A5F60",
"J*	c #626A6C",
"K*	c #656E70",
"L*	c #636D6F",
"M*	c #616A6D",
"N*	c #5F696B",
"O*	c #5F686A",
"P*	c #60686A",
"Q*	c #686E70",
"R*	c #726D6C",
"S*	c #856763",
"T*	c #976054",
"U*	c #A05643",
"V*	c #9A4D35",
"W*	c #86422C",
"X*	c #693828",
"Y*	c #4F352A",
"Z*	c #503E34",
"`*	c #5A4538",
" =	c #493A31",
".=	c #443D39",
"+=	c #4F4F4F",
"@=	c #5B6161",
"#=	c #636B6D",
"$=	c #636D70",
"%=	c #5F6A6D",
"&=	c #586467",
"*=	c #536064",
"==	c #505E62",
"-=	c #4F5E62",
";=	c #506064",
">=	c #536367",
",=	c #58696C",
"'=	c #606D70",
")=	c #6B6F70",
"!=	c #7B6C6A",
"~=	c #896761",
"{=	c #906056",
"]=	c #8B574B",
"^=	c #794A3F",
"/=	c #603D33",
"(=	c #4B362D",
"_=	c #604C3F",
":=	c #4A3A31",
"<=	c #433D3A",
"[=	c #4E4F4E",
"}=	c #5B6061",
"|=	c #616B6D",
"1=	c #5B6668",
"2=	c #535E60",
"3=	c #4D595B",
"4=	c #4A5659",
"5=	c #495659",
"6=	c #4B585B",
"7=	c #505D60",
"8=	c #576567",
"9=	c #606B6D",
"0=	c #726E6F",
"a=	c #7A6C6A",
"b=	c #7D6764",
"c=	c #785F5A",
"d=	c #69514C",
"e=	c #55413C",
"f=	c #493830",
"g=	c #513F34",
"h=	c #614C3E",
"i=	c #4A3B31",
"j=	c #433C38",
"k=	c #4C4C4B",
"l=	c #585C5C",
"m=	c #606667",
"n=	c #636969",
"o=	c #626765",
"p=	c #61635F",
"q=	c #60605A",
"r=	c #5F5F58",
"s=	c #60635E",
"t=	c #616664",
"u=	c #656B6C",
"v=	c #676C6D",
"w=	c #6A6B6C",
"x=	c #6A6868",
"y=	c #656161",
"z=	c #5B5453",
"A=	c #504642",
"B=	c #4C3E36",
"C=	c #564237",
"D=	c #493930",
"E=	c #403934",
"F=	c #464443",
"G=	c #505353",
"H=	c #5C5F5E",
"I=	c #6A6964",
"J=	c #777166",
"K=	c #827868",
"L=	c #897C68",
"M=	c #8C7E69",
"N=	c #827867",
"O=	c #5F6363",
"P=	c #5B6162",
"Q=	c #5A6162",
"R=	c #5A6061",
"S=	c #585B5B",
"T=	c #555351",
"U=	c #544B45",
"V=	c #56463C",
"W=	c #5F4A3D",
"X=	c #6A5243",
"Y=	c #6B5345",
"Z=	c #5B463A",
"`=	c #49382F",
" -	c #3D342E",
".-	c #3E3938",
"+-	c #464544",
"@-	c #585550",
"#-	c #72695D",
"$-	c #8D7E6A",
"%-	c #A28E73",
"&-	c #AE9879",
"*-	c #B39C7C",
"=-	c #8D7D69",
"--	c #595854",
";-	c #4C5050",
">-	c #4A4F50",
",-	c #50504E",
"'-	c #564F4A",
")-	c #5D4E45",
"!-	c #644F43",
"~-	c #5C483B",
"{-	c #4B3B31",
"]-	c #3E312A",
"^-	c #352D2A",
"/-	c #3B3432",
"(-	c #524941",
"_-	c #776755",
":-	c #9A856A",
"<-	c #B59C7B",
"[-	c #C4A884",
"}-	c #CAAE88",
"|-	c #B59C7A",
"1-	c #534B42",
"2-	c #3E3B39",
"3-	c #3C3938",
"4-	c #453F3C",
"5-	c #4F443E",
"6-	c #5B4B42",
"7-	c #665245",
"8-	c #6D5647",
"9-	c #614C3F",
"0-	c #534136",
"a-	c #47372E",
"b-	c #3A2C27",
"c-	c #382C26",
"d-	c #4E4035",
"e-	c #73614C",
"f-	c #988165",
"g-	c #B49977",
"h-	c #C4A782",
"i-	c #CAAD86",
"j-	c #4E4135",
"k-	c #392D28",
"l-	c #3C2E29",
"m-	c #493931",
"n-	c #614C40",
"o-	c #564337",
"p-	c #49382E",
"q-	c #413027",
"r-	c #4A3A2D",
"s-	c #675541",
"t-	c #9F8768",
"u-	c #AD9372",
"v-	c #B39875",
"w-	c #493A2D",
"x-	c #402F26",
"y-	c #49362C",
"z-	c #584338",
"A-	c #4A392F",
"B-	c #46372B",
"C-	c #544435",
"D-	c #6A5844",
"E-	c #7C6850",
"F-	c #867157",
"G-	c #8A755A",
"H-	c #46362B",
"I-	c #4A382E",
"J-	c #574337",
"K-	c #644D40",
"L-	c #6C5445",
"M-	c #513E34",
"N-	c #43342B",
"O-	c #42342A",
"P-	c #4C3D30",
"Q-	c #554536",
"R-	c #5A4A39",
"S-	c #5D4B3B",
"T-	c #654E41",
"U-	c #43342A",
"V-	c #3B2D24",
"W-	c #3F2F26",
"X-	c #433227",
"Y-	c #463328",
"Z-	c #473429",
"`-	c #44342A",
" ;	c #3D2E25",
".;	c #433126",
"+;	c #493428",
"@;	c #4D3629",
"#;	c #4E372A",
"$;	c #44342B",
"%;	c #544236",
"&;	c #423127",
"*;	c #4C382B",
"=;	c #543E2E",
"-;	c #5A4131",
";;	c #5C4332",
">;	c #534035",
",;	c #45342B",
"';	c #433228",
");	c #4D392C",
"!;	c #573F30",
"~;	c #5E4533",
"{;	c #43332A",
"];	c #4F3D33",
"^;	c #403027",
"/;	c #49362A",
"(;	c #503B2D",
"_;	c #553E2F",
":;	c #574030",
"<;	c #3F3027",
"[;	c #675143",
"};	c #3C2E25",
"|;	c #413127",
"1;	c #463429",
"2;	c #4B372B",
"3;	c #3B2D26",
"4;	c #403129",
"5;	c #5B473B",
"6;	c #665042",
"7;	c #48372D",
"8;	c #3F3028",
"9;	c #423228",
"0;	c #44332A",
"a;	c #423229",
"b;	c #413128",
"c;	c #42332A",
"d;	c #6A5345",
"e;	c #5E493D",
"f;	c #4C3B31",
"g;	c #4D3C32",
"h;	c #4D3B31",
"i;	c #584439",
"j;	c #624D40",
"                                                                                                                                ",
"                                        . + @ # $ $ # # # # # # # # $ $ # # + +                                                 ",
"                                      . % & * = - - - - - - - - - - - - - ; > , +                                               ",
"                                      + & ' ) ! ~ ~ ~ ~ ~ ~ ~ ~ ~ ~ ~ ~ { ] ^ ; %                                               ",
"                                      % / ( _ : < < [ [ [ [ [ [ [ [ < } | 1 2 3 4 5                                             ",
"                                5 @ 6 7 8 9 0 a b b b b b b b b b b b c b d e f g h # +                                         ",
"                                # i j k l m n o p p p p p p p p p p p p q r s t u k v , 5                                       ",
"                                4 ' w x y z A B C D E E E E E E E E E C E F G H I J K L @                                       ",
"                              $ > M N O P Q R S T U V W W W W W W W X T W Y Z `  ...+.- , +                                     ",
"                        + @.4 #.$.%.&.*.=.-.;.>.,.,.'.'.'.'.'.'.'.'.'.).'.!.~.{.].^./.(.> & , @                                 ",
"                        # i ' _.:.<.[.}.|.1.2.3.4.4.5.5.5.5.5.5.5.5.6.7.5.8.9.0.a.b.c.d.e.f.g., .                               ",
"                        % - h.i.j.k.l.m.n.o.>.,.p.p.3.3.3.3.3.3.3.3.3.q.r.s.t.u.v.w.x.y.z.A.B.& +                               ",
"                        , C.D.E.F.G.E H.I.J.K.L.L.L.L.L.L.L.L.L.L.L.2.M.L.N.O.P.Q.R.S.T.U.V.W.X.+                               ",
"                        , Y.Z.`. +.+++@+#+$+%+%+&+&+&+&+&+&+%+%+%+&+*+=+-+;+>+,+'+)+!+~+{+[ 2 * +                               ",
"                        , Y.]+^+/+(+[._+:+<+[+}+|+|+|+|+|+|+|+|+|+|+1+A 2+3+4+5+6+7+8+9+0+a+b+* +                               ",
"                        , c+d+e+f+g+h+i+j+k+k+k+k+k+k+k+k+k+k+k+k+k+l+m+n+o+p+q+r+s+t+u+v+w+x+> +                               ",
"                        6 y+b+z+A+B+C+D+E+F+G+H+I+I+J+J+K+K+K+K+K+L+M+N+O+P+Q+R+S+T+U+V+W+d+X+i +                               ",
"                        $ > c+Y+Z+z+`+ @.@+@@@#@$@%@&@*@=@-@-@;@>@,@'@)@!@~@{@]@^@B+/@(@_@:@<@4 5                               ",
"                        + [@}@y+|@1@`+2@3@4@5@6@7@7@8@9@0@a@a@b@c@d@e@f@g@h@i@j@k@l@m@n@k ; o@$                                 ",
"                        5 @ , }@p@q@r@s@t@u@v@w@x@y@z@A@B@C@D@E@F@G@H@I@J@K@L@M@N@O@P@B.}@$ + .                                 ",
"                        + [@i Q@R@S@T@U@V@W@X@Y@Z@`@ #.#+#@###$#%#&#*#=#-#;#>#,#'#)#!#~#%                                       ",
"                        # > {#]#^#/#(#_#:#<#[#}#|#1#2#3#4#5#6#7#8#9#0#a#b#c#d#e#f#g#h#c+#                                       ",
"                        6 i#j#k#l#m#n#o#X@p#q#}#r#s#t#u#v#w#x#y#z#A#B#C#D#E#F#G#H#I#J#K#,                                       ",
"                        , {#L#M#N#O#P#Q#q#R#R#S#T#s#U#V#W#X#Y#Z#`# $.$+$@$#$$$%$&$*$=$-$;$4 # +                                 ",
"                        , >$,$'$)$!$~$p#{$]${$^$/$($_$:$<$[$}$|$+$1$2$g@3$4$5$6$7$8$9$0$a$b$> % .                               ",
"                        , >$,$'$)$!$~$p#{$]${$^$c$d$e$f$g$h$i$j$k$l$m$n$o$p$q$r$s$t$u$T@v$Y+w$x$+                               ",
"                        , >$y$z$A$!$B$C$R#D$R#R#^$^$E$F$G$H$I$J$K$L$M$N$O$P$Q$R$S$T$U$V$W$]+X$> +                               ",
"                        , >$Y$'$Z$!$`$p#{$]${${$R#R#R#c$ %.%+%@%#%$%%%&%*%U#=%-%;%>%,%'%)%!%~%{%+                               ",
"                        , >$,$'$)$!$~$p#]$]%]$^%{${$^$/%(%_%U#:%<%[%}%|%1%2%3%4%5%6%7%'%8%9%0%* +                               ",
"                        , C.a%b%c%!$B$d%e%{$R#e%R#R#R#d$f%d$e$f$g%h%i%j%k%l%m%m%Y@>%7%'%n%o%0%{%+                               ",
"                        [@p%q%r%s%t%u%v%w%x%y%z%p#A%e%R#^$R#E$ #B%G$C%D%E%F%^%^%A%>%7%'%)%o%~%{%+                               ",
"                        % G%H%I%J%K%L%M%N%O%P%B$Q%x%q#{$]$^%R%Z@s#S%T%f%d$^${${$A%>%7%'%)%o%~%{%+                               ",
"                        + 4 ; U%V%W%X%Y%Z%`% &.&+&@&#&{$]$^%R%$&T%%&&&s#d$^${${$A%>%7%'%)%o%~%{%+                               ",
"                        . + % *&=&-&;&>&,&'&)&!&~&{&]&#&A%A%A%q#^&/&^$^$R#R#{$^%A%>%7%'%)%o%~%{%+                               ",
"                              + & f.(&_&:&<&[&}&|&1&~$2&3&3&4&5&6&7&8&9&0&8&0&R%A%>%,%'%)%o%~%{%+                               ",
"                                [@a&b&c&d&e&f&g&h&i&j&k&k&l&m&n&o&p&q&r&r&s&t&u&;%>%,%'%)%o%~%{%+                               ",
"                                @ 4 {%- i#i#v&w&x&y&z&A&B&C&D&E&F&G&H&I&J&J&{${$A%>%7%'%)%o%~%{%+                               ",
"                                . + # % , 4 }@y+K&L&M&N&O&P&Q&R&S&T&U&V&W&X&Y&Z&`&@& *.*)%o%~%{%+                               ",
"                                      5 6 }@v&+*@*#*$*%*&***=*-*;*>*,*'*)*!*~*{*]*^*/*(*_*o%~%{%+                               ",
"                                      + }@K#:*<*[*}*|*1*2*3*4*5*6*7*8*9*0*a*b*c*d*e*f*g*_*o%~%{%+                               ",
"                                      % <@h*i*j*k*l*m*n*o*p*q*r*s*t*u*v*w*x*y*z*A*B*C*'%D*o%~%{%+                               ",
"                                      6 p@E*F*G*H*I*J*K*L*M*N*O*P*o*J*L*Q*R*S*T*U*V*W*X*Y*Z*h.> +                               ",
"                                      [@3 `* =.=+=@=#=$=%=&=*===-=;=>=,='=)=!=~={=]=^=/=(=`+_=* +                               ",
"                                      [@3 `*:=<=[=}=J*|=1=2=3=4=5=6=7=8=9=Q*0=a=b=c=d=e=f=g=h=;$+                               ",
"                                      6 p@E*i=j=k=l=m=n=o=p=q=r=r=q=s=t=n=u=v=w=x=y=z=A=B=C=( }@+                               ",
"                                      [@3 E*D=E=F=G=H=I=J=K=L=M=M=L=N=J=I=O=P=Q=R=S=T=U=V=W=X=o@+                               ",
"                                      [@Y=Z=`= -.-+-@-#-$-%-&-*-*-&-%-=-#---;->-;-,-'-)-!-3 ;$6 .                               ",
"                                      6 b$~-{-]-^-/-(-_-:-<-[-}-}-[-|-:-_-1-2-3-4-5-6-7-G%o@% +                                 ",
"                                      % 8-9-0-a-b-c-d-e-f-g-h-i-i-h-g-f-e-j-k-l-m-h#n-= [@.                                     ",
"                                      # }@c+Y+o-p-q-r-s-j@t-u-v-v-u-t-j@s-w-x-y-(@h*k }@+                                       ",
"                                      + 6 }@y+( z-A-B-C-D-E-F-G-G-F-E-D-C-H-I-J-K-L-}@6 .                                       ",
"                                        5 + , = 9-M-N-O-P-Q-R-S-S-R-Q-P-O-N-M-9-= , + 5                                         ",
"                                            5 i T-1 U-V-W-X-Y-Z-Z-Y-X-W-V-U-1 M &                                               ",
"                                              & M 1 `- ;.;+;@;#;#;@;+;.; ;$;%;B.o@                                              ",
"                                            . i :@0-$;&;*;=;-;;;;;-;=;*;&;$;>;:@> +                                             ",
"                                            + }@:@V.,;';);!;;;~;~;;;!;);';{;];W=Y=& % + .                                       ",
"                                            + }@:@w+{;^;/;(;_;:;:;_;(;/;^;<;a-1 W=[;/ 4 +                                       ",
"                                            + }@:@>;{;};|;1;/;2;2;/;1;&;};3;4;a-g=5;6;* $                                       ",
"                                            5 & 6;]+7;8;<;9;{;0;0;{;a;b;8;8;4;c;p-0-9-= %                                       ",
"                                            . 4 d;e;0-a+f;} g;g;g;g;g;g;g;g;h;h;: i;( ; $                                       ",
"                                              6 * f.j;b+W=W=W=W=W=W=W=W=W=W=W=e;b+( Y=& @                                       ",
"                                              + , }@* / = = 8-8-8-8-8-/ / / = = / * & % 5                                       ",
"                                                + + # # $ $ # # # # # # # # $ $ # @ + .                                         ",
"                                                                                                                                "};
