/* XPM */
static char * player_down_xpm[] = {
"64 64 902 2",
"  	c #785E4E",
". 	c #775E4E",
"+ 	c #775D4D",
"@ 	c #765D4D",
"# 	c #765C4D",
"$ 	c #765C4C",
"% 	c #755C4C",
"& 	c #72594A",
"* 	c #6F5748",
"= 	c #6D5547",
"- 	c #6C5547",
"; 	c #6A5346",
"> 	c #624D41",
", 	c #5C483E",
"' 	c #5A473D",
") 	c #6E5647",
"! 	c #644E40",
"~ 	c #584438",
"{ 	c #503E33",
"] 	c #4E3C31",
"^ 	c #4F3C32",
"/ 	c #775D4E",
"( 	c #755B4C",
"_ 	c #725949",
": 	c #6D5544",
"< 	c #674E3C",
"[ 	c #624933",
"} 	c #5E442D",
"| 	c #5D432B",
"1 	c #71594A",
"2 	c #6B5447",
"3 	c #695243",
"4 	c #6E533E",
"5 	c #765639",
"6 	c #7D5A34",
"7 	c #825C30",
"8 	c #835D30",
"9 	c #835C2F",
"0 	c #835C2E",
"a 	c #825C2D",
"b 	c #825B2B",
"c 	c #825B2A",
"d 	c #825A2A",
"e 	c #735A4B",
"f 	c #604B40",
"g 	c #614A3A",
"h 	c #725438",
"i 	c #886137",
"j 	c #9A6D38",
"k 	c #A47437",
"l 	c #A77638",
"m 	c #A67638",
"n 	c #A67538",
"o 	c #A67537",
"p 	c #A67435",
"q 	c #A57434",
"r 	c #A57433",
"s 	c #A57332",
"t 	c #705849",
"u 	c #654F41",
"v 	c #5D4739",
"w 	c #634933",
"x 	c #7C5A32",
"y 	c #996D37",
"z 	c #B17D3C",
"A 	c #BD863E",
"B 	c #C1883F",
"C 	c #C0883F",
"D 	c #C08841",
"E 	c #C08943",
"F 	c #C08A46",
"G 	c #C08A47",
"H 	c #C08A48",
"I 	c #755C4D",
"J 	c #705848",
"K 	c #6E5544",
"L 	c #6B513D",
"M 	c #6D5036",
"N 	c #795731",
"O 	c #906633",
"P 	c #A97839",
"Q 	c #BE863E",
"R 	c #C98E41",
"S 	c #CD9141",
"T 	c #CC9145",
"U 	c #CD944D",
"V 	c #CE9857",
"W 	c #CF9B60",
"X 	c #CF9E65",
"Y 	c #D09F68",
"Z 	c #675041",
"` 	c #6D523D",
" .	c #795839",
"..	c #886136",
"+.	c #986C35",
"@.	c #A87738",
"#.	c #B8823C",
"$.	c #C68C40",
"%.	c #CE9242",
"&.	c #D19341",
"*.	c #D19342",
"=.	c #D19549",
"-.	c #D29C5A",
";.	c #D4A46D",
">.	c #D7AC7D",
",.	c #D8B186",
"'.	c #D9B389",
").	c #604C40",
"!.	c #5C4739",
"~.	c #6B4F35",
"{.	c #845F35",
"].	c #9D7038",
"^.	c #AF7D3A",
"/.	c #BB843D",
"(.	c #C38A3F",
"_.	c #CD9142",
":.	c #CE913F",
"<.	c #CE9140",
"[.	c #CF954C",
"}.	c #D19F64",
"|.	c #D5AB7D",
"1.	c #D8B691",
"2.	c #DABD9C",
"3.	c #DBC0A1",
"4.	c #745B4B",
"5.	c #685245",
"6.	c #59453B",
"7.	c #523F31",
"8.	c #674A2E",
"9.	c #886132",
"0.	c #B9833D",
"a.	c #C18940",
"b.	c #C58B41",
"c.	c #C58C41",
"d.	c #C68B3D",
"e.	c #C68C3F",
"f.	c #C7904D",
"g.	c #CA9B67",
"h.	c #CEAA83",
"i.	c #D2B798",
"j.	c #D4BEA4",
"k.	c #D6C2A9",
"l.	c #675144",
"m.	c #554339",
"n.	c #4C3A2D",
"o.	c #5E442A",
"p.	c #805B31",
"q.	c #9C6F38",
"r.	c #AF7C3D",
"s.	c #B6813F",
"t.	c #B7823F",
"u.	c #B5813F",
"v.	c #B5803E",
"w.	c #B47F3C",
"x.	c #B4803D",
"y.	c #B58449",
"z.	c #B88E61",
"A.	c #BC9C7A",
"B.	c #BFA88D",
"C.	c #C2AF98",
"D.	c #C3B29D",
"E.	c #564338",
"F.	c #4A382D",
"G.	c #553D29",
"H.	c #70502F",
"I.	c #986C3A",
"J.	c #9E703C",
"K.	c #9E713C",
"L.	c #9C6F3C",
"M.	c #9B6F3C",
"N.	c #9A6E3A",
"O.	c #9B7143",
"P.	c #9D7953",
"Q.	c #A08366",
"R.	c #A28C75",
"S.	c #A4917E",
"T.	c #A59482",
"U.	c #695244",
"V.	c #59453A",
"W.	c #4B3A2F",
"X.	c #4D3A2B",
"Y.	c #5D432D",
"Z.	c #6E4F33",
"`.	c #7A5836",
" +	c #7F5B38",
".+	c #815B38",
"++	c #815B37",
"@+	c #815A37",
"#+	c #815C3B",
"$+	c #836144",
"%+	c #856850",
"&+	c #876E59",
"*+	c #88725F",
"=+	c #887461",
"-+	c #6C5446",
";+	c #5F4A3E",
">+	c #534135",
",+	c #4F3C30",
"'+	c #533E30",
")+	c #5B4332",
"!+	c #624633",
"~+	c #6A4933",
"{+	c #714A32",
"]+	c #774B32",
"^+	c #7A4B31",
"/+	c #7B4B30",
"(+	c #7C4B31",
"_+	c #7C4E35",
":+	c #7F563D",
"<+	c #825F46",
"[+	c #85674F",
"}+	c #876C54",
"|+	c #886F56",
"1+	c #604B3E",
"2+	c #594539",
"3+	c #4F3E33",
"4+	c #543D30",
"5+	c #623D2C",
"6+	c #733E29",
"7+	c #814026",
"8+	c #894225",
"9+	c #8C4124",
"0+	c #8D4426",
"a+	c #8F4C2F",
"b+	c #935B3F",
"c+	c #996D50",
"d+	c #9E7B5D",
"e+	c #A18464",
"f+	c #A38767",
"g+	c #745B4C",
"h+	c #715849",
"i+	c #644F41",
"j+	c #59473B",
"k+	c #53382C",
"l+	c #683826",
"m+	c #813D23",
"n+	c #944220",
"o+	c #9F441D",
"p+	c #A24318",
"q+	c #A2441B",
"r+	c #A4502C",
"s+	c #AA6746",
"t+	c #B2805E",
"u+	c #BA9470",
"v+	c #BE9F7A",
"w+	c #C0A47E",
"x+	c #6B5344",
"y+	c #61493C",
"z+	c #5A3F32",
"A+	c #5F392A",
"B+	c #763F28",
"C+	c #91492B",
"D+	c #A6522D",
"E+	c #B0542C",
"F+	c #B14F23",
"G+	c #AF4C1F",
"H+	c #AF562E",
"I+	c #B7704C",
"J+	c #C18D68",
"K+	c #CCA47D",
"L+	c #D2B189",
"M+	c #D5B68E",
"N+	c #6E5546",
"O+	c #6B4F41",
"P+	c #694637",
"Q+	c #6C3F2D",
"R+	c #77402A",
"S+	c #8C4F33",
"T+	c #A36141",
"U+	c #B46E4A",
"V+	c #BB704B",
"W+	c #B76640",
"X+	c #AF5933",
"Y+	c #AB5A35",
"Z+	c #B4734F",
"`+	c #C3926D",
" @	c #D1AA83",
".@	c #D9B88F",
"+@	c #DDBE94",
"@@	c #685345",
"#@	c #644C3F",
"$@	c #684638",
"%@	c #723F2D",
"&@	c #813E25",
"*@	c #B57A57",
"=@	c #C28A65",
"-@	c #C38C66",
";@	c #B87E5A",
">@	c #A76848",
",@	c #9E5E3F",
"'@	c #A77353",
")@	c #BC926E",
"!@	c #CFAC84",
"~@	c #DABA90",
"{@	c #DFC095",
"]@	c #6B5547",
"^@	c #5E4B3F",
"/@	c #584136",
"(@	c #633B2C",
"_@	c #7A3820",
":@	c #913E1C",
"<@	c #A5502C",
"[@	c #B56E4A",
"}@	c #C38A64",
"|@	c #CB9C75",
"1@	c #C89E78",
"2@	c #B88F6C",
"3@	c #A17758",
"4@	c #92674B",
"5@	c #9C7557",
"6@	c #B4916E",
"7@	c #CAA982",
"8@	c #D8B78D",
"9@	c #DDBC92",
"0@	c #58463B",
"a@	c #503A2F",
"b@	c #603323",
"c@	c #7E3316",
"d@	c #9A3E14",
"e@	c #AF532A",
"f@	c #BE704A",
"g@	c #C98C66",
"h@	c #CE9E77",
"i@	c #CAA27B",
"j@	c #BA9673",
"k@	c #A48364",
"l@	c #957659",
"m@	c #9D7E5F",
"n@	c #B2906E",
"o@	c #C7A37C",
"p@	c #D3AD85",
"q@	c #D8B188",
"r@	c #675244",
"s@	c #554539",
"t@	c #4D372D",
"u@	c #5F3120",
"v@	c #803517",
"w@	c #9D3F14",
"x@	c #B25125",
"y@	c #BF6941",
"z@	c #C78059",
"A@	c #CA916A",
"B@	c #C79771",
"C@	c #BE9571",
"D@	c #B18F6E",
"E@	c #A98B6A",
"F@	c #AD8C6B",
"G@	c #B9916E",
"H@	c #C49771",
"I@	c #CC9A73",
"J@	c #CF9C74",
"K@	c #5F3121",
"L@	c #803719",
"M@	c #9D4015",
"N@	c #B14C1E",
"O@	c #BB5B30",
"P@	c #C06A42",
"Q@	c #C27852",
"R@	c #C3845F",
"S@	c #C28F6B",
"T@	c #C09874",
"U@	c #BF9C78",
"V@	c #BF9A75",
"W@	c #C1916D",
"X@	c #C28762",
"Y@	c #C3805A",
"Z@	c #C37C56",
"`@	c #56453A",
" #	c #4E382E",
".#	c #603322",
"+#	c #80381B",
"@#	c #9C4016",
"##	c #AF4816",
"$#	c #B74D1B",
"%#	c #BA5223",
"&#	c #BA5D33",
"*#	c #BE6F48",
"=#	c #C48761",
"-#	c #C99A74",
";#	c #CB9F78",
">#	c #C68E68",
",#	c #C07751",
"'#	c #BC643C",
")#	c #BA5A2F",
"!#	c #564539",
"~#	c #603222",
"{#	c #80391C",
"]#	c #9D4017",
"^#	c #B04612",
"/#	c #B64608",
"(#	c #B74502",
"_#	c #B74C18",
":#	c #BB5F36",
"<#	c #C27B55",
"[#	c #CA926B",
"}#	c #CE9C75",
"|#	c #CC9770",
"1#	c #C5845E",
"2#	c #BD6841",
"3#	c #B85121",
"4#	c #B54300",
"5#	c #5F3221",
"6#	c #81391C",
"7#	c #9D4117",
"8#	c #B04610",
"9#	c #B74604",
"0#	c #B74300",
"a#	c #B64609",
"b#	c #B95528",
"c#	c #BE6C44",
"d#	c #C47E58",
"e#	c #C78861",
"f#	c #C6835D",
"g#	c #C1734C",
"h#	c #BA5C32",
"i#	c #B64912",
"j#	c #B43E00",
"k#	c #56463A",
"l#	c #4F382E",
"m#	c #9C4017",
"n#	c #AE4611",
"o#	c #B5470C",
"p#	c #B74607",
"q#	c #B6480E",
"r#	c #B74E1E",
"s#	c #BA5A30",
"t#	c #BD653D",
"u#	c #BE6B43",
"v#	c #BD6840",
"w#	c #BB5E35",
"x#	c #B85224",
"y#	c #B64911",
"z#	c #B54402",
"A#	c #6A5446",
"B#	c #5B493D",
"C#	c #553E33",
"D#	c #623929",
"E#	c #7D3B22",
"F#	c #95401B",
"G#	c #A74316",
"H#	c #AF4611",
"I#	c #B3470F",
"J#	c #B54810",
"K#	c #B64A13",
"L#	c #B74D1A",
"M#	c #B84F1F",
"N#	c #B85122",
"O#	c #B85021",
"P#	c #B74E1C",
"Q#	c #B64B16",
"R#	c #6E5748",
"S#	c #655043",
"T#	c #60493C",
"U#	c #664334",
"V#	c #76412C",
"W#	c #874024",
"X#	c #963F1A",
"Y#	c #A14113",
"Z#	c #AA440F",
"`#	c #B2450A",
" $	c #B64607",
".$	c #B64503",
"+$	c #B64505",
"@$	c #B6470C",
"#$	c #B6480F",
"$$	c #6B5244",
"%$	c #6B4D3E",
"&$	c #6D4636",
"*$	c #733F2B",
"=$	c #7F3B20",
"-$	c #8E3C18",
";$	c #9F4013",
">$	c #AD440D",
",$	c #B54608",
"'$	c #B64402",
")$	c #B54504",
"!$	c #6C5244",
"~$	c #63493C",
"{$	c #5E3F32",
"]$	c #643829",
"^$	c #793923",
"/$	c #924021",
"($	c #A6461F",
"_$	c #B1491C",
":$	c #B54A18",
"<$	c #B64914",
"[$	c #B64810",
"}$	c #73594A",
"|$	c #665043",
"1$	c #59483D",
"2$	c #4D3F37",
"3$	c #503B33",
"4$	c #683E33",
"5$	c #844736",
"6$	c #9B4E37",
"7$	c #A85034",
"8$	c #AF4F2D",
"9$	c #B34C22",
"0$	c #B54915",
"a$	c #B6480D",
"b$	c #B6480B",
"c$	c #6C5445",
"d$	c #644D40",
"e$	c #5B483D",
"f$	c #4D433B",
"g$	c #43403B",
"h$	c #47413E",
"i$	c #5C4843",
"j$	c #75514A",
"k$	c #8A584D",
"l$	c #9A5A4B",
"m$	c #A55641",
"n$	c #AE5030",
"o$	c #B44A1A",
"p$	c #B74708",
"q$	c #B74705",
"r$	c #634D3F",
"s$	c #574439",
"t$	c #4C3F37",
"u$	c #433E3A",
"v$	c #3F423F",
"w$	c #444747",
"x$	c #535050",
"y$	c #665B59",
"z$	c #78625E",
"A$	c #89635C",
"B$	c #995E50",
"C$	c #A7553D",
"D$	c #B14C25",
"E$	c #B64811",
"F$	c #675245",
"G$	c #5B4A3F",
"H$	c #4E423B",
"I$	c #443E3B",
"J$	c #3F403E",
"K$	c #3E4445",
"L$	c #434C4D",
"M$	c #4D5657",
"N$	c #5A6062",
"O$	c #686868",
"P$	c #7A6967",
"Q$	c #8D645C",
"R$	c #9E5B4A",
"S$	c #AA5236",
"T$	c #6A5345",
"U$	c #644E42",
"V$	c #5C4C43",
"W$	c #544945",
"X$	c #4B4847",
"Y$	c #454848",
"Z$	c #42484A",
"`$	c #414A4C",
" %	c #434F51",
".%	c #4A585A",
"+%	c #546265",
"@%	c #616A6C",
"#%	c #706C6C",
"$%	c #816865",
"%%	c #916158",
"&%	c #9E5A4A",
"*%	c #A7543C",
"=%	c #AE4F2E",
"-%	c #B34B1F",
";%	c #B84702",
">%	c #5F493D",
",%	c #56453C",
"'%	c #524843",
")%	c #524F4E",
"!%	c #525556",
"~%	c #4F5658",
"{%	c #4B5456",
"]%	c #455052",
"^%	c #445153",
"/%	c #606A6C",
"(%	c #6B6E6F",
"_%	c #766C6C",
":%	c #8C635B",
"<%	c #995D50",
"[%	c #A5553F",
"}%	c #AF4E2B",
"|%	c #B54914",
"1%	c #B84600",
"2%	c #685142",
"3%	c #5E4A3C",
"4%	c #58493F",
"5%	c #5A524B",
"6%	c #605E5A",
"7%	c #646765",
"8%	c #636766",
"9%	c #5A6060",
"0%	c #4E5757",
"a%	c #475253",
"b%	c #4B5759",
"c%	c #566163",
"d%	c #686E70",
"e%	c #6C6F70",
"f%	c #716E6E",
"g%	c #7B6A68",
"h%	c #89645E",
"i%	c #9B5C4D",
"j%	c #A95338",
"k%	c #B24C23",
"l%	c #B54913",
"m%	c #705948",
"n%	c #705A48",
"o%	c #725D49",
"p%	c #756450",
"q%	c #7B6D5C",
"r%	c #817669",
"s%	c #837C71",
"t%	c #7E7A70",
"u%	c #706E67",
"v%	c #5C5E5A",
"w%	c #4B5251",
"x%	c #4B5455",
"y%	c #555E60",
"z%	c #60696B",
"A%	c #666F71",
"B%	c #677173",
"C%	c #687072",
"D%	c #6E6E6F",
"E%	c #7D6966",
"F%	c #8F6159",
"G%	c #9F5948",
"H%	c #A8533A",
"I%	c #AC5133",
"J%	c #705749",
"K%	c #685243",
"L%	c #705B49",
"M%	c #806A53",
"N%	c #90795E",
"O%	c #9B8467",
"P%	c #A28C71",
"Q%	c #A69278",
"R%	c #A5947D",
"S%	c #9C8D79",
"T%	c #887C6C",
"U%	c #6C655A",
"V%	c #51514D",
"W%	c #4A4F50",
"X%	c #535B5D",
"Y%	c #5F686A",
"Z%	c #656F71",
"`%	c #657174",
" &	c #696F71",
".&	c #746C6C",
"+&	c #836763",
"@&	c #8F6259",
"#&	c #975E51",
"$&	c #9A5C4E",
"%&	c #5E4A3D",
"&&	c #A9906F",
"*&	c #BA9E7C",
"=&	c #C2A683",
"-&	c #C4AA87",
";&	c #C1A886",
">&	c #B59E7F",
",&	c #9D896F",
"'&	c #7A6B59",
")&	c #575047",
"!&	c #484B4A",
"~&	c #51585A",
"{&	c #5F6769",
"]&	c #667173",
"^&	c #766C6B",
"/&	c #826763",
"(&	c #846762",
"_&	c #664F42",
":&	c #564237",
"<&	c #564437",
"[&	c #72604A",
"}&	c #998265",
"|&	c #B99D7B",
"1&	c #CEAF88",
"2&	c #D6B78E",
"3&	c #D8B990",
"4&	c #D3B58D",
"5&	c #C5A984",
"6&	c #A99171",
"7&	c #836F58",
"8&	c #5B4F43",
"9&	c #474746",
"0&	c #4F5558",
"a&	c #5E6668",
"b&	c #666E70",
"c&	c #6F6E6E",
"d&	c #706E6E",
"e&	c #644D41",
"f&	c #513E34",
"g&	c #514134",
"h&	c #73604B",
"i&	c #9D8567",
"j&	c #C0A37F",
"k&	c #D6B68D",
"l&	c #DFBE94",
"m&	c #E0C095",
"n&	c #DBBB91",
"o&	c #CCAE87",
"p&	c #AF9573",
"q&	c #877258",
"r&	c #5C4F41",
"s&	c #474544",
"t&	c #4F5456",
"u&	c #687173",
"v&	c #677072",
"w&	c #677073",
"x&	c #735A4A",
"y&	c #634D40",
"z&	c #513D34",
"A&	c #504034",
"B&	c #9E8668",
"C&	c #C1A47F",
"D&	c #D7B88E",
"E&	c #E2C195",
"F&	c #DCBC91",
"G&	c #CDAF87",
"H&	c #B19573",
"I&	c #887258",
"J&	c #5D4F41",
"K&	c #474543",
"L&	c #5E6667",
"M&	c #657274",
"N&	c #654E41",
"O&	c #534035",
"P&	c #534236",
"Q&	c #9C8466",
"R&	c #BDA17D",
"S&	c #D2B38B",
"T&	c #DCBC92",
"U&	c #D7B78E",
"V&	c #C8AB84",
"W&	c #AC9271",
"X&	c #857056",
"Y&	c #5B4E40",
"Z&	c #4F5457",
"`&	c #685143",
" *	c #5A463A",
".*	c #5A473A",
"+*	c #725F4B",
"@*	c #957E62",
"#*	c #B29775",
"$*	c #C5A882",
"%*	c #CDAF88",
"&*	c #BB9F7B",
"**	c #A18869",
"=*	c #7D6951",
"-*	c #574B3E",
";*	c #505557",
">*	c #5F6668",
",*	c #646C6E",
"'*	c #626A6B",
")*	c #61686A",
"!*	c #606769",
"~*	c #634E40",
"{*	c #715C4A",
"]*	c #887158",
"^*	c #9C8467",
"/*	c #A98F70",
"(*	c #AE9473",
"_*	c #AB9171",
":*	c #A08869",
"<*	c #8B755A",
"[*	c #6D5B46",
"}*	c #50453A",
"|*	c #474644",
"1*	c #525758",
"2*	c #687274",
"3*	c #646C6D",
"4*	c #5F6667",
"5*	c #5A5F60",
"6*	c #575B5C",
"7*	c #565959",
"8*	c #6F5648",
"9*	c #6D5647",
"0*	c #705949",
"a*	c #77624D",
"b*	c #7F6A53",
"c*	c #846F57",
"d*	c #857057",
"e*	c #6D5A45",
"f*	c #584838",
"g*	c #483D35",
"h*	c #484644",
"i*	c #535858",
"j*	c #5F6768",
"k*	c #595E5F",
"l*	c #515353",
"m*	c #4B4B49",
"n*	c #484645",
"o*	c #6A5545",
"p*	c #645141",
"q*	c #604E3D",
"r*	c #5D4D3D",
"s*	c #5E4C3C",
"t*	c #5D4C3C",
"u*	c #584839",
"v*	c #4F3F31",
"w*	c #45362B",
"x*	c #413630",
"y*	c #484543",
"z*	c #555756",
"A*	c #5F6465",
"B*	c #656C6D",
"C*	c #676F70",
"D*	c #636A6C",
"E*	c #5E6364",
"F*	c #565757",
"G*	c #4D4947",
"H*	c #463D39",
"I*	c #433831",
"J*	c #5C483C",
"K*	c #4E3C32",
"L*	c #4B3A30",
"M*	c #44342A",
"N*	c #3F3027",
"O*	c #3E342E",
"P*	c #48423E",
"Q*	c #555250",
"R*	c #5F5F5D",
"S*	c #646564",
"T*	c #646766",
"U*	c #616565",
"V*	c #5D6162",
"W*	c #5A5B5A",
"X*	c #56524F",
"Y*	c #534841",
"Z*	c #504036",
"`*	c #5E493D",
" =	c #5C463B",
".=	c #5B463A",
"+=	c #574238",
"@=	c #4E3B31",
"#=	c #44342B",
"$=	c #40342D",
"%=	c #483E37",
"&=	c #554B46",
"*=	c #5F5650",
"==	c #625B56",
"-=	c #5F5A57",
";=	c #595755",
">=	c #555352",
",=	c #55514E",
"'=	c #594E48",
")=	c #5D4C42",
"!=	c #614A3C",
"~=	c #745A4B",
"{=	c #6E5648",
"]=	c #6C5546",
"^=	c #675042",
"/=	c #4C3B31",
"(=	c #43342B",
"_=	c #473930",
":=	c #544339",
"<=	c #5D4C41",
"[=	c #5F4E44",
"}=	c #594C43",
"|=	c #514741",
"1=	c #4B443F",
"2=	c #51463F",
"3=	c #5C4C42",
"4=	c #705748",
"5=	c #614C3F",
"6=	c #503E34",
"7=	c #44332A",
"8=	c #45342A",
"9=	c #503C2F",
"0=	c #584234",
"a=	c #594335",
"b=	c #533F33",
"c=	c #49392F",
"d=	c #44362E",
"e=	c #4E3E34",
"f=	c #5E4A3E",
"g=	c #513F34",
"h=	c #413229",
"i=	c #413026",
"j=	c #4A3629",
"k=	c #503A2B",
"l=	c #4B3629",
"m=	c #433025",
"n=	c #3F2F25",
"o=	c #4C3A30",
"p=	c #3D2E25",
"q=	c #423126",
"r=	c #463327",
"s=	c #433125",
"t=	c #3D2D23",
"u=	c #3E2E25",
"v=	c #4D3B30",
"w=	c #5F4A3D",
"x=	c #644E41",
"y=	c #554236",
"z=	c #46362C",
"A=	c #3F3028",
"B=	c #423228",
"C=	c #423229",
"D=	c #403028",
"E=	c #5D483C",
"F=	c #4D3C31",
"G=	c #4D3B31",
"H=	c #665042",
"I=	c #624C3F",
"                                                                                                                                ",
"                                        . + @ # $ $ # # # # # # # # # # # # $ $ # @ + .                                         ",
"                                      . % & * = - - - - - - - - - - - - - - - - = * & % .                                       ",
"                                      + & ; > , ' ' ' ' ' ' ' ' ' ' ' ' ' ' ' ' , > ; & +                                       ",
"                                      % ) ! ~ { ] ] ^ ^ ^ ^ ^ ^ ^ ^ ^ ^ ^ ^ ] ] { ~ ! ) %                                       ",
"                                / @ ( _ : < [ } | | | | | | | | | | | | | | | | } [ < : _ ( @ /                                 ",
"                                # 1 2 3 4 5 6 7 8 8 9 0 a b c d d c b a 0 9 8 8 7 6 5 4 3 2 1 #                                 ",
"                                e ; f g h i j k l m n o p q r s s r q p o n m l k j i h g f ; e                                 ",
"                              $ t u v w x y z A B C C D E F G H H G F E D C C B A z y x w v u t $                               ",
"                        + I e J K L M N O P Q R S S T U V W X Y Y X W V U T S S R Q P O N M L K J e I +                         ",
"                        # 1 ; Z `  ...+.@.#.$.%.&.*.=.-.;.>.,.'.'.,.>.;.-.=.*.&.%.$.#.@.+... .` Z ; 1 #                         ",
"                        % - ).!.~.{.].^./.(.R _.:.<.[.}.|.1.2.3.3.2.1.|.}.[.<.:._.R (./.^.].{.~.!.).- %                         ",
"                        4.5.6.7.8.9.n 0.a.b.c.$.d.e.f.g.h.i.j.k.k.j.i.h.g.f.e.d.$.c.b.a.0.n 9.8.7.6.5.4.                        ",
"                        4.l.m.n.o.p.q.r.s.t.u.v.w.x.y.z.A.B.C.D.D.C.B.A.z.y.x.w.v.u.t.s.r.q.p.o.n.m.l.4.                        ",
"                        4.l.E.F.G.H...I.J.K.L.M.N.N.O.P.Q.R.S.T.T.S.R.Q.P.O.N.N.M.L.K.J.I...H.G.F.E.l.4.                        ",
"                        4.U.V.W.X.Y.Z.`. +.+.+++@+@+#+$+%+&+*+=+=+*+&+%+$+#+@+@+++.+.+ +`.Z.Y.X.W.V.U.4.                        ",
"                        ( -+;+>+,+'+)+!+~+{+]+^+/+(+_+:+<+[+}+|+|+}+[+<+:+_+(+/+^+]+{+~+!+)+'+,+>+;+-+(                         ",
"                        $ t U.1+2+>+3+4+5+6+7+8+9+0+a+b+c+d+e+f+f+e+d+c+b+a+0+9+8+7+6+5+4+3+>+2+1+U.t $                         ",
"                        + g+h+-+i+j+3+k+l+m+n+o+p+q+r+s+t+u+v+w+w+v+u+t+s+r+q+p+o+n+m+l+k+3+j+i+-+h+g++                         ",
"                        / @ 4.h+x+y+z+A+B+C+D+E+F+G+H+I+J+K+L+M+M+L+K+J+I+H+G+F+E+D+C+B+A+z+y+x+h+4.@ /                         ",
"                        + g+1 N+O+P+Q+R+S+T+U+V+W+X+Y+Z+`+ @.@+@+@.@ @`+Z+Y+X+W+V+U+T+S+R+Q+P+O+N+1 g++                         ",
"                        # t @@#@$@%@&@C+T+*@=@-@;@>@,@'@)@!@~@{@{@~@!@)@'@,@>@;@-@=@*@T+C+&@%@$@#@@@t #                         ",
"                        ( ]@^@/@(@_@:@<@[@}@|@1@2@3@4@5@6@7@8@9@9@8@7@6@5@4@3@2@1@|@}@[@<@:@_@(@/@^@]@(                         ",
"                        4.@@0@a@b@c@d@e@f@g@h@i@j@k@l@m@n@o@p@q@q@p@o@n@m@l@k@j@i@h@g@f@e@d@c@b@a@0@@@4.                        ",
"                        4.r@s@t@u@v@w@x@y@z@A@B@C@D@E@F@G@H@I@J@J@I@H@G@F@E@D@C@B@A@z@y@x@w@v@u@t@s@r@4.                        ",
"                        4.r@s@t@K@L@M@N@O@P@Q@R@S@T@U@V@W@X@Y@Z@Z@Y@X@W@V@U@T@S@R@Q@P@O@N@M@L@K@t@s@r@4.                        ",
"                        4.r@`@ #.#+#@###$#%#&#*#=#-#K+;#>#,#'#)#)#'#,#>#;#K+-#=#*#&#%#$###@#+#.# #`@r@4.                        ",
"                        4.r@!#t@~#{#]#^#/#(#_#:#<#[#}#|#1#2#3#4#4#3#2#1#|#}#[#<#:#_#(#/#^#]#{#~#t@!#r@4.                        ",
"                        4.r@s@t@5#6#7#8#9#0#a#b#c#d#e#f#g#h#i#j#j#i#h#g#f#e#d#c#b#a#0#9#8#7#6#5#t@s@r@4.                        ",
"                        4.5.k#l#b@{#m#n#o#p#q#r#s#t#u#v#w#x#y#z#z#y#x#w#v#u#t#s#r#q#p#o#n#m#{#b@l#k#5.4.                        ",
"                        g+A#B#C#D#E#F#G#H#I#J#K#L#M#N#O#P#Q#y#q#q#y#Q#P#O#N#M#L#K#J#I#H#G#F#E#D#C#B#A#g+                        ",
"                        $ R#S#T#U#V#W#X#Y#Z#`# $9#.$.$+$a#@$q##$#$q#@$a#+$.$.$9# $`#Z#Y#X#W#V#U#T#S#R#$                         ",
"                        + e R#$$%$&$*$=$-$;$>$,$9#(#'$)$/#@$q##$#$q#@$/#)$'$(#9#,$>$;$-$=$*$&$%$$$R#e +                         ",
"                        / # 4.h+!$~${$]$^$/$($_$:$<$[$q#q##$#$#$#$#$#$q#q#[$<$:$_$($/$^$]${$~$!$h+4.# /                         ",
"                        + % }$) |$1$2$3$4$5$6$7$8$9$0$a$b$q##$#$#$#$q#b$a$0$9$8$7$6$5$4$3$2$1$|$) }$% +                         ",
"                        + & c$d$e$f$g$h$i$j$k$l$m$n$o$p$q$b$#$#$#$#$b$q$p$o$n$m$l$k$j$i$h$g$f$e$d$c$& +                         ",
"                        ( = r$s$t$u$v$w$x$y$z$A$B$C$D$E$p$a$#$#$#$#$a$p$E$D$C$B$A$z$y$x$w$v$u$t$s$r$= (                         ",
"                  + @ g+t F$G$H$I$J$K$L$M$N$O$P$Q$R$S$D$o$0$E$a$a$E$0$o$D$S$R$Q$P$O$N$M$L$K$J$I$H$G$F$t g+@ +                   ",
"                  % t T$U$V$W$X$Y$Z$`$ %.%+%@%#%$%%%&%*%=%-%[$;%;%[$-%=%*%&%%%$%#%@%+%.% %`$Z$Y$X$W$V$U$T$t %                   ",
"                  }$3 >%,%'%)%!%~%{%]%^%.%+%/%(%_%$%:%<%[%}%|%1%1%|%}%[%<%:%$%_%(%/%+%.%^%]%{%~%!%)%'%,%>%3 }$                  ",
"                % t 2%3%4%5%6%7%8%9%0%a%b%c%/%d%e%f%g%h%i%j%k%l%l%k%j%i%h%g%f%e%d%/%c%b%a%0%9%8%7%6%5%4%3%2%t %                 ",
"          + % & t m%n%o%p%q%r%s%t%u%v%w%x%y%z%A%B%C%D%E%F%G%H%I%I%H%G%F%E%D%C%B%A%z%y%x%w%v%u%t%s%r%q%p%o%n%m%t & % +           ",
"          $ J%U.K%L%M%N%O%P%Q%R%S%T%U%V%W%X%Y%Z%`%`% &.&+&@&#&$&$&#&@&+&.& &`%`%Z%Y%X%W%V%U%T%S%R%Q%P%O%N%M%L%K%U.J%$           ",
"          g+T$>%%&o%N%&&*&=&-&;&>&,&'&)&!&~&{&Z%]&]&C%D%^&E%/&(&(&/&E%^&D%C%]&]&Z%{&~&!&)&'&,&>&;&-&=&*&&&N%o%%&>%T$g+          ",
"          e _&:&<&[&}&|&1&2&3&4&5&6&7&8&9&0&a&b&B%B%C% &e%D%c&d&d&c&D%e% &C%B%B%b&a&0&9&8&7&6&5&4&3&2&1&|&}&[&<&:&_&e           ",
"          e e&f&g&h&i&j&k&l&m&n&o&p&q&r&s&t&a&b&u&u&v&v&w&B%B%B%B%B%B%w&v&v&u&u&b&a&t&s&r&q&p&o&n&m&l&k&j&i&h&g&f&e&e           ",
"          x&y&z&A&h&B&C&D&m&E&F&G&H&I&J&K&t&L&b&u&u&v&v&]&]&`%M&M&`%]&]&v&v&u&u&b&L&t&K&J&I&H&G&F&E&m&D&C&B&h&A&z&y&x&          ",
"          e N&O&P&h&Q&R&S&n&T&U&V&W&X&Y&s&Z&a&b&u&u&v&v&A%A%A%A%A%A%A%A%v&v&u&u&b&a&Z&s&Y&X&W&V&U&T&n&S&R&Q&h&P&O&N&e           ",
"          4.`& *.*+*@*#*$*o&%*V&&***=*-*s&;*>*b&u&u&v&b&,*'*)*!*!*)*'*,*b&v&u&u&b&>*;*s&-*=***&*V&%*o&$*#*@*+*.* *`&4.          ",
"          % = N&~*{*]*^*/*(*p&_*:*<*[*}*|*1*{&A%2*2*v&3*4*5*6*7*7*6*5*4*3*v&2*2*A%{&1*|*}*[*<*:*_*p&(*/*^*]*{*~*N&= %           ",
"          + e 8*9*0*a*b*c*q&I&d*=*e*f*g*h*i*j*A%2*u&b&)*k*l*m*n*n*m*l*k*)*b&u&2*A%j*i*h*g*f*e*=*d*I&q&c*b*a*0*9*8*e +           ",
"            + # 4.t o*p*q*r*s*t*u*v*w*x*y*z*A*B*C*b&D*E*F*G*H*I*I*H*G*F*E*D*b&C*B*A*z*y*x*w*v*u*t*s*r*q*p*o*t 4.# +             ",
"                + 1 `&J*O&K*K*K*L*M*N*O*P*Q*R*S*T*U*V*W*X*Y*Z*,+,+Z*Y*X*W*V*U*T*S*R*Q*P*O*N*M*L*K*K*K*O&J*`&1 +                 ",
"                  4.= N&`* = =.=+=@=#=$=%=&=*===-=;=>=,='=)=1+!=!=1+)='=,=>=;=-===*=&=%=$=#=@=+=.= = =`*N&= 4.                  ",
"                  @ ~=h+{=) ) ]=^=.=/=(=_=:=<=[=}=|=1=2=3=F$= 4=4== F$3=2=1=|=}=[=<=:=_=(=/=.=^=]=) ) {=h+~=@                   ",
"                    / + @ + + % {=5=6=7=8=9=0=a=b=c=d=e=f=- g+    g+- f=e=d=c=b=a=0=9=8=7=6=5={=% + + @ + /                     ",
"                              . t y&g=h=i=j=k=k=l=m=n=o=>%) +     + ) >%o=n=m=l=k=k=j=i=h=g=y&t .                               ",
"                              . t y&g=h=p=q=r=r=s=t=u=v=w=) @     @ ) w=v=u=t=s=r=r=q=p=h=g=y&t .                               ",
"                              + h+x=y=z=A=N*B=C=D=N*#=g=5=) #     # ) 5=g=#=N*D=C=B=N*A=z=y=x=h++                               ",
"                              + & U.E=O&F=/=F=F=/=G=g= *H=t @     @ t H= *g=G=/=F=F=/=F=O&E=U.& +                               ",
"                              . 4.{=`&I=w=%&w=w=%&w=5=H== e +     + e = H=5=w=%&w=w=%&w=I=`&{=4..                               ",
"                                @ 4.h+8*) = = 9*= = ) t e # .     . # e t ) = = 9*= = ) 8*h+4.@                                 ",
"                                  + @ # # $ # # $ $ # @ + .         . + @ # $ $ # # $ # # @ +                                   ",
"                                                                                                                                "};
