/* XPM */
static char * wall_xpm[] = {
"128 128 10204 3",
"   	c #DDE0D7",
".  	c #C0BFB4",
"+  	c #BCBCAE",
"@  	c #E1DFCC",
"#  	c #DFDECA",
"$  	c #DCDAC9",
"%  	c #D9D8C6",
"&  	c #B6B8AF",
"*  	c #9EA1A2",
"=  	c #ECEEE1",
"-  	c #FAFAEA",
";  	c #F5F4E3",
">  	c #F1EFDE",
",  	c #DEDDCB",
"'  	c #D8D5C5",
")  	c #D8D4C5",
"!  	c #DEDCCB",
"~  	c #D4D3C3",
"{  	c #D1D1C3",
"]  	c #9E9D99",
"^  	c #444756",
"/  	c #999F95",
"(  	c #C3C9BE",
"_  	c #BFC6BD",
":  	c #BAC0B9",
"<  	c #B6BBB1",
"[  	c #DFE0CD",
"}  	c #DBDECB",
"|  	c #F2F4E6",
"1  	c #F7F4E9",
"2  	c #9BA4A8",
"3  	c #7A8995",
"4  	c #1C1B2A",
"5  	c #0C041A",
"6  	c #616471",
"7  	c #636975",
"8  	c #A3A4A6",
"9  	c #F4F1E5",
"0  	c #E8E7D1",
"a  	c #E0DFCB",
"b  	c #F4F2D9",
"c  	c #F4F1DA",
"d  	c #F4F0DC",
"e  	c #C0C1B6",
"f  	c #8B8E8D",
"g  	c #4D5257",
"h  	c #D6D7CA",
"i  	c #F3F4E5",
"j  	c #F6F6E8",
"k  	c #F8F8EB",
"l  	c #F9F9EB",
"m  	c #F9F9EA",
"n  	c #F6F6E6",
"o  	c #F4F5E3",
"p  	c #C9C9BC",
"q  	c #C8C8BA",
"r  	c #D4D5C0",
"s  	c #E7E8D5",
"t  	c #F0EFDD",
"u  	c #EEEDDD",
"v  	c #7E8282",
"w  	c #555B6A",
"x  	c #363849",
"y  	c #2F2E40",
"z  	c #140C21",
"A  	c #565A59",
"B  	c #C8CCC0",
"C  	c #C2C4B7",
"D  	c #B2B3A6",
"E  	c #B9B9A8",
"F  	c #C2C1AD",
"G  	c #C5C4B1",
"H  	c #B0B0A2",
"I  	c #B4B4A7",
"J  	c #DFDFD3",
"K  	c #F5F6E4",
"L  	c #F4F5E4",
"M  	c #F7F7E9",
"N  	c #DFDFD1",
"O  	c #B8B7AE",
"P  	c #B3B2A8",
"Q  	c #B1B0A9",
"R  	c #C9C9BF",
"S  	c #F3F3E3",
"T  	c #ECEBDC",
"U  	c #E2E0D1",
"V  	c #D4D2C4",
"W  	c #BBB8AC",
"X  	c #BBB8AD",
"Y  	c #BBB9AD",
"Z  	c #BBB9AB",
"`  	c #B7B7A9",
" . 	c #BDBDB0",
".. 	c #C5C5B9",
"+. 	c #A4A3A0",
"@. 	c #8F8E93",
"#. 	c #6B6A6F",
"$. 	c #0F0D21",
"%. 	c #2B2D48",
"&. 	c #3A3E58",
"*. 	c #DADCDA",
"=. 	c #F8F8F4",
"-. 	c #C2C3B9",
";. 	c #B7B6A9",
">. 	c #B6B6A8",
",. 	c #B3B1A4",
"'. 	c #B1B1A4",
"). 	c #DFDFD2",
"!. 	c #F7F8E9",
"~. 	c #F8F8E8",
"{. 	c #F9FAEA",
"]. 	c #EEEFE0",
"^. 	c #ABAEA9",
"/. 	c #C0C2B9",
"(. 	c #E8EADD",
"_. 	c #E4E6DB",
":. 	c #403E50",
"<. 	c #242045",
"[. 	c #82898C",
"}. 	c #808986",
"|. 	c #EDEBE1",
"1. 	c #F6F8EC",
"2. 	c #D8DACC",
"3. 	c #CCCCBD",
"4. 	c #C9C9BA",
"5. 	c #C1C0B7",
"6. 	c #E1E3D9",
"7. 	c #C7C7BB",
"8. 	c #C9C9B9",
"9. 	c #DCDCC9",
"0. 	c #D2D2C2",
"a. 	c #D6D6C5",
"b. 	c #A3A6A3",
"c. 	c #939798",
"d. 	c #DCDFD2",
"e. 	c #F2F2E2",
"f. 	c #EDECDA",
"g. 	c #E8E6D4",
"h. 	c #D6D4C3",
"i. 	c #CDCABB",
"j. 	c #D0CDBF",
"k. 	c #CAC9BB",
"l. 	c #C0C0B3",
"m. 	c #969891",
"n. 	c #61646D",
"o. 	c #929897",
"p. 	c #B3BAB5",
"q. 	c #B0B7B1",
"r. 	c #ADB6B1",
"s. 	c #B3BAB1",
"t. 	c #D4D6C6",
"u. 	c #D2D4C5",
"v. 	c #F1F3E3",
"w. 	c #F4F4E6",
"x. 	c #98A0A3",
"y. 	c #606C7E",
"z. 	c #161228",
"A. 	c #0D0519",
"B. 	c #5F606B",
"C. 	c #6E717B",
"D. 	c #ABADA7",
"E. 	c #F5F5E1",
"F. 	c #E8E8CF",
"G. 	c #CECBBB",
"H. 	c #E4E2CF",
"I. 	c #E5E3CF",
"J. 	c #E4E3D0",
"K. 	c #B8B8AF",
"L. 	c #6C6C72",
"M. 	c #3C3E4D",
"N. 	c #D2D4C9",
"O. 	c #F3F4E2",
"P. 	c #F4F4E2",
"Q. 	c #F5F6E6",
"R. 	c #F8F7E8",
"S. 	c #F5F4E5",
"T. 	c #F3F2E2",
"U. 	c #F1F1DF",
"V. 	c #C9C7BA",
"W. 	c #C2C0B6",
"X. 	c #C1C0B4",
"Y. 	c #CFCFBD",
"Z. 	c #E2E2D0",
"`. 	c #EDECDC",
" + 	c #EBECDA",
".+ 	c #828684",
"++ 	c #5C5F6B",
"@+ 	c #3D3F4F",
"#+ 	c #323142",
"$+ 	c #110B1F",
"%+ 	c #525456",
"&+ 	c #C2C4B9",
"*+ 	c #BDBCB0",
"=+ 	c #B4B3A7",
"-+ 	c #B8B7AB",
";+ 	c #C1C0B1",
">+ 	c #BFBFB0",
",+ 	c #B9B9AE",
"'+ 	c #C2C0B5",
")+ 	c #D9D9CE",
"!+ 	c #EEF0E1",
"~+ 	c #EEF0DF",
"{+ 	c #F4F4E5",
"]+ 	c #E0E0D4",
"^+ 	c #AFAEA6",
"/+ 	c #ABABA5",
"(+ 	c #ABACA4",
"_+ 	c #BCBDB1",
":+ 	c #E9E8D9",
"<+ 	c #E5E3D4",
"[+ 	c #E0DECF",
"}+ 	c #CFCCBF",
"|+ 	c #B4B2A5",
"1+ 	c #B6B3A6",
"2+ 	c #B6B4A7",
"3+ 	c #B5B3A8",
"4+ 	c #B4B4A6",
"5+ 	c #C5C5B8",
"6+ 	c #D1D1C4",
"7+ 	c #A2A19E",
"8+ 	c #86858B",
"9+ 	c #5F5C66",
"0+ 	c #0F0B20",
"a+ 	c #32334D",
"b+ 	c #3E4059",
"c+ 	c #D8DBD5",
"d+ 	c #F6F7EB",
"e+ 	c #C5C6B9",
"f+ 	c #B3B3A9",
"g+ 	c #C1C1B4",
"h+ 	c #C3C3B5",
"i+ 	c #C1BFB2",
"j+ 	c #BCBBAF",
"k+ 	c #D8D7CC",
"l+ 	c #EFEFE1",
"m+ 	c #F1F2E3",
"n+ 	c #F3F4E4",
"o+ 	c #E7E8DA",
"p+ 	c #C4C4C1",
"q+ 	c #C4C7C1",
"r+ 	c #D0D3CC",
"s+ 	c #D3D8CC",
"t+ 	c #838586",
"u+ 	c #7D7F83",
"v+ 	c #9AA2A0",
"w+ 	c #919694",
"x+ 	c #E7E9E0",
"y+ 	c #EFF2E6",
"z+ 	c #D7D9CC",
"A+ 	c #D3D3C5",
"B+ 	c #CECDC0",
"C+ 	c #B8BAB5",
"D+ 	c #ADAEA5",
"E+ 	c #C8CAB9",
"F+ 	c #DCDEC9",
"G+ 	c #CDCEBD",
"H+ 	c #7E7E7A",
"I+ 	c #C1BFB4",
"J+ 	c #D2D1C1",
"K+ 	c #9B9E9D",
"L+ 	c #909296",
"M+ 	c #A2A39F",
"N+ 	c #B9B9AD",
"O+ 	c #B6B5A5",
"P+ 	c #B0AEA0",
"Q+ 	c #B1AEA2",
"R+ 	c #AEAC9D",
"S+ 	c #A9A798",
"T+ 	c #AAA79A",
"U+ 	c #ABAA9D",
"V+ 	c #AAAA9C",
"W+ 	c #ACABA2",
"X+ 	c #ABAAA5",
"Y+ 	c #66696E",
"Z+ 	c #323444",
"`+ 	c #A5A9A5",
" @ 	c #BCBDB5",
".@ 	c #787878",
"+@ 	c #7B7B78",
"@@ 	c #B5B7AE",
"#@ 	c #B3B4AB",
"$@ 	c #6A6E77",
"%@ 	c #43455D",
"&@ 	c #170F28",
"*@ 	c #0D0518",
"=@ 	c #5F5D69",
"-@ 	c #77797E",
";@ 	c #9A9B98",
">@ 	c #D2D3C1",
",@ 	c #B5B5A9",
"'@ 	c #9A9995",
")@ 	c #999892",
"!@ 	c #97958F",
"~@ 	c #81807B",
"{@ 	c #787776",
"]@ 	c #C0C0BD",
"^@ 	c #D3D2CE",
"/@ 	c #BBB9B3",
"(@ 	c #A2A09B",
"_@ 	c #D2D3C3",
":@ 	c #E9EAD8",
"<@ 	c #EAE8D8",
"[@ 	c #DCDACB",
"}@ 	c #C3C1B2",
"|@ 	c #CECCBD",
"1@ 	c #CECBBA",
"2@ 	c #CBCAB9",
"3@ 	c #A1A099",
"4@ 	c #A1A19C",
"5@ 	c #A5A59F",
"6@ 	c #969495",
"7@ 	c #414352",
"8@ 	c #343545",
"9@ 	c #0F0C1F",
"0@ 	c #3A3A42",
"a@ 	c #B5B5AF",
"b@ 	c #B5B4A9",
"c@ 	c #AFAFA3",
"d@ 	c #B1B0A3",
"e@ 	c #86847E",
"f@ 	c #807F78",
"g@ 	c #E7E6DB",
"h@ 	c #EAEADF",
"i@ 	c #A9ADA9",
"j@ 	c #A5AAA7",
"k@ 	c #A3A79F",
"l@ 	c #9E9D95",
"m@ 	c #9E9E93",
"n@ 	c #A3A298",
"o@ 	c #A4A59F",
"p@ 	c #A9AAA3",
"q@ 	c #B8B9AD",
"r@ 	c #E1DFCF",
"s@ 	c #E5E3D3",
"t@ 	c #EBE9DA",
"u@ 	c #D7D4C7",
"v@ 	c #B2AFA3",
"w@ 	c #B2B0A3",
"x@ 	c #B2B0A4",
"y@ 	c #B2B2A5",
"z@ 	c #B5B5A7",
"A@ 	c #CCCCBE",
"B@ 	c #A8A8A3",
"C@ 	c #76757B",
"D@ 	c #504C5A",
"E@ 	c #0D081F",
"F@ 	c #363650",
"G@ 	c #3F4058",
"H@ 	c #7F8283",
"I@ 	c #979893",
"J@ 	c #B0B1A8",
"K@ 	c #AFB0A7",
"L@ 	c #C8C8BB",
"M@ 	c #DADACC",
"N@ 	c #DBDBCF",
"O@ 	c #C4C3B8",
"P@ 	c #AFAFA2",
"Q@ 	c #B2B2A4",
"R@ 	c #B9B9AA",
"S@ 	c #D6D6C7",
"T@ 	c #FAF9F3",
"U@ 	c #E2E6DE",
"V@ 	c #575B60",
"W@ 	c #727977",
"X@ 	c #ECF2E3",
"Y@ 	c #EEF3E3",
"Z@ 	c #DCDED2",
"`@ 	c #CACCC4",
" # 	c #A5A7A3",
".# 	c #A6AAA4",
"+# 	c #C3C4BA",
"@# 	c #D6D6C6",
"## 	c #D2D2C3",
"$# 	c #686B67",
"%# 	c #A6A8A0",
"&# 	c #BBBBAE",
"*# 	c #D7D8C3",
"=# 	c #C9C9B8",
"-# 	c #7D7E79",
";# 	c #BABAB0",
"># 	c #CFCDBE",
",# 	c #9A9C99",
"'# 	c #898E92",
")# 	c #9C9E9C",
"!# 	c #B6B6AA",
"~# 	c #B7B5A8",
"{# 	c #B3B1A5",
"]# 	c #B1AEA3",
"^# 	c #AEAB9F",
"/# 	c #A9A699",
"(# 	c #A7A49A",
"_# 	c #A6A499",
":# 	c #A6A59A",
"<# 	c #A9A9A0",
"[# 	c #A9A8A0",
"}# 	c #737175",
"|# 	c #524F5A",
"1# 	c #A7A8A7",
"2# 	c #C9CCC4",
"3# 	c #B4B7B0",
"4# 	c #747572",
"5# 	c #757576",
"6# 	c #AFB0AD",
"7# 	c #B2B3AC",
"8# 	c #6A6E76",
"9# 	c #454A60",
"0# 	c #171129",
"a# 	c #0E051C",
"b# 	c #5E5C66",
"c# 	c #989897",
"d# 	c #C1C3B7",
"e# 	c #ABACA7",
"f# 	c #9B9998",
"g# 	c #989995",
"h# 	c #8F918C",
"i# 	c #71706F",
"j# 	c #6E6F70",
"k# 	c #C0C1BA",
"l# 	c #D4D4CD",
"m# 	c #BABAB4",
"n# 	c #9E9E9B",
"o# 	c #D4D5C6",
"p# 	c #DCDACA",
"q# 	c #C6C4B5",
"r# 	c #C2C1B2",
"s# 	c #CBCBBB",
"t# 	c #CEC9B9",
"u# 	c #CCC9B9",
"v# 	c #C9C7B7",
"w# 	c #B9B6AC",
"x# 	c #9D9E99",
"y# 	c #959592",
"z# 	c #9FA09A",
"A# 	c #9A9999",
"B# 	c #454655",
"C# 	c #38384A",
"D# 	c #0E0A20",
"E# 	c #32303C",
"F# 	c #B0B2AC",
"G# 	c #B2B1A8",
"H# 	c #AAABA0",
"I# 	c #A8A99E",
"J# 	c #8C8B86",
"K# 	c #888882",
"L# 	c #DFE1D7",
"M# 	c #E2E3D7",
"N# 	c #A4A7A6",
"O# 	c #A2A6A9",
"P# 	c #A2A59F",
"Q# 	c #9C9C93",
"R# 	c #9C9D94",
"S# 	c #9D9F96",
"T# 	c #A0A29A",
"U# 	c #A6A79E",
"V# 	c #B3B4AA",
"W# 	c #DCD9CD",
"X# 	c #E1E0D2",
"Y# 	c #E6E7D6",
"Z# 	c #D2D2C4",
"`# 	c #AEAEA0",
" $ 	c #B1AFA2",
".$ 	c #B1B0A4",
"+$ 	c #C6C6BA",
"@$ 	c #DBDBCE",
"#$ 	c #ABABA7",
"$$ 	c #6D6D79",
"%$ 	c #454053",
"&$ 	c #0C071F",
"*$ 	c #38394F",
"=$ 	c #44455D",
"-$ 	c #73767C",
";$ 	c #85898A",
">$ 	c #AFB1AB",
",$ 	c #B9BBB2",
"'$ 	c #C7C9BC",
")$ 	c #CACBC1",
"!$ 	c #CECEC5",
"~$ 	c #AFAFA1",
"{$ 	c #B3B3A5",
"]$ 	c #BFC0B2",
"^$ 	c #E7E8DF",
"/$ 	c #DADDD4",
"($ 	c #797C7D",
"_$ 	c #8C908E",
":$ 	c #E2E4D6",
"<$ 	c #E4E6D9",
"[$ 	c #D3D7CC",
"}$ 	c #D0D2CB",
"|$ 	c #A6A7A2",
"1$ 	c #A3A6A0",
"2$ 	c #BEC0B6",
"3$ 	c #D7D7C8",
"4$ 	c #D1D2C5",
"5$ 	c #6A6A6A",
"6$ 	c #949492",
"7$ 	c #898886",
"8$ 	c #9A9A90",
"9$ 	c #ACAD9E",
"0$ 	c #B4B6AB",
"a$ 	c #C0C2B3",
"b$ 	c #C8C8B6",
"c$ 	c #6C7174",
"d$ 	c #3B4361",
"e$ 	c #888B90",
"f$ 	c #A3A39D",
"g$ 	c #B4B2A7",
"h$ 	c #B0ADA2",
"i$ 	c #ACAA9E",
"j$ 	c #A9A69A",
"k$ 	c #A5A399",
"l$ 	c #A3A197",
"m$ 	c #A19F95",
"n$ 	c #A2A198",
"o$ 	c #A3A29A",
"p$ 	c #9D9C96",
"q$ 	c #94948F",
"r$ 	c #959691",
"s$ 	c #959795",
"t$ 	c #878987",
"u$ 	c #666666",
"v$ 	c #626364",
"w$ 	c #ACADAB",
"x$ 	c #AFB0AA",
"y$ 	c #696E76",
"z$ 	c #474B60",
"A$ 	c #19152D",
"B$ 	c #0F061D",
"C$ 	c #5D5C65",
"D$ 	c #969795",
"E$ 	c #B8BAB1",
"F$ 	c #A5A6A2",
"G$ 	c #8A8D8F",
"H$ 	c #707478",
"I$ 	c #3D4147",
"J$ 	c #C6C8C1",
"K$ 	c #D3D4C9",
"L$ 	c #B6B8B0",
"M$ 	c #A2A39D",
"N$ 	c #999B96",
"O$ 	c #BABBAF",
"P$ 	c #CACABB",
"Q$ 	c #CECDBD",
"R$ 	c #C4C3B3",
"S$ 	c #ACACA0",
"T$ 	c #A7A79D",
"U$ 	c #B5B5A8",
"V$ 	c #BEBCAF",
"W$ 	c #C5C3B9",
"X$ 	c #A7A8A2",
"Y$ 	c #939390",
"Z$ 	c #8F908B",
"`$ 	c #838383",
" % 	c #424352",
".% 	c #373749",
"+% 	c #0E0A22",
"@% 	c #2E2C39",
"#% 	c #AAABA6",
"$% 	c #ABABA2",
"%% 	c #9E9E97",
"&% 	c #A0A19B",
"*% 	c #AEAEA6",
"=% 	c #B1B2A9",
"-% 	c #B8BAAF",
";% 	c #B9BAB1",
">% 	c #525458",
",% 	c #484B55",
"'% 	c #898B87",
")% 	c #9D9E94",
"!% 	c #9FA197",
"~% 	c #A3A49B",
"{% 	c #A3A59C",
"]% 	c #A0A099",
"^% 	c #A1A29A",
"/% 	c #B1B1A7",
"(% 	c #BEBFB2",
"_% 	c #D0CFC2",
":% 	c #C1BEB3",
"<% 	c #B1AFA3",
"[% 	c #AFACA0",
"}% 	c #ADACA1",
"|% 	c #BDBCB1",
"1% 	c #D2D1C4",
"2% 	c #9D9D99",
"3% 	c #535460",
"4% 	c #353144",
"5% 	c #0D071E",
"6% 	c #3C3D52",
"7% 	c #4A4F64",
"8% 	c #747B7E",
"9% 	c #8A8D8E",
"0% 	c #BEC1B6",
"a% 	c #AEB1A7",
"b% 	c #ADAFA5",
"c% 	c #90908B",
"d% 	c #92928B",
"e% 	c #A0A192",
"f% 	c #AAAA9D",
"g% 	c #A8A99C",
"h% 	c #9E9F95",
"i% 	c #989C94",
"j% 	c #989B96",
"k% 	c #A2A5A1",
"l% 	c #ACB0A9",
"m% 	c #B5BAAF",
"n% 	c #D2D5C6",
"o% 	c #CBCEC2",
"p% 	c #A0A29C",
"q% 	c #9FA09B",
"r% 	c #9FA29C",
"s% 	c #90938E",
"t% 	c #878986",
"u% 	c #898B88",
"v% 	c #797A7B",
"w% 	c #919191",
"x% 	c #939393",
"y% 	c #93948D",
"z% 	c #9B9D94",
"A% 	c #AAAC9E",
"B% 	c #B3B6A8",
"C% 	c #B9BCAE",
"D% 	c #838887",
"E% 	c #5E6476",
"F% 	c #8D9193",
"G% 	c #9EA098",
"H% 	c #B2B1A7",
"I% 	c #B3B2A6",
"J% 	c #ADAAA0",
"K% 	c #AAA79D",
"L% 	c #A8A59A",
"M% 	c #A5A499",
"N% 	c #A29E96",
"O% 	c #A2A199",
"P% 	c #A09E98",
"Q% 	c #9B9B94",
"R% 	c #989992",
"S% 	c #959794",
"T% 	c #8D8F8D",
"U% 	c #78777A",
"V% 	c #6D6E71",
"W% 	c #AAADAB",
"X% 	c #AFB0A9",
"Y% 	c #6C7179",
"Z% 	c #4D5064",
"`% 	c #1D1A31",
" & 	c #0E061C",
".& 	c #5F5F67",
"+& 	c #797C80",
"@& 	c #A8AAA4",
"#& 	c #D0D2C7",
"$& 	c #B0B1AB",
"%& 	c #747B7F",
"&& 	c #5E646A",
"*& 	c #373B45",
"=& 	c #C4C8C0",
"-& 	c #CCCFC2",
";& 	c #B3B6B0",
">& 	c #ADAEA8",
",& 	c #ACADA6",
"'& 	c #ACB0A8",
")& 	c #B2B2A6",
"!& 	c #B3B3A7",
"~& 	c #B4B4AA",
"{& 	c #999794",
"]& 	c #9B9A93",
"^& 	c #AAAAA0",
"/& 	c #B8B8AE",
"(& 	c #C6C6BB",
"_& 	c #ACABA5",
":& 	c #939391",
"<& 	c #90908D",
"[& 	c #828282",
"}& 	c #313140",
"|& 	c #2E2C3F",
"1& 	c #0E0A25",
"2& 	c #2C2A37",
"3& 	c #A1A39D",
"4& 	c #A2A49A",
"5& 	c #A1A39A",
"6& 	c #A2A49C",
"7& 	c #ACAEA4",
"8& 	c #AEAFA6",
"9& 	c #B7B9B1",
"0& 	c #B9B9B3",
"a& 	c #5B5C62",
"b& 	c #898B86",
"c& 	c #9B9C93",
"d& 	c #9E9D94",
"e& 	c #9FA096",
"f& 	c #A2A39B",
"g& 	c #A1A29B",
"h& 	c #9D9E97",
"i& 	c #9C9D95",
"j& 	c #9B9D93",
"k& 	c #BCBFB2",
"l& 	c #E4E1D5",
"m& 	c #CDCDC0",
"n& 	c #ADACA0",
"o& 	c #ABA89E",
"p& 	c #ACABA1",
"q& 	c #B7B6AD",
"r& 	c #C7C6BF",
"s& 	c #979897",
"t& 	c #555763",
"u& 	c #373445",
"v& 	c #0D061D",
"w& 	c #38374C",
"x& 	c #474A5F",
"y& 	c #636770",
"z& 	c #727476",
"A& 	c #959895",
"B& 	c #A7AAA4",
"C& 	c #A1A49F",
"D& 	c #A2A4A1",
"E& 	c #929292",
"F& 	c #93948F",
"G& 	c #97998F",
"H& 	c #9B9D95",
"I& 	c #9C9E95",
"J& 	c #9DA09B",
"K& 	c #9EA19D",
"L& 	c #A6A9A2",
"M& 	c #ABAEA8",
"N& 	c #B1B5AB",
"O& 	c #C4C9BD",
"P& 	c #C0C3B9",
"Q& 	c #9C9D98",
"R& 	c #9B9E96",
"S& 	c #939792",
"T& 	c #8A8D8C",
"U& 	c #8B8D8C",
"V& 	c #8C8F8F",
"W& 	c #8F9091",
"X& 	c #87878C",
"Y& 	c #2F2C40",
"Z& 	c #3E3B4B",
"`& 	c #797879",
" * 	c #666665",
".* 	c #676765",
"+* 	c #A7A7A0",
"@* 	c #A2A29C",
"#* 	c #A6A59C",
"$* 	c #A5A49A",
"%* 	c #A6A399",
"&* 	c #A4A299",
"** 	c #A1A097",
"=* 	c #A09F96",
"-* 	c #9F9E96",
";* 	c #9F9D97",
">* 	c #9D9B96",
",* 	c #999995",
"'* 	c #909491",
")* 	c #898B8B",
"!* 	c #87898B",
"~* 	c #A8AAA7",
"{* 	c #ADAEA9",
"]* 	c #70757D",
"^* 	c #505568",
"/* 	c #1E1A32",
"(* 	c #0F061F",
"_* 	c #626169",
":* 	c #7B7D82",
"<* 	c #B4B5AF",
"[* 	c #B9BAB3",
"}* 	c #2A2B47",
"|* 	c #5F656D",
"1* 	c #6F7372",
"2* 	c #9EA099",
"3* 	c #A1A399",
"4* 	c #AAABA4",
"5* 	c #A9ADA6",
"6* 	c #A5A7A0",
"7* 	c #9E9F96",
"8* 	c #9FA097",
"9* 	c #989991",
"0* 	c #9B9C95",
"a* 	c #9D9D94",
"b* 	c #999A91",
"c* 	c #95968F",
"d* 	c #92928E",
"e* 	c #8E8F8B",
"f* 	c #818282",
"g* 	c #30303F",
"h* 	c #0F0B25",
"i* 	c #252333",
"j* 	c #9FA19E",
"k* 	c #A2A49D",
"l* 	c #A6A8A1",
"m* 	c #A8AAA2",
"n* 	c #A6A7A1",
"o* 	c #535456",
"p* 	c #636263",
"q* 	c #66686B",
"r* 	c #6B6F70",
"s* 	c #6F7271",
"t* 	c #7D807C",
"u* 	c #868984",
"v* 	c #949791",
"w* 	c #9E9F98",
"x* 	c #9C9D96",
"y* 	c #91948E",
"z* 	c #B9BDB3",
"A* 	c #E4E3D9",
"B* 	c #D2D2C5",
"C* 	c #A4A29A",
"D* 	c #A2A097",
"E* 	c #999891",
"F* 	c #8B8B86",
"G* 	c #767678",
"H* 	c #60636E",
"I* 	c #3F3C51",
"J* 	c #0B0620",
"K* 	c #1E1B33",
"L* 	c #1D1932",
"M* 	c #110C25",
"N* 	c #0E081E",
"O* 	c #181229",
"P* 	c #2A2541",
"Q* 	c #2A263C",
"R* 	c #2E2B3A",
"S* 	c #787A79",
"T* 	c #878786",
"U* 	c #888887",
"V* 	c #888A86",
"W* 	c #9DA09A",
"X* 	c #9DA19D",
"Y* 	c #A6AAA3",
"Z* 	c #A6AAA2",
"`* 	c #A8ABA3",
" = 	c #9D9F97",
".= 	c #9C9D97",
"+= 	c #9B9C97",
"@= 	c #989B95",
"#= 	c #949793",
"$= 	c #909391",
"%= 	c #919393",
"&= 	c #929594",
"*= 	c #888B8D",
"== 	c #828389",
"-= 	c #26213B",
";= 	c #44424E",
">= 	c #848581",
",= 	c #81827C",
"'= 	c #838380",
")= 	c #A4A59E",
"!= 	c #ABAB9F",
"~= 	c #ACABA0",
"{= 	c #A2A298",
"]= 	c #A3A398",
"^= 	c #A4A298",
"/= 	c #A09F97",
"(= 	c #9B9A95",
"_= 	c #989996",
":= 	c #939793",
"<= 	c #8E9291",
"[= 	c #898B8E",
"}= 	c #A7A9A6",
"|= 	c #AAACA8",
"1= 	c #6A6F77",
"2= 	c #4C5165",
"3= 	c #17132C",
"4= 	c #64626A",
"5= 	c #7B7E82",
"6= 	c #A5A6A1",
"7= 	c #CFCFC3",
"8= 	c #A9ACA6",
"9= 	c #323452",
"0= 	c #76797F",
"a= 	c #A1A19D",
"b= 	c #A0A199",
"c= 	c #A0A19A",
"d= 	c #A3A59E",
"e= 	c #A1A39E",
"f= 	c #9EA09A",
"g= 	c #92948C",
"h= 	c #8E8F88",
"i= 	c #969791",
"j= 	c #999A92",
"k= 	c #999A93",
"l= 	c #979891",
"m= 	c #94958E",
"n= 	c #93948E",
"o= 	c #898D88",
"p= 	c #818684",
"q= 	c #3E3F4D",
"r= 	c #313043",
"s= 	c #100B26",
"t= 	c #242233",
"u= 	c #909392",
"v= 	c #8C9390",
"w= 	c #858B88",
"x= 	c #868C89",
"y= 	c #898E8C",
"z= 	c #8D9290",
"A= 	c #585D63",
"B= 	c #485059",
"C= 	c #6D7076",
"D= 	c #787C7D",
"E= 	c #4B4C5B",
"F= 	c #211E3D",
"G= 	c #6D7176",
"H= 	c #777B7E",
"I= 	c #8B8D8D",
"J= 	c #9FA19A",
"K= 	c #9FA098",
"L= 	c #979993",
"M= 	c #8F928D",
"N= 	c #A3A79E",
"O= 	c #C1C1B7",
"P= 	c #B7B7AB",
"Q= 	c #9C9C95",
"R= 	c #979690",
"S= 	c #8E8E8A",
"T= 	c #7E7F81",
"U= 	c #6B6F7A",
"V= 	c #4A495B",
"W= 	c #0E0826",
"X= 	c #1D1934",
"Y= 	c #27213C",
"Z= 	c #1B162F",
"`= 	c #181428",
" - 	c #252133",
".- 	c #1E1732",
"+- 	c #120924",
"@- 	c #100819",
"#- 	c #58595C",
"$- 	c #656468",
"%- 	c #5F5E64",
"&- 	c #595A60",
"*- 	c #646569",
"=- 	c #757779",
"-- 	c #808282",
";- 	c #A1A49E",
">- 	c #A1A49C",
",- 	c #A1A39B",
"'- 	c #9D9F98",
")- 	c #989893",
"!- 	c #949490",
"~- 	c #959893",
"{- 	c #9B9D99",
"]- 	c #999C97",
"^- 	c #929593",
"/- 	c #85898E",
"(- 	c #7F8287",
"_- 	c #261F39",
":- 	c #494753",
"<- 	c #9D9F95",
"[- 	c #A1A397",
"}- 	c #A4A49A",
"|- 	c #A4A49B",
"1- 	c #A3A49D",
"2- 	c #9A9993",
"3- 	c #9C9B94",
"4- 	c #A2A29B",
"5- 	c #A4A39C",
"6- 	c #A1A198",
"7- 	c #9E9D97",
"8- 	c #9A9A96",
"9- 	c #979995",
"0- 	c #919594",
"a- 	c #8D8F90",
"b- 	c #898E8F",
"c- 	c #989E9E",
"d- 	c #999E9E",
"e- 	c #606270",
"f- 	c #4C4D67",
"g- 	c #130B24",
"h- 	c #0E051E",
"i- 	c #636169",
"j- 	c #7A7E80",
"k- 	c #8F928E",
"l- 	c #AAAEA6",
"m- 	c #909291",
"n- 	c #414464",
"o- 	c #767B82",
"p- 	c #A0A29B",
"q- 	c #9FA199",
"r- 	c #9CA098",
"s- 	c #9F9F9A",
"t- 	c #A0A09C",
"u- 	c #9B9F99",
"v- 	c #8E8F89",
"w- 	c #8D8D89",
"x- 	c #969792",
"y- 	c #949590",
"z- 	c #92938F",
"A- 	c #8E918B",
"B- 	c #8A8D89",
"C- 	c #868986",
"D- 	c #3F424C",
"E- 	c #313044",
"F- 	c #120B29",
"G- 	c #232036",
"H- 	c #7C858C",
"I- 	c #778285",
"J- 	c #586069",
"K- 	c #555C65",
"L- 	c #4E535F",
"M- 	c #494F5A",
"N- 	c #5E646D",
"O- 	c #525B68",
"P- 	c #6B7076",
"Q- 	c #777D7D",
"R- 	c #5D6371",
"S- 	c #474D63",
"T- 	c #757A7F",
"U- 	c #8A8E8C",
"V- 	c #979895",
"W- 	c #9A9E98",
"X- 	c #969994",
"Y- 	c #8F918E",
"Z- 	c #8D8F89",
"`- 	c #91928B",
" ; 	c #97968D",
".; 	c #9B9A92",
"+; 	c #91918D",
"@; 	c #8C8D88",
"#; 	c #7F8183",
"$; 	c #6D737D",
"%; 	c #4C4D62",
"&; 	c #110A29",
"*; 	c #1D1837",
"=; 	c #2B2940",
"-; 	c #302F43",
";; 	c #3D3D4D",
">; 	c #5A5C67",
",; 	c #4B4D5C",
"'; 	c #3B3C4F",
"); 	c #27263C",
"!; 	c #161329",
"~; 	c #1C162E",
"{; 	c #242339",
"]; 	c #2D2C46",
"^; 	c #37364A",
"/; 	c #2E2B48",
"(; 	c #65666E",
"_; 	c #9EA19B",
":; 	c #9C9F97",
"<; 	c #9B9C96",
"[; 	c #90918E",
"}; 	c #90938D",
"|; 	c #979994",
"1; 	c #989A95",
"2; 	c #8E9191",
"3; 	c #7C8087",
"4; 	c #787B83",
"5; 	c #252039",
"6; 	c #40404F",
"7; 	c #8E9290",
"8; 	c #949690",
"9; 	c #A9ABA3",
"0; 	c #989B9A",
"a; 	c #8A8D94",
"b; 	c #868889",
"c; 	c #8B8C8A",
"d; 	c #9D9E98",
"e; 	c #9A9B97",
"f; 	c #989994",
"g; 	c #969995",
"h; 	c #949896",
"i; 	c #909494",
"j; 	c #7A7C84",
"k; 	c #7A7F85",
"l; 	c #979E9D",
"m; 	c #979D9E",
"n; 	c #616574",
"o; 	c #4F526B",
"p; 	c #130B23",
"q; 	c #0E051D",
"r; 	c #5D5D67",
"s; 	c #72757A",
"t; 	c #7E8181",
"u; 	c #8C9092",
"v; 	c #72767D",
"w; 	c #353759",
"x; 	c #71757B",
"y; 	c #9C9E99",
"z; 	c #9B9D96",
"A; 	c #9A9C96",
"B; 	c #9A9C97",
"C; 	c #969894",
"D; 	c #969793",
"E; 	c #959792",
"F; 	c #949691",
"G; 	c #969693",
"H; 	c #959693",
"I; 	c #90928E",
"J; 	c #84898B",
"K; 	c #888D8C",
"L; 	c #868B8B",
"M; 	c #767B80",
"N; 	c #707378",
"O; 	c #2D2E3D",
"P; 	c #29263D",
"Q; 	c #140D2B",
"R; 	c #242136",
"S; 	c #757E86",
"T; 	c #727D83",
"U; 	c #525A69",
"V; 	c #575E6D",
"W; 	c #606A74",
"X; 	c #58626C",
"Y; 	c #ACB0B3",
"Z; 	c #B5B8BA",
"`; 	c #696C75",
" > 	c #555D69",
".> 	c #B7BAB7",
"+> 	c #C5C8C5",
"@> 	c #A0A3A1",
"#> 	c #929592",
"$> 	c #919391",
"%> 	c #999B99",
"&> 	c #999C9A",
"*> 	c #979C99",
"=> 	c #797C7E",
"-> 	c #7F8281",
";> 	c #878888",
">> 	c #848485",
",> 	c #7C7F80",
"'> 	c #7B7E7F",
")> 	c #7A7E81",
"!> 	c #70747D",
"~> 	c #636978",
"{> 	c #45455D",
"]> 	c #110925",
"^> 	c #403F4C",
"/> 	c #5B5D61",
"(> 	c #6B6D6E",
"_> 	c #717171",
":> 	c #969892",
"<> 	c #A0A29D",
"[> 	c #9D9E9B",
"}> 	c #262232",
"|> 	c #1A1429",
"1> 	c #757879",
"2> 	c #A4A6A3",
"3> 	c #909290",
"4> 	c #7D8183",
"5> 	c #898C8B",
"6> 	c #9DA099",
"7> 	c #9C9E97",
"8> 	c #9B9D97",
"9> 	c #8F918D",
"0> 	c #838584",
"a> 	c #818384",
"b> 	c #868A89",
"c> 	c #868989",
"d> 	c #828483",
"e> 	c #808381",
"f> 	c #6E707D",
"g> 	c #686B77",
"h> 	c #242038",
"i> 	c #373946",
"j> 	c #717880",
"k> 	c #7B7F82",
"l> 	c #919491",
"m> 	c #ABAFA8",
"n> 	c #81868F",
"o> 	c #555E83",
"p> 	c #686B78",
"q> 	c #949795",
"r> 	c #939593",
"s> 	c #8F918F",
"t> 	c #888989",
"u> 	c #838585",
"v> 	c #7E8083",
"w> 	c #898B8C",
"x> 	c #949997",
"y> 	c #888C8F",
"z> 	c #444363",
"A> 	c #4F5269",
"B> 	c #99A09F",
"C> 	c #979E9F",
"D> 	c #626776",
"E> 	c #4F536B",
"F> 	c #130C24",
"G> 	c #51515E",
"H> 	c #66676F",
"I> 	c #5D5F6E",
"J> 	c #414661",
"K> 	c #3E425F",
"L> 	c #333358",
"M> 	c #71757A",
"N> 	c #989A97",
"O> 	c #969895",
"P> 	c #8D908C",
"Q> 	c #8C8F8C",
"R> 	c #939491",
"S> 	c #959593",
"T> 	c #959793",
"U> 	c #969794",
"V> 	c #909390",
"W> 	c #81888A",
"X> 	c #4F5E78",
"Y> 	c #53617C",
"Z> 	c #A6A8A3",
"`> 	c #7E8488",
" , 	c #555A6D",
"., 	c #4D4F65",
"+, 	c #1E1C33",
"@, 	c #1C1832",
"#, 	c #1B1431",
"$, 	c #232138",
"%, 	c #535C6E",
"&, 	c #596272",
"*, 	c #404861",
"=, 	c #454D62",
"-, 	c #5B646F",
";, 	c #5C6671",
">, 	c #C0C5C5",
",, 	c #D2D7D2",
"', 	c #666972",
"), 	c #2A2F4D",
"!, 	c #C4CBC4",
"~, 	c #DAE1D4",
"{, 	c #B2B6B0",
"], 	c #939693",
"^, 	c #979996",
"/, 	c #838688",
"(, 	c #7B7F86",
"_, 	c #979999",
":, 	c #9A9E9C",
"<, 	c #9BA2A0",
"[, 	c #83898E",
"}, 	c #575B71",
"|, 	c #606675",
"1, 	c #676D79",
"2, 	c #656B79",
"3, 	c #646877",
"4, 	c #5D6271",
"5, 	c #596071",
"6, 	c #555C6F",
"7, 	c #555B6E",
"8, 	c #3C3C55",
"9, 	c #110825",
"0, 	c #4B4B54",
"a, 	c #6E716F",
"b, 	c #81847E",
"c, 	c #878883",
"d, 	c #C6C8B9",
"e, 	c #D7DAC8",
"f, 	c #EAEDDA",
"g, 	c #EAECDD",
"h, 	c #39363F",
"i, 	c #1E1830",
"j, 	c #999E9A",
"k, 	c #D6D9CE",
"l, 	c #B5B8AE",
"m, 	c #979C96",
"n, 	c #9C9F99",
"o, 	c #9B9D98",
"p, 	c #9A9B96",
"q, 	c #9A9B94",
"r, 	c #989A94",
"s, 	c #6A6B70",
"t, 	c #4D4F5D",
"u, 	c #6B6D7B",
"v, 	c #7B7F85",
"w, 	c #686A76",
"x, 	c #3D3E52",
"y, 	c #525462",
"z, 	c #868A8C",
"A, 	c #5E6275",
"B, 	c #5B5E70",
"C, 	c #221E35",
"D, 	c #343343",
"E, 	c #6A717C",
"F, 	c #64676E",
"G, 	c #6D6C73",
"H, 	c #83898A",
"I, 	c #939797",
"J, 	c #868C96",
"K, 	c #8B8F8C",
"L, 	c #929590",
"M, 	c #949794",
"N, 	c #939694",
"O, 	c #919493",
"P, 	c #919494",
"Q, 	c #939695",
"R, 	c #75797A",
"S, 	c #76797B",
"T, 	c #969897",
"U, 	c #8F9294",
"V, 	c #72757F",
"W, 	c #71757E",
"X, 	c #92989B",
"Y, 	c #8E9598",
"Z, 	c #5A5E70",
"`, 	c #474C66",
" ' 	c #130D27",
".' 	c #474857",
"+' 	c #5A5C68",
"@' 	c #5E636F",
"#' 	c #686F7A",
"$' 	c #6C727D",
"%' 	c #727780",
"&' 	c #84868A",
"*' 	c #8F9290",
"=' 	c #8F928F",
"-' 	c #959894",
";' 	c #90928F",
">' 	c #888C8B",
",' 	c #5E616B",
"'' 	c #616A70",
")' 	c #7F8A94",
"!' 	c #848D97",
"~' 	c #82888C",
"{' 	c #82888A",
"]' 	c #677178",
"^' 	c #51596A",
"/' 	c #484F61",
"(' 	c #201B31",
"_' 	c #1B152C",
":' 	c #19122B",
"<' 	c #1E1C30",
"[' 	c #444B63",
"}' 	c #525867",
"|' 	c #7A8089",
"1' 	c #767B83",
"2' 	c #7E8489",
"3' 	c #81888C",
"4' 	c #9CA4A4",
"5' 	c #9FA3A2",
"6' 	c #7F8288",
"7' 	c #7B7E85",
"8' 	c #9EA3A0",
"9' 	c #ABB0A9",
"0' 	c #969A97",
"a' 	c #8C8F8E",
"b' 	c #8D908F",
"c' 	c #898B8D",
"d' 	c #8C8E92",
"e' 	c #909596",
"f' 	c #8D9494",
"g' 	c #888D8D",
"h' 	c #84888D",
"i' 	c #72767E",
"j' 	c #6D727B",
"k' 	c #6C717A",
"l' 	c #656A78",
"m' 	c #484B5F",
"n' 	c #3E4058",
"o' 	c #2E2C48",
"p' 	c #0F0721",
"q' 	c #44444D",
"r' 	c #696A6A",
"s' 	c #7E7E7D",
"t' 	c #898A85",
"u' 	c #C2C5B9",
"v' 	c #D5D9C9",
"w' 	c #D7DACC",
"x' 	c #5D5E63",
"y' 	c #5D5E64",
"z' 	c #7C8181",
"A' 	c #9B9F9C",
"B' 	c #A2A9A2",
"C' 	c #B2B5AF",
"D' 	c #A7ACA9",
"E' 	c #9BA09E",
"F' 	c #9C9E9B",
"G' 	c #9A9D98",
"H' 	c #8D918F",
"I' 	c #65686C",
"J' 	c #50525E",
"K' 	c #3E3F4F",
"L' 	c #404257",
"M' 	c #4E4E61",
"N' 	c #5A5F6F",
"O' 	c #595E6A",
"P' 	c #646771",
"Q' 	c #7F8386",
"R' 	c #595D6B",
"S' 	c #5A5D6E",
"T' 	c #221E37",
"U' 	c #656D79",
"V' 	c #454658",
"W' 	c #2D2A46",
"X' 	c #5C606F",
"Y' 	c #70757A",
"Z' 	c #8A9293",
"`' 	c #929B99",
" ) 	c #939895",
".) 	c #959994",
"+) 	c #959896",
"@) 	c #909393",
"#) 	c #8E9293",
"$) 	c #939897",
"%) 	c #999E9C",
"&) 	c #999C9B",
"*) 	c #989B9B",
"=) 	c #52545F",
"-) 	c #454656",
";) 	c #6D6F74",
">) 	c #959898",
",) 	c #929595",
"') 	c #8B9090",
")) 	c #888D8F",
"!) 	c #818789",
"~) 	c #797F86",
"{) 	c #484B61",
"]) 	c #3C415A",
"^) 	c #130D26",
"/) 	c #0D041C",
"() 	c #3E3E4E",
"_) 	c #4E5160",
":) 	c #60646E",
"<) 	c #7A8186",
"[) 	c #848A8E",
"}) 	c #8E9495",
"|) 	c #8E9192",
"1) 	c #8A8F8D",
"2) 	c #8B8E8E",
"3) 	c #8A8D8D",
"4) 	c #898D8C",
"5) 	c #878989",
"6) 	c #8E9090",
"7) 	c #949694",
"8) 	c #979A97",
"9) 	c #969996",
"0) 	c #939592",
"a) 	c #8C8F8D",
"b) 	c #828688",
"c) 	c #555866",
"d) 	c #545B65",
"e) 	c #8F9799",
"f) 	c #91969B",
"g) 	c #656976",
"h) 	c #626775",
"i) 	c #5B6271",
"j) 	c #505968",
"k) 	c #4A5263",
"l) 	c #1F1C31",
"m) 	c #171227",
"n) 	c #18122C",
"o) 	c #1D1B2F",
"p) 	c #3E445B",
"q) 	c #535A65",
"r) 	c #949B9B",
"s) 	c #8E9597",
"t) 	c #919799",
"u) 	c #919798",
"v) 	c #56595F",
"w) 	c #494B53",
"x) 	c #83878A",
"y) 	c #929799",
"z) 	c #7C8082",
"A) 	c #898C8C",
"B) 	c #8E908F",
"C) 	c #8F9190",
"D) 	c #8F9391",
"E) 	c #919595",
"F) 	c #858A8B",
"G) 	c #7E8485",
"H) 	c #838987",
"I) 	c #878C8A",
"J) 	c #72777B",
"K) 	c #72787C",
"L) 	c #6E737C",
"M) 	c #44485A",
"N) 	c #34374F",
"O) 	c #24223E",
"P) 	c #0F0621",
"Q) 	c #42424A",
"R) 	c #646665",
"S) 	c #7D7D7D",
"T) 	c #8C8C8D",
"U) 	c #929597",
"V) 	c #888D93",
"W) 	c #8C9193",
"X) 	c #8C9293",
"Y) 	c #8E9496",
"Z) 	c #909597",
"`) 	c #61636B",
" ! 	c #313244",
".! 	c #9FA4A4",
"+! 	c #C1C5C0",
"@! 	c #B0B5B2",
"#! 	c #9CA19E",
"$! 	c #9C9F9C",
"%! 	c #9A9E9A",
"&! 	c #989B97",
"*! 	c #828786",
"=! 	c #474959",
"-! 	c #4F5264",
";! 	c #4E5367",
">! 	c #242242",
",! 	c #252242",
"'! 	c #54596A",
")! 	c #6A7078",
"!! 	c #73777D",
"~! 	c #797D82",
"{! 	c #515364",
"]! 	c #595A6C",
"^! 	c #484B5B",
"/! 	c #454857",
"(! 	c #5F6672",
"_! 	c #414356",
":! 	c #2A2744",
"<! 	c #545967",
"[! 	c #696E77",
"}! 	c #7B848A",
"|! 	c #818C94",
"1! 	c #8D9596",
"2! 	c #949B98",
"3! 	c #787C7F",
"4! 	c #8B8E92",
"5! 	c #909497",
"6! 	c #909498",
"7! 	c #818486",
"8! 	c #87888C",
"9! 	c #787A7F",
"0! 	c #77797F",
"a! 	c #818589",
"b! 	c #939796",
"c! 	c #838689",
"d! 	c #70747A",
"e! 	c #43455B",
"f! 	c #3B3B54",
"g! 	c #120C24",
"h! 	c #0D041D",
"i! 	c #383648",
"j! 	c #444757",
"k! 	c #505261",
"l! 	c #636774",
"m! 	c #737881",
"n! 	c #8E9294",
"o! 	c #8D9192",
"p! 	c #8A8E8F",
"q! 	c #8A8C8E",
"r! 	c #898C8D",
"s! 	c #878C8B",
"t! 	c #888B8C",
"u! 	c #949796",
"v! 	c #7F8285",
"w! 	c #696D73",
"x! 	c #70747B",
"y! 	c #7E8385",
"z! 	c #838A89",
"A! 	c #848B8D",
"B! 	c #7D8487",
"C! 	c #80868C",
"D! 	c #70757E",
"E! 	c #5A5F6D",
"F! 	c #585C6B",
"G! 	c #515566",
"H! 	c #4C5161",
"I! 	c #474D5D",
"J! 	c #1E1B30",
"K! 	c #161328",
"L! 	c #191530",
"M! 	c #3F4256",
"N! 	c #4F5460",
"O! 	c #80868A",
"P! 	c #7C8286",
"Q! 	c #7E8286",
"R! 	c #7D8186",
"S! 	c #5B5E66",
"T! 	c #53575E",
"U! 	c #7B7F81",
"V! 	c #848A8D",
"W! 	c #7F8487",
"X! 	c #818588",
"Y! 	c #8E9392",
"Z! 	c #8A8D91",
"`! 	c #7A7E83",
" ~ 	c #6B6E78",
".~ 	c #626570",
"+~ 	c #666974",
"@~ 	c #5E606B",
"#~ 	c #5C5E6B",
"$~ 	c #3C3E52",
"%~ 	c #32344B",
"&~ 	c #211C37",
"*~ 	c #100420",
"=~ 	c #3E3C45",
"-~ 	c #5F6160",
";~ 	c #797C7C",
">~ 	c #888C8E",
",~ 	c #7E828F",
"'~ 	c #707486",
")~ 	c #888E93",
"!~ 	c #8B9194",
"~~ 	c #8F9397",
"{~ 	c #909698",
"]~ 	c #72777E",
"^~ 	c #5F626E",
"/~ 	c #888D91",
"(~ 	c #929798",
"_~ 	c #979B9D",
":~ 	c #969A9C",
"<~ 	c #777B80",
"[~ 	c #61646E",
"}~ 	c #616670",
"|~ 	c #525564",
"1~ 	c #565B69",
"2~ 	c #596171",
"3~ 	c #2C2B46",
"4~ 	c #27274A",
"5~ 	c #565C6E",
"6~ 	c #636971",
"7~ 	c #6A6E75",
"8~ 	c #666971",
"9~ 	c #2B294F",
"0~ 	c #3B3C54",
"a~ 	c #707683",
"b~ 	c #676A78",
"c~ 	c #595C69",
"d~ 	c #343649",
"e~ 	c #262540",
"f~ 	c #535566",
"g~ 	c #686F7B",
"h~ 	c #707A83",
"i~ 	c #7A858E",
"j~ 	c #8C9196",
"k~ 	c #959A9B",
"l~ 	c #666A76",
"m~ 	c #909598",
"n~ 	c #898F93",
"o~ 	c #6D6E76",
"p~ 	c #74757B",
"q~ 	c #7D8086",
"r~ 	c #848789",
"s~ 	c #8B8E8F",
"t~ 	c #8F9292",
"u~ 	c #8C8F90",
"v~ 	c #737582",
"w~ 	c #68697A",
"x~ 	c #32324A",
"y~ 	c #34354B",
"z~ 	c #35384F",
"A~ 	c #323249",
"B~ 	c #100921",
"C~ 	c #333142",
"D~ 	c #424452",
"E~ 	c #404358",
"F~ 	c #44495F",
"G~ 	c #626773",
"H~ 	c #8A8F93",
"I~ 	c #8B8F92",
"J~ 	c #8B8F91",
"K~ 	c #8A8D90",
"L~ 	c #878B8B",
"M~ 	c #868B8A",
"N~ 	c #878B8A",
"O~ 	c #8A8E8E",
"P~ 	c #929695",
"Q~ 	c #4D5262",
"R~ 	c #535868",
"S~ 	c #606673",
"T~ 	c #6F757C",
"U~ 	c #83888A",
"V~ 	c #979C9A",
"W~ 	c #969B9C",
"X~ 	c #797E85",
"Y~ 	c #545766",
"Z~ 	c #505363",
"`~ 	c #474A5D",
" { 	c #4A4E5F",
".{ 	c #474B5C",
"+{ 	c #18152B",
"@{ 	c #222034",
"#{ 	c #41455A",
"${ 	c #444A5D",
"%{ 	c #4E5466",
"&{ 	c #4F5466",
"*{ 	c #494C5D",
"={ 	c #62666E",
"-{ 	c #72777D",
";{ 	c #777D81",
">{ 	c #767C80",
",{ 	c #7A7D83",
"'{ 	c #8D9293",
"){ 	c #8A8E90",
"!{ 	c #6B6E77",
"~{ 	c #73767E",
"{{ 	c #7F8388",
"]{ 	c #7E8284",
"^{ 	c #666A75",
"/{ 	c #5C606D",
"({ 	c #545665",
"_{ 	c #3C3D51",
":{ 	c #383A4D",
"<{ 	c #37394D",
"[{ 	c #393A4F",
"}{ 	c #1D1631",
"|{ 	c #0F051E",
"1{ 	c #373741",
"2{ 	c #57585B",
"3{ 	c #727779",
"4{ 	c #838A8F",
"5{ 	c #565875",
"6{ 	c #3D3E60",
"7{ 	c #838990",
"8{ 	c #8A9192",
"9{ 	c #8B9295",
"0{ 	c #8C9396",
"a{ 	c #787D86",
"b{ 	c #7B8189",
"c{ 	c #848A8F",
"d{ 	c #90969A",
"e{ 	c #626771",
"f{ 	c #545868",
"g{ 	c #555968",
"h{ 	c #4E5361",
"i{ 	c #494F5D",
"j{ 	c #343651",
"k{ 	c #2B2B4B",
"l{ 	c #595D6F",
"m{ 	c #666C76",
"n{ 	c #5F6170",
"o{ 	c #2C2B4E",
"p{ 	c #2D2C4E",
"q{ 	c #3F4159",
"r{ 	c #6E7380",
"s{ 	c #5B5D6B",
"t{ 	c #474956",
"u{ 	c #333449",
"v{ 	c #31314C",
"w{ 	c #3D3E50",
"x{ 	c #494A5B",
"y{ 	c #4C505F",
"z{ 	c #545968",
"A{ 	c #7A7E84",
"B{ 	c #919697",
"C{ 	c #8D9495",
"D{ 	c #8B9195",
"E{ 	c #8C9294",
"F{ 	c #6D7179",
"G{ 	c #555965",
"H{ 	c #595A66",
"I{ 	c #67696F",
"J{ 	c #6A6E74",
"K{ 	c #6F7278",
"L{ 	c #72737A",
"M{ 	c #71727A",
"N{ 	c #6B6C74",
"O{ 	c #4D4F60",
"P{ 	c #494A5D",
"Q{ 	c #34344E",
"R{ 	c #35364E",
"S{ 	c #32354B",
"T{ 	c #323349",
"U{ 	c #0E071F",
"V{ 	c #2F2E3E",
"W{ 	c #414251",
"X{ 	c #404458",
"Y{ 	c #474D62",
"Z{ 	c #4F5464",
"`{ 	c #5F6470",
" ] 	c #646774",
".] 	c #83878B",
"+] 	c #767A7E",
"@] 	c #767A7D",
"#] 	c #777B7F",
"$] 	c #808488",
"%] 	c #7F8489",
"&] 	c #81878D",
"*] 	c #82888D",
"=] 	c #848A8C",
"-] 	c #878C8E",
";] 	c #787B81",
">] 	c #767A80",
",] 	c #4F5161",
"'] 	c #393A4E",
")] 	c #383A4B",
"!] 	c #373748",
"~] 	c #1B182C",
"{] 	c #141026",
"]] 	c #1F1B30",
"^] 	c #3C4056",
"/] 	c #3E4457",
"(] 	c #454A5D",
"_] 	c #535A68",
":] 	c #535866",
"<] 	c #595C68",
"[] 	c #5B6168",
"}] 	c #5F656C",
"|] 	c #626870",
"1] 	c #8C9091",
"2] 	c #85898C",
"3] 	c #7C8083",
"4] 	c #5D606B",
"5] 	c #6F727B",
"6] 	c #7D8286",
"7] 	c #7B7F80",
"8] 	c #6D7177",
"9] 	c #5D616C",
"0] 	c #575C68",
"a] 	c #555868",
"b] 	c #414257",
"c] 	c #393A4D",
"d] 	c #18102A",
"e] 	c #0E061D",
"f] 	c #2F2E39",
"g] 	c #46464F",
"h] 	c #545867",
"i] 	c #616477",
"j] 	c #464865",
"k] 	c #3A3C58",
"l] 	c #878F8F",
"m] 	c #80898B",
"n] 	c #7D8488",
"o] 	c #7A8085",
"p] 	c #787D84",
"q] 	c #7A8087",
"r] 	c #6F747D",
"s] 	c #565B67",
"t] 	c #5B5F6B",
"u] 	c #4D5162",
"v] 	c #4C4F62",
"w] 	c #4F5363",
"x] 	c #4E5362",
"y] 	c #4A4F5D",
"z] 	c #484E5E",
"A] 	c #4A4F62",
"B] 	c #495065",
"C] 	c #494E62",
"D] 	c #414452",
"E] 	c #464758",
"F] 	c #37365A",
"G] 	c #2E2D49",
"H] 	c #3C3E5B",
"I] 	c #44475B",
"J] 	c #312E49",
"K] 	c #150C25",
"L] 	c #343349",
"M] 	c #3A3C55",
"N] 	c #28243E",
"O] 	c #221E3B",
"P] 	c #2C2945",
"Q] 	c #34334E",
"R] 	c #6A6F76",
"S] 	c #8D9496",
"T] 	c #8D9396",
"U] 	c #8A9092",
"V] 	c #888F91",
"W] 	c #878E90",
"X] 	c #393A52",
"Y] 	c #5A5D66",
"Z] 	c #5A5D65",
"`] 	c #5A5E66",
" ^ 	c #595C64",
".^ 	c #555862",
"+^ 	c #50535F",
"@^ 	c #404251",
"#^ 	c #3E404F",
"$^ 	c #414353",
"%^ 	c #404355",
"&^ 	c #191629",
"*^ 	c #110B24",
"=^ 	c #0D0720",
"-^ 	c #0D061F",
";^ 	c #1F1A2F",
">^ 	c #27283C",
",^ 	c #383C4F",
"'^ 	c #474C61",
")^ 	c #44475D",
"!^ 	c #44455B",
"~^ 	c #494C5E",
"{^ 	c #83868E",
"]^ 	c #71757C",
"^^ 	c #6E7179",
"/^ 	c #71747C",
"(^ 	c #767981",
"_^ 	c #7B8086",
":^ 	c #868B90",
"<^ 	c #888B91",
"[^ 	c #84898F",
"}^ 	c #4D5161",
"|^ 	c #4C4E5D",
"1^ 	c #494A5A",
"2^ 	c #3E3D4E",
"3^ 	c #302D41",
"4^ 	c #2B263B",
"5^ 	c #211C30",
"6^ 	c #110920",
"7^ 	c #110822",
"8^ 	c #150F27",
"9^ 	c #33344B",
"0^ 	c #303148",
"a^ 	c #2D2E47",
"b^ 	c #343549",
"c^ 	c #505464",
"d^ 	c #575B68",
"e^ 	c #595E69",
"f^ 	c #5A5F68",
"g^ 	c #5F646E",
"h^ 	c #7B8083",
"i^ 	c #878B8E",
"j^ 	c #84888B",
"k^ 	c #646974",
"l^ 	c #6F757D",
"m^ 	c #787F80",
"n^ 	c #777C7F",
"o^ 	c #75797C",
"p^ 	c #676A75",
"q^ 	c #505563",
"r^ 	c #3E3F54",
"s^ 	c #3C3B50",
"t^ 	c #383B4F",
"u^ 	c #17102A",
"v^ 	c #211F2B",
"w^ 	c #272638",
"x^ 	c #3D3F58",
"y^ 	c #3E4159",
"z^ 	c #393C55",
"A^ 	c #383B51",
"B^ 	c #7D8288",
"C^ 	c #858B90",
"D^ 	c #7F858A",
"E^ 	c #7B8188",
"F^ 	c #777E85",
"G^ 	c #767C83",
"H^ 	c #787F86",
"I^ 	c #656A77",
"J^ 	c #3D4057",
"K^ 	c #3F4258",
"L^ 	c #464A5E",
"M^ 	c #4C5164",
"N^ 	c #494F61",
"O^ 	c #494E60",
"P^ 	c #474C5E",
"Q^ 	c #4D5365",
"R^ 	c #51596B",
"S^ 	c #43475B",
"T^ 	c #1D1636",
"U^ 	c #27253F",
"V^ 	c #3D405E",
"W^ 	c #33344D",
"X^ 	c #3E425B",
"Y^ 	c #3E4155",
"Z^ 	c #2F2A45",
"`^ 	c #150C27",
" / 	c #303146",
"./ 	c #383D52",
"+/ 	c #28253F",
"@/ 	c #211B39",
"#/ 	c #201834",
"$/ 	c #201831",
"%/ 	c #393A47",
"&/ 	c #474B58",
"*/ 	c #444855",
"=/ 	c #444654",
"-/ 	c #454654",
";/ 	c #454856",
">/ 	c #414558",
",/ 	c #4C5167",
"'/ 	c #444759",
")/ 	c #424553",
"!/ 	c #404350",
"~/ 	c #424451",
"{/ 	c #3F414F",
"]/ 	c #3D3E4E",
"^/ 	c #363949",
"// 	c #3A3D4C",
"(/ 	c #3C3E4E",
"_/ 	c #19172C",
":/ 	c #110A26",
"</ 	c #0F0821",
"[/ 	c #1E1D30",
"}/ 	c #26283C",
"|/ 	c #333649",
"1/ 	c #3D4155",
"2/ 	c #33364A",
"3/ 	c #313147",
"4/ 	c #323448",
"5/ 	c #484C56",
"6/ 	c #494B58",
"7/ 	c #454754",
"8/ 	c #444753",
"9/ 	c #454755",
"0/ 	c #484A57",
"a/ 	c #484B58",
"b/ 	c #464A56",
"c/ 	c #434754",
"d/ 	c #424552",
"e/ 	c #444653",
"f/ 	c #3C3D50",
"g/ 	c #3D3E4F",
"h/ 	c #3F4050",
"i/ 	c #424252",
"j/ 	c #414351",
"k/ 	c #3D3D4C",
"l/ 	c #312D3E",
"m/ 	c #2A2537",
"n/ 	c #1A1328",
"o/ 	c #0F081F",
"p/ 	c #19142B",
"q/ 	c #33374C",
"r/ 	c #313348",
"s/ 	c #2E2F46",
"t/ 	c #303246",
"u/ 	c #393D4F",
"v/ 	c #3A3D4F",
"w/ 	c #38394C",
"x/ 	c #37394A",
"y/ 	c #3B3C4E",
"z/ 	c #3D4051",
"A/ 	c #414252",
"B/ 	c #444555",
"C/ 	c #454756",
"D/ 	c #474957",
"E/ 	c #494C58",
"F/ 	c #464A58",
"G/ 	c #434654",
"H/ 	c #464854",
"I/ 	c #484A55",
"J/ 	c #424353",
"K/ 	c #3E3F52",
"L/ 	c #3D3E51",
"M/ 	c #3F3D4F",
"N/ 	c #363449",
"O/ 	c #353048",
"P/ 	c #333247",
"Q/ 	c #393B4F",
"R/ 	c #1D162E",
"S/ 	c #140E24",
"T/ 	c #3A3F55",
"U/ 	c #393C53",
"V/ 	c #373952",
"W/ 	c #3A3B53",
"X/ 	c #474855",
"Y/ 	c #444453",
"Z/ 	c #424151",
"`/ 	c #3D3C4C",
" ( 	c #3D3B4B",
".( 	c #3E3D4C",
"+( 	c #3A3A4C",
"@( 	c #36364B",
"#( 	c #36354A",
"$( 	c #363549",
"%( 	c #353448",
"&( 	c #313146",
"*( 	c #313045",
"=( 	c #312F42",
"-( 	c #35354C",
";( 	c #2F2F49",
">( 	c #262442",
",( 	c #2E3049",
"'( 	c #414761",
")( 	c #2A283F",
"!( 	c #313145",
"~( 	c #2D2C42",
"{( 	c #231D37",
"]( 	c #110A25",
"^( 	c #252137",
"/( 	c #2C2C42",
"(( 	c #201C34",
"_( 	c #19132D",
":( 	c #160C28",
"<( 	c #170927",
"[( 	c #2A273D",
"}( 	c #2F3147",
"|( 	c #2E2F43",
"1( 	c #2F2B42",
"2( 	c #2F2941",
"3( 	c #2B2840",
"4( 	c #3B3E52",
"5( 	c #4E5063",
"6( 	c #38384D",
"7( 	c #323347",
"8( 	c #303045",
"9( 	c #302F44",
"0( 	c #2E2C41",
"a( 	c #28273C",
"b( 	c #1B182F",
"c( 	c #1A182D",
"d( 	c #19172B",
"e( 	c #1C182C",
"f( 	c #110C23",
"g( 	c #0F0922",
"h( 	c #0E0821",
"i( 	c #130E25",
"j( 	c #1C1930",
"k( 	c #1D1A32",
"l( 	c #1A1730",
"m( 	c #1E1C35",
"n( 	c #232339",
"o( 	c #2C2D3E",
"p( 	c #2E2F3F",
"q( 	c #313243",
"r( 	c #333346",
"s( 	c #363748",
"t( 	c #393A4B",
"u( 	c #393A4C",
"v( 	c #37384A",
"w( 	c #363749",
"x( 	c #343547",
"y( 	c #343346",
"z( 	c #333244",
"A( 	c #323144",
"B( 	c #323245",
"C( 	c #2F2D40",
"D( 	c #292638",
"E( 	c #211D31",
"F( 	c #1B162A",
"G( 	c #100A22",
"H( 	c #0E0820",
"I( 	c #0E081F",
"J( 	c #120D24",
"K( 	c #1D1D31",
"L( 	c #1B192C",
"M( 	c #1B192D",
"N( 	c #242236",
"O( 	c #232136",
"P( 	c #1F1E34",
"Q( 	c #1C1B2F",
"R( 	c #27263B",
"S( 	c #2B293E",
"T( 	c #302E42",
"U( 	c #323045",
"V( 	c #323043",
"W( 	c #333345",
"X( 	c #353447",
"Y( 	c #363648",
"Z( 	c #313042",
"`( 	c #2E2D40",
" _ 	c #2E2A3E",
"._ 	c #2E293D",
"+_ 	c #262035",
"@_ 	c #221C32",
"#_ 	c #1C182D",
"$_ 	c #18152A",
"%_ 	c #120A23",
"&_ 	c #100721",
"*_ 	c #120B24",
"=_ 	c #2D2B41",
"-_ 	c #2F2B43",
";_ 	c #363345",
">_ 	c #393648",
",_ 	c #363349",
"'_ 	c #322E44",
")_ 	c #302B41",
"!_ 	c #2E2A40",
"~_ 	c #2E2C40",
"{_ 	c #2F2E41",
"]_ 	c #302F41",
"^_ 	c #302F42",
"/_ 	c #2D2C3F",
"(_ 	c #29283A",
"__ 	c #292639",
":_ 	c #292539",
"<_ 	c #28263F",
"[_ 	c #26233F",
"}_ 	c #221D3C",
"|_ 	c #26243D",
"1_ 	c #33344C",
"2_ 	c #0E0520",
"3_ 	c #10061E",
"4_ 	c #11061F",
"5_ 	c #0F041F",
"6_ 	c #0F051F",
"7_ 	c #0F0722",
"8_ 	c #0E0521",
"9_ 	c #0C061F",
"0_ 	c #0E061F",
"a_ 	c #10061F",
"b_ 	c #100A23",
"c_ 	c #120E25",
"d_ 	c #110D22",
"e_ 	c #110C22",
"f_ 	c #110B21",
"g_ 	c #151229",
"h_ 	c #18162B",
"i_ 	c #121026",
"j_ 	c #110D25",
"k_ 	c #110A23",
"l_ 	c #100824",
"m_ 	c #0F0723",
"n_ 	c #0E0522",
"o_ 	c #0C0422",
"p_ 	c #090325",
"q_ 	c #060122",
"r_ 	c #070026",
"s_ 	c #070024",
"t_ 	c #060022",
"u_ 	c #050020",
"v_ 	c #060021",
"w_ 	c #0A0227",
"x_ 	c #0B0327",
"y_ 	c #0C0526",
"z_ 	c #0C0426",
"A_ 	c #100829",
"B_ 	c #110B26",
"C_ 	c #110C21",
"D_ 	c #141126",
"E_ 	c #151226",
"F_ 	c #151225",
"G_ 	c #151125",
"H_ 	c #141025",
"I_ 	c #151026",
"J_ 	c #181429",
"K_ 	c #1A152A",
"L_ 	c #1C172E",
"M_ 	c #1C182E",
"N_ 	c #15112A",
"O_ 	c #100827",
"P_ 	c #0D0624",
"Q_ 	c #0D0621",
"R_ 	c #0B0423",
"S_ 	c #0A0324",
"T_ 	c #090223",
"U_ 	c #090022",
"V_ 	c #0B0021",
"W_ 	c #0A0022",
"X_ 	c #090023",
"Y_ 	c #090121",
"Z_ 	c #0A0123",
"`_ 	c #0D0225",
" : 	c #0E0625",
".: 	c #100826",
"+: 	c #100825",
"@: 	c #0F071F",
"#: 	c #0C071D",
"$: 	c #0C071E",
"%: 	c #0E071E",
"&: 	c #0F0A1F",
"*: 	c #0F0A21",
"=: 	c #130F24",
"-: 	c #141125",
";: 	c #140F23",
">: 	c #120D20",
",: 	c #100C1C",
"': 	c #100D21",
"): 	c #120E27",
"!: 	c #130D25",
"~: 	c #130D24",
"{: 	c #120C23",
"]: 	c #100924",
"^: 	c #0F0724",
"/: 	c #0F0524",
"(: 	c #0E0424",
"_: 	c #0F0825",
":: 	c #10082A",
"<: 	c #13092C",
"[: 	c #12082B",
"}: 	c #110826",
"|: 	c #110B22",
"1: 	c #100C21",
"2: 	c #100A1F",
"3: 	c #0F091D",
"4: 	c #0F091E",
"5: 	c #0F091F",
"6: 	c #10081F",
"7: 	c #100A20",
"8: 	c #120D22",
"9: 	c #130E21",
"0: 	c #10091D",
"a: 	c #10091E",
"b: 	c #0D081C",
"c: 	c #0D0423",
"d: 	c #0C0321",
"e: 	c #0B021F",
"f: 	c #0A031F",
"g: 	c #B3B4B1",
"h: 	c #B8B8B6",
"i: 	c #BAB9B5",
"j: 	c #BBBBB6",
"k: 	c #BCBCB5",
"l: 	c #C0BFB6",
"m: 	c #C5C4BB",
"n: 	c #403C49",
"o: 	c #100929",
"p: 	c #0E0621",
"q: 	c #1D1B2B",
"r: 	c #272733",
"s: 	c #292934",
"t: 	c #33333E",
"u: 	c #161224",
"v: 	c #0D071F",
"w: 	c #0E061E",
"x: 	c #0F061E",
"y: 	c #100821",
"z: 	c #110824",
"A: 	c #282438",
"B: 	c #44445A",
"C: 	c #8E8F94",
"D: 	c #D8D7D7",
"E: 	c #DBDBD5",
"F: 	c #DDDED4",
"G: 	c #DFDDD7",
"H: 	c #E2E0DB",
"I: 	c #E4E3DE",
"J: 	c #E8E7E0",
"K: 	c #E4E5DD",
"L: 	c #E0E1D8",
"M: 	c #DDDCD4",
"N: 	c #DAD8D1",
"O: 	c #D9D8D0",
"P: 	c #D7D8CA",
"Q: 	c #A1A19A",
"R: 	c #4E4D5C",
"S: 	c #454352",
"T: 	c #0F0823",
"U: 	c #0F0820",
"V: 	c #0E051B",
"W: 	c #0E061A",
"X: 	c #120E22",
"Y: 	c #151326",
"Z: 	c #1C1B2C",
"`: 	c #232233",
" < 	c #222132",
".< 	c #1E1A30",
"+< 	c #1A162F",
"@< 	c #64636E",
"#< 	c #B6B3BB",
"$< 	c #C5C3C3",
"%< 	c #CECECA",
"&< 	c #D5D4CE",
"*< 	c #DAD9D1",
"=< 	c #DFDDD5",
"-< 	c #DFDED6",
";< 	c #DEDED6",
">< 	c #DDDDD5",
",< 	c #DCDED3",
"'< 	c #DCDCD5",
")< 	c #D7D8D0",
"!< 	c #D6D7CE",
"~< 	c #D7D6CE",
"{< 	c #7C797C",
"]< 	c #100722",
"^< 	c #100820",
"/< 	c #0F071E",
"(< 	c #0F071D",
"_< 	c #0F081E",
":< 	c #0D0721",
"<< 	c #0F0923",
"[< 	c #0D081E",
"}< 	c #6B6A73",
"|< 	c #B7B7BF",
"1< 	c #C2C5C5",
"2< 	c #CBCDC5",
"3< 	c #CFD1C8",
"4< 	c #D0D2CA",
"5< 	c #D2D3CC",
"6< 	c #D6D5D0",
"7< 	c #D9DAD2",
"8< 	c #DADAD1",
"9< 	c #DADACF",
"0< 	c #D7D7CB",
"a< 	c #D4D4CA",
"b< 	c #D3D3C8",
"c< 	c #BABAB1",
"d< 	c #B7B8AD",
"e< 	c #868891",
"f< 	c #4B4956",
"g< 	c #0A0516",
"h< 	c #0C041B",
"i< 	c #0A041A",
"j< 	c #0B041A",
"k< 	c #0D061C",
"l< 	c #161225",
"m< 	c #1B1729",
"n< 	c #1E1B2D",
"o< 	c #201F2E",
"p< 	c #232432",
"q< 	c #242534",
"r< 	c #2A2B39",
"s< 	c #46454F",
"t< 	c #4E4C57",
"u< 	c #55535D",
"v< 	c #585760",
"w< 	c #5C5B63",
"x< 	c #65656D",
"y< 	c #F8F7EC",
"z< 	c #F8F8EC",
"A< 	c #F9F9EC",
"B< 	c #F7F7EA",
"C< 	c #F6F7E7",
"D< 	c #5E5D68",
"E< 	c #1E193B",
"F< 	c #130C26",
"G< 	c #10051D",
"H< 	c #3B3D4B",
"I< 	c #5B5D68",
"J< 	c #5F636B",
"K< 	c #6F717A",
"L< 	c #363340",
"M< 	c #0C071B",
"N< 	c #0D071B",
"O< 	c #0E061B",
"P< 	c #120923",
"Q< 	c #393647",
"R< 	c #6A6C7E",
"S< 	c #A9ABAB",
"T< 	c #F4F3E8",
"U< 	c #F9F9E9",
"V< 	c #FBFAE9",
"W< 	c #FAF9E9",
"X< 	c #FAF8E8",
"Y< 	c #F9F9E7",
"Z< 	c #F8FAE6",
"`< 	c #FAF9E6",
" [ 	c #FAFAE6",
".[ 	c #F7F9E2",
"+[ 	c #C3C5B6",
"@[ 	c #71757F",
"#[ 	c #5D5D6B",
"$[ 	c #150D2D",
"%[ 	c #100823",
"&[ 	c #0E0719",
"*[ 	c #3B3A4C",
"=[ 	c #3C3C4E",
"-[ 	c #464859",
";[ 	c #4E505F",
">[ 	c #494B5D",
",[ 	c #454459",
"'[ 	c #95959C",
")[ 	c #EFEDEA",
"![ 	c #F3F2E8",
"~[ 	c #F6F7E8",
"{[ 	c #F7F8E8",
"][ 	c #F7F8E7",
"^[ 	c #FAF8E7",
"/[ 	c #F8F7E6",
"([ 	c #F7F8E5",
"_[ 	c #F7F8E6",
":[ 	c #FAFAE8",
"<[ 	c #FAFAEB",
"[[ 	c #FAF9EE",
"}[ 	c #FBFAEE",
"|[ 	c #FBFBED",
"1[ 	c #9E9D9D",
"2[ 	c #191131",
"3[ 	c #17112C",
"4[ 	c #150E27",
"5[ 	c #0F071C",
"6[ 	c #10071D",
"7[ 	c #10081D",
"8[ 	c #0D061B",
"9[ 	c #1D1A2D",
"0[ 	c #EEEEEA",
"a[ 	c #F1F3EC",
"b[ 	c #F6F7EA",
"c[ 	c #F9F9ED",
"d[ 	c #FBFAEF",
"e[ 	c #FBFBEE",
"f[ 	c #FBFBEC",
"g[ 	c #FAFAE9",
"h[ 	c #F8F9E8",
"i[ 	c #F8F7E3",
"j[ 	c #E2E1D1",
"k[ 	c #DDDECC",
"l[ 	c #BABEB2",
"m[ 	c #A1A7A7",
"n[ 	c #4F4F5C",
"o[ 	c #0B051B",
"p[ 	c #0B0519",
"q[ 	c #0C0519",
"r[ 	c #373852",
"s[ 	c #36384F",
"t[ 	c #414358",
"u[ 	c #45495D",
"v[ 	c #474A5E",
"w[ 	c #4C4F61",
"x[ 	c #717379",
"y[ 	c #7E8084",
"z[ 	c #86888B",
"A[ 	c #8C8E8F",
"B[ 	c #919596",
"C[ 	c #9A9E9F",
"D[ 	c #D2D0C6",
"E[ 	c #C7C8C0",
"F[ 	c #C9CABE",
"G[ 	c #ECECDD",
"H[ 	c #EDECDD",
"I[ 	c #ECEBD9",
"J[ 	c #8B8B8E",
"K[ 	c #7A7A7E",
"L[ 	c #838486",
"M[ 	c #999A9C",
"N[ 	c #65686F",
"O[ 	c #6D7079",
"P[ 	c #70737A",
"Q[ 	c #787C81",
"R[ 	c #484756",
"S[ 	c #151228",
"T[ 	c #0E081C",
"U[ 	c #161124",
"V[ 	c #39383F",
"W[ 	c #615F62",
"X[ 	c #7E7C7D",
"Y[ 	c #9C9B99",
"Z[ 	c #B7B7AD",
"`[ 	c #E0E1CD",
" } 	c #DBDCCC",
".} 	c #CECEC0",
"+} 	c #CECEBA",
"@} 	c #CFCFBA",
"#} 	c #D1CFBD",
"$} 	c #D5D3C2",
"%} 	c #CFCDBC",
"&} 	c #D0D0BE",
"*} 	c #D6D9C6",
"=} 	c #E1E4D3",
"-} 	c #DDE0CF",
";} 	c #CFD1C1",
">} 	c #B0B0A6",
",} 	c #969593",
"'} 	c #95949A",
")} 	c #A6A7AF",
"!} 	c #74757A",
"~} 	c #11091F",
"{} 	c #3B3B4C",
"]} 	c #535462",
"^} 	c #5C5F69",
"/} 	c #696B71",
"(} 	c #878684",
"_} 	c #8B8984",
":} 	c #878582",
"<} 	c #A2A29F",
"[} 	c #CFCDC1",
"}} 	c #C8C7B8",
"|} 	c #D0CFBE",
"1} 	c #E0DFCE",
"2} 	c #E0DED0",
"3} 	c #DFDECF",
"4} 	c #C0C0B1",
"5} 	c #BFBFB2",
"6} 	c #C7C7B9",
"7} 	c #D8D7C5",
"8} 	c #EAE6D4",
"9} 	c #DFDCCA",
"0} 	c #CECEC2",
"a} 	c #979697",
"b} 	c #6E6E75",
"c} 	c #6A6A70",
"d} 	c #5C5C61",
"e} 	c #3D3A47",
"f} 	c #150E28",
"g} 	c #110720",
"h} 	c #0F081D",
"i} 	c #33343E",
"j} 	c #3A3C48",
"k} 	c #130D29",
"l} 	c #67686C",
"m} 	c #959690",
"n} 	c #CDD0C1",
"o} 	c #CFD2C1",
"p} 	c #D2D3C0",
"q} 	c #CECFBE",
"r} 	c #CCCABF",
"s} 	c #D0CEC1",
"t} 	c #D1D0C2",
"u} 	c #D6D5C5",
"v} 	c #E9E6D4",
"w} 	c #EBEAD9",
"x} 	c #F5F3E5",
"y} 	c #F3F3E1",
"z} 	c #C5C6BD",
"A} 	c #B7B7B0",
"B} 	c #BDBFB4",
"C} 	c #D5D7CE",
"D} 	c #818089",
"E} 	c #434552",
"F} 	c #2B2936",
"G} 	c #0B051A",
"H} 	c #0C051B",
"I} 	c #0F051C",
"J} 	c #3A3D58",
"K} 	c #383B55",
"L} 	c #41425C",
"M} 	c #868B8E",
"N} 	c #878B90",
"O} 	c #5E616E",
"P} 	c #616570",
"Q} 	c #92928D",
"R} 	c #CAC8B9",
"S} 	c #CDCABC",
"T} 	c #C2BFB4",
"U} 	c #A8A9A9",
"V} 	c #C4C1B8",
"W} 	c #AAAAA8",
"X} 	c #A8A8A4",
"Y} 	c #E7E7D7",
"Z} 	c #E7E7D6",
"`} 	c #E6E5D3",
" | 	c #E4E1D3",
".| 	c #A8A7A5",
"+| 	c #9F9E9D",
"@| 	c #9E9F9B",
"#| 	c #BCBFB8",
"$| 	c #808388",
"%| 	c #777A82",
"&| 	c #81848C",
"*| 	c #65687A",
"=| 	c #40496C",
"-| 	c #110B20",
";| 	c #1A1428",
">| 	c #636364",
",| 	c #A6A69D",
"'| 	c #A9A89F",
")| 	c #B0AFA7",
"!| 	c #BCBBB1",
"~| 	c #A4A39E",
"{| 	c #A09F9A",
"]| 	c #A6A49B",
"^| 	c #AEACA1",
"/| 	c #B3B0A4",
"(| 	c #AFACA1",
"_| 	c #B0AEA3",
":| 	c #C4C6BB",
"<| 	c #D7DAD1",
"[| 	c #CACDC5",
"}| 	c #B1B2AE",
"|| 	c #AFAFA5",
"1| 	c #C9C9C1",
"2| 	c #EFF2ED",
"3| 	c #C9CCC6",
"4| 	c #1C192F",
"5| 	c #110A20",
"6| 	c #171026",
"7| 	c #3D3F4A",
"8| 	c #6D7077",
"9| 	c #74787C",
"0| 	c #808382",
"a| 	c #A3A29C",
"b| 	c #A3A098",
"c| 	c #9B9890",
"d| 	c #B8B6AD",
"e| 	c #CECCC3",
"f| 	c #CFCCC3",
"g| 	c #D0CDC2",
"h| 	c #CFCEC3",
"i| 	c #BBBAB0",
"j| 	c #ABAAA2",
"k| 	c #999793",
"l| 	c #A7A49D",
"m| 	c #C0BEAE",
"n| 	c #D9D4C1",
"o| 	c #CAC5B5",
"p| 	c #9E9F9D",
"q| 	c #9B9B9A",
"r| 	c #969997",
"s| 	c #878988",
"t| 	c #7C7E7F",
"u| 	c #1E1833",
"v| 	c #1A162B",
"w| 	c #120722",
"x| 	c #151224",
"y| 	c #676E76",
"z| 	c #5E6771",
"A| 	c #131133",
"B| 	c #78797C",
"C| 	c #B9BDB2",
"D| 	c #B9BBB1",
"E| 	c #BABBB1",
"F| 	c #AAA99F",
"G| 	c #AAA79E",
"H| 	c #B1AEA6",
"I| 	c #B1AFA5",
"J| 	c #B0ADA3",
"K| 	c #BDB9AE",
"L| 	c #DDD8CC",
"M| 	c #DDDBCB",
"N| 	c #F3F1E5",
"O| 	c #B8BAB4",
"P| 	c #A9A9A8",
"Q| 	c #E0E1D2",
"R| 	c #BBBFBE",
"S| 	c #848F9B",
"T| 	c #595A68",
"U| 	c #0C051C",
"V| 	c #100B21",
"W| 	c #1A182B",
"X| 	c #29283B",
"Y| 	c #4D4F6B",
"Z| 	c #484A65",
"`| 	c #41405E",
" 1 	c #616671",
".1 	c #DCDFD1",
"+1 	c #DADDCE",
"@1 	c #828687",
"#1 	c #7A7F81",
"$1 	c #A6A49C",
"%1 	c #C5C1B2",
"&1 	c #E2DFC9",
"*1 	c #E9E6CC",
"=1 	c #DDD9C6",
"-1 	c #ABABA8",
";1 	c #D3D1C2",
">1 	c #D2CFC3",
",1 	c #D1CEC3",
"'1 	c #D8D6C7",
")1 	c #D5D4C3",
"!1 	c #DCDACD",
"~1 	c #DFDCD0",
"{1 	c #EEECDB",
"]1 	c #6B6D73",
"^1 	c #737479",
"/1 	c #85878B",
"(1 	c #737276",
"_1 	c #160D29",
":1 	c #160F27",
"<1 	c #1A1526",
"[1 	c #616164",
"}1 	c #A5A49B",
"|1 	c #A6A59D",
"11 	c #A9A89E",
"21 	c #E0DFD3",
"31 	c #E8E6D7",
"41 	c #EBE8D9",
"51 	c #EDEBDA",
"61 	c #F0EEDE",
"71 	c #F5F3E4",
"81 	c #BEBBB3",
"91 	c #B4B2A9",
"01 	c #E1E0D7",
"a1 	c #F7F7EC",
"b1 	c #E2E2D9",
"c1 	c #BEBFB9",
"d1 	c #BFBAB0",
"e1 	c #C2BBB0",
"f1 	c #D5D4CA",
"g1 	c #EFF2EB",
"h1 	c #D8DCD7",
"i1 	c #464E64",
"j1 	c #302D49",
"k1 	c #525869",
"l1 	c #5A6170",
"m1 	c #5D6270",
"n1 	c #5D606E",
"o1 	c #646673",
"p1 	c #76787E",
"q1 	c #8D8D88",
"r1 	c #919189",
"s1 	c #94938D",
"t1 	c #B5B4AD",
"u1 	c #B4B3AC",
"v1 	c #AFAEA5",
"w1 	c #ADAEA4",
"x1 	c #ADACA3",
"y1 	c #C8C7BE",
"z1 	c #DBD8CC",
"A1 	c #DDDBCD",
"B1 	c #DCD8C9",
"C1 	c #D1CDC0",
"D1 	c #848584",
"E1 	c #7F8384",
"F1 	c #808384",
"G1 	c #868988",
"H1 	c #969998",
"I1 	c #A6ABA9",
"J1 	c #8B8F93",
"K1 	c #69707B",
"L1 	c #505163",
"M1 	c #1D1A2C",
"N1 	c #616872",
"O1 	c #5C626F",
"P1 	c #161139",
"Q1 	c #707176",
"R1 	c #ADADA4",
"S1 	c #A7A79C",
"T1 	c #DFE0D1",
"U1 	c #E7E8D8",
"V1 	c #E3E3D4",
"W1 	c #C2C1B4",
"X1 	c #B9B8AB",
"Y1 	c #AFACA2",
"Z1 	c #BCBCAF",
"`1 	c #F4F3E5",
" 2 	c #F6F4E6",
".2 	c #C3C6C0",
"+2 	c #B2B4B1",
"@2 	c #E9E7DA",
"#2 	c #BDC0BA",
"$2 	c #808A93",
"%2 	c #555765",
"&2 	c #34333E",
"*2 	c #676A71",
"=2 	c #5F6473",
"-2 	c #57596A",
";2 	c #4E4C5D",
">2 	c #63636D",
",2 	c #D4D5CB",
"'2 	c #CECFC5",
")2 	c #ABADA6",
"!2 	c #CCCBBF",
"~2 	c #E3E1CC",
"{2 	c #DDDBC5",
"]2 	c #CACAB6",
"^2 	c #8A8C89",
"/2 	c #D6D4C5",
"(2 	c #D7D4C4",
"_2 	c #D4D3C4",
":2 	c #D2D1C0",
"<2 	c #D6D5C2",
"[2 	c #D9D8C5",
"}2 	c #E5E3D1",
"|2 	c #EAE8D4",
"12 	c #EBEAD8",
"22 	c #EDEDDC",
"32 	c #A7A7A3",
"42 	c #7B797E",
"52 	c #706C74",
"62 	c #6C6B6D",
"72 	c #8A8A8A",
"82 	c #919392",
"92 	c #76777B",
"02 	c #171028",
"a2 	c #1C1928",
"b2 	c #59585B",
"c2 	c #A5A59E",
"d2 	c #A09F98",
"e2 	c #96948F",
"f2 	c #8D8C88",
"g2 	c #8B8988",
"h2 	c #DDDCD2",
"i2 	c #EFEDDE",
"j2 	c #F1EFE0",
"k2 	c #F3F1E1",
"l2 	c #BFBDB5",
"m2 	c #B1B0A7",
"n2 	c #E1E1D8",
"o2 	c #F8F8EF",
"p2 	c #E0E1D9",
"q2 	c #C1C2BB",
"r2 	c #C0BDB3",
"s2 	c #C1BCB1",
"t2 	c #D3D4CA",
"u2 	c #E8ECE4",
"v2 	c #CCD0CC",
"w2 	c #3D4258",
"x2 	c #2A2741",
"y2 	c #10081E",
"z2 	c #3F4357",
"A2 	c #596076",
"B2 	c #5B6277",
"C2 	c #565C6F",
"D2 	c #54546A",
"E2 	c #55566E",
"F2 	c #606275",
"G2 	c #8B8B8A",
"H2 	c #8E8D88",
"I2 	c #908F89",
"J2 	c #ADACA5",
"K2 	c #A8A7A0",
"L2 	c #A5A59D",
"M2 	c #9A9A92",
"N2 	c #A9A9A1",
"O2 	c #CAC9C1",
"P2 	c #D9D7CB",
"Q2 	c #DBD9CD",
"R2 	c #D8D5C9",
"S2 	c #777679",
"T2 	c #6D6E73",
"U2 	c #6E6F74",
"V2 	c #7B7E84",
"W2 	c #94979A",
"X2 	c #A6ABAC",
"Y2 	c #93999D",
"Z2 	c #777F8C",
"`2 	c #5C5F70",
" 3 	c #110721",
".3 	c #201D2F",
"+3 	c #616874",
"@3 	c #515662",
"#3 	c #161337",
"$3 	c #6F6F76",
"%3 	c #ABA9A1",
"&3 	c #A8A79D",
"*3 	c #9A998F",
"=3 	c #9D9D93",
"-3 	c #E2E2D2",
";3 	c #E4E5D4",
">3 	c #D1D1C2",
",3 	c #C0C0B4",
"'3 	c #B9B8AD",
")3 	c #B1B0A6",
"!3 	c #B0AEA5",
"~3 	c #BDBCB2",
"{3 	c #F0EFE4",
"]3 	c #F0EFE2",
"^3 	c #BFC3BE",
"/3 	c #ADB1AF",
"(3 	c #A6AAA6",
"_3 	c #6E7581",
":3 	c #44444C",
"<3 	c #838685",
"[3 	c #878B88",
"}3 	c #A6A8A2",
"|3 	c #B2B2AC",
"13 	c #B2B4AD",
"23 	c #56585E",
"33 	c #666B6F",
"43 	c #DDDCCE",
"53 	c #E1E3D1",
"63 	c #EEEEDD",
"73 	c #F0F1E3",
"83 	c #DEDBCA",
"93 	c #C2C0B4",
"03 	c #737476",
"a3 	c #B1B0A5",
"b3 	c #B1B1A6",
"c3 	c #B5B2A5",
"d3 	c #CCCABD",
"e3 	c #CDCBBC",
"f3 	c #CCCCBC",
"g3 	c #CFCFBF",
"h3 	c #E7E6DC",
"i3 	c #A4A3A6",
"j3 	c #747682",
"k3 	c #6D6F7A",
"l3 	c #7A8083",
"m3 	c #63666D",
"n3 	c #130A26",
"o3 	c #272537",
"p3 	c #68686E",
"q3 	c #A6A39C",
"r3 	c #A4A39A",
"s3 	c #A1A096",
"t3 	c #BAB9AE",
"u3 	c #B9B8AC",
"v3 	c #D5D5C7",
"w3 	c #C7C8BA",
"x3 	c #C3C5B7",
"y3 	c #BFC0B4",
"z3 	c #B0B1A7",
"A3 	c #B0B2A8",
"B3 	c #B5B6AF",
"C3 	c #BABBB4",
"D3 	c #C2C3BC",
"E3 	c #A0A29E",
"F3 	c #7E807E",
"G3 	c #6B6D6D",
"H3 	c #5A5D62",
"I3 	c #4A4D56",
"J3 	c #393B53",
"K3 	c #29263E",
"L3 	c #3F4356",
"M3 	c #5C6573",
"N3 	c #7B7F84",
"O3 	c #8E928D",
"P3 	c #9FA399",
"Q3 	c #9D9F99",
"R3 	c #8D8C89",
"S3 	c #8B8A86",
"T3 	c #8B8A84",
"U3 	c #A5A49D",
"V3 	c #9A9992",
"W3 	c #BCBDB6",
"X3 	c #BCBBB6",
"Y3 	c #9C9A96",
"Z3 	c #B0AFA6",
"`3 	c #BBBAB1",
" 4 	c #B4B3AD",
".4 	c #B3B3AD",
"+4 	c #939493",
"@4 	c #62656C",
"#4 	c #5E6268",
"$4 	c #65696C",
"%4 	c #3A3B50",
"&4 	c #29283C",
"*4 	c #181529",
"=4 	c #3C4251",
"-4 	c #5F6570",
";4 	c #606672",
">4 	c #858689",
",4 	c #ACA8A0",
"'4 	c #A7A69D",
")4 	c #A8A79E",
"!4 	c #BEBEB2",
"~4 	c #C2C2B6",
"{4 	c #B7B6AB",
"]4 	c #B3B2A7",
"^4 	c #B4B3AA",
"/4 	c #B3B2AA",
"(4 	c #B4B4AB",
"_4 	c #B3B2A9",
":4 	c #AEADA5",
"<4 	c #A7A69F",
"[4 	c #535665",
"}4 	c #464960",
"|4 	c #ABAAA9",
"14 	c #C8C7C0",
"24 	c #7C7F85",
"34 	c #636777",
"44 	c #434255",
"54 	c #4C4B53",
"64 	c #858887",
"74 	c #999D95",
"84 	c #D9DECE",
"94 	c #DDDFCF",
"04 	c #DBDDCE",
"a4 	c #D7D9CE",
"b4 	c #727579",
"c4 	c #74797C",
"d4 	c #E9E8DC",
"e4 	c #EFF0E0",
"f4 	c #C0C3BC",
"g4 	c #D0D0C4",
"h4 	c #DFDECC",
"i4 	c #CDCCBE",
"j4 	c #9D9E96",
"k4 	c #9B9A91",
"l4 	c #9E9B93",
"m4 	c #C2BFB0",
"n4 	c #C4C1B4",
"o4 	c #C5C2B5",
"p4 	c #C9C6B8",
"q4 	c #DEE0D2",
"r4 	c #E4E6D8",
"s4 	c #A9A9A7",
"t4 	c #828492",
"u4 	c #787B88",
"v4 	c #7A7F83",
"w4 	c #110923",
"x4 	c #323241",
"y4 	c #666F79",
"z4 	c #75797B",
"A4 	c #A4A39B",
"B4 	c #C6C4B7",
"C4 	c #D5D1C1",
"D4 	c #D1CDBF",
"E4 	c #CCC9BB",
"F4 	c #C9C6B9",
"G4 	c #AAA8A0",
"H4 	c #A3A49F",
"I4 	c #B1B2AA",
"J4 	c #B6B7B0",
"K4 	c #B7BAB2",
"L4 	c #B9BCB5",
"M4 	c #C0C2BE",
"N4 	c #9EA19E",
"O4 	c #7F8280",
"P4 	c #6C6E71",
"Q4 	c #5D6065",
"R4 	c #4F525A",
"S4 	c #3A3C51",
"T4 	c #2A273F",
"U4 	c #3F4352",
"V4 	c #616972",
"W4 	c #808583",
"X4 	c #989C91",
"Y4 	c #AAAD9E",
"Z4 	c #A6A89C",
"`4 	c #96978E",
" 5 	c #8B8C87",
".5 	c #8A8985",
"+5 	c #898783",
"@5 	c #888983",
"#5 	c #9F9F99",
"$5 	c #9FA099",
"%5 	c #B3B4AD",
"&5 	c #B9BAB5",
"*5 	c #9A9A99",
"=5 	c #959594",
"-5 	c #AFAEA7",
";5 	c #B7B6AF",
">5 	c #B8B7B1",
",5 	c #B9B9B2",
"'5 	c #9A9A97",
")5 	c #5D5E67",
"!5 	c #61646B",
"~5 	c #707477",
"{5 	c #5A5C66",
"]5 	c #2E2C46",
"^5 	c #1E1A31",
"/5 	c #10071F",
"(5 	c #171528",
"_5 	c #545862",
":5 	c #666A74",
"<5 	c #696D78",
"[5 	c #8F9090",
"}5 	c #AAAB9F",
"|5 	c #A7A69C",
"15 	c #ACABA3",
"25 	c #AAA9A1",
"35 	c #B1B1A8",
"45 	c #B3B3AA",
"55 	c #B3B5AB",
"65 	c #B2B3AB",
"75 	c #ABABA4",
"85 	c #565764",
"95 	c #454961",
"05 	c #B1B0AD",
"a5 	c #636776",
"b5 	c #3F3D50",
"c5 	c #120A1F",
"d5 	c #4A4950",
"e5 	c #949792",
"f5 	c #DDE1D3",
"g5 	c #E2E1D3",
"h5 	c #E2E2D6",
"i5 	c #DADBCE",
"j5 	c #757577",
"k5 	c #767679",
"l5 	c #DCDCD1",
"m5 	c #A8A8A5",
"n5 	c #9B9C9A",
"o5 	c #DFDFCE",
"p5 	c #D3D2C4",
"q5 	c #AEB0AD",
"r5 	c #ADADA6",
"s5 	c #94958F",
"t5 	c #AFB0AE",
"u5 	c #D6D8D4",
"v5 	c #A7ACAA",
"w5 	c #6A747C",
"x5 	c #4F555E",
"y5 	c #343543",
"z5 	c #78808A",
"A5 	c #DAD8CC",
"B5 	c #CFCDC5",
"C5 	c #A09F99",
"D5 	c #A8A89E",
"E5 	c #B6B6AB",
"F5 	c #B5B5AB",
"G5 	c #A0A19C",
"H5 	c #BABBB5",
"I5 	c #C8CAC3",
"J5 	c #6F7074",
"K5 	c #979A96",
"L5 	c #929693",
"M5 	c #444659",
"N5 	c #302E45",
"O5 	c #353646",
"P5 	c #4C505B",
"Q5 	c #595C62",
"R5 	c #57595E",
"S5 	c #5C5D61",
"T5 	c #727374",
"U5 	c #989A91",
"V5 	c #97988D",
"W5 	c #97988E",
"X5 	c #9C9B93",
"Y5 	c #A0A299",
"Z5 	c #A6A7A0",
"`5 	c #A9ABA4",
" 6 	c #A9AAA4",
".6 	c #999998",
"+6 	c #8E8F8F",
"@6 	c #90918F",
"#6 	c #9B9997",
"$6 	c #9D9B99",
"%6 	c #999895",
"&6 	c #858889",
"*6 	c #717377",
"=6 	c #73777A",
"-6 	c #5B5D67",
";6 	c #302E48",
">6 	c #1D1830",
",6 	c #171627",
"'6 	c #898A8B",
")6 	c #979896",
"!6 	c #C1C2BD",
"~6 	c #9FA09C",
"{6 	c #80817E",
"]6 	c #91908C",
"^6 	c #A7A6A0",
"/6 	c #A3A39B",
"(6 	c #A3A39A",
"_6 	c #A4A49C",
":6 	c #A6A69E",
"<6 	c #A5A69D",
"[6 	c #A2A49B",
"}6 	c #979991",
"|6 	c #949591",
"16 	c #6F7077",
"26 	c #7C8089",
"36 	c #BABAB6",
"46 	c #C6C6BD",
"56 	c #4B4A58",
"66 	c #120A20",
"76 	c #46464D",
"86 	c #7F8180",
"96 	c #838686",
"06 	c #A9ADA4",
"a6 	c #A3A69C",
"b6 	c #747776",
"c6 	c #7C8081",
"d6 	c #E5E3DD",
"e6 	c #E5E3DC",
"f6 	c #AFAEA8",
"g6 	c #BBBCB4",
"h6 	c #AAACA4",
"i6 	c #B1B0AA",
"j6 	c #B7B9B2",
"k6 	c #999997",
"l6 	c #949593",
"m6 	c #8F908D",
"n6 	c #B5B8B5",
"o6 	c #D4D7D2",
"p6 	c #B4B8B6",
"q6 	c #6F7881",
"r6 	c #505660",
"s6 	c #2F3140",
"t6 	c #7C828B",
"u6 	c #D9D7CF",
"v6 	c #B7BBB5",
"w6 	c #C8CAC4",
"x6 	c #616269",
"y6 	c #999C98",
"z6 	c #999D97",
"A6 	c #848988",
"B6 	c #484A5C",
"C6 	c #343248",
"D6 	c #100922",
"E6 	c #323244",
"F6 	c #4F515E",
"G6 	c #575862",
"H6 	c #464457",
"I6 	c #211840",
"J6 	c #4C4B57",
"K6 	c #959890",
"L6 	c #93958C",
"M6 	c #94958D",
"N6 	c #9FA198",
"O6 	c #9F9F9B",
"P6 	c #A1A29D",
"Q6 	c #A4A7A1",
"R6 	c #A8ACA6",
"S6 	c #A2A3A0",
"T6 	c #8E8F8D",
"U6 	c #8D8D8D",
"V6 	c #8B8C8B",
"W6 	c #8C8E8D",
"X6 	c #8F8F8E",
"Y6 	c #8A8C8B",
"Z6 	c #848688",
"`6 	c #7A7B7F",
" 7 	c #787A7E",
".7 	c #62656F",
"+7 	c #2F2E49",
"@7 	c #1B1531",
"#7 	c #10091F",
"$7 	c #171525",
"%7 	c #8D8D8C",
"&7 	c #D6D8CD",
"*7 	c #636366",
"=7 	c #7F7F7F",
"-7 	c #AAAAA5",
";7 	c #A5A49E",
">7 	c #959892",
",7 	c #989C9B",
"'7 	c #BCC0B8",
")7 	c #C3C5BD",
"!7 	c #989998",
"~7 	c #8B9091",
"{7 	c #585864",
"]7 	c #44444B",
"^7 	c #7F8182",
"/7 	c #828486",
"(7 	c #999B97",
"_7 	c #929290",
":7 	c #E9EAE2",
"<7 	c #9A9C9A",
"[7 	c #9B9B99",
"}7 	c #989896",
"|7 	c #9FA29D",
"17 	c #BABDB8",
"27 	c #9A9A98",
"37 	c #929491",
"47 	c #8D8F8C",
"57 	c #7D7F81",
"67 	c #707276",
"77 	c #6C6E75",
"87 	c #656771",
"97 	c #464653",
"07 	c #30313D",
"a7 	c #A6A8A8",
"b7 	c #A0A39F",
"c7 	c #AFB1A9",
"d7 	c #ADAEA7",
"e7 	c #9B9E98",
"f7 	c #9C9F9A",
"g7 	c #9C9E9A",
"h7 	c #9B9D9A",
"i7 	c #5D606C",
"j7 	c #85898B",
"k7 	c #999B98",
"l7 	c #989B98",
"m7 	c #989C97",
"n7 	c #4C5062",
"o7 	c #34344A",
"p7 	c #0F0A22",
"q7 	c #3F3F4C",
"r7 	c #6B6D70",
"s7 	c #727575",
"t7 	c #747579",
"u7 	c #747479",
"v7 	c #707075",
"w7 	c #6E6F6F",
"x7 	c #5A5A5E",
"y7 	c #51525A",
"z7 	c #57595B",
"A7 	c #56565B",
"B7 	c #525255",
"C7 	c #5E5F62",
"D7 	c #A2A39E",
"E7 	c #9FA39D",
"F7 	c #9B9E9B",
"G7 	c #8B8C8C",
"H7 	c #888A8A",
"I7 	c #8A8C8D",
"J7 	c #868887",
"K7 	c #828588",
"L7 	c #7A7D82",
"M7 	c #6C7178",
"N7 	c #312F49",
"O7 	c #1B152F",
"P7 	c #2D293D",
"Q7 	c #3D3A4A",
"R7 	c #A5A5A2",
"S7 	c #B1B2AD",
"T7 	c #CED1C8",
"U7 	c #9A9A95",
"V7 	c #9E9F99",
"W7 	c #9C9E98",
"X7 	c #9FA29F",
"Y7 	c #A3A6A2",
"Z7 	c #7E8180",
"`7 	c #777A7A",
" 8 	c #68696D",
".8 	c #65676F",
"+8 	c #434150",
"@8 	c #3E3D48",
"#8 	c #7B7E83",
"$8 	c #73757C",
"%8 	c #4F5059",
"&8 	c #6A6C6E",
"*8 	c #C9CEC8",
"=8 	c #C2C6BF",
"-8 	c #A2A6A0",
";8 	c #979998",
">8 	c #999C99",
",8 	c #929591",
"'8 	c #979798",
")8 	c #969695",
"!8 	c #949491",
"~8 	c #8E908D",
"{8 	c #8F8F8D",
"]8 	c #8D908D",
"^8 	c #76777D",
"/8 	c #5D5D6A",
"(8 	c #60606E",
"_8 	c #63646E",
":8 	c #474653",
"<8 	c #0D041E",
"[8 	c #30303C",
"}8 	c #999C95",
"|8 	c #999C96",
"18 	c #9A9D99",
"28 	c #9DA09C",
"38 	c #959798",
"48 	c #555668",
"58 	c #4D5063",
"68 	c #34344B",
"78 	c #454550",
"88 	c #737575",
"98 	c #7E807D",
"08 	c #878A85",
"a8 	c #8A8E88",
"b8 	c #8C8C8A",
"c8 	c #858684",
"d8 	c #50515A",
"e8 	c #120E38",
"f8 	c #161238",
"g8 	c #231F41",
"h8 	c #484755",
"i8 	c #5D5F62",
"j8 	c #959694",
"k8 	c #8E9091",
"l8 	c #848687",
"m8 	c #888A8D",
"n8 	c #84878B",
"o8 	c #7C8186",
"p8 	c #71767D",
"q8 	c #35324C",
"r8 	c #1B152E",
"s8 	c #333043",
"t8 	c #42404F",
"u8 	c #A3A4A0",
"v8 	c #C8CCC4",
"w8 	c #AFB1AA",
"x8 	c #9B9B95",
"y8 	c #9B9B97",
"z8 	c #A0A3A0",
"A8 	c #A3A5A3",
"B8 	c #6E6D72",
"C8 	c #41414F",
"D8 	c #252537",
"E8 	c #1B152B",
"F8 	c #130A24",
"G8 	c #393945",
"H8 	c #757880",
"I8 	c #5C6164",
"J8 	c #CED2CB",
"K8 	c #C7CBC1",
"L8 	c #949696",
"M8 	c #989B99",
"N8 	c #88898F",
"O8 	c #8B8E8B",
"P8 	c #888A8B",
"Q8 	c #73747B",
"R8 	c #6E6F76",
"S8 	c #8D8F8E",
"T8 	c #919492",
"U8 	c #7E7F85",
"V8 	c #656772",
"W8 	c #4A4955",
"X8 	c #0C061D",
"Y8 	c #34323E",
"Z8 	c #A0A4A0",
"`8 	c #A0A39D",
" 9 	c #9B9E99",
".9 	c #91958F",
"+9 	c #939894",
"@9 	c #959A94",
"#9 	c #989997",
"$9 	c #979B97",
"%9 	c #4A4D5E",
"&9 	c #403F4E",
"*9 	c #646669",
"=9 	c #80837E",
"-9 	c #92958C",
";9 	c #93958D",
">9 	c #818380",
",9 	c #6C6F72",
"'9 	c #9D9EA1",
")9 	c #AEAEAF",
"!9 	c #AEAEAC",
"~9 	c #A0A19F",
"{9 	c #9EA09C",
"]9 	c #9D9E9A",
"^9 	c #9A9D9A",
"/9 	c #919394",
"(9 	c #828487",
"_9 	c #98999A",
":9 	c #97979A",
"<9 	c #7E8386",
"[9 	c #64676F",
"}9 	c #82858D",
"|9 	c #6D6F79",
"19 	c #595B68",
"29 	c #484A58",
"39 	c #241D36",
"49 	c #1C1429",
"59 	c #333245",
"69 	c #414451",
"79 	c #9E9F9C",
"89 	c #9E9F9A",
"99 	c #989D99",
"09 	c #A5A9A8",
"a9 	c #A5AAAA",
"b9 	c #81868B",
"c9 	c #676D78",
"d9 	c #3A3849",
"e9 	c #343541",
"f9 	c #6E747B",
"g9 	c #6E747C",
"h9 	c #717682",
"i9 	c #71777E",
"j9 	c #989B9C",
"k9 	c #97999B",
"l9 	c #929496",
"m9 	c #929495",
"n9 	c #929494",
"o9 	c #909293",
"p9 	c #7E8082",
"q9 	c #7B7C80",
"r9 	c #86888D",
"s9 	c #8F9293",
"t9 	c #909490",
"u9 	c #909492",
"v9 	c #8E908E",
"w9 	c #8B8E8C",
"x9 	c #6F7178",
"y9 	c #666671",
"z9 	c #7F8185",
"A9 	c #696B76",
"B9 	c #646772",
"C9 	c #63656F",
"D9 	c #4C4B59",
"E9 	c #35343F",
"F9 	c #9FA4A0",
"G9 	c #9EA29F",
"H9 	c #989C9A",
"I9 	c #A4A8A4",
"J9 	c #909292",
"K9 	c #8E918F",
"L9 	c #939692",
"M9 	c #969A95",
"N9 	c #40404C",
"O9 	c #616466",
"P9 	c #81827D",
"Q9 	c #6E7275",
"R9 	c #515661",
"S9 	c #B5B8B0",
"T9 	c #C9CBC1",
"U9 	c #BFC0B8",
"V9 	c #B6B7B3",
"W9 	c #A0A1A0",
"X9 	c #9D9F9B",
"Y9 	c #9C9C9A",
"Z9 	c #808283",
"`9 	c #807D83",
" 0 	c #9B9A9D",
".0 	c #666973",
"+0 	c #7D8187",
"@0 	c #82868D",
"#0 	c #6A6D77",
"$0 	c #323044",
"%0 	c #1C132B",
"&0 	c #333146",
"*0 	c #9D9D9A",
"=0 	c #91928E",
"-0 	c #9A9C95",
";0 	c #999A95",
">0 	c #9B9E9A",
",0 	c #979B9A",
"'0 	c #61656E",
")0 	c #48505D",
"!0 	c #9FA4A6",
"~0 	c #9DA2A3",
"{0 	c #70767E",
"]0 	c #42404E",
"^0 	c #333440",
"/0 	c #6C727A",
"(0 	c #6E727B",
"_0 	c #747883",
":0 	c #747981",
"<0 	c #8F9394",
"[0 	c #909395",
"}0 	c #909294",
"|0 	c #8F9192",
"10 	c #8D9090",
"20 	c #6E7073",
"30 	c #8A8D8B",
"40 	c #90938F",
"50 	c #8E928E",
"60 	c #898D8B",
"70 	c #818587",
"80 	c #858A8A",
"90 	c #6C7077",
"00 	c #75777B",
"a0 	c #838589",
"b0 	c #808586",
"c0 	c #7E8184",
"d0 	c #7C7D83",
"e0 	c #65666D",
"f0 	c #60616B",
"g0 	c #5D5E6B",
"h0 	c #585B69",
"i0 	c #545664",
"j0 	c #404052",
"k0 	c #272734",
"l0 	c #808589",
"m0 	c #80888A",
"n0 	c #8A8E92",
"o0 	c #696E78",
"p0 	c #9EA19F",
"q0 	c #848787",
"r0 	c #858787",
"s0 	c #888A89",
"t0 	c #8D908E",
"u0 	c #8A8C8C",
"v0 	c #84878A",
"w0 	c #73757A",
"x0 	c #646970",
"y0 	c #414657",
"z0 	c #2E2E43",
"A0 	c #3E4049",
"B0 	c #626667",
"C0 	c #696A70",
"D0 	c #868A8E",
"E0 	c #A7ABA6",
"F0 	c #B6B9B3",
"G0 	c #AFB3AD",
"H0 	c #9FA5A3",
"I0 	c #82878D",
"J0 	c #73787D",
"K0 	c #959A96",
"L0 	c #939594",
"M0 	c #939395",
"N0 	c #8F8F91",
"O0 	c #74777B",
"P0 	c #828789",
"Q0 	c #6B6F79",
"R0 	c #545869",
"S0 	c #39384B",
"T0 	c #1C152C",
"U0 	c #1A162C",
"V0 	c #2B263D",
"W0 	c #9B9C98",
"X0 	c #969893",
"Y0 	c #969993",
"Z0 	c #888E91",
"`0 	c #6A7178",
" a 	c #413F4D",
".a 	c #140B25",
"+a 	c #282839",
"@a 	c #4B505D",
"#a 	c #4E515F",
"$a 	c #646675",
"%a 	c #6A6D76",
"&a 	c #8D8F91",
"*a 	c #8B8D8E",
"=a 	c #838687",
"-a 	c #7E8383",
";a 	c #7E8081",
">a 	c #646870",
",a 	c #6F7379",
"'a 	c #858988",
")a 	c #7F8387",
"!a 	c #595B67",
"~a 	c #5B5D6A",
"{a 	c #686B76",
"]a 	c #7E8188",
"^a 	c #808386",
"/a 	c #7F8085",
"(a 	c #676874",
"_a 	c #565663",
":a 	c #5A5969",
"<a 	c #5C5C6C",
"[a 	c #575969",
"}a 	c #525467",
"|a 	c #3E3E52",
"1a 	c #0D051C",
"2a 	c #2B2A39",
"3a 	c #767C84",
"4a 	c #8B9096",
"5a 	c #82878F",
"6a 	c #41465E",
"7a 	c #5F626F",
"8a 	c #A1A1A1",
"9a 	c #8C8E8E",
"0a 	c #87898A",
"aa 	c #86888A",
"ba 	c #7E8287",
"ca 	c #8B8F94",
"da 	c #777A83",
"ea 	c #575A68",
"fa 	c #4E5260",
"ga 	c #434758",
"ha 	c #2F2D43",
"ia 	c #110A24",
"ja 	c #3D3D49",
"ka 	c #65676A",
"la 	c #858C8B",
"ma 	c #44475A",
"na 	c #383956",
"oa 	c #81878E",
"pa 	c #93989B",
"qa 	c #9A9D9D",
"ra 	c #969B9A",
"sa 	c #8D9195",
"ta 	c #4B5167",
"ua 	c #71757D",
"va 	c #939696",
"wa 	c #939596",
"xa 	c #828485",
"ya 	c #747677",
"za 	c #8F9291",
"Aa 	c #8F948F",
"Ba 	c #797B85",
"Ca 	c #6C6F7C",
"Da 	c #5E6072",
"Ea 	c #404054",
"Fa 	c #1C162F",
"Ga 	c #1C172D",
"Ha 	c #282238",
"Ia 	c #3A3A47",
"Ja 	c #969798",
"Ka 	c #87898C",
"La 	c #8B8D90",
"Ma 	c #8C8E90",
"Na 	c #969896",
"Oa 	c #949799",
"Pa 	c #919598",
"Qa 	c #8D9194",
"Ra 	c #898D91",
"Sa 	c #777D82",
"Ta 	c #70747C",
"Ua 	c #444253",
"Va 	c #130C27",
"Wa 	c #262539",
"Xa 	c #444658",
"Ya 	c #494B5B",
"Za 	c #5E6070",
"`a 	c #656773",
" b 	c #8A8E91",
".b 	c #41455E",
"+b 	c #595C6B",
"@b 	c #626571",
"#b 	c #636671",
"$b 	c #5F626C",
"%b 	c #575968",
"&b 	c #616470",
"*b 	c #787C80",
"=b 	c #62646E",
"-b 	c #545363",
";b 	c #565664",
">b 	c #575767",
",b 	c #565767",
"'b 	c #535565",
")b 	c #4E5062",
"!b 	c #282634",
"~b 	c #5F6571",
"{b 	c #5A5E6C",
"]b 	c #696E7A",
"^b 	c #686F7F",
"/b 	c #676C77",
"(b 	c #6D6C75",
"_b 	c #7C7E82",
":b 	c #7D8082",
"<b 	c #797B80",
"[b 	c #777980",
"}b 	c #797A81",
"|b 	c #797B81",
"1b 	c #787A80",
"2b 	c #75797E",
"3b 	c #6C7079",
"4b 	c #6B6E79",
"5b 	c #5E6270",
"6b 	c #515563",
"7b 	c #2F3144",
"8b 	c #222037",
"9b 	c #120B27",
"0b 	c #323243",
"ab 	c #4D4E5E",
"bb 	c #575C67",
"cb 	c #535767",
"db 	c #5E6170",
"eb 	c #7B8187",
"fb 	c #81878B",
"gb 	c #80878B",
"hb 	c #797E83",
"ib 	c #83878D",
"jb 	c #727984",
"kb 	c #74797F",
"lb 	c #70737C",
"mb 	c #73757B",
"nb 	c #74757C",
"ob 	c #72747A",
"pb 	c #74767D",
"qb 	c #7D7F82",
"rb 	c #7A7C7E",
"sb 	c #7F8284",
"tb 	c #7A7E7E",
"ub 	c #646773",
"vb 	c #4C4D60",
"wb 	c #555669",
"xb 	c #4B4E5E",
"yb 	c #403F51",
"zb 	c #252035",
"Ab 	c #211A31",
"Bb 	c #292939",
"Cb 	c #7E8285",
"Db 	c #7E8185",
"Eb 	c #808284",
"Fb 	c #888B8A",
"Gb 	c #8B8F8E",
"Hb 	c #7E7F80",
"Ib 	c #7E7E82",
"Jb 	c #8A8F92",
"Kb 	c #888D90",
"Lb 	c #868B8F",
"Mb 	c #787E83",
"Nb 	c #747881",
"Ob 	c #484658",
"Pb 	c #130B27",
"Qb 	c #2A293C",
"Rb 	c #4D4F5E",
"Sb 	c #4A4C5B",
"Tb 	c #74787F",
"Ub 	c #6E7078",
"Vb 	c #6B6D74",
"Wb 	c #696C73",
"Xb 	c #686C73",
"Yb 	c #6F737D",
"Zb 	c #686D7A",
"`b 	c #5D5F6C",
" c 	c #525062",
".c 	c #525463",
"+c 	c #505262",
"@c 	c #505463",
"#c 	c #545866",
"$c 	c #585D69",
"%c 	c #74777F",
"&c 	c #585866",
"*c 	c #3F3B53",
"=c 	c #4E4D60",
"-c 	c #545561",
";c 	c #4C5060",
">c 	c #4F5262",
",c 	c #353247",
"'c 	c #222032",
")c 	c #4F5564",
"!c 	c #494C5F",
"~c 	c #464A5D",
"{c 	c #737A85",
"]c 	c #666D79",
"^c 	c #525562",
"/c 	c #75797D",
"(c 	c #797D80",
"_c 	c #6B6F74",
":c 	c #696D72",
"<c 	c #686B71",
"[c 	c #656A70",
"}c 	c #666B72",
"|c 	c #565964",
"1c 	c #585B6A",
"2c 	c #5F6875",
"3c 	c #5A5D6C",
"4c 	c #23223D",
"5c 	c #1B1532",
"6c 	c #140B29",
"7c 	c #323648",
"8c 	c #495060",
"9c 	c #515564",
"0c 	c #5B616E",
"ac 	c #6C747F",
"bc 	c #747A82",
"cc 	c #787E85",
"dc 	c #696F78",
"ec 	c #6A727B",
"fc 	c #747C83",
"gc 	c #798087",
"hc 	c #4A4E5E",
"ic 	c #5A5D67",
"jc 	c #5C5F6C",
"kc 	c #7A7E82",
"lc 	c #75797F",
"mc 	c #56586A",
"nc 	c #2D2C4A",
"oc 	c #4A4C5F",
"pc 	c #58596B",
"qc 	c #4F5162",
"rc 	c #49495B",
"sc 	c #252236",
"tc 	c #211B31",
"uc 	c #262538",
"vc 	c #575F71",
"wc 	c #5F6671",
"xc 	c #717478",
"yc 	c #717276",
"zc 	c #737577",
"Ac 	c #76787A",
"Bc 	c #828585",
"Cc 	c #7F8483",
"Dc 	c #808584",
"Ec 	c #858A89",
"Fc 	c #8F9393",
"Gc 	c #67676F",
"Hc 	c #58585F",
"Ic 	c #67676E",
"Jc 	c #6C7074",
"Kc 	c #74797D",
"Lc 	c #82898D",
"Mc 	c #777D83",
"Nc 	c #4A4B58",
"Oc 	c #373744",
"Pc 	c #5E6169",
"Qc 	c #51535F",
"Rc 	c #444558",
"Sc 	c #484A5B",
"Tc 	c #6F727D",
"Uc 	c #5F616C",
"Vc 	c #5E606A",
"Wc 	c #5D6068",
"Xc 	c #5D606A",
"Yc 	c #636670",
"Zc 	c #686D75",
"`c 	c #697078",
" d 	c #6F777F",
".d 	c #60626F",
"+d 	c #35334F",
"@d 	c #434558",
"#d 	c #404154",
"$d 	c #47495B",
"%d 	c #4E5161",
"&d 	c #4E5061",
"*d 	c #5A5C6A",
"=d 	c #5C5E6C",
"-d 	c #3D3B51",
";d 	c #47485A",
">d 	c #434053",
",d 	c #353449",
"'d 	c #353548",
")d 	c #343446",
"!d 	c #252036",
"~d 	c #100720",
"{d 	c #19142A",
"]d 	c #36384C",
"^d 	c #37384F",
"/d 	c #3A3A51",
"(d 	c #5F6676",
"_d 	c #565C6C",
":d 	c #505566",
"<d 	c #5E616C",
"[d 	c #5F636E",
"}d 	c #61646F",
"|d 	c #585A65",
"1d 	c #565763",
"2d 	c #555762",
"3d 	c #535661",
"4d 	c #535560",
"5d 	c #52535F",
"6d 	c #50515E",
"7d 	c #4C4D5B",
"8d 	c #4A4B5A",
"9d 	c #4F5364",
"0d 	c #4A4B5D",
"ad 	c #1C1631",
"bd 	c #160D2A",
"cd 	c #1C1B30",
"dd 	c #3A3E51",
"ed 	c #3C4052",
"fd 	c #414556",
"gd 	c #4C5162",
"hd 	c #5A6071",
"id 	c #5C616F",
"jd 	c #4D5260",
"kd 	c #515663",
"ld 	c #565A67",
"md 	c #515562",
"nd 	c #424457",
"od 	c #4A4C5D",
"pd 	c #555664",
"qd 	c #545563",
"rd 	c #50515F",
"sd 	c #4D4E5C",
"td 	c #4D4F5C",
"ud 	c #4F515D",
"vd 	c #50505F",
"wd 	c #4F4E5F",
"xd 	c #44465A",
"yd 	c #434459",
"zd 	c #404158",
"Ad 	c #3B3F5C",
"Bd 	c #34364F",
"Cd 	c #323246",
"Dd 	c #353649",
"Ed 	c #2C2A3E",
"Fd 	c #1B1B2B",
"Gd 	c #41475A",
"Hd 	c #464A59",
"Id 	c #5B5E69",
"Jd 	c #565965",
"Kd 	c #595C66",
"Ld 	c #5C5E67",
"Md 	c #5E616A",
"Nd 	c #61626C",
"Od 	c #646871",
"Pd 	c #656973",
"Qd 	c #6B6F76",
"Rd 	c #6C7177",
"Sd 	c #575C66",
"Td 	c #525762",
"Ud 	c #565B65",
"Vd 	c #585C67",
"Wd 	c #5B5D69",
"Xd 	c #535465",
"Yd 	c #464A5C",
"Zd 	c #444858",
"`d 	c #2C2B3E",
" e 	c #242232",
".e 	c #404051",
"+e 	c #3D3F54",
"@e 	c #4A4D5B",
"#e 	c #4C4D5C",
"$e 	c #4A4B59",
"%e 	c #4C4F5D",
"&e 	c #525664",
"*e 	c #4C4F60",
"=e 	c #373850",
"-e 	c #2B283F",
";e 	c #33334A",
">e 	c #38364D",
",e 	c #3B3A50",
"'e 	c #3E3F53",
")e 	c #3D3E53",
"!e 	c #404055",
"~e 	c #3B3B50",
"{e 	c #3D3D4F",
"]e 	c #352F45",
"^e 	c #27223A",
"/e 	c #1F1B31",
"(e 	c #171128",
"_e 	c #140F26",
":e 	c #1D1B36",
"<e 	c #221F3B",
"[e 	c #282441",
"}e 	c #2D2D42",
"|e 	c #40465A",
"1e 	c #464C5F",
"2e 	c #45495A",
"3e 	c #43465A",
"4e 	c #424658",
"5e 	c #424657",
"6e 	c #464959",
"7e 	c #414050",
"8e 	c #3F3F4F",
"9e 	c #3D3F4E",
"0e 	c #3C3D4D",
"ae 	c #3C3C4C",
"be 	c #3B3B4B",
"ce 	c #3B3A4A",
"de 	c #2E2C42",
"ee 	c #2A2840",
"fe 	c #140925",
"ge 	c #120724",
"he 	c #140F28",
"ie 	c #33344A",
"je 	c #33364C",
"ke 	c #36384E",
"le 	c #393950",
"me 	c #495064",
"ne 	c #4B4F62",
"oe 	c #3F4255",
"pe 	c #404155",
"qe 	c #3F3F54",
"re 	c #414255",
"se 	c #3F4153",
"te 	c #464757",
"ue 	c #484959",
"ve 	c #484758",
"we 	c #474657",
"xe 	c #454455",
"ye 	c #404153",
"ze 	c #3F4152",
"Ae 	c #3E4051",
"Be 	c #3B3E51",
"Ce 	c #393B51",
"De 	c #33334E",
"Ee 	c #373652",
"Fe 	c #3C405E",
"Ge 	c #2F314D",
"He 	c #23203A",
"Ie 	c #28263C",
"Je 	c #272439",
"Ke 	c #120C22",
"Le 	c #0D071D",
"Me 	c #1C1C2D",
"Ne 	c #32364B",
"Oe 	c #303046",
"Pe 	c #3D3E55",
"Qe 	c #3C3D53",
"Re 	c #454657",
"Se 	c #46485A",
"Te 	c #4C4E5E",
"Ue 	c #4C4D5D",
"Ve 	c #494D5C",
"We 	c #484D5C",
"Xe 	c #494D5E",
"Ye 	c #4A4E61",
"Ze 	c #4A4D61",
"`e 	c #4A4D62",
" f 	c #4A4D60",
".f 	c #484C5B",
"+f 	c #4A4E5D",
"@f 	c #4C505E",
"#f 	c #494E5E",
"$f 	c #494E5F",
"%f 	c #464A5A",
"&f 	c #404356",
"*f 	c #3F4156",
"=f 	c #29263C",
"-f 	c #0D0723",
";f 	c #151227",
">f 	c #2B2941",
",f 	c #2C2A41",
"'f 	c #37394F",
")f 	c #34374D",
"!f 	c #3E3D4F",
"~f 	c #3D3C4F",
"{f 	c #3B394C",
"]f 	c #3B394D",
"^f 	c #38384B",
"/f 	c #38394D",
"(f 	c #35364A",
"_f 	c #18122B",
":f 	c #16102C",
"<f 	c #18112B",
"[f 	c #19132B",
"}f 	c #171229",
"|f 	c #16112B",
"1f 	c #16102B",
"2f 	c #140E28",
"3f 	c #130D28",
"4f 	c #110B28",
"5f 	c #120C27",
"6f 	c #100723",
"7f 	c #110922",
"8f 	c #140C26",
"9f 	c #19142C",
"0f 	c #262438",
"af 	c #1F1D32",
"bf 	c #242139",
"cf 	c #242238",
"df 	c #242237",
"ef 	c #222035",
"ff 	c #201E32",
"gf 	c #201E31",
"hf 	c #222033",
"if 	c #242234",
"jf 	c #232234",
"kf 	c #211E31",
"lf 	c #201D2D",
"mf 	c #1D1A30",
"nf 	c #1D192F",
"of 	c #1D192E",
"pf 	c #1C182B",
"qf 	c #110C24",
"rf 	c #130C25",
"sf 	c #140E26",
"tf 	c #141029",
"uf 	c #18152C",
"vf 	c #1F1D33",
"wf 	c #221F35",
"xf 	c #201E34",
"yf 	c #1F1D31",
"zf 	c #1F1B32",
"Af 	c #201D2E",
"Bf 	c #1E1C2C",
"Cf 	c #1D192C",
"Df 	c #1F192E",
"Ef 	c #1A172B",
"Ff 	c #1B162B",
"Gf 	c #191429",
"Hf 	c #120D23",
"If 	c #110D24",
"Jf 	c #120F26",
"Kf 	c #0D071C",
"Lf 	c #0E091D",
"Mf 	c #110A21",
"Nf 	c #161127",
"Of 	c #18162A",
"Pf 	c #28233A",
"Qf 	c #26233A",
"Rf 	c #28263B",
"Sf 	c #29273B",
"Tf 	c #28263A",
"Uf 	c #2B283D",
"Vf 	c #2A283D",
"Wf 	c #2A243A",
"Xf 	c #272137",
"Yf 	c #231E34",
"Zf 	c #211C31",
"`f 	c #221E32",
" g 	c #201D31",
".g 	c #1E1B2F",
"+g 	c #151328",
"@g 	c #0F0B22",
"#g 	c #0E0B22",
"$g 	c #0C081F",
"%g 	c #0B051C",
"&g 	c #0B051D",
"*g 	c #161128",
"=g 	c #120C26",
"-g 	c #110B23",
";g 	c #130E24",
">g 	c #161327",
",g 	c #181227",
"'g 	c #140E25",
")g 	c #130C23",
"!g 	c #130C22",
"~g 	c #150E24",
"{g 	c #161026",
"]g 	c #0E0523",
"^g 	c #0C0423",
"/g 	c #0C0523",
"(g 	c #0E0524",
"_g 	c #0E0627",
":g 	c #0E0723",
"<g 	c #0C0622",
"[g 	c #18132E",
"}g 	c #26213A",
"|g 	c #333145",
"1g 	c #3E3D52",
"2g 	c #3B3955",
"3g 	c #272541",
"4g 	c #232137",
"5g 	c #272539",
"6g 	c #2B2A3D",
"7g 	c #333341",
"8g 	c #323140",
"9g 	c #241C31",
"0g 	c #110722",
"ag 	c #110823",
"bg 	c #130A25",
"cg 	c #140B26",
"dg 	c #130A27",
"eg 	c #130925",
"fg 	c #0E0623",
"gg 	c #0C0723",
"hg 	c #0A0722",
"ig 	c #110E2C",
"jg 	c #1C1B36",
"kg 	c #211F36",
"lg 	c #222036",
"mg 	c #201D32",
"ng 	c #201C30",
"og 	c #232033",
"pg 	c #303042",
"qg 	c #393749",
"rg 	c #38384C",
"sg 	c #3F3F51",
"tg 	c #2C2A3C",
"ug 	c #110927",
"vg 	c #160F2A",
"wg 	c #201C33",
"xg 	c #19142D",
"yg 	c #120A28",
"zg 	c #130922",
"Ag 	c #140924",
"Bg 	c #170B27",
"Cg 	c #170D25",
"Dg 	c #140C23",
"Eg 	c #0C0A20",
"Fg 	c #110C26",
"Gg 	c #1B172A",
"Hg 	c #1F1C2E",
"Ig 	c #242337",
"Jg 	c #27263A",
"Kg 	c #0E0822",
"Lg 	c #2B293B",
"Mg 	c #30313E",
"Ng 	c #3A3B45",
"Og 	c #383944",
"Pg 	c #353441",
"Qg 	c #262431",
"Rg 	c #18112A",
"Sg 	c #221934",
"Tg 	c #211935",
"Ug 	c #1E1630",
"Vg 	c #1E172D",
"Wg 	c #1E182E",
"Xg 	c #201A30",
"Yg 	c #241C34",
"Zg 	c #231C33",
"`g 	c #221930",
" h 	c #21182E",
".h 	c #1E162D",
"+h 	c #190F28",
"@h 	c #201C2E",
"#h 	c #231E30",
"$h 	c #170F27",
"%h 	c #110724",
"&h 	c #120B26",
"*h 	c #150E25",
"=h 	c #140F27",
"-h 	c #171428",
";h 	c #1D192B",
">h 	c #211E35",
",h 	c #211E39",
"'h 	c #191630",
")h 	c #110C29",
"!h 	c #130E2A",
"~h 	c #17122D",
"{h 	c #1C1431",
"]h 	c #211C35",
"^h 	c #3E394C",
"/h 	c #393448",
"(h 	c #19122E",
"_h 	c #2A2C45",
":h 	c #242340",
"<h 	c #1C1939",
"[h 	c #161232",
"}h 	c #D0D3D8",
"|h 	c #EAECEB",
"1h 	c #F0F4EA",
"2h 	c #F4F8EC",
"3h 	c #F8F7ED",
"4h 	c #F6F7ED",
"5h 	c #F5F7ED",
"6h 	c #F5F7EC",
"7h 	c #F5F6ED",
"8h 	c #F4F7EB",
"9h 	c #F2F6E9",
"0h 	c #F1F5E4",
"ah 	c #EFF2DF",
"bh 	c #C2C0B8",
"ch 	c #3E4259",
"dh 	c #373B51",
"eh 	c #120A21",
"fh 	c #130B22",
"gh 	c #140C25",
"hh 	c #100925",
"ih 	c #100B2D",
"jh 	c #BBBECB",
"kh 	c #E5E9E9",
"lh 	c #ECF1E7",
"mh 	c #F1F4EA",
"nh 	c #F0F4E9",
"oh 	c #F1F6EA",
"ph 	c #F3F7EB",
"qh 	c #F5F7EB",
"rh 	c #F7F9EC",
"sh 	c #F7FAED",
"th 	c #F8FAEB",
"uh 	c #DADBD3",
"vh 	c #34304D",
"wh 	c #646E81",
"xh 	c #52596B",
"yh 	c #140B2B",
"zh 	c #130B25",
"Ah 	c #150C26",
"Bh 	c #140B23",
"Ch 	c #130E26",
"Dh 	c #87898E",
"Eh 	c #DBDEE2",
"Fh 	c #E5E8E5",
"Gh 	c #EBEFE8",
"Hh 	c #F0F4EC",
"Ih 	c #F4F7ED",
"Jh 	c #F3F8EB",
"Kh 	c #F2F7EA",
"Lh 	c #EFF1E8",
"Mh 	c #2A2838",
"Nh 	c #202035",
"Oh 	c #DEDFEB",
"Ph 	c #EDEEF2",
"Qh 	c #F2F5F0",
"Rh 	c #F6F9F0",
"Sh 	c #F8FAF1",
"Th 	c #F6F9F2",
"Uh 	c #E0E5DC",
"Vh 	c #868D99",
"Wh 	c #727486",
"Xh 	c #241C39",
"Yh 	c #211A37",
"Zh 	c #1C152F",
"`h 	c #1B132A",
" i 	c #191329",
".i 	c #1A142A",
"+i 	c #1A1229",
"@i 	c #180F27",
"#i 	c #160E23",
"$i 	c #150D21",
"%i 	c #150D23",
"&i 	c #A5A5A7",
"*i 	c #B8BBB6",
"=i 	c #8F9296",
"-i 	c #42445C",
";i 	c #ABAEAC",
">i 	c #B8BBB7",
",i 	c #BEC1BC",
"'i 	c #C2C5BF",
")i 	c #E1E5D9",
"!i 	c #ECF0E4",
"~i 	c #F1F4E8",
"{i 	c #F4F5EA",
"]i 	c #F4F5EB",
"^i 	c #F2F3E9",
"/i 	c #EAEEE1",
"(i 	c #DCE0D5",
"_i 	c #DEE1D7",
":i 	c #E3E7DC",
"<i 	c #E9EAE1",
"[i 	c #EEECE3",
"}i 	c #EBECE0",
"|i 	c #E8EBDD",
"1i 	c #E6E9DA",
"2i 	c #88888A",
"3i 	c #170D2B",
"4i 	c #706F73",
"5i 	c #68666E",
"6i 	c #26223C",
"7i 	c #78767E",
"8i 	c #565B66",
"9i 	c #2E2F49",
"0i 	c #2F3049",
"ai 	c #2A2E45",
"bi 	c #DDE0E1",
"ci 	c #F0F1E8",
"di 	c #F2F5E5",
"ei 	c #F6F8E7",
"fi 	c #F8F8E7",
"gi 	c #F8F9E9",
"hi 	c #F5F7E3",
"ii 	c #F3F3DF",
"ji 	c #C5C7B9",
"ki 	c #505164",
"li 	c #4E4E60",
"mi 	c #110A22",
"ni 	c #0F091C",
"oi 	c #0F061B",
"pi 	c #100B1F",
"qi 	c #140C24",
"ri 	c #140D22",
"si 	c #383742",
"ti 	c #484750",
"ui 	c #4D4B55",
"vi 	c #595862",
"wi 	c #CDCFD6",
"xi 	c #EFF0EB",
"yi 	c #F3F5E6",
"zi 	c #F5F7E6",
"Ai 	c #F7F8EA",
"Bi 	c #F6F8E9",
"Ci 	c #F6F8E8",
"Di 	c #F7F9E9",
"Ei 	c #F7FAEA",
"Fi 	c #F8FBE7",
"Gi 	c #D9D8CC",
"Hi 	c #4D4960",
"Ii 	c #505065",
"Ji 	c #667082",
"Ki 	c #545A6D",
"Li 	c #1B112E",
"Mi 	c #140D25",
"Ni 	c #150C24",
"Oi 	c #170C27",
"Pi 	c #170E27",
"Qi 	c #292834",
"Ri 	c #4A4B53",
"Si 	c #4D4A53",
"Ti 	c #5B5960",
"Ui 	c #A2A5A4",
"Vi 	c #F0F3EB",
"Wi 	c #F5F6EE",
"Xi 	c #F8FBEB",
"Yi 	c #F7FAE9",
"Zi 	c #F5F5E9",
"`i 	c #333543",
" j 	c #E2E4EA",
".j 	c #EFF2F0",
"+j 	c #F8F9EE",
"@j 	c #F9FAEE",
"#j 	c #F8FAEE",
"$j 	c #EBEEE4",
"%j 	c #9798A1",
"&j 	c #58576A",
"*j 	c #383546",
"=j 	c #181328",
"-j 	c #1B162C",
";j 	c #251F35",
">j 	c #171127",
",j 	c #130D23",
"'j 	c #130C20",
")j 	c #A6A8A7",
"!j 	c #BDBFB8",
"~j 	c #97989A",
"{j 	c #717280",
"]j 	c #C7C9BF",
"^j 	c #CBCCC2",
"/j 	c #D0D2C6",
"(j 	c #F3F4E3",
"_j 	c #F8F8E9",
":j 	c #F7F9E8",
"<j 	c #F5F8E5",
"[j 	c #EDEFDE",
"}j 	c #F6F6E4",
"|j 	c #F7F6E4",
"1j 	c #F7F6E5",
"2j 	c #F7F6E3",
"3j 	c #EFF2DD",
"4j 	c #ECEFD9",
"5j 	c #908F91",
"6j 	c #201538",
"7j 	c #1E1430",
"8j 	c #1B112A",
"9j 	c #CBCBC2",
"0j 	c #C3C4BD",
"aj 	c #91979B",
"bj 	c #DADCD6",
"cj 	c #F6F8F1",
"dj 	c #2E2F45",
"ej 	c #C1C6BC",
"fj 	c #D7DCCF",
"gj 	c #C6C8BC",
"hj 	c #C6C7B9",
"ij 	c #C6C8B7",
"jj 	c #C3C5B4",
"kj 	c #CDCEBE",
"lj 	c #D5D5C5",
"mj 	c #D9D9C9",
"nj 	c #DEDDCE",
"oj 	c #DDDDCE",
"pj 	c #DCDDCE",
"qj 	c #C3C4B5",
"rj 	c #BABAAE",
"sj 	c #B5B4A8",
"tj 	c #BCBDB8",
"uj 	c #BCBFBD",
"vj 	c #ABACAF",
"wj 	c #0C0619",
"xj 	c #23233D",
"yj 	c #292B48",
"zj 	c #150F1F",
"Aj 	c #DDE2D7",
"Bj 	c #F1F4E4",
"Cj 	c #EFF0E2",
"Dj 	c #ECEADF",
"Ej 	c #CCCDC2",
"Fj 	c #B2B3AA",
"Gj 	c #B2B3A9",
"Hj 	c #C2C3B7",
"Ij 	c #CECFC4",
"Jj 	c #C4C5BB",
"Kj 	c #BEC0B5",
"Lj 	c #BCBDB3",
"Mj 	c #B5B5B0",
"Nj 	c #D8D5CC",
"Oj 	c #8C919A",
"Pj 	c #949BA1",
"Qj 	c #9DA1A3",
"Rj 	c #8F9295",
"Sj 	c #6E6E72",
"Tj 	c #716F73",
"Uj 	c #4B4853",
"Vj 	c #191029",
"Wj 	c #858985",
"Xj 	c #E3EADE",
"Yj 	c #DEE2D4",
"Zj 	c #CDCFC7",
"`j 	c #CCCDC4",
" k 	c #C1C3B6",
".k 	c #BEC1B4",
"+k 	c #BFC2B3",
"@k 	c #C0C3B5",
"#k 	c #BDBFB1",
"$k 	c #BBBDAE",
"%k 	c #D0D0C3",
"&k 	c #C3C3BB",
"*k 	c #9FA29E",
"=k 	c #919290",
"-k 	c #F4F6EB",
";k 	c #F2F4E8",
">k 	c #EAEBDF",
",k 	c #ECEDE1",
"'k 	c #ECEFE0",
")k 	c #EEF1E4",
"!k 	c #EEF2E3",
"~k 	c #EEF1E3",
"{k 	c #B4B5B2",
"]k 	c #3D3E4D",
"^k 	c #3F3E4C",
"/k 	c #3C3749",
"(k 	c #181228",
"_k 	c #140D23",
":k 	c #130C1F",
"<k 	c #130A1F",
"[k 	c #6B6C75",
"}k 	c #92989C",
"|k 	c #D5D8D3",
"1k 	c #E2E4DC",
"2k 	c #E0E0D8",
"3k 	c #DEDDD3",
"4k 	c #A8A59C",
"5k 	c #A09D95",
"6k 	c #9E9F97",
"7k 	c #A8A8A1",
"8k 	c #B2B3A8",
"9k 	c #BCBCB0",
"0k 	c #B5B4AA",
"ak 	c #B4B5AA",
"bk 	c #B6B7AC",
"ck 	c #B5B7AD",
"dk 	c #B6B7AF",
"ek 	c #B8B9B2",
"fk 	c #CED2C8",
"gk 	c #CFD2CA",
"hk 	c #A0A39E",
"ik 	c #A6ABA3",
"jk 	c #CDCFC8",
"kk 	c #CFD0C7",
"lk 	c #B4B5B3",
"mk 	c #989C9F",
"nk 	c #889093",
"ok 	c #8C9497",
"pk 	c #CBCAC4",
"qk 	c #C6C5BE",
"rk 	c #9A9E9E",
"sk 	c #DADDD8",
"tk 	c #F5F6F1",
"uk 	c #9D9FA1",
"vk 	c #34354C",
"wk 	c #C7C9C1",
"xk 	c #C5C5B4",
"yk 	c #BCBAAD",
"zk 	c #B8B8AC",
"Ak 	c #B2B1A6",
"Bk 	c #BCBCB1",
"Ck 	c #CFCEC1",
"Dk 	c #D3D2C6",
"Ek 	c #D2D1C5",
"Fk 	c #D0D0C2",
"Gk 	c #C2C1B8",
"Hk 	c #B3B1AA",
"Ik 	c #A7A6A2",
"Jk 	c #A1A19B",
"Kk 	c #BEBEBE",
"Lk 	c #C1C3C2",
"Mk 	c #A9ABAC",
"Nk 	c #333246",
"Ok 	c #3B3951",
"Pk 	c #0D041B",
"Qk 	c #201E39",
"Rk 	c #272845",
"Sk 	c #1C1831",
"Tk 	c #171122",
"Uk 	c #D8D7CF",
"Vk 	c #F2F1E3",
"Wk 	c #F2F2E3",
"Xk 	c #F0F1DF",
"Yk 	c #E8E9D7",
"Zk 	c #C0C0B5",
"`k 	c #C0BFB9",
" l 	c #C2C3BD",
".l 	c #BCBCB6",
"+l 	c #B1AFAA",
"@l 	c #AEADA6",
"#l 	c #A4A4A4",
"$l 	c #BCBCB7",
"%l 	c #DDDBCE",
"&l 	c #D4D2C6",
"*l 	c #90959E",
"=l 	c #989DA3",
"-l 	c #A1A6A5",
";l 	c #949797",
">l 	c #6B6A6E",
",l 	c #6D6C6F",
"'l 	c #49444E",
")l 	c #170E28",
"!l 	c #767876",
"~l 	c #E6E9DF",
"{l 	c #DFE2D4",
"]l 	c #CBCCC6",
"^l 	c #C7C9C0",
"/l 	c #B5B7AC",
"(l 	c #ACADA3",
"_l 	c #A7A89F",
":l 	c #AEAFA8",
"<l 	c #C6C5BA",
"[l 	c #C9C8BC",
"}l 	c #C1C2B6",
"|l 	c #B1B2AC",
"1l 	c #9E9D9A",
"2l 	c #D6D8CE",
"3l 	c #F2F1E6",
"4l 	c #EBEADF",
"5l 	c #EBEBDF",
"6l 	c #EAEDDE",
"7l 	c #EDEEDF",
"8l 	c #EEEEE1",
"9l 	c #EEF0E2",
"0l 	c #EFF0E1",
"al 	c #BCBBB5",
"bl 	c #4A4C60",
"cl 	c #413F4F",
"dl 	c #393546",
"el 	c #161027",
"fl 	c #1F1825",
"gl 	c #3B3540",
"hl 	c #6F7076",
"il 	c #9F9F9F",
"jl 	c #DCDDD7",
"kl 	c #E8E9E0",
"ll 	c #E3E5DA",
"ml 	c #DEE0D4",
"nl 	c #ADABA0",
"ol 	c #A3A29B",
"pl 	c #AFADA5",
"ql 	c #ABA9A3",
"rl 	c #AAA9A2",
"sl 	c #ABACA5",
"tl 	c #ACADA7",
"ul 	c #B0B0AC",
"vl 	c #C8CBC7",
"wl 	c #C8CBC8",
"xl 	c #868A8B",
"yl 	c #C9C9C4",
"zl 	c #C8CBC4",
"Al 	c #ADAFAF",
"Bl 	c #A4A6A7",
"Cl 	c #A2A7A5",
"Dl 	c #9DA3A2",
"El 	c #818487",
"Fl 	c #CACAC1",
"Gl 	c #F4F2E7",
"Hl 	c #CFCFC9",
"Il 	c #8B9092",
"Jl 	c #5E6068",
"Kl 	c #37384D",
"Ll 	c #D3D5CB",
"Ml 	c #EEEEDE",
"Nl 	c #C7C6B7",
"Ol 	c #B6B6AC",
"Pl 	c #E8E8DC",
"Ql 	c #CCCDC1",
"Rl 	c #ACACA2",
"Sl 	c #ABABA0",
"Tl 	c #BEBFB3",
"Ul 	c #D8D6C9",
"Vl 	c #BCBBB3",
"Wl 	c #A4A4A1",
"Xl 	c #9A9A9B",
"Yl 	c #6E6F73",
"Zl 	c #383649",
"`l 	c #38354B",
" m 	c #170F29",
".m 	c #231F3C",
"+m 	c #252342",
"@m 	c #677081",
"#m 	c #717A89",
"$m 	c #A2A297",
"%m 	c #99998E",
"&m 	c #A6A59E",
"*m 	c #B2B1A9",
"=m 	c #B0AFA8",
"-m 	c #AAAAA3",
";m 	c #ABAAA3",
">m 	c #CCCCC3",
",m 	c #E0E0D5",
"'m 	c #E4E3D6",
")m 	c #6C7284",
"!m 	c #777D8C",
"~m 	c #8E9292",
"{m 	c #828686",
"]m 	c #514F5B",
"^m 	c #231D32",
"/m 	c #58565D",
"(m 	c #A5A5A1",
"_m 	c #AAACA2",
":m 	c #C5C6BE",
"<m 	c #B8B9AF",
"[m 	c #B5B5AC",
"}m 	c #B7B7AE",
"|m 	c #B6B7AE",
"1m 	c #B1B3AA",
"2m 	c #E2E2D5",
"3m 	c #EAE9D8",
"4m 	c #E8E8D8",
"5m 	c #D5D6CC",
"6m 	c #CCCCC4",
"7m 	c #C1C1B8",
"8m 	c #BDBDB3",
"9m 	c #BDBEB3",
"0m 	c #ADACA2",
"am 	c #A9A99F",
"bm 	c #ABACA0",
"cm 	c #959391",
"dm 	c #595E77",
"em 	c #120C21",
"fm 	c #16112A",
"gm 	c #1B1929",
"hm 	c #ADB0A8",
"im 	c #CFCEC4",
"jm 	c #BDBDB6",
"km 	c #A3A39E",
"lm 	c #C1C0B6",
"mm 	c #BAB7AB",
"nm 	c #B9B7AA",
"om 	c #B8B6AB",
"pm 	c #B7B5AB",
"qm 	c #B4B2A8",
"rm 	c #9F9C94",
"sm 	c #B2AFA4",
"tm 	c #C9C5B5",
"um 	c #C3C0B4",
"vm 	c #BAB9B0",
"wm 	c #A1A3A1",
"xm 	c #858789",
"ym 	c #F0F1E9",
"zm 	c #EFF1E5",
"Am 	c #DCDBD0",
"Bm 	c #B2B5B1",
"Cm 	c #BFC0B6",
"Dm 	c #E6E7D1",
"Em 	c #E9E9D2",
"Fm 	c #C1C2BC",
"Gm 	c #CDCCC5",
"Hm 	c #F7F4E7",
"Im 	c #C9C9C2",
"Jm 	c #4C4F5F",
"Km 	c #383A4C",
"Lm 	c #CFD2C7",
"Mm 	c #EDEDDD",
"Nm 	c #C6C6B9",
"Om 	c #B9B9AF",
"Pm 	c #EDEEE3",
"Qm 	c #CCCEC1",
"Rm 	c #A1A098",
"Sm 	c #C0C2B5",
"Tm 	c #DEDBCC",
"Um 	c #CDCCC3",
"Vm 	c #A6A5A3",
"Wm 	c #959596",
"Xm 	c #6E7074",
"Ym 	c #383548",
"Zm 	c #373348",
"`m 	c #110D23",
" n 	c #2E2C44",
".n 	c #32314A",
"+n 	c #858F99",
"@n 	c #8B959D",
"#n 	c #A0A39B",
"$n 	c #A1A197",
"%n 	c #9A9A91",
"&n 	c #ABAAA1",
"*n 	c #AEADA4",
"=n 	c #A9A8A2",
"-n 	c #A8A9A2",
";n 	c #AAAAA2",
">n 	c #E0E1D4",
",n 	c #EAEBDC",
"'n 	c #E7E7D9",
")n 	c #5E647B",
"!n 	c #646A7D",
"~n 	c #8E9393",
"{n 	c #848888",
"]n 	c #514F5D",
"^n 	c #1E152D",
"/n 	c #1A0F29",
"(n 	c #170F26",
"_n 	c #4F4C56",
":n 	c #C2C4BA",
"<n 	c #BFBEB5",
"[n 	c #BEBDB4",
"}n 	c #BCBCB3",
"|n 	c #B3B7AC",
"1n 	c #E3E3D5",
"2n 	c #EEECDD",
"3n 	c #DADCCE",
"4n 	c #CDCDC6",
"5n 	c #B9B9B0",
"6n 	c #A4A39D",
"7n 	c #A1A09A",
"8n 	c #96948D",
"9n 	c #676D7D",
"0n 	c #43445B",
"an 	c #1D182E",
"bn 	c #1B172B",
"cn 	c #AAADA2",
"dn 	c #9F9E95",
"en 	c #95948B",
"fn 	c #98958D",
"gn 	c #B2AFA7",
"hn 	c #B7B4AC",
"in 	c #BDBAAE",
"jn 	c #BAB7AC",
"kn 	c #B7B4AA",
"ln 	c #BBB8AB",
"mn 	c #D1CDBB",
"nn 	c #C7C4B6",
"on 	c #A2A6A4",
"pn 	c #9C9E9E",
"qn 	c #797F7E",
"rn 	c #F2F4EC",
"sn 	c #F6F5EA",
"tn 	c #DFDED2",
"un 	c #A2A4A4",
"vn 	c #C5C5BA",
"wn 	c #E7E6D0",
"xn 	c #E8E6D0",
"yn 	c #C0C1B9",
"zn 	c #BABBB7",
"An 	c #D9D8CF",
"Bn 	c #4E505C",
"Cn 	c #ADB0A6",
"Dn 	c #B2B4A9",
"En 	c #ABADA3",
"Fn 	c #AAABA3",
"Gn 	c #A4A5A0",
"Hn 	c #A5A5A0",
"In 	c #BBBCB3",
"Jn 	c #BEC0B8",
"Kn 	c #CCCEC4",
"Ln 	c #BDBEB4",
"Mn 	c #ACADA8",
"Nn 	c #B6B6AE",
"On 	c #B2B3AD",
"Pn 	c #A0A19D",
"Qn 	c #949695",
"Rn 	c #40404D",
"Sn 	c #343148",
"Tn 	c #100C25",
"Un 	c #120B22",
"Vn 	c #686B74",
"Wn 	c #878D91",
"Xn 	c #D9DDD9",
"Yn 	c #DFE2DE",
"Zn 	c #808281",
"`n 	c #6E706E",
" o 	c #A3A299",
".o 	c #B1ADA4",
"+o 	c #AEACA3",
"@o 	c #A6A69F",
"#o 	c #A4A6A0",
"$o 	c #919693",
"%o 	c #969D97",
"&o 	c #A0A6A1",
"*o 	c #A1A4A2",
"=o 	c #3D3D58",
"-o 	c #3A3A56",
";o 	c #494B59",
">o 	c #5C5F68",
",o 	c #4B4D5A",
"'o 	c #333042",
")o 	c #171029",
"!o 	c #484651",
"~o 	c #9C9B95",
"{o 	c #B3B2AB",
"]o 	c #B5B4AB",
"^o 	c #CBCBBE",
"/o 	c #D4D4C4",
"(o 	c #E3DECE",
"_o 	c #DAD7C9",
":o 	c #B7B9AF",
"<o 	c #C9CABF",
"[o 	c #C0C2B7",
"}o 	c #BBBCB2",
"|o 	c #AEAFA7",
"1o 	c #A5A79F",
"2o 	c #ACAEA6",
"3o 	c #B4B5AE",
"4o 	c #B0B1AA",
"5o 	c #A7A8A0",
"6o 	c #A3A39C",
"7o 	c #A2A19B",
"8o 	c #9D9E95",
"9o 	c #99988F",
"0o 	c #666771",
"ao 	c #8A9292",
"bo 	c #9AA39D",
"co 	c #CDD2BD",
"do 	c #DBD9C7",
"eo 	c #BAB3A9",
"fo 	c #9A968E",
"go 	c #97948D",
"ho 	c #9C9A93",
"io 	c #AEAEA3",
"jo 	c #ACAAA0",
"ko 	c #ADABA1",
"lo 	c #B7B4A9",
"mo 	c #B7B5AA",
"no 	c #ACA9A0",
"oo 	c #B8B4AA",
"po 	c #C2BDB3",
"qo 	c #C7C5BA",
"ro 	c #D4D3CA",
"so 	c #D1D0CB",
"to 	c #797D7E",
"uo 	c #878E8D",
"vo 	c #888F8E",
"wo 	c #949A95",
"xo 	c #A1A5A0",
"yo 	c #909295",
"zo 	c #A9AAA7",
"Ao 	c #B1B1AC",
"Bo 	c #F7F6EC",
"Co 	c #F4F3E7",
"Do 	c #EFEEDE",
"Eo 	c #525361",
"Fo 	c #999B9A",
"Go 	c #A5A8A1",
"Ho 	c #A3A49E",
"Io 	c #9D9F9A",
"Jo 	c #9EA09B",
"Ko 	c #676974",
"Lo 	c #81878A",
"Mo 	c #B0B7B4",
"No 	c #B9C0BC",
"Oo 	c #67696D",
"Po 	c #55565B",
"Qo 	c #A8A6A1",
"Ro 	c #B8B5AC",
"So 	c #B0AFA5",
"To 	c #ADADA3",
"Uo 	c #AAA9A0",
"Vo 	c #A7A79E",
"Wo 	c #A4A49D",
"Xo 	c #A2A19C",
"Yo 	c #A6A79F",
"Zo 	c #A8A8A2",
"`o 	c #AAABA5",
" p 	c #A7A9A4",
".p 	c #797E84",
"+p 	c #747B83",
"@p 	c #6A6F78",
"#p 	c #626673",
"$p 	c #2D2D4C",
"%p 	c #2C2B4C",
"&p 	c #434458",
"*p 	c #5A5E65",
"=p 	c #53555E",
"-p 	c #19112C",
";p 	c #47454F",
">p 	c #DEDBCB",
",p 	c #D3D0C2",
"'p 	c #A9ABA1",
")p 	c #AAABA2",
"!p 	c #ABAEA4",
"~p 	c #ABACA6",
"{p 	c #A4A69E",
"]p 	c #A2A29D",
"^p 	c #9A9B93",
"/p 	c #999990",
"(p 	c #6E6E76",
"_p 	c #A7ADA9",
":p 	c #AFB1A5",
"<p 	c #B8B5AA",
"[p 	c #AAA39A",
"}p 	c #9A958E",
"|p 	c #A19E97",
"1p 	c #A2A09A",
"2p 	c #A3A49C",
"3p 	c #A9AAA2",
"4p 	c #B1B1AA",
"5p 	c #BABDB3",
"6p 	c #CDCFC6",
"7p 	c #CDCDC7",
"8p 	c #797C7A",
"9p 	c #808383",
"0p 	c #949A9A",
"ap 	c #909697",
"bp 	c #767A82",
"cp 	c #666B74",
"dp 	c #969A99",
"ep 	c #A0A2A0",
"fp 	c #9B9C9B",
"gp 	c #ECF0E5",
"hp 	c #EBEDE0",
"ip 	c #E4E5D8",
"jp 	c #ACAFA7",
"kp 	c #63646B",
"lp 	c #A8ABA5",
"mp 	c #A5A7A1",
"np 	c #A2A39C",
"op 	c #BDBDB5",
"pp 	c #9C9D9A",
"qp 	c #989A9A",
"rp 	c #43434F",
"sp 	c #313241",
"tp 	c #130924",
"up 	c #6B6B77",
"vp 	c #82858E",
"wp 	c #9EA3A5",
"xp 	c #AAAFAC",
"yp 	c #7B7C7E",
"zp 	c #AAA8A4",
"Ap 	c #B3B3A8",
"Bp 	c #A8A69E",
"Cp 	c #848686",
"Dp 	c #A8A9A3",
"Ep 	c #A7A9A1",
"Fp 	c #8F979B",
"Gp 	c #353A4C",
"Hp 	c #63666F",
"Ip 	c #8F9298",
"Jp 	c #5C5F66",
"Kp 	c #555861",
"Lp 	c #494A57",
"Mp 	c #211836",
"Np 	c #47464F",
"Op 	c #90908E",
"Pp 	c #848483",
"Qp 	c #898A89",
"Rp 	c #A9A8A1",
"Sp 	c #AFAEA4",
"Tp 	c #A8A9A0",
"Up 	c #A7A9A0",
"Vp 	c #9EA199",
"Wp 	c #A1A29C",
"Xp 	c #969694",
"Yp 	c #717173",
"Zp 	c #6C6C6D",
"`p 	c #737477",
" q 	c #504F5B",
".q 	c #110A1F",
"+q 	c #8D9398",
"@q 	c #747480",
"#q 	c #6F6E78",
"$q 	c #93918C",
"%q 	c #9A9892",
"&q 	c #9E9D96",
"*q 	c #9F9F98",
"=q 	c #A5A6A0",
"-q 	c #A4A7A2",
";q 	c #A5A7A2",
">q 	c #C0C3BB",
",q 	c #C1C5BC",
"'q 	c #676E77",
")q 	c #909193",
"!q 	c #7E7F7F",
"~q 	c #959A99",
"{q 	c #767980",
"]q 	c #7C7F81",
"^q 	c #A3A5A4",
"/q 	c #A0A09B",
"(q 	c #65656F",
"_q 	c #36344E",
":q 	c #29263F",
"<q 	c #1A162E",
"[q 	c #6A6C77",
"}q 	c #82838A",
"|q 	c #514E5D",
"1q 	c #272438",
"2q 	c #656871",
"3q 	c #6E7277",
"4q 	c #9DA19E",
"5q 	c #A2A4A3",
"6q 	c #A4A6A1",
"7q 	c #A3A5A1",
"8q 	c #838488",
"9q 	c #71747F",
"0q 	c #7A818A",
"aq 	c #7B828B",
"bq 	c #747C84",
"cq 	c #656B76",
"dq 	c #434759",
"eq 	c #B1B5AF",
"fq 	c #959897",
"gq 	c #595A64",
"hq 	c #474758",
"iq 	c #39374F",
"jq 	c #292541",
"kq 	c #2E2C47",
"lq 	c #4A4A56",
"mq 	c #8C8C88",
"nq 	c #828184",
"oq 	c #8D8D8F",
"pq 	c #A4A49E",
"qq 	c #A5A69E",
"rq 	c #A5A69F",
"sq 	c #A5A79E",
"tq 	c #9A9D97",
"uq 	c #9EA19C",
"vq 	c #818287",
"wq 	c #474656",
"xq 	c #414150",
"yq 	c #3C3B4B",
"zq 	c #292838",
"Aq 	c #0E0A1E",
"Bq 	c #565967",
"Cq 	c #686C7A",
"Dq 	c #535264",
"Eq 	c #B8B8B1",
"Fq 	c #575D73",
"Gq 	c #555B6C",
"Hq 	c #ACAAA6",
"Iq 	c #A7A8A3",
"Jq 	c #A7A8A4",
"Kq 	c #9D9D9D",
"Lq 	c #72767A",
"Mq 	c #9D9F9F",
"Nq 	c #AAADA7",
"Oq 	c #949693",
"Pq 	c #8D8F8F",
"Qq 	c #6A6A75",
"Rq 	c #434258",
"Sq 	c #312F44",
"Tq 	c #241E35",
"Uq 	c #19142E",
"Vq 	c #696C79",
"Wq 	c #909398",
"Xq 	c #54515E",
"Yq 	c #160B26",
"Zq 	c #565863",
"`q 	c #A0A2A2",
" r 	c #A3A4A2",
".r 	c #A0A09D",
"+r 	c #A0A19E",
"@r 	c #A1A29F",
"#r 	c #696B74",
"$r 	c #414663",
"%r 	c #5E667D",
"&r 	c #5B6378",
"*r 	c #50586A",
"=r 	c #70767D",
"-r 	c #888C8C",
";r 	c #959799",
">r 	c #62636D",
",r 	c #535361",
"'r 	c #3B3851",
")r 	c #282340",
"!r 	c #393953",
"~r 	c #4F515F",
"{r 	c #9C9C9C",
"]r 	c #8E9190",
"^r 	c #707377",
"/r 	c #383948",
"(r 	c #3E3E4D",
"_r 	c #292938",
":r 	c #0D091D",
"<r 	c #5E6371",
"[r 	c #5C5F6E",
"}r 	c #8D8D8E",
"|r 	c #939490",
"1r 	c #939791",
"2r 	c #979793",
"3r 	c #999D98",
"4r 	c #9FA39C",
"5r 	c #797E82",
"6r 	c #5E6474",
"7r 	c #5A5F6C",
"8r 	c #ADACA8",
"9r 	c #A9AAA6",
"0r 	c #A4A6A2",
"ar 	c #A0A09E",
"br 	c #6C707B",
"cr 	c #616672",
"dr 	c #535664",
"er 	c #434555",
"fr 	c #838787",
"gr 	c #A1A59F",
"hr 	c #8F9491",
"ir 	c #808687",
"jr 	c #979997",
"kr 	c #979A95",
"lr 	c #85868A",
"mr 	c #999B9C",
"nr 	c #393948",
"or 	c #505364",
"pr 	c #6B6E7A",
"qr 	c #777B81",
"rr 	c #83858B",
"sr 	c #6C6D74",
"tr 	c #888A8C",
"ur 	c #9DA09D",
"vr 	c #9C9F9B",
"wr 	c #6E737A",
"xr 	c #4C586F",
"yr 	c #2C2D44",
"zr 	c #737883",
"Ar 	c #91969A",
"Br 	c #949899",
"Cr 	c #929696",
"Dr 	c #7C8088",
"Er 	c #75787E",
"Fr 	c #6B6F75",
"Gr 	c #5E646C",
"Hr 	c #3D3D52",
"Ir 	c #272241",
"Jr 	c #41455D",
"Kr 	c #8E918C",
"Lr 	c #949592",
"Mr 	c #848683",
"Nr 	c #939790",
"Or 	c #959993",
"Pr 	c #8E9391",
"Qr 	c #818387",
"Rr 	c #606168",
"Sr 	c #696C72",
"Tr 	c #72767C",
"Ur 	c #656870",
"Vr 	c #575961",
"Wr 	c #363544",
"Xr 	c #484B5A",
"Yr 	c #575B6A",
"Zr 	c #4B4D60",
"`r 	c #515561",
" s 	c #7F7E81",
".s 	c #676D74",
"+s 	c #6D7279",
"@s 	c #7C7D7E",
"#s 	c #6E7176",
"$s 	c #6C7075",
"%s 	c #6E7279",
"&s 	c #686D71",
"*s 	c #636874",
"=s 	c #3B3D4E",
"-s 	c #9EA29C",
";s 	c #73777C",
">s 	c #444B66",
",s 	c #7D8088",
"'s 	c #969A96",
")s 	c #949894",
"!s 	c #9CA09C",
"~s 	c #A1A6A0",
"{s 	c #9CA09B",
"]s 	c #393847",
"^s 	c #464759",
"/s 	c #8E9296",
"(s 	c #9A9D9F",
"_s 	c #757A80",
":s 	c #696D74",
"<s 	c #656770",
"[s 	c #62646D",
"}s 	c #848689",
"|s 	c #9C9F98",
"1s 	c #9FA19C",
"2s 	c #60666F",
"3s 	c #434B5E",
"4s 	c #24233A",
"5s 	c #1D1B30",
"6s 	c #7F878F",
"7s 	c #84898E",
"8s 	c #95999A",
"9s 	c #8F9396",
"0s 	c #767B81",
"as 	c #61676B",
"bs 	c #3E3D51",
"cs 	c #24203D",
"ds 	c #464A61",
"es 	c #535563",
"fs 	c #919293",
"gs 	c #9DA19F",
"hs 	c #8F9395",
"is 	c #747778",
"js 	c #9A9E97",
"ks 	c #828488",
"ls 	c #5E6067",
"ms 	c #696E71",
"ns 	c #5C6067",
"os 	c #474858",
"ps 	c #565968",
"qs 	c #565868",
"rs 	c #565866",
"ss 	c #616369",
"ts 	c #64656B",
"us 	c #5C5D66",
"vs 	c #616370",
"ws 	c #60626D",
"xs 	c #9A9D9C",
"ys 	c #9B9F9A",
"zs 	c #9A9F99",
"As 	c #999D9A",
"Bs 	c #919692",
"Cs 	c #9EA2A0",
"Ds 	c #C3C6BC",
"Es 	c #C5C8BD",
"Fs 	c #8E908C",
"Gs 	c #75777A",
"Hs 	c #6C6F74",
"Is 	c #656972",
"Js 	c #636772",
"Ks 	c #5D616E",
"Ls 	c #666978",
"Ms 	c #54575E",
"Ns 	c #66696D",
"Os 	c #929492",
"Ps 	c #A1A29E",
"Qs 	c #8C9295",
"Rs 	c #7F8690",
"Ss 	c #8F9493",
"Ts 	c #97999A",
"Us 	c #8C8F93",
"Vs 	c #777C84",
"Ws 	c #7F8389",
"Xs 	c #85888D",
"Ys 	c #62636C",
"Zs 	c #7A7B80",
"`s 	c #818389",
" t 	c #767880",
".t 	c #6C6F77",
"+t 	c #5F626D",
"@t 	c #27243C",
"#t 	c #515363",
"$t 	c #999D9E",
"%t 	c #85898D",
"&t 	c #919397",
"*t 	c #8D8F94",
"=t 	c #898C91",
"-t 	c #777A80",
";t 	c #6F7581",
">t 	c #515872",
",t 	c #33344E",
"'t 	c #140F29",
")t 	c #131029",
"!t 	c #505767",
"~t 	c #393C4C",
"{t 	c #757983",
"]t 	c #6B707A",
"^t 	c #525560",
"/t 	c #4C4C58",
"(t 	c #272138",
"_t 	c #1A122F",
":t 	c #484C5F",
"<t 	c #474B5B",
"[t 	c #5B5F6A",
"}t 	c #8E9398",
"|t 	c #939599",
"1t 	c #575D65",
"2t 	c #4E5461",
"3t 	c #6F7474",
"4t 	c #7E837F",
"5t 	c #999F98",
"6t 	c #9D9F9C",
"7t 	c #929795",
"8t 	c #939896",
"9t 	c #8C9194",
"0t 	c #7F858B",
"at 	c #3A3E4E",
"bt 	c #5F646F",
"ct 	c #6F767D",
"dt 	c #464654",
"et 	c #4F5261",
"ft 	c #60616A",
"gt 	c #6C6D71",
"ht 	c #7B7D81",
"it 	c #7B7C84",
"jt 	c #60616E",
"kt 	c #545666",
"lt 	c #969B99",
"mt 	c #999F9A",
"nt 	c #999E9B",
"ot 	c #8F9495",
"pt 	c #84868C",
"qt 	c #5E5F68",
"rt 	c #9DA1A4",
"st 	c #9B9FA1",
"tt 	c #979D9D",
"ut 	c #909696",
"vt 	c #6D7277",
"wt 	c #646B76",
"xt 	c #585D6C",
"yt 	c #404354",
"zt 	c #46495C",
"At 	c #5B5F6D",
"Bt 	c #666979",
"Ct 	c #434454",
"Dt 	c #8D9091",
"Et 	c #9CA29E",
"Ft 	c #939799",
"Gt 	c #909496",
"Ht 	c #898D8E",
"It 	c #929697",
"Jt 	c #949998",
"Kt 	c #84858B",
"Lt 	c #5F6072",
"Mt 	c #707280",
"Nt 	c #7A7D85",
"Ot 	c #565766",
"Pt 	c #7A7D84",
"Qt 	c #5A5C6B",
"Rt 	c #47485D",
"St 	c #3B3653",
"Tt 	c #1F1732",
"Ut 	c #4A4B60",
"Vt 	c #8E9295",
"Wt 	c #9CA09F",
"Xt 	c #8D9094",
"Yt 	c #898C92",
"Zt 	c #7C8085",
"`t 	c #81848A",
" u 	c #80858F",
".u 	c #7C818C",
"+u 	c #696D7A",
"@u 	c #555966",
"#u 	c #979C9D",
"$u 	c #87888B",
"%u 	c #646777",
"&u 	c #4E556F",
"*u 	c #515369",
"=u 	c #464752",
"-u 	c #464454",
";u 	c #35384D",
">u 	c #1F2134",
",u 	c #838B8F",
"'u 	c #868B92",
")u 	c #6E737E",
"!u 	c #696E79",
"~u 	c #231B34",
"{u 	c #150D29",
"]u 	c #46495F",
"^u 	c #484C60",
"/u 	c #4F5062",
"(u 	c #8B8E94",
"_u 	c #8D9196",
":u 	c #A3A8A7",
"<u 	c #A1A6A4",
"[u 	c #43485A",
"}u 	c #727677",
"|u 	c #838783",
"1u 	c #979A99",
"2u 	c #8A8E8D",
"3u 	c #8B908E",
"4u 	c #909595",
"5u 	c #94999C",
"6u 	c #8E979A",
"7u 	c #272644",
"8u 	c #6C737A",
"9u 	c #424251",
"0u 	c #323143",
"au 	c #444456",
"bu 	c #515161",
"cu 	c #585966",
"du 	c #63666E",
"eu 	c #747679",
"fu 	c #A4A5A8",
"gu 	c #B0B2B1",
"hu 	c #73737F",
"iu 	c #59596A",
"ju 	c #60616C",
"ku 	c #575765",
"lu 	c #939998",
"mu 	c #919797",
"nu 	c #83878C",
"ou 	c #84888C",
"pu 	c #72767B",
"qu 	c #9EA2A6",
"ru 	c #9B9FA2",
"su 	c #8A8D93",
"tu 	c #696C77",
"uu 	c #696D77",
"vu 	c #636D7A",
"wu 	c #555A6E",
"xu 	c #221E3F",
"yu 	c #383950",
"zu 	c #585B6C",
"Au 	c #505466",
"Bu 	c #4B4E5F",
"Cu 	c #6B6E74",
"Du 	c #7A7C7F",
"Eu 	c #7C7E81",
"Fu 	c #7C8184",
"Gu 	c #878B8F",
"Hu 	c #696C74",
"Iu 	c #797C83",
"Ju 	c #969898",
"Ku 	c #85888E",
"Lu 	c #83868B",
"Mu 	c #6A6D74",
"Nu 	c #3E3E58",
"Ou 	c #221B35",
"Pu 	c #3F4056",
"Qu 	c #646670",
"Ru 	c #666873",
"Su 	c #7E8288",
"Tu 	c #82868C",
"Uu 	c #7D838B",
"Vu 	c #7B818B",
"Wu 	c #7A808B",
"Xu 	c #7D838D",
"Yu 	c #818791",
"Zu 	c #71747B",
"`u 	c #6F7177",
" v 	c #454357",
".v 	c #26213E",
"+v 	c #201A3B",
"@v 	c #BBBCBC",
"#v 	c #DFE1D6",
"$v 	c #D3D3C7",
"%v 	c #A6A9AA",
"&v 	c #32344C",
"*v 	c #555A64",
"=v 	c #5A5E6B",
"-v 	c #6C717F",
";v 	c #4A4C5C",
">v 	c #464856",
",v 	c #434352",
"'v 	c #262038",
")v 	c #120A25",
"!v 	c #3B3F55",
"~v 	c #393D51",
"{v 	c #5B5D6F",
"]v 	c #5B5E6E",
"^v 	c #787B82",
"/v 	c #909394",
"(v 	c #767A7B",
"_v 	c #7A7D7E",
":v 	c #919695",
"<v 	c #909495",
"[v 	c #878C8F",
"}v 	c #7E828A",
"|v 	c #6B727B",
"1v 	c #787A8A",
"2v 	c #3E4452",
"3v 	c #150D25",
"4v 	c #515260",
"5v 	c #ACAFAB",
"6v 	c #9B9D9E",
"7v 	c #8E8F96",
"8v 	c #23203C",
"9v 	c #292642",
"0v 	c #82858C",
"av 	c #7C8285",
"bv 	c #898D8F",
"cv 	c #8D9292",
"dv 	c #7D8287",
"ev 	c #787C83",
"fv 	c #656974",
"gv 	c #585C6E",
"hv 	c #525569",
"iv 	c #53576C",
"jv 	c #53586E",
"kv 	c #555B6F",
"lv 	c #565C6D",
"mv 	c #424559",
"nv 	c #70767B",
"ov 	c #808489",
"pv 	c #646770",
"qv 	c #60636D",
"rv 	c #676A74",
"sv 	c #8F9193",
"tv 	c #898A8F",
"uv 	c #86898E",
"vv 	c #828689",
"wv 	c #64656E",
"xv 	c #25233A",
"yv 	c #36374D",
"zv 	c #414259",
"Av 	c #211D32",
"Bv 	c #505263",
"Cv 	c #5E5F71",
"Dv 	c #4E4E63",
"Ev 	c #5C5C6A",
"Fv 	c #767C82",
"Gv 	c #7D8389",
"Hv 	c #7E838C",
"Iv 	c #787D87",
"Jv 	c #777C88",
"Kv 	c #7A818C",
"Lv 	c #7C848D",
"Mv 	c #808691",
"Nv 	c #3A3650",
"Ov 	c #3C3852",
"Pv 	c #3C3850",
"Qv 	c #39354B",
"Rv 	c #4C485C",
"Sv 	c #4E4A5D",
"Tv 	c #BFBFBF",
"Uv 	c #DFDED3",
"Vv 	c #DCDDD0",
"Wv 	c #B3B5B0",
"Xv 	c #474C62",
"Yv 	c #212039",
"Zv 	c #3D3F52",
"`v 	c #6D7382",
" w 	c #65697B",
".w 	c #45475A",
"+w 	c #434553",
"@w 	c #252138",
"#w 	c #3C4257",
"$w 	c #363C50",
"%w 	c #565A6B",
"&w 	c #575B6B",
"*w 	c #4E5263",
"=w 	c #525365",
"-w 	c #84888E",
";w 	c #7C7F86",
">w 	c #6A6E71",
",w 	c #717578",
"'w 	c #707479",
")w 	c #797C84",
"!w 	c #797D85",
"~w 	c #7D8289",
"{w 	c #6A6F7B",
"]w 	c #45495E",
"^w 	c #5C636F",
"/w 	c #5A5D6F",
"(w 	c #3F4457",
"_w 	c #2A283C",
":w 	c #160E27",
"<w 	c #3B3A4D",
"[w 	c #464658",
"}w 	c #4F5061",
"|w 	c #636470",
"1w 	c #75767D",
"2w 	c #88898E",
"3w 	c #87888E",
"4w 	c #47475B",
"5w 	c #454659",
"6w 	c #8C9094",
"7w 	c #787E82",
"8w 	c #73787F",
"9w 	c #626671",
"0w 	c #55596B",
"aw 	c #616878",
"bw 	c #575B6D",
"cw 	c #55586B",
"dw 	c #3C3B52",
"ew 	c #414258",
"fw 	c #494F62",
"gw 	c #575B67",
"hw 	c #595D69",
"iw 	c #585D6A",
"jw 	c #5A5C69",
"kw 	c #575665",
"lw 	c #696C76",
"mw 	c #686B75",
"nw 	c #676977",
"ow 	c #686A78",
"pw 	c #6A6C79",
"qw 	c #6B6D7A",
"rw 	c #6A6D7B",
"sw 	c #5C5E6E",
"tw 	c #414355",
"uw 	c #434658",
"vw 	c #251E39",
"ww 	c #1E1C2F",
"xw 	c #3A3B4F",
"yw 	c #424455",
"zw 	c #565869",
"Aw 	c #616472",
"Bw 	c #61656F",
"Cw 	c #5F6270",
"Dw 	c #79808B",
"Ew 	c #797F8B",
"Fw 	c #7A7F8B",
"Gw 	c #676D7C",
"Hw 	c #5D6275",
"Iw 	c #2E2948",
"Jw 	c #201B39",
"Kw 	c #BBBDC1",
"Lw 	c #D9DBD7",
"Mw 	c #B1B5B1",
"Nw 	c #7D8182",
"Ow 	c #7E8281",
"Pw 	c #7D8181",
"Qw 	c #575D69",
"Rw 	c #434657",
"Sw 	c #3F4454",
"Tw 	c #3C3E50",
"Uw 	c #2D2B42",
"Vw 	c #333549",
"Ww 	c #333446",
"Xw 	c #26263B",
"Yw 	c #201F35",
"Zw 	c #3C3E55",
"`w 	c #676E7D",
" x 	c #686D7C",
".x 	c #666B78",
"+x 	c #616573",
"@x 	c #525565",
"#x 	c #585A66",
"$x 	c #5B5C67",
"%x 	c #82878B",
"&x 	c #7F8589",
"*x 	c #868C90",
"=x 	c #7C8185",
"-x 	c #71767B",
";x 	c #7B8286",
">x 	c #7B8185",
",x 	c #515667",
"'x 	c #4E5366",
")x 	c #494F60",
"!x 	c #41465A",
"~x 	c #404658",
"{x 	c #28283B",
"]x 	c #2A253A",
"^x 	c #48495C",
"/x 	c #575A69",
"(x 	c #5E5F6B",
"_x 	c #595967",
":x 	c #636373",
"<x 	c #767782",
"[x 	c #7E818C",
"}x 	c #7E828B",
"|x 	c #6C6F79",
"1x 	c #454557",
"2x 	c #494A58",
"3x 	c #626672",
"4x 	c #676C76",
"5x 	c #646875",
"6x 	c #646A75",
"7x 	c #4A4B5B",
"8x 	c #484859",
"9x 	c #494B5A",
"0x 	c #494B5C",
"ax 	c #39384D",
"bx 	c #232236",
"cx 	c #312944",
"dx 	c #38364C",
"ex 	c #43485D",
"fx 	c #484B5D",
"gx 	c #4A4D5F",
"hx 	c #525666",
"ix 	c #515465",
"jx 	c #505365",
"kx 	c #4F5163",
"lx 	c #5D606D",
"mx 	c #666875",
"nx 	c #646775",
"ox 	c #656878",
"px 	c #646878",
"qx 	c #636576",
"rx 	c #5D6173",
"sx 	c #5C5F71",
"tx 	c #535768",
"ux 	c #4C5262",
"vx 	c #4D5363",
"wx 	c #251F3A",
"xx 	c #1D1B2E",
"yx 	c #38384E",
"zx 	c #616474",
"Ax 	c #535568",
"Bx 	c #5F6574",
"Cx 	c #757C89",
"Dx 	c #777C89",
"Ex 	c #606578",
"Fx 	c #4E5269",
"Gx 	c #37344E",
"Hx 	c #2B2640",
"Ix 	c #0D091F",
"Jx 	c #B3B8B9",
"Kx 	c #D6DAD3",
"Lx 	c #ACB0AE",
"Mx 	c #6F7377",
"Nx 	c #5B606B",
"Ox 	c #494E61",
"Px 	c #474A5B",
"Qx 	c #3D4253",
"Rx 	c #373A4D",
"Sx 	c #211D37",
"Tx 	c #2C2C44",
"Ux 	c #303044",
"Vx 	c #1B162E",
"Wx 	c #19122D",
"Xx 	c #31314D",
"Yx 	c #636A78",
"Zx 	c #626877",
"`x 	c #5E6372",
" y 	c #5A5D6D",
".y 	c #4B4D5E",
"+y 	c #48495B",
"@y 	c #47485B",
"#y 	c #49495A",
"$y 	c #6D737C",
"%y 	c #797F84",
"&y 	c #72787F",
"*y 	c #7A8288",
"=y 	c #727980",
"-y 	c #414B60",
";y 	c #444C62",
">y 	c #464E62",
",y 	c #464A60",
"'y 	c #44495E",
")y 	c #3F4459",
"!y 	c #3D4257",
"~y 	c #28273A",
"{y 	c #43455A",
"]y 	c #575865",
"^y 	c #515163",
"/y 	c #545467",
"(y 	c #636473",
"_y 	c #757783",
":y 	c #7A7E88",
"<y 	c #5D616F",
"[y 	c #5F6371",
"}y 	c #666B76",
"|y 	c #5B5F6F",
"1y 	c #3C3C50",
"2y 	c #3B3A4F",
"3y 	c #3D3D50",
"4y 	c #424355",
"5y 	c #3B3C50",
"6y 	c #333249",
"7y 	c #353147",
"8y 	c #170C26",
"9y 	c #252034",
"0y 	c #35314B",
"ay 	c #37324C",
"by 	c #424156",
"cy 	c #47475A",
"dy 	c #474658",
"ey 	c #454457",
"fy 	c #444457",
"gy 	c #444358",
"hy 	c #464659",
"iy 	c #45465A",
"jy 	c #454759",
"ky 	c #434557",
"ly 	c #414256",
"my 	c #3F4154",
"ny 	c #37394C",
"oy 	c #393A50",
"py 	c #424358",
"qy 	c #3F4054",
"ry 	c #3D4056",
"sy 	c #1F1C33",
"ty 	c #29273E",
"uy 	c #424359",
"vy 	c #46485E",
"wy 	c #42465B",
"xy 	c #46465D",
"yy 	c #464863",
"zy 	c #464A68",
"Ay 	c #444866",
"By 	c #434864",
"Cy 	c #3C3C5F",
"Dy 	c #494A61",
"Ey 	c #878795",
"Fy 	c #7F7C8E",
"Gy 	c #0E091E",
"Hy 	c #4A4D5C",
"Iy 	c #535764",
"Jy 	c #464858",
"Ky 	c #444656",
"Ly 	c #3F4052",
"My 	c #3D3F50",
"Ny 	c #3D3F51",
"Oy 	c #323042",
"Py 	c #1B1530",
"Qy 	c #1C182F",
"Ry 	c #0F0620",
"Sy 	c #110621",
"Ty 	c #130923",
"Uy 	c #262443",
"Vy 	c #2A2A44",
"Wy 	c #404157",
"Xy 	c #3B3B56",
"Yy 	c #373751",
"Zy 	c #38364F",
"`y 	c #424356",
" z 	c #343548",
".z 	c #4B4D5D",
"+z 	c #46475C",
"@z 	c #45465B",
"#z 	c #3B3C52",
"$z 	c #3F4455",
"%z 	c #424459",
"&z 	c #343449",
"*z 	c #323048",
"=z 	c #27233E",
"-z 	c #19152A",
";z 	c #26243A",
">z 	c #2D2C43",
",z 	c #43435A",
"'z 	c #414057",
")z 	c #48495F",
"!z 	c #47485E",
"~z 	c #47495C",
"{z 	c #555764",
"]z 	c #4C4E5F",
"^z 	c #4B4F5E",
"/z 	c #4B4E5D",
"(z 	c #323247",
"_z 	c #2F2C41",
":z 	c #272339",
"<z 	c #2A273C",
"[z 	c #12081F",
"}z 	c #262336",
"|z 	c #2F2D42",
"1z 	c #342F46",
"2z 	c #343047",
"3z 	c #3F3E52",
"4z 	c #434356",
"5z 	c #424255",
"6z 	c #414054",
"7z 	c #403F53",
"8z 	c #3E3E51",
"9z 	c #3C3B4F",
"0z 	c #39394E",
"az 	c #313247",
"bz 	c #2F2F44",
"cz 	c #2B2B40",
"dz 	c #2B2B42",
"ez 	c #2F2F45",
"fz 	c #2D2E43",
"gz 	c #30304A",
"hz 	c #28283F",
"iz 	c #241F36",
"jz 	c #323046",
"kz 	c #44465C",
"lz 	c #47455C",
"mz 	c #45455E",
"nz 	c #424363",
"oz 	c #414362",
"pz 	c #3B3B5B",
"qz 	c #4B4B62",
"rz 	c #7E838E",
"sz 	c #7C7D8D",
"tz 	c #100B22",
"uz 	c #474A60",
"vz 	c #444559",
"wz 	c #3F3F53",
"xz 	c #3D3D51",
"yz 	c #373548",
"zz 	c #120B23",
"Az 	c #140A24",
"Bz 	c #2B2C46",
"Cz 	c #2D2E48",
"Dz 	c #3A3854",
"Ez 	c #373650",
"Fz 	c #38374F",
"Gz 	c #333147",
"Hz 	c #333347",
"Iz 	c #444458",
"Jz 	c #48475F",
"Kz 	c #45455B",
"Lz 	c #444359",
"Mz 	c #444459",
"Nz 	c #434358",
"Oz 	c #403F55",
"Pz 	c #3E3E54",
"Qz 	c #3E3E53",
"Rz 	c #414155",
"Sz 	c #424256",
"Tz 	c #3C3C51",
"Uz 	c #2E2C43",
"Vz 	c #2B273F",
"Wz 	c #231E36",
"Xz 	c #160D26",
"Yz 	c #1A132C",
"Zz 	c #2D2A41",
"`z 	c #312E45",
" A 	c #323047",
".A 	c #3D3C52",
"+A 	c #414157",
"@A 	c #414158",
"#A 	c #404056",
"$A 	c #434357",
"%A 	c #46465A",
"&A 	c #4A4B5C",
"*A 	c #4F4F5F",
"=A 	c #4D4E5F",
"-A 	c #494C5B",
";A 	c #343348",
">A 	c #353349",
",A 	c #3A3A4E",
"'A 	c #272139",
")A 	c #29243B",
"!A 	c #2B273D",
"~A 	c #10071C",
"{A 	c #110B1E",
"]A 	c #161126",
"^A 	c #171226",
"/A 	c #151025",
"(A 	c #140F25",
"_A 	c #120F25",
":A 	c #120F23",
"<A 	c #100B20",
"[A 	c #0D0920",
"}A 	c #0E0A21",
"|A 	c #100C22",
"1A 	c #120B28",
"2A 	c #120B2A",
"3A 	c #120922",
"4A 	c #131023",
"5A 	c #151023",
"6A 	c #151024",
"7A 	c #130F27",
"8A 	c #0C0722",
"9A 	c #0E0721",
"0A 	c #171329",
"aA 	c #110D1F",
"bA 	c #110E21",
"cA 	c #110F23",
"dA 	c #131123",
"eA 	c #140F22",
"fA 	c #12071F",
"gA 	c #11081F",
"hA 	c #0F0A20",
"iA 	c #0D0922",
"jA 	c #100C23",
"kA 	c #110B25",
"lA 	c #151028",
"mA 	c #0E081D",
"nA 	c #0C061C",
"oA 	c #150D26",
"pA 	c #160D27",
"qA 	c #180F29",
"rA 	c #1A102A",
"sA 	c #130E23",
"tA 	c #171327",
"uA 	c #140F24",
"vA 	c #150F28",
"wA 	c #131027",
"xA 	c #161029",
"yA 	c #17112A",
"zA 	c #181329",
"AA 	c #140B22",
"BA 	c #4F4D54",
"CA 	c #4D4B50",
"DA 	c #47464A",
"EA 	c #1E182C",
"FA 	c #0D0321",
"GA 	c #0E0423",
"HA 	c #0D0524",
"IA 	c #1F1D2D",
"JA 	c #322F3B",
"KA 	c #45434D",
"LA 	c #4F4D56",
"MA 	c #4A4852",
"NA 	c #42404C",
"OA 	c #3A3746",
"PA 	c #2F2D3B",
"QA 	c #595861",
"RA 	c #86868B",
"SA 	c #939795",
"TA 	c #9C9F9D",
"UA 	c #AEB1AA",
"VA 	c #67686D",
"WA 	c #53545E",
"XA 	c #171526",
"YA 	c #0B071F",
"ZA 	c #0C0620",
"`A 	c #0C0524",
" B 	c #0C0621",
".B 	c #221E2D",
"+B 	c #2D2936",
"@B 	c #292633",
"#B 	c #2F2D38",
"$B 	c #393740",
"%B 	c #494951",
"&B 	c #4C4B52",
"*B 	c #4D4C53",
"=B 	c #4C4B51",
"-B 	c #4D4C51",
";B 	c #4F4E53",
">B 	c #545359",
",B 	c #535158",
"'B 	c #0D081A",
")B 	c #4C4C53",
"!B 	c #54555D",
"~B 	c #585861",
"{B 	c #474751",
"]B 	c #383445",
"^B 	c #302F3E",
"/B 	c #2B2B38",
"(B 	c #120A26",
"_B 	c #0D0622",
":B 	c #0B051F",
"<B 	c #3E3D4D",
"[B 	c #444550",
"}B 	c #48484E",
"|B 	c #48474C",
"1B 	c #413F47",
"2B 	c #393640",
"3B 	c #312D3A",
"4B 	c #231E31",
"5B 	c #0B0422",
"6B 	c #0D0322",
"7B 	c #0D0422",
"8B 	c #0F0822",
"9B 	c #0C051E",
"0B 	c #0A031C",
"aB 	c #4F4E5C",
"bB 	c #5B5962",
"cB 	c #615E67",
"dB 	c #646167",
"eB 	c #66646A",
"fB 	c #6C696F",
"gB 	c #79797A",
"hB 	c #949595",
"iB 	c #A6A9A4",
"jB 	c #AFB3A9",
"kB 	c #B0B3A9",
"lB 	c #A4A8A1",
"mB 	c #A7A6A3",
"nB 	c #727278",
"oB 	c #62616B",
"pB 	c #5F5F65",
"qB 	c #606063",
"rB 	c #37343C",
"sB 	c #0D0521",
"tB 	c #0E0420",
"uB 	c #0E0421",
"vB 	c #0E0422",
"wB 	c #0F0422",
"xB 	c #0F0423",
"yB 	c #140928",
"zB 	c #0C0122",
"AB 	c #0A0120",
"BB 	c #09011E",
"CB 	c #0A001D",
"DB 	c #0B001D",
"EB 	c #F5F7EF",
"FB 	c #F6F8EE",
"GB 	c #ACB1B4",
"HB 	c #535B76",
"IB 	c #0E0629",
"JB 	c #100627",
"KB 	c #808081",
"LB 	c #C6C6C2",
"MB 	c #D3D3CD",
"NB 	c #C3C6BE",
"OB 	c #B5B7B2",
"PB 	c #A2A2A5",
"QB 	c #84888F",
"RB 	c #C0C2BD",
"SB 	c #F1F1DE",
"TB 	c #EEEDDB",
"UB 	c #ECEBDA",
"VB 	c #EAEBD9",
"WB 	c #EDEFDC",
"XB 	c #F1F4E3",
"YB 	c #F4F5E6",
"ZB 	c #F5F6E8",
"`B 	c #9FA4A1",
" C 	c #878D92",
".C 	c #120C32",
"+C 	c #0F0829",
"@C 	c #2E3047",
"#C 	c #444A67",
"$C 	c #383C5E",
"%C 	c #191439",
"&C 	c #717175",
"*C 	c #D3D2CA",
"=C 	c #DAD9CE",
"-C 	c #DDDDD0",
";C 	c #E0E1D5",
">C 	c #E5E4D7",
",C 	c #E8E8DB",
"'C 	c #EBEBDD",
")C 	c #EEEEDF",
"!C 	c #E4E5DA",
"~C 	c #25223C",
"{C 	c #242440",
"]C 	c #E2E7E1",
"^C 	c #EDF0E9",
"/C 	c #EDF0E4",
"(C 	c #DCDFD5",
"_C 	c #B8BBBA",
":C 	c #A3A8A4",
"<C 	c #909593",
"[C 	c #1A1731",
"}C 	c #191434",
"|C 	c #14142B",
"1C 	c #E6E8EC",
"2C 	c #EDF0EB",
"3C 	c #F0F4E6",
"4C 	c #F2F4E4",
"5C 	c #F1F3E4",
"6C 	c #EFF1E1",
"7C 	c #EEEFE1",
"8C 	c #A7AAAE",
"9C 	c #6B7086",
"0C 	c #565870",
"aC 	c #1E1A3B",
"bC 	c #171030",
"cC 	c #0D0620",
"dC 	c #6B6973",
"eC 	c #EBEAEA",
"fC 	c #F1F3E8",
"gC 	c #F4F6E7",
"hC 	c #F6F8E6",
"iC 	c #F6F9E6",
"jC 	c #F8FAEC",
"kC 	c #F8F9EA",
"lC 	c #F4F6E5",
"mC 	c #F3F5E4",
"nC 	c #F4F4E4",
"oC 	c #F2F2E0",
"pC 	c #EFF1E0",
"qC 	c #C3C4BE",
"rC 	c #B3B4B3",
"sC 	c #D6D8CF",
"tC 	c #E5E5DB",
"uC 	c #8C888B",
"vC 	c #191028",
"wC 	c #191528",
"xC 	c #404057",
"yC 	c #424656",
"zC 	c #515466",
"AC 	c #6E727E",
"BC 	c #727582",
"CC 	c #7C7E8F",
"DC 	c #808392",
"EC 	c #777986",
"FC 	c #757885",
"GC 	c #727683",
"HC 	c #717485",
"IC 	c #747688",
"JC 	c #EEF4E6",
"KC 	c #F0F4E7",
"LC 	c #F3F6E5",
"MC 	c #B5BAB4",
"NC 	c #777989",
"OC 	c #272239",
"PC 	c #15102D",
"QC 	c #17112D",
"RC 	c #CACBBD",
"SC 	c #C8C8C0",
"TC 	c #C0C0BA",
"UC 	c #BDC0B8",
"VC 	c #B6B6B0",
"WC 	c #A5A4A4",
"XC 	c #D0D0C6",
"YC 	c #F3F1E2",
"ZC 	c #F0EEDF",
"`C 	c #ECEADA",
" D 	c #E6E4D3",
".D 	c #D7D5C4",
"+D 	c #D9D7C6",
"@D 	c #DAD8C9",
"#D 	c #D8D9C8",
"$D 	c #D8DAC9",
"%D 	c #D7DCC7",
"&D 	c #929396",
"*D 	c #1D1933",
"=D 	c #373A4F",
"-D 	c #585D79",
";D 	c #484B68",
">D 	c #262240",
",D 	c #D5D4C6",
"'D 	c #DDDDCF",
")D 	c #DEDED1",
"!D 	c #E1DFD0",
"~D 	c #E1E0D0",
"{D 	c #E1E1D1",
"]D 	c #E4E5D5",
"^D 	c #EBEBDB",
"/D 	c #ECEDDE",
"(D 	c #ECEEE0",
"_D 	c #E3E6D8",
":D 	c #525262",
"<D 	c #3F3F57",
"[D 	c #E1E3E0",
"}D 	c #EBECE5",
"|D 	c #E9EBDF",
"1D 	c #DFE1D5",
"2D 	c #B9BAB4",
"3D 	c #929395",
"4D 	c #1B173A",
"5D 	c #100926",
"6D 	c #1E1E36",
"7D 	c #E8E9ED",
"8D 	c #F0F2EA",
"9D 	c #F3F4E7",
"0D 	c #F5F5E7",
"aD 	c #F5F5E6",
"bD 	c #F4F5E5",
"cD 	c #F3F6E6",
"dD 	c #B5B7BA",
"eD 	c #788092",
"fD 	c #66697D",
"gD 	c #2D2744",
"hD 	c #1C142F",
"iD 	c #1B152D",
"jD 	c #272538",
"kD 	c #7D7B85",
"lD 	c #E3E2DB",
"mD 	c #ECECDE",
"nD 	c #F4F4E1",
"oD 	c #F5F6E1",
"pD 	c #F6F5E2",
"qD 	c #F7F5E3",
"rD 	c #F7F7E5",
"sD 	c #F6F7E5",
"tD 	c #DEE1D1",
"uD 	c #D4D9CA",
"vD 	c #C5C7BC",
"wD 	c #D4D6C8",
"xD 	c #EDEEDC",
"yD 	c #E2E2D3",
"zD 	c #ADACAA",
"AD 	c #9D9D9B",
"BD 	c #D9D8CE",
"CD 	c #E4E3D8",
"DD 	c #8B888B",
"ED 	c #33303F",
"FD 	c #191626",
"GD 	c #56596C",
"HD 	c #4E5164",
"ID 	c #585B6B",
"JD 	c #777A81",
"KD 	c #7E8087",
"LD 	c #828489",
"MD 	c #757C83",
"ND 	c #70777E",
"OD 	c #A2A7A7",
"PD 	c #9B9E9E",
"QD 	c #B2B0A9",
"RD 	c #F5EFDE",
"SD 	c #F7F1E1",
"TD 	c #807C81",
"UD 	c #302F45",
"VD 	c #373647",
"WD 	c #D0D1C7",
"XD 	c #F4F4E3",
"YD 	c #8C8D91",
"ZD 	c #D1CFC5",
"`D 	c #DAD9C9",
" E 	c #DFDDCF",
".E 	c #DEDCCD",
"+E 	c #E0DFCF",
"@E 	c #C6C3B5",
"#E 	c #BDBAAB",
"$E 	c #C4C2B2",
"%E 	c #C6C4B4",
"&E 	c #CAC8B8",
"*E 	c #CBC8BA",
"=E 	c #A8A39A",
"-E 	c #A09C93",
";E 	c #A9A69D",
">E 	c #B2B2A8",
",E 	c #B5B4AE",
"'E 	c #B6B4B0",
")E 	c #929192",
"!E 	c #89898B",
"~E 	c #5D5B64",
"{E 	c #110728",
"]E 	c #777A86",
"^E 	c #6F707C",
"/E 	c #74737B",
"(E 	c #A6A6A2",
"_E 	c #CCCBBE",
":E 	c #D9D7C4",
"<E 	c #D9D8C3",
"[E 	c #D7D6C4",
"}E 	c #BAB9AD",
"|E 	c #B3B4A8",
"1E 	c #ADAEA3",
"2E 	c #A0A098",
"3E 	c #A6A89E",
"4E 	c #E9EBE1",
"5E 	c #B1B3AF",
"6E 	c #9B9C99",
"7E 	c #CFCDC4",
"8E 	c #B9B9B6",
"9E 	c #201A3C",
"0E 	c #211C44",
"aE 	c #180F35",
"bE 	c #1D1C39",
"cE 	c #E7E8E8",
"dE 	c #B0B2A9",
"eE 	c #969790",
"fE 	c #AAACA1",
"gE 	c #CDCEC1",
"hE 	c #D7D7CD",
"iE 	c #DBDACF",
"jE 	c #DFDED4",
"kE 	c #B5B7B1",
"lE 	c #666876",
"mE 	c #545162",
"nE 	c #7A808E",
"oE 	c #F1F0DF",
"pE 	c #DDDBCA",
"qE 	c #E8E8D4",
"rE 	c #F1F3E2",
"sE 	c #979B99",
"tE 	c #787C82",
"uE 	c #E5E4D4",
"vE 	c #DBDACD",
"wE 	c #BEBDB7",
"xE 	c #9E9D9C",
"yE 	c #949393",
"zE 	c #F6F5E6",
"AE 	c #C3C3BC",
"BE 	c #626369",
"CE 	c #0D051B",
"DE 	c #27294B",
"EE 	c #2F304F",
"FE 	c #5C6076",
"GE 	c #606179",
"HE 	c #2F2E4B",
"IE 	c #D4D3CE",
"JE 	c #D9D9D2",
"KE 	c #706F72",
"LE 	c #5C5B62",
"ME 	c #D8D7CD",
"NE 	c #EEEDDE",
"OE 	c #D0CEC3",
"PE 	c #919593",
"QE 	c #4E5058",
"RE 	c #A9AEAE",
"SE 	c #9EA2A3",
"TE 	c #B3B4AC",
"UE 	c #F4EFDC",
"VE 	c #F5F0DF",
"WE 	c #858186",
"XE 	c #2E2D44",
"YE 	c #323148",
"ZE 	c #3A3949",
"`E 	c #CFD0C3",
" F 	c #F2F3DE",
".F 	c #999C9C",
"+F 	c #C3C4BC",
"@F 	c #D2CFC5",
"#F 	c #D7D5C9",
"$F 	c #D7D5C7",
"%F 	c #D7D5C6",
"&F 	c #BDBAAF",
"*F 	c #BCBAAF",
"=F 	c #C2C0B3",
"-F 	c #D0CEBF",
";F 	c #D3D0C4",
">F 	c #908D87",
",F 	c #95918A",
"'F 	c #ADAAA2",
")F 	c #B7B6B0",
"!F 	c #929190",
"~F 	c #848484",
"{F 	c #5A575F",
"]F 	c #120824",
"^F 	c #454556",
"/F 	c #757883",
"(F 	c #73747F",
"_F 	c #78777D",
":F 	c #BBBBB2",
"<F 	c #BDBCB4",
"[F 	c #CFCFC1",
"}F 	c #DDDDC9",
"|F 	c #DCDBC6",
"1F 	c #DCDBC5",
"2F 	c #CAC9BC",
"3F 	c #AEB0A5",
"4F 	c #A7A99F",
"5F 	c #AEB1AD",
"6F 	c #979797",
"7F 	c #8F9191",
"8F 	c #CFCDC3",
"9F 	c #B9BAB6",
"0F 	c #241D41",
"aF 	c #231E46",
"bF 	c #191137",
"cF 	c #1C1C36",
"dF 	c #E3E4DD",
"eF 	c #F5F8E8",
"fF 	c #8B8B88",
"gF 	c #8C8C89",
"hF 	c #CACBBF",
"iF 	c #E5E4D6",
"jF 	c #E6E5D6",
"kF 	c #E7E9D9",
"lF 	c #C2C5BA",
"mF 	c #4A4858",
"nF 	c #1A182C",
"oF 	c #828992",
"pF 	c #909797",
"qF 	c #949996",
"rF 	c #CECBBE",
"sF 	c #D0CEC2",
"tF 	c #A0A09A",
"uF 	c #A1A39C",
"vF 	c #7B7D84",
"wF 	c #6E7077",
"xF 	c #E9E6D7",
"yF 	c #DDDCD0",
"zF 	c #B9B7B1",
"AF 	c #9D9C9A",
"BF 	c #C0C0B9",
"CF 	c #424152",
"DF 	c #616476",
"EF 	c #616175",
"FF 	c #393751",
"GF 	c #4D4F5F",
"HF 	c #E1E0D9",
"IF 	c #E6E4DC",
"JF 	c #828183",
"KF 	c #57575F",
"LF 	c #D5D4CB",
"MF 	c #F1F0E0",
"NF 	c #D8D6CB",
"OF 	c #575963",
"PF 	c #959999",
"QF 	c #B2B5AE",
"RF 	c #B6B5AD",
"SF 	c #BABAAA",
"TF 	c #A8A8A0",
"UF 	c #4C4C5D",
"VF 	c #231F40",
"WF 	c #3B3B4A",
"XF 	c #C8C9B7",
"YF 	c #E6E6CE",
"ZF 	c #B9BCB2",
"`F 	c #C4C3BA",
" G 	c #C6C7BE",
".G 	c #B0B0A7",
"+G 	c #AEAEA4",
"@G 	c #AEAFA4",
"#G 	c #B0B1A6",
"$G 	c #B4B4A9",
"%G 	c #BEBEB1",
"&G 	c #C7C7BA",
"*G 	c #9B9995",
"=G 	c #ADABA7",
"-G 	c #B5B3AF",
";G 	c #7D7C7E",
">G 	c #636268",
",G 	c #44414F",
"'G 	c #4D4F63",
")G 	c #63636F",
"!G 	c #79787C",
"~G 	c #8F928C",
"{G 	c #AFB2A9",
"]G 	c #ADB1A6",
"^G 	c #EAEADB",
"/G 	c #ABAFAB",
"(G 	c #DEE0D5",
"_G 	c #BBBDB5",
":G 	c #BABDB7",
"<G 	c #A1A19E",
"[G 	c #AAA9A5",
"}G 	c #A4A49F",
"|G 	c #767882",
"1G 	c #150F2A",
"2G 	c #232237",
"3G 	c #A4A6A8",
"4G 	c #9B9FA0",
"5G 	c #B9BBB6",
"6G 	c #C6C9C3",
"7G 	c #818480",
"8G 	c #777A76",
"9G 	c #D1D2C6",
"0G 	c #BBBCB6",
"aG 	c #AFB1AD",
"bG 	c #A7AAA5",
"cG 	c #747A7C",
"dG 	c #92979C",
"eG 	c #7A7B86",
"fG 	c #0E0622",
"gG 	c #2A2937",
"hG 	c #AEB2AA",
"iG 	c #D6D5C7",
"jG 	c #D3D3C6",
"kG 	c #81817F",
"lG 	c #818180",
"mG 	c #848280",
"nG 	c #CAC8C5",
"oG 	c #DEDED0",
"pG 	c #B9BAB2",
"qG 	c #B3B4AE",
"rG 	c #949493",
"sG 	c #EDEBDD",
"tG 	c #F6F3E5",
"uG 	c #B8B8B2",
"vG 	c #0E0322",
"wG 	c #242333",
"xG 	c #8B8A89",
"yG 	c #958F8A",
"zG 	c #B5B0A9",
"AG 	c #BAB4AC",
"BG 	c #C0BBB2",
"CG 	c #BBBAB2",
"DG 	c #6A6D6D",
"EG 	c #676A6A",
"FG 	c #999D9B",
"GG 	c #848685",
"HG 	c #ECECDA",
"IG 	c #E2E3D1",
"JG 	c #BCBEB4",
"KG 	c #626871",
"LG 	c #868C8C",
"MG 	c #AEB1AC",
"NG 	c #B2B2AA",
"OG 	c #4E4E5D",
"PG 	c #221D3F",
"QG 	c #3B3C4B",
"RG 	c #C6C7B5",
"SG 	c #E4E2CD",
"TG 	c #BABBB2",
"UG 	c #A9AAA5",
"VG 	c #C5C4B9",
"WG 	c #ACAEA5",
"XG 	c #ACACA4",
"YG 	c #ABABA3",
"ZG 	c #ABACA3",
"`G 	c #C1C1B3",
" H 	c #CDCDBE",
".H 	c #92908C",
"+H 	c #A9A7A4",
"@H 	c #B5B4B0",
"#H 	c #787879",
"$H 	c #5A5A62",
"%H 	c #373443",
"&H 	c #0F0622",
"*H 	c #4F5060",
"=H 	c #7A7A79",
"-H 	c #9EA09F",
";H 	c #9DA19C",
">H 	c #A0A49E",
",H 	c #EDEFE0",
"'H 	c #E7EADA",
")H 	c #AAAEAB",
"!H 	c #ECEEE2",
"~H 	c #E4E7D9",
"{H 	c #B2B4AE",
"]H 	c #AEB0AC",
"^H 	c #9A9C98",
"/H 	c #A4A29D",
"(H 	c #A5A39D",
"_H 	c #747580",
":H 	c #150F2C",
"<H 	c #191832",
"[H 	c #C5CAC7",
"}H 	c #C8CFC8",
"|H 	c #ACB1AD",
"1H 	c #A2AAA5",
"2H 	c #7C817E",
"3H 	c #6D6E6C",
"4H 	c #C5C7BB",
"5H 	c #E5E8D5",
"6H 	c #D5D7C9",
"7H 	c #BABCB7",
"8H 	c #ACAEAB",
"9H 	c #A1A3A2",
"0H 	c #979A9B",
"aH 	c #6D727A",
"bH 	c #9CA2A4",
"cH 	c #70737D",
"dH 	c #32313D",
"eH 	c #B5B8B3",
"fH 	c #ADB1AA",
"gH 	c #999A99",
"hH 	c #C3C4B6",
"iH 	c #C3C4B7",
"jH 	c #C1C1B6",
"kH 	c #91928D",
"lH 	c #92928F",
"mH 	c #E9E7D6",
"nH 	c #F4F2E2",
"oH 	c #57565F",
"pH 	c #0F0626",
"qH 	c #32303E",
"rH 	c #8D8A85",
"sH 	c #C7C1B7",
"tH 	c #CCC7BB",
"uH 	c #CBC7BC",
"vH 	c #C2C3BB",
"wH 	c #27283D",
"xH 	c #9DA2A0",
"yH 	c #A5A8A5",
"zH 	c #D1D3C3",
"AH 	c #EAEBD8",
"BH 	c #EAEAD7",
"CH 	c #E9EAD6",
"DH 	c #6E727C",
"EH 	c #A9AAA0",
"FH 	c #555562",
"GH 	c #201B3C",
"HH 	c #3A374B",
"IH 	c #3C3E4B",
"JH 	c #C1C1B0",
"KH 	c #E0DCCA",
"LH 	c #A9A9A4",
"MH 	c #B0AFA9",
"NH 	c #AEAEA7",
"OH 	c #A8A99F",
"PH 	c #A8A9A1",
"QH 	c #BABCB2",
"RH 	c #A9ACA4",
"SH 	c #A9A7A5",
"TH 	c #ACABA8",
"UH 	c #B2B3AE",
"VH 	c #6D6E72",
"WH 	c #2B273A",
"XH 	c #0F0520",
"YH 	c #4E4D5F",
"ZH 	c #63636A",
"`H 	c #787877",
" I 	c #DBDCD0",
".I 	c #D6DBCF",
"+I 	c #8C9191",
"@I 	c #B8BDB5",
"#I 	c #BDC0BB",
"$I 	c #C8CBC5",
"%I 	c #CACBC6",
"&I 	c #868888",
"*I 	c #858586",
"=I 	c #8E8F90",
"-I 	c #5F6269",
";I 	c #585965",
">I 	c #858691",
",I 	c #ADAEAA",
"'I 	c #EAECDE",
")I 	c #A0A09F",
"!I 	c #ACACAA",
"~I 	c #ABABA9",
"{I 	c #AAAAA7",
"]I 	c #BABCB4",
"^I 	c #B7B8B0",
"/I 	c #ACAEAA",
"(I 	c #898D90",
"_I 	c #71777C",
":I 	c #575A67",
"<I 	c #110821",
"[I 	c #3D3C47",
"}I 	c #B2B5B0",
"|I 	c #9A9A9A",
"1I 	c #B1B2A8",
"2I 	c #B0B2A7",
"3I 	c #AEB0A7",
"4I 	c #9C9C96",
"5I 	c #999A96",
"6I 	c #C5C7BE",
"7I 	c #CFD1C5",
"8I 	c #CACABD",
"9I 	c #E4E3D3",
"0I 	c #ECEAD8",
"aI 	c #6E6C6D",
"bI 	c #373845",
"cI 	c #353250",
"dI 	c #2C2351",
"eI 	c #818080",
"fI 	c #E1DBD3",
"gI 	c #E5E5D8",
"hI 	c #AFB3B0",
"iI 	c #828A90",
"jI 	c #CFD1CE",
"kI 	c #D2D5CF",
"lI 	c #CCCEC2",
"mI 	c #C7C9BD",
"nI 	c #C1C2B5",
"oI 	c #96999A",
"pI 	c #5B5A65",
"qI 	c #1E1A3A",
"rI 	c #4D4C54",
"sI 	c #BFBEB0",
"tI 	c #B4B4AC",
"uI 	c #A9A9A5",
"vI 	c #A9A9A3",
"wI 	c #A7A8A1",
"xI 	c #A6A89F",
"yI 	c #A3A59F",
"zI 	c #B1B4AD",
"AI 	c #DCDCD4",
"BI 	c #C2C2BC",
"CI 	c #B1B4AE",
"DI 	c #6B6C72",
"EI 	c #414154",
"FI 	c #27233A",
"GI 	c #0E0620",
"HI 	c #515263",
"II 	c #74767A",
"JI 	c #9A9E9B",
"KI 	c #D0D4CA",
"LI 	c #CCD0C6",
"MI 	c #7E848A",
"NI 	c #85888A",
"OI 	c #D2D3CD",
"PI 	c #D0D3CD",
"QI 	c #939697",
"RI 	c #606271",
"SI 	c #7D7F88",
"TI 	c #B6B9B2",
"UI 	c #EDF0DD",
"VI 	c #F6F8E5",
"WI 	c #A2A2A0",
"XI 	c #9E9E9D",
"YI 	c #989898",
"ZI 	c #636773",
"`I 	c #4D4E60",
" J 	c #120821",
".J 	c #42414C",
"+J 	c #AAADA6",
"@J 	c #9A9B95",
"#J 	c #E0DECE",
"$J 	c #E4E3D2",
"%J 	c #626166",
"&J 	c #3B3854",
"*J 	c #312A55",
"=J 	c #333348",
"-J 	c #777A7D",
";J 	c #ECEADD",
">J 	c #E4E2D8",
",J 	c #9EA3A7",
"'J 	c #9BA1A4",
")J 	c #959D9E",
"!J 	c #EFEEE7",
"~J 	c #B3B5B5",
"{J 	c #9CA4A3",
"]J 	c #898F90",
"^J 	c #707275",
"/J 	c #7D7F7F",
"(J 	c #7C8086",
"_J 	c #939496",
":J 	c #919291",
"<J 	c #4A4855",
"[J 	c #181530",
"}J 	c #BCBDB4",
"|J 	c #C6C5B8",
"1J 	c #CECCC0",
"2J 	c #B5B5AE",
"3J 	c #ADADA8",
"4J 	c #A8A9A4",
"5J 	c #A4A79F",
"6J 	c #A2A49E",
"7J 	c #CBCBC5",
"8J 	c #B5B6B1",
"9J 	c #AEB2AE",
"0J 	c #65666C",
"aJ 	c #37364B",
"bJ 	c #28253E",
"cJ 	c #221D34",
"dJ 	c #3C3C4F",
"eJ 	c #63646F",
"fJ 	c #A1A4A0",
"gJ 	c #9FA3A1",
"hJ 	c #A2A6A3",
"iJ 	c #B6BAB5",
"jJ 	c #B9BCB9",
"kJ 	c #969B9B",
"lJ 	c #B6BAB4",
"mJ 	c #7C7F87",
"nJ 	c #5C5E6F",
"oJ 	c #61636F",
"pJ 	c #62626F",
"qJ 	c #1D1B2A",
"rJ 	c #E5E4EA",
"sJ 	c #F2F3EC",
"tJ 	c #DBDDCD",
"uJ 	c #D1D3C6",
"vJ 	c #9D9E9C",
"wJ 	c #ABADA8",
"xJ 	c #9C9D9B",
"yJ 	c #959695",
"zJ 	c #626572",
"AJ 	c #4D4D5F",
"BJ 	c #363641",
"CJ 	c #949697",
"DJ 	c #B9BCB3",
"EJ 	c #BBBEB5",
"FJ 	c #5E5E65",
"GJ 	c #353346",
"HJ 	c #29243D",
"IJ 	c #160F2F",
"JJ 	c #2F2F40",
"KJ 	c #7D8085",
"LJ 	c #808485",
"MJ 	c #D5D4CC",
"NJ 	c #D0D1C8",
"OJ 	c #9B9C9D",
"PJ 	c #E5E7DB",
"QJ 	c #BBBEBA",
"RJ 	c #A0A6A7",
"SJ 	c #949D9D",
"TJ 	c #868C8D",
"UJ 	c #6A6E7C",
"VJ 	c #7D808A",
"WJ 	c #85878D",
"XJ 	c #808084",
"YJ 	c #18112D",
"ZJ 	c #C2C4B8",
"`J 	c #BFBFB5",
" K 	c #9EA29D",
".K 	c #ABADAC",
"+K 	c #34324B",
"@K 	c #2C2A42",
"#K 	c #332F47",
"$K 	c #444356",
"%K 	c #515160",
"&K 	c #5D5E6A",
"*K 	c #787B84",
"=K 	c #A1A5A1",
"-K 	c #9EA1A0",
";K 	c #A1A3A4",
">K 	c #A0A5A3",
",K 	c #A3A7A6",
"'K 	c #A9AFAA",
")K 	c #A7ABA7",
"!K 	c #939995",
"~K 	c #585A6D",
"{K 	c #4F5064",
"]K 	c #4A485E",
"^K 	c #110924",
"/K 	c #272335",
"(K 	c #EBE9F1",
"_K 	c #F1F2EE",
":K 	c #C3C3C0",
"<K 	c #6E6E6F",
"[K 	c #8B8F90",
"}K 	c #818688",
"|K 	c #0F0921",
"1K 	c #909592",
"2K 	c #787E84",
"3K 	c #555961",
"4K 	c #454552",
"5K 	c #272337",
"6K 	c #0F0421",
"7K 	c #302E40",
"8K 	c #C7C5C0",
"9K 	c #BBBDB7",
"0K 	c #8D9095",
"aK 	c #EDEDE2",
"bK 	c #ECEBE0",
"cK 	c #9D9D9E",
"dK 	c #92989A",
"eK 	c #919898",
"fK 	c #7A7F82",
"gK 	c #4C4E5A",
"hK 	c #989B9D",
"iK 	c #6A6E7E",
"jK 	c #82868E",
"kK 	c #83868C",
"lK 	c #808387",
"mK 	c #7F8184",
"nK 	c #403E4D",
"oK 	c #979796",
"pK 	c #C1C3B9",
"qK 	c #9C9C9D",
"rK 	c #ACAEA7",
"sK 	c #939495",
"tK 	c #909091",
"uK 	c #949999",
"vK 	c #9DA0A1",
"wK 	c #A5A9AA",
"xK 	c #5C5D68",
"yK 	c #33314A",
"zK 	c #2A2841",
"AK 	c #2D2942",
"BK 	c #403E51",
"CK 	c #50505C",
"DK 	c #595A65",
"EK 	c #6B6D76",
"FK 	c #A1A3A3",
"GK 	c #888B8E",
"HK 	c #858A8C",
"IK 	c #7F8588",
"JK 	c #858A8D",
"KK 	c #949895",
"LK 	c #909493",
"MK 	c #8A8F8E",
"NK 	c #535466",
"OK 	c #4E4F61",
"PK 	c #1D192A",
"QK 	c #C8CCCF",
"RK 	c #D5D8D2",
"SK 	c #B3B4B2",
"TK 	c #939595",
"UK 	c #7F8181",
"VK 	c #8E9394",
"WK 	c #5E626F",
"XK 	c #4B4C5F",
"YK 	c #100920",
"ZK 	c #373642",
"`K 	c #979C98",
" L 	c #353957",
".L 	c #393C5B",
"+L 	c #3D3F5C",
"@L 	c #3E415B",
"#L 	c #5E6675",
"$L 	c #62697A",
"%L 	c #737675",
"&L 	c #130A2A",
"*L 	c #2B2B3D",
"=L 	c #656A79",
"-L 	c #6B6F78",
";L 	c #8E9193",
">L 	c #A7ABAC",
",L 	c #A8ABAA",
"'L 	c #B6B7B2",
")L 	c #8D9294",
"!L 	c #81878C",
"~L 	c #989A9B",
"{L 	c #666A7B",
"]L 	c #858A90",
"^L 	c #454451",
"/L 	c #15102A",
"(L 	c #BFC1B8",
"_L 	c #9A9B9C",
":L 	c #9C9C97",
"<L 	c #747681",
"[L 	c #86898F",
"}L 	c #A0A2A4",
"|L 	c #A1A5A6",
"1L 	c #2D2540",
"2L 	c #3C3A4D",
"3L 	c #4C4D58",
"4L 	c #51525D",
"5L 	c #53535F",
"6L 	c #75787D",
"7L 	c #707379",
"8L 	c #696974",
"9L 	c #61626F",
"0L 	c #585B70",
"aL 	c #595F6D",
"bL 	c #969B98",
"cL 	c #8F9392",
"dL 	c #8C9090",
"eL 	c #888C8D",
"fL 	c #545667",
"gL 	c #100923",
"hL 	c #141023",
"iL 	c #98A0A6",
"jL 	c #A0A4A4",
"kL 	c #535865",
"lL 	c #424458",
"mL 	c #33313E",
"nL 	c #84878F",
"oL 	c #979A94",
"pL 	c #818383",
"qL 	c #A5A8A4",
"rL 	c #9A9B9E",
"sL 	c #9BA1A1",
"tL 	c #45445B",
"uL 	c #2D2E4A",
"vL 	c #6D6F76",
"wL 	c #777A78",
"xL 	c #5C5E63",
"yL 	c #160E30",
"zL 	c #27283B",
"AL 	c #52586D",
"BL 	c #545A6A",
"CL 	c #565C68",
"DL 	c #6C6F78",
"EL 	c #B8BCB9",
"FL 	c #B1B4B1",
"GL 	c #60656C",
"HL 	c #797D84",
"IL 	c #787982",
"JL 	c #454350",
"KL 	c #BBBFB6",
"LL 	c #969999",
"ML 	c #868A8F",
"NL 	c #9FA3A0",
"OL 	c #999D9C",
"PL 	c #505169",
"QL 	c #797B86",
"RL 	c #9FA3A4",
"SL 	c #94989A",
"TL 	c #92969A",
"UL 	c #30314A",
"VL 	c #2A263E",
"WL 	c #2A253E",
"XL 	c #3A394B",
"YL 	c #484954",
"ZL 	c #4A4A57",
"`L 	c #4B4A5A",
" M 	c #6A6D78",
".M 	c #6F727C",
"+M 	c #73777E",
"@M 	c #7A7E86",
"#M 	c #81858A",
"$M 	c #959998",
"%M 	c #868B8C",
"&M 	c #595D6D",
"*M 	c #4E4D62",
"=M 	c #161226",
"-M 	c #9C9FA5",
";M 	c #9FA2A4",
">M 	c #999B9D",
",M 	c #878B8C",
"'M 	c #878C8D",
")M 	c #7C8385",
"!M 	c #525B67",
"~M 	c #414455",
"{M 	c #302E3F",
"]M 	c #7F838C",
"^M 	c #8D918D",
"/M 	c #9C9D9C",
"(M 	c #737678",
"_M 	c #6F7175",
":M 	c #ADB0A7",
"<M 	c #B4B9AD",
"[M 	c #B6BAAE",
"}M 	c #B8BCB0",
"|M 	c #BAC0B2",
"1M 	c #C2C8BC",
"2M 	c #A7ACA5",
"3M 	c #6B6E73",
"4M 	c #5D5D62",
"5M 	c #190F33",
"6M 	c #2B293D",
"7M 	c #50576A",
"8M 	c #525968",
"9M 	c #565D68",
"0M 	c #A9ABA8",
"aM 	c #A4A6A5",
"bM 	c #8B8D8F",
"cM 	c #8E9092",
"dM 	c #858B8E",
"eM 	c #868A90",
"fM 	c #474854",
"gM 	c #2A2739",
"hM 	c #B7BBB4",
"iM 	c #83888D",
"jM 	c #808286",
"kM 	c #76777C",
"lM 	c #4C4D59",
"mM 	c #959A97",
"nM 	c #5B5E75",
"oM 	c #7B818A",
"pM 	c #9FA3A5",
"qM 	c #2E2D46",
"rM 	c #28233B",
"sM 	c #27213A",
"tM 	c #41414E",
"uM 	c #64646A",
"vM 	c #60616D",
"wM 	c #75777F",
"xM 	c #7D8185",
"yM 	c #8B8E93",
"zM 	c #61636E",
"AM 	c #595C67",
"BM 	c #575A66",
"CM 	c #929698",
"DM 	c #888D8E",
"EM 	c #878B8D",
"FM 	c #5D606F",
"GM 	c #4F4E62",
"HM 	c #130B2C",
"IM 	c #18132A",
"JM 	c #979BA1",
"KM 	c #929598",
"LM 	c #888B8B",
"MM 	c #818687",
"NM 	c #828587",
"OM 	c #838889",
"PM 	c #798184",
"QM 	c #505965",
"RM 	c #2F2C3D",
"SM 	c #7D818B",
"TM 	c #8E928F",
"UM 	c #919490",
"VM 	c #7B7E7D",
"WM 	c #7F8381",
"XM 	c #929394",
"YM 	c #888C88",
"ZM 	c #8F9390",
"`M 	c #878687",
" N 	c #58585D",
".N 	c #170E32",
"+N 	c #2A293D",
"@N 	c #4E5668",
"#N 	c #515866",
"$N 	c #565D69",
"%N 	c #60646F",
"&N 	c #84888A",
"*N 	c #878B89",
"=N 	c #7E7F84",
"-N 	c #80848B",
";N 	c #888B94",
">N 	c #4C4D5F",
",N 	c #444455",
"'N 	c #2C2B3D",
")N 	c #19132C",
"!N 	c #120B25",
"~N 	c #74777D",
"{N 	c #94979D",
"]N 	c #6F7280",
"^N 	c #676C78",
"/N 	c #7C7F83",
"(N 	c #4D4E5D",
"_N 	c #878A8E",
":N 	c #626676",
"<N 	c #9CA0A3",
"[N 	c #8A8E93",
"}N 	c #25223B",
"|N 	c #251F38",
"1N 	c #78797E",
"2N 	c #76787C",
"3N 	c #74777E",
"4N 	c #6B6B75",
"5N 	c #7B7F83",
"6N 	c #636571",
"7N 	c #5C5F6F",
"8N 	c #4B4B5F",
"9N 	c #150B2D",
"0N 	c #171228",
"aN 	c #8C9297",
"bN 	c #7C7E80",
"cN 	c #767A7F",
"dN 	c #6D7175",
"eN 	c #777A7E",
"fN 	c #535762",
"gN 	c #2C2840",
"hN 	c #312F3E",
"iN 	c #82868F",
"jN 	c #82868B",
"kN 	c #515365",
"lN 	c #606273",
"mN 	c #87898D",
"nN 	c #86898A",
"oN 	c #8F9492",
"pN 	c #9C9E9D",
"qN 	c #9FA09F",
"rN 	c #666871",
"sN 	c #5C6169",
"tN 	c #585B66",
"uN 	c #6C6D72",
"vN 	c #808483",
"wN 	c #595A5E",
"xN 	c #140C31",
"yN 	c #4F5668",
"zN 	c #515765",
"AN 	c #555B69",
"BN 	c #868A8D",
"CN 	c #75787F",
"DN 	c #74767E",
"EN 	c #76777F",
"FN 	c #4B4C5D",
"GN 	c #4B4A5C",
"HN 	c #343345",
"IN 	c #6C6C77",
"JN 	c #6C717C",
"KN 	c #757981",
"LN 	c #777B82",
"MN 	c #898C8F",
"NN 	c #888A8E",
"ON 	c #727882",
"PN 	c #80878D",
"QN 	c #7C8288",
"RN 	c #7C8287",
"SN 	c #6D707A",
"TN 	c #898E93",
"UN 	c #8E949A",
"VN 	c #211D35",
"WN 	c #7D8084",
"XN 	c #797981",
"YN 	c #545560",
"ZN 	c #6F7277",
"`N 	c #838789",
" O 	c #858989",
".O 	c #82858B",
"+O 	c #494C5C",
"@O 	c #140C2A",
"#O 	c #150E26",
"$O 	c #747885",
"%O 	c #72757C",
"&O 	c #73747A",
"*O 	c #73767B",
"=O 	c #757A7E",
"-O 	c #414354",
";O 	c #37374B",
">O 	c #2A273E",
",O 	c #343240",
"'O 	c #80858B",
")O 	c #7A7C80",
"!O 	c #77787C",
"~O 	c #7A7D7F",
"{O 	c #7D8285",
"]O 	c #898D92",
"^O 	c #7B8087",
"/O 	c #767A84",
"(O 	c #747884",
"_O 	c #757A86",
":O 	c #727A84",
"<O 	c #737982",
"[O 	c #7D7F84",
"}O 	c #7D8383",
"|O 	c #828886",
"1O 	c #5D5F66",
"2O 	c #170D34",
"3O 	c #282637",
"4O 	c #4D5566",
"5O 	c #4F5666",
"6O 	c #555B6B",
"7O 	c #595D6C",
"8O 	c #6D6F78",
"9O 	c #787C85",
"0O 	c #777C86",
"aO 	c #656A75",
"bO 	c #585C6C",
"cO 	c #595C6D",
"dO 	c #616372",
"eO 	c #6E717A",
"fO 	c #3D3D56",
"gO 	c #505560",
"hO 	c #505462",
"iO 	c #616674",
"jO 	c #676C79",
"kO 	c #73767F",
"lO 	c #81878F",
"mO 	c #7F868F",
"nO 	c #7D848C",
"oO 	c #7C838A",
"pO 	c #636974",
"qO 	c #6A6F79",
"rO 	c #6E757E",
"sO 	c #8B9297",
"tO 	c #92989E",
"uO 	c #26203A",
"vO 	c #3C3C52",
"wO 	c #50566B",
"xO 	c #4F5569",
"yO 	c #585D70",
"zO 	c #5A5B66",
"AO 	c #848889",
"BO 	c #83888B",
"CO 	c #464953",
"DO 	c #474A57",
"EO 	c #52545E",
"FO 	c #545661",
"GO 	c #5C5F6D",
"HO 	c #5B5E6A",
"IO 	c #484A5A",
"JO 	c #140C29",
"KO 	c #73797F",
"LO 	c #757980",
"MO 	c #787D82",
"NO 	c #777C81",
"OO 	c #3E4052",
"PO 	c #414656",
"QO 	c #312E43",
"RO 	c #292637",
"SO 	c #5A5F6A",
"TO 	c #636771",
"UO 	c #72797E",
"VO 	c #72797F",
"WO 	c #747A7F",
"XO 	c #7D838A",
"YO 	c #888C90",
"ZO 	c #787D88",
"`O 	c #717582",
" P 	c #717683",
".P 	c #6E7682",
"+P 	c #6C737F",
"@P 	c #6B727E",
"#P 	c #5B5F73",
"$P 	c #40435E",
"%P 	c #3B3E55",
"&P 	c #1C1137",
"*P 	c #262435",
"=P 	c #4A5064",
"-P 	c #525868",
";P 	c #525667",
">P 	c #535765",
",P 	c #767B86",
"'P 	c #777C87",
")P 	c #717781",
"!P 	c #676B78",
"~P 	c #4D5163",
"{P 	c #5E6271",
"]P 	c #31324A",
"^P 	c #36374F",
"/P 	c #434656",
"(P 	c #211D33",
"_P 	c #2F2C44",
":P 	c #3F3E57",
"<P 	c #4A4F61",
"[P 	c #595B6B",
"}P 	c #5B5E6B",
"|P 	c #595C6A",
"1P 	c #5B606E",
"2P 	c #5E6472",
"3P 	c #5A5F6B",
"4P 	c #646975",
"5P 	c #666C79",
"6P 	c #686D7B",
"7P 	c #1D1C2E",
"8P 	c #1A152B",
"9P 	c #1F1A32",
"0P 	c #2A2842",
"aP 	c #3A3D52",
"bP 	c #4B5168",
"cP 	c #444960",
"dP 	c #494C61",
"eP 	c #4C4E62",
"fP 	c #555A67",
"gP 	c #626670",
"hP 	c #71747E",
"iP 	c #6E747D",
"jP 	c #464558",
"kP 	c #505361",
"lP 	c #413F52",
"mP 	c #140B28",
"nP 	c #595D6E",
"oP 	c #5D6171",
"pP 	c #5B5E6D",
"qP 	c #595E68",
"rP 	c #5E626C",
"sP 	c #484A59",
"tP 	c #434756",
"uP 	c #3A3C4D",
"vP 	c #2D2A3C",
"wP 	c #221E33",
"xP 	c #4F5260",
"yP 	c #5B606C",
"zP 	c #616673",
"AP 	c #676B79",
"BP 	c #666B79",
"CP 	c #626675",
"DP 	c #5D6170",
"EP 	c #5B6170",
"FP 	c #565B6B",
"GP 	c #46495E",
"HP 	c #34364D",
"IP 	c #404359",
"JP 	c #3F455A",
"KP 	c #0D0320",
"LP 	c #19152E",
"MP 	c #3A3E5A",
"NP 	c #3E4458",
"OP 	c #4A5160",
"PP 	c #4C5061",
"QP 	c #525665",
"RP 	c #636775",
"SP 	c #585C6F",
"TP 	c #4B4E64",
"UP 	c #5A5E6E",
"VP 	c #565A6C",
"WP 	c #282840",
"XP 	c #2F3047",
"YP 	c #2C2941",
"ZP 	c #35354B",
"`P 	c #252238",
" Q 	c #313047",
".Q 	c #45485B",
"+Q 	c #4A4C5E",
"@Q 	c #4E4F60",
"#Q 	c #4D5061",
"$Q 	c #4D5060",
"%Q 	c #4C4E60",
"&Q 	c #4B5263",
"*Q 	c #4E5566",
"=Q 	c #45495F",
"-Q 	c #3F425B",
";Q 	c #41435D",
">Q 	c #42465E",
",Q 	c #464B62",
"'Q 	c #292A44",
")Q 	c #383D55",
"!Q 	c #4C506B",
"~Q 	c #3B3E59",
"{Q 	c #353453",
"]Q 	c #4F5164",
"^Q 	c #545769",
"/Q 	c #56586C",
"(Q 	c #555769",
"_Q 	c #53586B",
":Q 	c #50546A",
"<Q 	c #4C5068",
"[Q 	c #4E5069",
"}Q 	c #4C4F67",
"|Q 	c #4F546A",
"1Q 	c #4F5266",
"2Q 	c #353246",
"3Q 	c #474859",
"4Q 	c #343046",
"5Q 	c #342F41",
"6Q 	c #20192E",
"7Q 	c #43465D",
"8Q 	c #444860",
"9Q 	c #464961",
"0Q 	c #494D63",
"aQ 	c #43465B",
"bQ 	c #3E4053",
"cQ 	c #454959",
"dQ 	c #454858",
"eQ 	c #404353",
"fQ 	c #3E4050",
"gQ 	c #474C5A",
"hQ 	c #4D5461",
"iQ 	c #464657",
"jQ 	c #262136",
"kQ 	c #404256",
"lQ 	c #3F4155",
"mQ 	c #413F54",
"nQ 	c #454A5E",
"oQ 	c #474C5F",
"pQ 	c #474B5F",
"qQ 	c #515367",
"rQ 	c #57596C",
"sQ 	c #505366",
"tQ 	c #4D5264",
"uQ 	c #53596A",
"vQ 	c #494D5F",
"wQ 	c #3F4359",
"xQ 	c #383C52",
"yQ 	c #45495C",
"zQ 	c #4A5165",
"AQ 	c #0B031C",
"BQ 	c #18192F",
"CQ 	c #3F4962",
"DQ 	c #3B4059",
"EQ 	c #44495A",
"FQ 	c #44485B",
"GQ 	c #4C4F64",
"HQ 	c #4A4E62",
"IQ 	c #464B5F",
"JQ 	c #43455C",
"KQ 	c #40445C",
"LQ 	c #484D60",
"MQ 	c #232337",
"NQ 	c #211E32",
"OQ 	c #242437",
"PQ 	c #1E1A2F",
"QQ 	c #28253B",
"RQ 	c #323145",
"SQ 	c #3C3B4D",
"TQ 	c #39384A",
"UQ 	c #3B3B4D",
"VQ 	c #404253",
"WQ 	c #3C3E4F",
"XQ 	c #3C3D4E",
"YQ 	c #3E3F51",
"ZQ 	c #333248",
"`Q 	c #2E2B41",
" R 	c #2F2C42",
".R 	c #303245",
"+R 	c #323547",
"@R 	c #222038",
"#R 	c #2E2E46",
"$R 	c #3B3E56",
"%R 	c #2D2F46",
"&R 	c #27263E",
"*R 	c #2E2E44",
"=R 	c #434556",
"-R 	c #434456",
";R 	c #424357",
">R 	c #3C3B51",
",R 	c #3D3E54",
"'R 	c #3C3E53",
")R 	c #404456",
"!R 	c #3F4254",
"~R 	c #232133",
"{R 	c #373446",
"]R 	c #2B253C",
"^R 	c #2B2636",
"/R 	c #170F24",
"(R 	c #2F3146",
"_R 	c #37384E",
":R 	c #3A3A4F",
"<R 	c #383A4F",
"[R 	c #313346",
"}R 	c #373949",
"|R 	c #323344",
"1R 	c #373848",
"2R 	c #3D404D",
"3R 	c #363747",
"4R 	c #1F1930",
"5R 	c #2D2B3F",
"6R 	c #2F2E42",
"7R 	c #312F43",
"8R 	c #313046",
"9R 	c #36374B",
"0R 	c #39384C",
"aR 	c #333548",
"bR 	c #2E2E41",
"cR 	c #242133",
"dR 	c #141226",
"eR 	c #30354C",
"fR 	c #2C2D45",
"gR 	c #333448",
"hR 	c #302E43",
"iR 	c #343347",
"jR 	c #343447",
"kR 	c #383A4E",
"lR 	c #38374D",
"mR 	c #0E041C",
"nR 	c #18132B",
"oR 	c #161129",
"pR 	c #221D32",
"qR 	c #2C2739",
"rR 	c #2B283B",
"sR 	c #2C293D",
"tR 	c #2B283C",
"uR 	c #262339",
"vR 	c #29273D",
"wR 	c #2F2E43",
"xR 	c #2C2B40",
"yR 	c #2D2C3E",
"zR 	c #2F2D3E",
"AR 	c #2F2C3E",
"BR 	c #1B172F",
"CR 	c #150F26",
"DR 	c #140E27",
"ER 	c #140D29",
"FR 	c #2E2D41",
"GR 	c #2B2A3C",
"HR 	c #2A293B",
"IR 	c #2A2A3C",
"JR 	c #2F2F41",
"KR 	c #2F2F43",
"LR 	c #120C25",
"MR 	c #19112A",
"NR 	c #1B132D",
"OR 	c #1B142B",
"PR 	c #191229",
"QR 	c #181128",
"RR 	c #0E0823",
"SR 	c #120A24",
"TR 	c #120D2A",
"UR 	c #140F2C",
"VR 	c #16132D",
"WR 	c #211F37",
"XR 	c #303041",
"YR 	c #303040",
"ZR 	c #272738",
"`R 	c #232035",
" S 	c #1F1A30",
".S 	c #0C041E",
"+S 	c #0C051F",
"@S 	c #150E2B",
"#S 	c #170F2A",
"$S 	c #1A122B",
"%S 	c #1A112B",
"&S 	c #18102B",
"*S 	c #100822",
"=S 	c #716E75",
"-S 	c #706E72",
";S 	c #605F63",
">S 	c #545058",
",S 	c #48454D",
"'S 	c #3E3A44",
")S 	c #363141",
"!S 	c #1A1528",
"~S 	c #191529",
"{S 	c #181427",
"]S 	c #161223",
"^S 	c #171423",
"/S 	c #191726",
"(S 	c #181525",
"_S 	c #191627",
":S 	c #19172A",
"<S 	c #191729",
"[S 	c #201C2F",
"}S 	c #403E47",
"|S 	c #969696",
"1S 	c #A2A29A",
"2S 	c #9E9E98",
"3S 	c #201B2E",
"4S 	c #2D2B3D",
"5S 	c #201D30",
"6S 	c #1D1C2F",
"7S 	c #211F32",
"8S 	c #212134",
"9S 	c #1D172D",
"0S 	c #1F192F",
"aS 	c #302A3D",
"bS 	c #393542",
"cS 	c #44404B",
"dS 	c #59555F",
"eS 	c #868386",
"fS 	c #95918F",
"gS 	c #969391",
"hS 	c #9A9797",
"iS 	c #9E9C9B",
"jS 	c #A09D9D",
"kS 	c #A3A29F",
"lS 	c #3E3B44",
"mS 	c #7F8383",
"nS 	c #8B8A88",
"oS 	c #8E8C8A",
"pS 	c #939190",
"qS 	c #9F9E9C",
"rS 	c #A2A09E",
"sS 	c #A4A19F",
"tS 	c #A3A19F",
"uS 	c #9C9B98",
"vS 	c #9A9896",
"wS 	c #969592",
"xS 	c #8E8E8C",
"yS 	c #888888",
"zS 	c #8A8B8A",
"AS 	c #646469",
"BS 	c #1B192A",
"CS 	c #1C1A29",
"DS 	c #1D1B2D",
"ES 	c #1F1D2E",
"FS 	c #1F1D2B",
"GS 	c #1F1C2F",
"HS 	c #1E1C2E",
"IS 	c #1E1D2D",
"JS 	c #2B2A38",
"KS 	c #343540",
"LS 	c #7D7C79",
"MS 	c #A4A09A",
"NS 	c #A5A09C",
"OS 	c #A6A29D",
"PS 	c #AAA5A1",
"QS 	c #ADABA5",
"RS 	c #B1AFA9",
"SS 	c #B1AFAB",
"TS 	c #ABAAA6",
"US 	c #A6A6A1",
"VS 	c #A4A29E",
"WS 	c #9B9B98",
"XS 	c #484952",
"YS 	c #3D3C48",
"ZS 	c #242131",
"`S 	c #130926",
" T 	c #140926",
".T 	c #D1D0CE",
"+T 	c #D9DAD0",
"@T 	c #CBCEC1",
"#T 	c #BCBBB2",
"$T 	c #ADABA4",
"%T 	c #5B575F",
"&T 	c #1C1731",
"*T 	c #222031",
"=T 	c #2E2C3D",
"-T 	c #302D3D",
";T 	c #2D2C3A",
">T 	c #232232",
",T 	c #150F25",
"'T 	c #0F091B",
")T 	c #0D081B",
"!T 	c #373349",
"~T 	c #85858B",
"{T 	c #F1F2EA",
"]T 	c #F9FAE9",
"^T 	c #F8FAE9",
"/T 	c #F7F7E7",
"(T 	c #CCCDC3",
"_T 	c #413E4F",
":T 	c #474553",
"<T 	c #241F34",
"[T 	c #3A3845",
"}T 	c #43404D",
"|T 	c #46434D",
"1T 	c #4A4650",
"2T 	c #4A4853",
"3T 	c #5A5860",
"4T 	c #616062",
"5T 	c #6A6968",
"6T 	c #848382",
"7T 	c #E7E6D6",
"8T 	c #F3F3E5",
"9T 	c #676566",
"0T 	c #0F0824",
"aT 	c #A3A5AC",
"bT 	c #DDDEDA",
"cT 	c #E6E6D8",
"dT 	c #E8E9DB",
"eT 	c #F2F3E4",
"fT 	c #F5F5E3",
"gT 	c #F1F1E2",
"hT 	c #E6E8D6",
"iT 	c #E3E6D6",
"jT 	c #1F182E",
"kT 	c #100A21",
"lT 	c #130A22",
"mT 	c #160E22",
"nT 	c #494954",
"oT 	c #555A60",
"pT 	c #C4C5B9",
"qT 	c #E7E6D3",
"rT 	c #E7E5D4",
"sT 	c #F8F9E5",
"tT 	c #F4F6E4",
"uT 	c #838788",
"vT 	c #4B4C59",
"wT 	c #353145",
"xT 	c #363344",
"yT 	c #333041",
"zT 	c #D9D9D8",
"AT 	c #F3F5E5",
"BT 	c #FBF7E8",
"CT 	c #FAF7E7",
"DT 	c #F7F9E7",
"ET 	c #F9F9E8",
"FT 	c #949397",
"GT 	c #404061",
"HT 	c #797D88",
"IT 	c #686877",
"JT 	c #1E1B2E",
"KT 	c #0F0B1D",
"LT 	c #6E6E6E",
"MT 	c #E3E0D2",
"NT 	c #EAE8D9",
"OT 	c #F3F2E7",
"PT 	c #F5F5E5",
"QT 	c #C8C8BF",
"RT 	c #4F4B5C",
"ST 	c #524F5E",
"TT 	c #62616A",
"UT 	c #5E5F69",
"VT 	c #0E071D",
"WT 	c #0C061A",
"XT 	c #0B0518",
"YT 	c #656671",
"ZT 	c #858788",
"`T 	c #8C8C8B",
" U 	c #8C8D8A",
".U 	c #848582",
"+U 	c #757475",
"@U 	c #777676",
"#U 	c #858482",
"$U 	c #A09E99",
"%U 	c #CDCCBF",
"&U 	c #F0EFDC",
"*U 	c #F1EFDD",
"=U 	c #767677",
"-U 	c #1C1A3A",
";U 	c #0E0923",
">U 	c #0F0924",
",U 	c #0E0927",
"'U 	c #9999A3",
")U 	c #DADCD7",
"!U 	c #DCDDD1",
"~U 	c #DCDDCD",
"{U 	c #DFDFCF",
"]U 	c #E1E1D2",
"^U 	c #E9E9DB",
"/U 	c #F5F6E3",
"(U 	c #F6F7E4",
"_U 	c #EEEFDC",
":U 	c #E8E9D6",
"<U 	c #E4E6D4",
"[U 	c #E4E7D6",
"}U 	c #545462",
"|U 	c #3D3B47",
"1U 	c #1B172E",
"2U 	c #292B40",
"3U 	c #686B79",
"4U 	c #5C5E69",
"5U 	c #555963",
"6U 	c #D6D7CC",
"7U 	c #ECEBDD",
"8U 	c #F3F2E4",
"9U 	c #F6F9E8",
"0U 	c #FBF8E6",
"aU 	c #F4F3E4",
"bU 	c #595B65",
"cU 	c #4D4D59",
"dU 	c #4B4856",
"eU 	c #454251",
"fU 	c #D4D5CF",
"gU 	c #E8E9D9",
"hU 	c #ECEDDB",
"iU 	c #F1EDE0",
"jU 	c #EDEADC",
"kU 	c #E5E5D7",
"lU 	c #86868F",
"mU 	c #9A999B",
"nU 	c #99979A",
"oU 	c #99999A",
"pU 	c #989A9C",
"qU 	c #787A84",
"rU 	c #4D5062",
"sU 	c #191628",
"tU 	c #3E3F48",
"uU 	c #929092",
"vU 	c #D3CFC0",
"wU 	c #CCC9BA",
"xU 	c #CECDC1",
"yU 	c #CECEBF",
"zU 	c #CDCDBD",
"AU 	c #D3D3C4",
"BU 	c #D8D8C9",
"CU 	c #EBEADC",
"DU 	c #D6D6C8",
"EU 	c #D9D9CC",
"FU 	c #DBDCCD",
"GU 	c #E1E3D4",
"HU 	c #C6C6BF",
"IU 	c #9C9B9D",
"JU 	c #AAABA8",
"KU 	c #BDBEBA",
"LU 	c #232239",
"MU 	c #16132B",
"NU 	c #0B061B",
"OU 	c #0B0618",
"PU 	c #0A0419",
"QU 	c #4C4C56",
"RU 	c #696B70",
"SU 	c #BDBBB1",
"TU 	c #BEBCB1",
"UU 	c #B8B7AC",
"VU 	c #B0ACA5",
"WU 	c #AFAAA3",
"XU 	c #BCB7B0",
"YU 	c #C6C3BA",
"ZU 	c #DEDCD0",
"`U 	c #F3F1E0",
" V 	c #EEEDDC",
".V 	c #EAE9D9",
"+V 	c #EBEBDC",
"@V 	c #57586C",
"#V 	c #333048",
"$V 	c #0D0921",
"%V 	c #4B4C5C",
"&V 	c #636573",
"*V 	c #B3B6BC",
"=V 	c #E6E6E6",
"-V 	c #D4D5CC",
";V 	c #BFC0B1",
">V 	c #BFBFB1",
",V 	c #D5D5C8",
"'V 	c #E8E8D9",
")V 	c #E8E8D7",
"!V 	c #E3E3D2",
"~V 	c #E1E1D0",
"{V 	c #DEDFCD",
"]V 	c #DBDCCB",
"^V 	c #D9DACA",
"/V 	c #DBDBCB",
"(V 	c #D9DBCC",
"_V 	c #7A787E",
":V 	c #6B6876",
"<V 	c #484455",
"[V 	c #6F757F",
"}V 	c #74767B",
"|V 	c #7D7E82",
"1V 	c #C8C9C0",
"2V 	c #E1DFD2",
"3V 	c #E2E0D3",
"4V 	c #E2E1D5",
"5V 	c #EAEADD",
"6V 	c #EBEBDE",
"7V 	c #EDECDF",
"8V 	c #DFE0D2",
"9V 	c #D1D3C8",
"0V 	c #D8DACF",
"aV 	c #D7D9D0",
"bV 	c #A1A1A0",
"cV 	c #9A9998",
"dV 	c #9C9B9B",
"eV 	c #9E9C9C",
"fV 	c #CECFC7",
"gV 	c #B8BAB0",
"hV 	c #B3B2AC",
"iV 	c #EAEBE7",
"jV 	c #CCCAC2",
"kV 	c #A1A4A4",
"lV 	c #7F8791",
"mV 	c #232134",
"nV 	c #87878D",
"oV 	c #9C9C9B",
"pV 	c #A1A09C",
"qV 	c #A2A19A",
"rV 	c #B9B8B0",
"sV 	c #D3D1C5",
"tV 	c #E1DFD3",
"uV 	c #A9A69E",
"vV 	c #A8A49C",
"wV 	c #BBBBB4",
"xV 	c #C8C9C2",
"yV 	c #CFD0C9",
"zV 	c #BEC0B9",
"AV 	c #1D1A33",
"BV 	c #0C061E",
"CV 	c #3A4056",
"DV 	c #414963",
"EV 	c #495264",
"FV 	c #505467",
"GV 	c #464967",
"HV 	c #3A4468",
"IV 	c #C5C9BB",
"JV 	c #ECE9D3",
"KV 	c #EEEBD7",
"LV 	c #EFEEDA",
"MV 	c #F3F2E0",
"NV 	c #F5F3E2",
"OV 	c #F7F4E4",
"PV 	c #F7F4E5",
"QV 	c #B7B5AF",
"RV 	c #B0B1AE",
"SV 	c #82878C",
"TV 	c #7F858E",
"UV 	c #838893",
"VV 	c #8A8F9B",
"WV 	c #4D4C5D",
"XV 	c #0F0A24",
"YV 	c #5C5D6A",
"ZV 	c #84868E",
"`V 	c #CED0D3",
" W 	c #EBEBE9",
".W 	c #D2D2CA",
"+W 	c #BBBAAF",
"@W 	c #C5C3B6",
"#W 	c #BDBBAE",
"$W 	c #ADADA2",
"%W 	c #9E9D9B",
"&W 	c #ABACA8",
"*W 	c #929399",
"=W 	c #5E5A68",
"-W 	c #757C84",
";W 	c #98A3A6",
">W 	c #A3ACB0",
",W 	c #A4ACB0",
"'W 	c #E1E4DC",
")W 	c #E4E5DC",
"!W 	c #848583",
"~W 	c #8D8D8A",
"{W 	c #9D9C94",
"]W 	c #AFAEA3",
"^W 	c #AFB0A8",
"/W 	c #A0A0A0",
"(W 	c #EAE9DA",
"_W 	c #EFEFE0",
":W 	c #EFEFE2",
"<W 	c #F0F1E2",
"[W 	c #F0F0E2",
"}W 	c #CFD1C6",
"|W 	c #C2C2B8",
"1W 	c #B5B3AE",
"2W 	c #B2B0AB",
"3W 	c #DDE1D9",
"4W 	c #DCDED5",
"5W 	c #C5C4BA",
"6W 	c #BBBBB0",
"7W 	c #AEB0AA",
"8W 	c #BABCB6",
"9W 	c #969B9D",
"0W 	c #79828E",
"aW 	c #4C4B54",
"bW 	c #9A9A9C",
"cW 	c #B0B0A8",
"dW 	c #969691",
"eW 	c #BEBCB4",
"fW 	c #C8C6BE",
"gW 	c #B9B8AE",
"hW 	c #BEBCB3",
"iW 	c #C5C5BB",
"jW 	c #CBCCC1",
"kW 	c #BBBBB5",
"lW 	c #A5A5A3",
"mW 	c #ACADAA",
"nW 	c #414055",
"oW 	c #29273C",
"pW 	c #6E7882",
"qW 	c #A1A5A4",
"rW 	c #A9ABAE",
"sW 	c #7F838D",
"tW 	c #636A77",
"uW 	c #A8B0A6",
"vW 	c #C7CABA",
"wW 	c #CBCDBE",
"xW 	c #E2E2D1",
"yW 	c #ECECD9",
"zW 	c #EEEEDB",
"AW 	c #F2F0DE",
"BW 	c #F2F1E0",
"CW 	c #F1F0E2",
"DW 	c #B1B1AD",
"EW 	c #ACAEA9",
"FW 	c #898C90",
"GW 	c #85888F",
"HW 	c #6E7079",
"IW 	c #6A6B75",
"JW 	c #434052",
"KW 	c #595A63",
"LW 	c #BDC0BE",
"MW 	c #D4D5D1",
"NW 	c #BDBEB7",
"OW 	c #A2A39A",
"PW 	c #C2C1B5",
"QW 	c #BFBEB1",
"RW 	c #BDBDB1",
"SW 	c #A9ABA5",
"TW 	c #B5B6AE",
"UW 	c #ACABA7",
"VW 	c #98999B",
"WW 	c #6B6972",
"XW 	c #1C1630",
"YW 	c #110921",
"ZW 	c #5D6572",
"`W 	c #7A838C",
" X 	c #818892",
".X 	c #E6E8E1",
"+X 	c #E9EADF",
"@X 	c #989894",
"#X 	c #ABACA1",
"$X 	c #B5B6AA",
"%X 	c #999A9A",
"&X 	c #E4E4D3",
"*X 	c #E1E2D4",
"=X 	c #DEDED4",
"-X 	c #DDDFD2",
";X 	c #DBDCCF",
">X 	c #D3D5C9",
",X 	c #E7E7DA",
"'X 	c #CED0C3",
")X 	c #DFE0CC",
"!X 	c #BBBAB3",
"~X 	c #AAACAB",
"{X 	c #757E84",
"]X 	c #586677",
"^X 	c #DDDDD7",
"/X 	c #ECECDF",
"(X 	c #484D66",
"_X 	c #6D7486",
":X 	c #737D8F",
"<X 	c #5B6475",
"[X 	c #50556C",
"}X 	c #2C2A3F",
"|X 	c #5B5B5E",
"1X 	c #C2C4BB",
"2X 	c #7D807F",
"3X 	c #696B6A",
"4X 	c #8C8D8B",
"5X 	c #ADAEA6",
"6X 	c #9F9D99",
"7X 	c #CECDC2",
"8X 	c #E0DFD4",
"9X 	c #E7E8DC",
"0X 	c #D8DACE",
"aX 	c #DBDDD2",
"bX 	c #727275",
"cX 	c #B0B1AD",
"dX 	c #9DA0A0",
"eX 	c #414052",
"fX 	c #585F6D",
"gX 	c #747E85",
"hX 	c #C3C9BA",
"iX 	c #CED3C5",
"jX 	c #D0D7CC",
"kX 	c #D2D8D1",
"lX 	c #AFB3B2",
"mX 	c #6D788B",
"nX 	c #717B8C",
"oX 	c #EDEEDA",
"pX 	c #EDEDD9",
"qX 	c #EFEDDB",
"rX 	c #737377",
"sX 	c #65636B",
"tX 	c #413C4E",
"uX 	c #54565D",
"vX 	c #898C8A",
"wX 	c #989993",
"xX 	c #ABADA2",
"yX 	c #ACAFAC",
"zX 	c #C0C2BB",
"AX 	c #D1D1C5",
"BX 	c #CFCFC4",
"CX 	c #C6C3B8",
"DX 	c #B2B1AD",
"EX 	c #A5A5A5",
"FX 	c #3D455B",
"GX 	c #4C546D",
"HX 	c #414561",
"IX 	c #434960",
"JX 	c #EAECE5",
"KX 	c #ADB0AA",
"LX 	c #D9DCCD",
"MX 	c #D0D2C4",
"NX 	c #ACAEA3",
"OX 	c #C0C1B7",
"PX 	c #D1D3C7",
"QX 	c #AAAAA1",
"RX 	c #A9AAA1",
"SX 	c #959796",
"TX 	c #A1A59E",
"UX 	c #E2E1CF",
"VX 	c #84898C",
"WX 	c #D2D2C9",
"XX 	c #E2E2D7",
"YX 	c #C9CAC3",
"ZX 	c #E0DECB",
"`X 	c #AFB0AF",
" Y 	c #6D7683",
".Y 	c #657785",
"+Y 	c #E5E8E2",
"@Y 	c #EDEFE4",
"#Y 	c #818891",
"$Y 	c #5C6272",
"%Y 	c #3D3F55",
"&Y 	c #2D2C41",
"*Y 	c #262739",
"=Y 	c #59595F",
"-Y 	c #BFC1B9",
";Y 	c #BDBEB5",
">Y 	c #7D7F80",
",Y 	c #C8C9BF",
"'Y 	c #CBCDC3",
")Y 	c #CED2C5",
"!Y 	c #C4C7BC",
"~Y 	c #C2C6BE",
"{Y 	c #A3A6A4",
"]Y 	c #959797",
"^Y 	c #62666F",
"/Y 	c #C3CABA",
"(Y 	c #D0D3C6",
"_Y 	c #B0B7B5",
":Y 	c #9196A1",
"<Y 	c #878F98",
"[Y 	c #C5C8BE",
"}Y 	c #E9E9DA",
"|Y 	c #EBEADB",
"1Y 	c #CDCEC6",
"2Y 	c #A0A2A1",
"3Y 	c #A1A4A1",
"4Y 	c #939492",
"5Y 	c #9E9E99",
"6Y 	c #979794",
"7Y 	c #919190",
"8Y 	c #524F5B",
"9Y 	c #55545C",
"0Y 	c #808184",
"aY 	c #A4A6A4",
"bY 	c #B3B5AF",
"cY 	c #C1C2B9",
"dY 	c #C3C3BA",
"eY 	c #C7C8BF",
"fY 	c #A3A59D",
"gY 	c #A3A39F",
"hY 	c #686970",
"iY 	c #3F455C",
"jY 	c #4C536B",
"kY 	c #E1E3DB",
"lY 	c #A7ACA8",
"mY 	c #CCCFC3",
"nY 	c #ACADA5",
"oY 	c #B6B8AE",
"pY 	c #C1C5B9",
"qY 	c #B1B3A9",
"rY 	c #999E99",
"sY 	c #D5D6C8",
"tY 	c #989A93",
"uY 	c #92928C",
"vY 	c #90918A",
"wY 	c #C9C8C1",
"xY 	c #D5D1CB",
"yY 	c #DDD9D5",
"zY 	c #DAD9D5",
"AY 	c #9FA0A2",
"BY 	c #656971",
"CY 	c #B7B8B6",
"DY 	c #E5E6DD",
"EY 	c #C3C5BF",
"FY 	c #A6A8A9",
"GY 	c #323343",
"HY 	c #565F6E",
"IY 	c #686C75",
"JY 	c #BEBEB7",
"KY 	c #BCBCB2",
"LY 	c #9C9D99",
"MY 	c #979A93",
"NY 	c #959891",
"OY 	c #A8ABA6",
"PY 	c #7B8082",
"QY 	c #CDD1BD",
"RY 	c #E6E7D3",
"SY 	c #BBBCB1",
"TY 	c #E8E4DE",
"UY 	c #E8E6DD",
"VY 	c #C1C0BB",
"WY 	c #A4A5A4",
"XY 	c #5A5763",
"YY 	c #53525C",
"ZY 	c #818284",
"`Y 	c #939597",
" Z 	c #919796",
".Z 	c #B7BAB4",
"+Z 	c #ACAFAA",
"@Z 	c #7F8083",
"#Z 	c #50505E",
"$Z 	c #181027",
"%Z 	c #1A122A",
"&Z 	c #272041",
"*Z 	c #464A62",
"=Z 	c #4D556C",
"-Z 	c #9EA5A4",
";Z 	c #B0B4B0",
">Z 	c #9CA09D",
",Z 	c #A7A9A3",
"'Z 	c #717681",
")Z 	c #969890",
"!Z 	c #959591",
"~Z 	c #C7C8C1",
"{Z 	c #D3D4CD",
"]Z 	c #D3D6CE",
"^Z 	c #9B9C9E",
"/Z 	c #585A67",
"(Z 	c #C0C1BE",
"_Z 	c #EAEAE1",
":Z 	c #B2B5B3",
"<Z 	c #2D2D3D",
"[Z 	c #565E6D",
"}Z 	c #676C72",
"|Z 	c #BDBFB5",
"1Z 	c #9C9E96",
"2Z 	c #3B3A4E",
"3Z 	c #0F0920",
"4Z 	c #6A6C76",
"5Z 	c #AFB4A6",
"6Z 	c #D0D3C3",
"7Z 	c #B9B9B1",
"8Z 	c #808186",
"9Z 	c #DFE0D6",
"0Z 	c #C1C1C0",
"aZ 	c #96989A",
"bZ 	c #5E5A67",
"cZ 	c #4E4E59",
"dZ 	c #7C7D82",
"eZ 	c #989C9D",
"fZ 	c #959A9A",
"gZ 	c #B3B6B2",
"hZ 	c #AAADAA",
"iZ 	c #78797D",
"jZ 	c #6D6E75",
"kZ 	c #4A4957",
"lZ 	c #2B2646",
"mZ 	c #A8ACAC",
"nZ 	c #B9BBB8",
"oZ 	c #9FA1A2",
"pZ 	c #A6A9A5",
"qZ 	c #A4A7A3",
"rZ 	c #797B7D",
"sZ 	c #787A7D",
"tZ 	c #888B8F",
"uZ 	c #82888E",
"vZ 	c #888E90",
"wZ 	c #939892",
"xZ 	c #979892",
"yZ 	c #9FA19B",
"zZ 	c #A0A49D",
"AZ 	c #A5A8A9",
"BZ 	c #A5A6A3",
"CZ 	c #979A9A",
"DZ 	c #8C8F94",
"EZ 	c #464850",
"FZ 	c #919498",
"GZ 	c #999994",
"HZ 	c #878A87",
"IZ 	c #7C7E7D",
"JZ 	c #6B6D6F",
"KZ 	c #36374C",
"LZ 	c #25243D",
"MZ 	c #6F747B",
"NZ 	c #636570",
"OZ 	c #676870",
"PZ 	c #CFCFC8",
"QZ 	c #CECEC6",
"RZ 	c #ABAFAC",
"SZ 	c #C4C9C2",
"TZ 	c #ABAFAA",
"UZ 	c #5F5C67",
"VZ 	c #6A6B74",
"WZ 	c #A7A79F",
"XZ 	c #A0A29F",
"YZ 	c #92969B",
"ZZ 	c #74787E",
"`Z 	c #7D8184",
" ` 	c #8C918F",
".` 	c #8D9291",
"+` 	c #8D9191",
"@` 	c #7B7F7D",
"#` 	c #818585",
"$` 	c #54535E",
"%` 	c #1B132F",
"&` 	c #1D172F",
"*` 	c #2D2643",
"=` 	c #6A7077",
"-` 	c #B4B7B4",
";` 	c #BFC1BE",
">` 	c #AAAEAF",
",` 	c #A0A4A5",
"'` 	c #A1A5A3",
")` 	c #555760",
"!` 	c #A2A49F",
"~` 	c #898E8D",
"{` 	c #8A8F90",
"]` 	c #898E90",
"^` 	c #999A94",
"/` 	c #858890",
"(` 	c #515359",
"_` 	c #9C9FA0",
":` 	c #939691",
"<` 	c #7E807F",
"[` 	c #787B7C",
"}` 	c #6B6F72",
"|` 	c #6B7178",
"1` 	c #6F737E",
"2` 	c #5D646C",
"3` 	c #C9CCC0",
"4` 	c #D3D4C6",
"5` 	c #ACB1AC",
"6` 	c #CDD3CA",
"7` 	c #B2B7B1",
"8` 	c #77797D",
"9` 	c #65696E",
"0` 	c #65686D",
"a` 	c #5F5D67",
"b` 	c #424350",
"c` 	c #6B6D75",
"d` 	c #ACABA4",
"e` 	c #BDBCB5",
"f` 	c #A7A7A5",
"g` 	c #92959B",
"h` 	c #6F737A",
"i` 	c #777B7C",
"j` 	c #7A7F80",
"k` 	c #54545F",
"l` 	c #2A223E",
"m` 	c #63686F",
"n` 	c #A9AFAC",
"o` 	c #AEB4B1",
"p` 	c #9BA0A0",
"q` 	c #6D7078",
"r` 	c #3A3B4D",
"s` 	c #9BA09C",
"t` 	c #919591",
"u` 	c #8C918E",
"v` 	c #838785",
"w` 	c #7A7C82",
"x` 	c #51525F",
"y` 	c #53545B",
"z` 	c #989F9F",
"A` 	c #91948F",
"B` 	c #8E918E",
"C` 	c #7C7F82",
"D` 	c #777D7E",
"E` 	c #50515C",
"F` 	c #0F0725",
"G` 	c #575B66",
"H` 	c #696E75",
"I` 	c #676C75",
"J` 	c #A2A8A6",
"K` 	c #A6ABAA",
"L` 	c #9DA2A1",
"M` 	c #929796",
"N` 	c #6F737C",
"O` 	c #6D717B",
"P` 	c #494658",
"Q` 	c #42434F",
"R` 	c #6A6B73",
"S` 	c #999896",
"T` 	c #8D8E8F",
"U` 	c #60656D",
"V` 	c #9A9F9E",
"W` 	c #1D1633",
"X` 	c #281F3B",
"Y` 	c #5B5F66",
"Z` 	c #797F80",
"`` 	c #7C8387",
"  .	c #757D83",
". .	c #7B8389",
"+ .	c #767D81",
"@ .	c #5D6067",
"# .	c #66686F",
"$ .	c #9A9C9B",
"% .	c #969899",
"& .	c #909591",
"* .	c #7C817F",
"= .	c #7A7F7D",
"- .	c #4E5060",
"; .	c #919592",
"> .	c #8C8E8B",
", .	c #86888C",
"' .	c #86878B",
") .	c #84858A",
"! .	c #676871",
"~ .	c #555564",
"{ .	c #3B3A4B",
"] .	c #515259",
"^ .	c #989E9F",
"/ .	c #959A98",
"( .	c #717075",
"_ .	c #302D3F",
": .	c #272436",
"< .	c #1F1A2C",
"[ .	c #171126",
"} .	c #100724",
"| .	c #A4A9A8",
"1 .	c #B1B4B2",
"2 .	c #9A9D9E",
"3 .	c #8B9192",
"4 .	c #646A76",
"5 .	c #606576",
"6 .	c #595F70",
"7 .	c #545B6D",
"8 .	c #42424D",
"9 .	c #494C57",
"0 .	c #A9AEAD",
"a .	c #9EA3A2",
"b .	c #8F9494",
"c .	c #7C7E83",
"d .	c #797A7E",
"e .	c #575966",
"f .	c #27213D",
"g .	c #251C37",
"h .	c #505360",
"i .	c #6B7177",
"j .	c #565B70",
"k .	c #51576E",
"l .	c #616776",
"m .	c #646B75",
"n .	c #828584",
"o .	c #9B9D9B",
"p .	c #575A61",
"q .	c #919496",
"r .	c #6E7174",
"s .	c #575962",
"t .	c #484B59",
"u .	c #42455B",
"v .	c #454860",
"w .	c #868A8A",
"x .	c #75787C",
"y .	c #808185",
"z .	c #77787F",
"A .	c #74757D",
"B .	c #77787E",
"C .	c #5F5F6C",
"D .	c #545464",
"E .	c #4F4F57",
"F .	c #858888",
"G .	c #6A6C74",
"H .	c #241D34",
"I .	c #181028",
"J .	c #686D74",
"K .	c #686D73",
"L .	c #8E9093",
"M .	c #676C7B",
"N .	c #626679",
"O .	c #54596C",
"P .	c #3A3B51",
"Q .	c #5E626A",
"R .	c #808487",
"S .	c #878A8D",
"T .	c #A4A8A9",
"U .	c #787B80",
"V .	c #6B6B74",
"W .	c #73757D",
"X .	c #555864",
"Y .	c #1A1029",
"Z .	c #241A36",
"` .	c #494A5C",
" ..	c #5F6471",
"...	c #606371",
"+..	c #45475C",
"@..	c #727679",
"#..	c #7C7E7E",
"$..	c #878A89",
"%..	c #767A7C",
"&..	c #5A5A63",
"*..	c #545762",
"=..	c #32324B",
"-..	c #4D4E62",
";..	c #7C8084",
">..	c #7F8187",
",..	c #33324A",
"'..	c #535363",
")..	c #11071F",
"!..	c #474952",
"~..	c #7A8285",
"{..	c #888D8B",
"]..	c #707177",
"^..	c #818488",
"/..	c #7E8187",
"(..	c #777A84",
"_..	c #363851",
":..	c #666C75",
"<..	c #8F949A",
"[..	c #767C81",
"}..	c #3E3E59",
"|..	c #4D4E64",
"1..	c #646B7A",
"2..	c #686E7D",
"3..	c #515768",
"4..	c #444A5F",
"5..	c #353643",
"6..	c #686873",
"7..	c #767983",
"8..	c #6A6C78",
"9..	c #565765",
"0..	c #A9ACAC",
"a..	c #A5A7A9",
"b..	c #80838C",
"c..	c #72757D",
"d..	c #474354",
"e..	c #717179",
"f..	c #180E27",
"g..	c #201832",
"h..	c #525567",
"i..	c #9CA19F",
"j..	c #B0B5B4",
"k..	c #3E3F57",
"l..	c #33364F",
"m..	c #69696D",
"n..	c #66656A",
"o..	c #67696B",
"p..	c #7F8486",
"q..	c #777C80",
"r..	c #717479",
"s..	c #71747A",
"t..	c #6A6D75",
"u..	c #160F2B",
"v..	c #2A2B43",
"w..	c #5D6172",
"x..	c #72757E",
"y..	c #6F727A",
"z..	c #5B5C69",
"A..	c #72737D",
"B..	c #6E7178",
"C..	c #5A5A68",
"D..	c #46465B",
"E..	c #575666",
"F..	c #575967",
"G..	c #41434C",
"H..	c #747C7F",
"I..	c #73797C",
"J..	c #7E8085",
"K..	c #747780",
"L..	c #737780",
"M..	c #6E717C",
"N..	c #7E8289",
"O..	c #717782",
"P..	c #6C7180",
"Q..	c #63677B",
"R..	c #393F56",
"S..	c #27273C",
"T..	c #5C6070",
"U..	c #777B84",
"V..	c #626373",
"W..	c #646475",
"X..	c #5B6272",
"Y..	c #5D6473",
"Z..	c #53596B",
"`..	c #484E62",
" +.	c #555761",
".+.	c #727680",
"++.	c #676A77",
"@+.	c #6F7179",
"#+.	c #9DA1A1",
"$+.	c #96989C",
"%+.	c #878B92",
"&+.	c #777985",
"*+.	c #6F7279",
"=+.	c #676971",
"-+.	c #2B2A45",
";+.	c #150B24",
">+.	c #1D152E",
",+.	c #979B9F",
"'+.	c #40425C",
")+.	c #6B6E76",
"!+.	c #6F7075",
"~+.	c #6C6E72",
"{+.	c #6F7174",
"]+.	c #787D81",
"^+.	c #757B7F",
"/+.	c #63656E",
"(+.	c #393C50",
"_+.	c #484C5E",
":+.	c #505565",
"<+.	c #474A62",
"[+.	c #545765",
"}+.	c #595B6A",
"|+.	c #545565",
"1+.	c #555464",
"2+.	c #535464",
"3+.	c #555665",
"4+.	c #4B4C5E",
"5+.	c #434355",
"6+.	c #302D40",
"7+.	c #2D2E3B",
"8+.	c #586165",
"9+.	c #4F5664",
"0+.	c #353958",
"a+.	c #3D435B",
"b+.	c #626772",
"c+.	c #636872",
"d+.	c #6C717B",
"e+.	c #6D737A",
"f+.	c #6F777D",
"g+.	c #646B74",
"h+.	c #666B77",
"i+.	c #6E737F",
"j+.	c #6E7580",
"k+.	c #767D89",
"l+.	c #6D7384",
"m+.	c #3B4057",
"n+.	c #2A2A40",
"o+.	c #48495E",
"p+.	c #585C68",
"q+.	c #60656F",
"r+.	c #646973",
"s+.	c #686D76",
"t+.	c #6A6E79",
"u+.	c #626371",
"v+.	c #5D5D6C",
"w+.	c #5E606D",
"x+.	c #747680",
"y+.	c #4D5366",
"z+.	c #4B5166",
"A+.	c #50566A",
"B+.	c #4B5164",
"C+.	c #110520",
"D+.	c #4F525C",
"E+.	c #5E6272",
"F+.	c #8C9093",
"G+.	c #747982",
"H+.	c #424461",
"I+.	c #595D71",
"J+.	c #686C7B",
"K+.	c #686C76",
"L+.	c #313246",
"M+.	c #140921",
"N+.	c #170D26",
"O+.	c #5F667A",
"P+.	c #4D526E",
"Q+.	c #53566F",
"R+.	c #6A6C75",
"S+.	c #62646F",
"T+.	c #5E606F",
"U+.	c #585A69",
"V+.	c #4D4E5B",
"W+.	c #4E4E5B",
"X+.	c #150F2D",
"Y+.	c #5B6270",
"Z+.	c #505666",
"`+.	c #3D4157",
" @.	c #45485D",
".@.	c #484858",
"+@.	c #4A4A5C",
"@@.	c #4D4C5E",
"#@.	c #4F4E60",
"$@.	c #4E4F5F",
"%@.	c #3D3C50",
"&@.	c #29273A",
"*@.	c #414559",
"=@.	c #343759",
"-@.	c #535867",
";@.	c #565A68",
">@.	c #575B69",
",@.	c #585D6B",
"'@.	c #5B606D",
")@.	c #5D626E",
"!@.	c #5E636E",
"~@.	c #606572",
"{@.	c #595E6D",
"]@.	c #505465",
"^@.	c #55596A",
"/@.	c #676E7C",
"(@.	c #5B6071",
"_@.	c #2F3249",
":@.	c #39374E",
"<@.	c #5A5B6A",
"[@.	c #5A5E6A",
"}@.	c #5B5E6C",
"|@.	c #56576A",
"1@.	c #545568",
"2@.	c #515266",
"3@.	c #606370",
"4@.	c #43475E",
"5@.	c #40445A",
"6@.	c #42475A",
"7@.	c #414658",
"8@.	c #231F34",
"9@.	c #1E1A2B",
"0@.	c #333140",
"a@.	c #515467",
"b@.	c #6C707D",
"c@.	c #727881",
"d@.	c #696E7B",
"e@.	c #444664",
"f@.	c #54576D",
"g@.	c #5D5F71",
"h@.	c #5A5C6D",
"i@.	c #5A5C6C",
"j@.	c #60636F",
"k@.	c #656873",
"l@.	c #2E2A42",
"m@.	c #201A33",
"n@.	c #130621",
"o@.	c #4E5166",
"p@.	c #52566C",
"q@.	c #50536D",
"r@.	c #53576E",
"s@.	c #606471",
"t@.	c #505260",
"u@.	c #484757",
"v@.	c #515362",
"w@.	c #201E35",
"x@.	c #34344C",
"y@.	c #373B4D",
"z@.	c #454758",
"A@.	c #37364E",
"B@.	c #3E3D55",
"C@.	c #0F041E",
"D@.	c #221F3F",
"E@.	c #30314E",
"F@.	c #3F425F",
"G@.	c #3D3F5A",
"H@.	c #43445D",
"I@.	c #45475E",
"J@.	c #494A60",
"K@.	c #505266",
"L@.	c #4A4E64",
"M@.	c #484B62",
"N@.	c #484C62",
"O@.	c #484D5F",
"P@.	c #414557",
"Q@.	c #3C394D",
"R@.	c #1A1430",
"S@.	c #3A3749",
"T@.	c #48485A",
"U@.	c #49485B",
"V@.	c #46475D",
"W@.	c #45465C",
"X@.	c #46475E",
"Y@.	c #4B4D61",
"Z@.	c #4B4C62",
"`@.	c #494C60",
" #.	c #3D4156",
".#.	c #3A3D53",
"+#.	c #211F33",
"@#.	c #140C2B",
"##.	c #3E405B",
"$#.	c #464864",
"%#.	c #3F415D",
"&#.	c #3B3D59",
"*#.	c #4C506C",
"=#.	c #4E536E",
"-#.	c #4D506C",
";#.	c #4F526F",
">#.	c #4F526D",
",#.	c #4F516C",
"'#.	c #4E4F6C",
")#.	c #4C4D65",
"!#.	c #484960",
"~#.	c #424456",
"{#.	c #434457",
"]#.	c #2C273D",
"^#.	c #201B30",
"/#.	c #11031F",
"(#.	c #2D2C40",
"_#.	c #3E3C54",
":#.	c #4A4963",
"<#.	c #53566B",
"[#.	c #4F5366",
"}#.	c #4B4F61",
"|#.	c #4D5065",
"1#.	c #4B4D63",
"2#.	c #393A51",
"3#.	c #4B4F60",
"4#.	c #404050",
"5#.	c #404151",
"6#.	c #47455D",
"7#.	c #34324A",
"8#.	c #414359",
"9#.	c #2F2D41",
"0#.	c #343246",
"a#.	c #393649",
"b#.	c #383849",
"c#.	c #3B384B",
"d#.	c #3E3B4E",
"e#.	c #3C3B4E",
"f#.	c #35344A",
"g#.	c #313144",
"h#.	c #2F3044",
"i#.	c #0E031E",
"j#.	c #1D1D35",
"k#.	c #2B2D47",
"l#.	c #363A54",
"m#.	c #32334E",
"n#.	c #37354D",
"o#.	c #3A3A50",
"p#.	c #414156",
"q#.	c #414459",
"r#.	c #3D4052",
"s#.	c #3D4053",
"t#.	c #3B3D4F",
"u#.	c #332F43",
"v#.	c #18122D",
"w#.	c #140A26",
"x#.	c #282337",
"y#.	c #373549",
"z#.	c #3B3950",
"A#.	c #3C3A4F",
"B#.	c #3B3B53",
"C#.	c #39394F",
"D#.	c #3D3951",
"E#.	c #36364A",
"F#.	c #272739",
"G#.	c #171426",
"H#.	c #10051F",
"I#.	c #363750",
"J#.	c #393852",
"K#.	c #33324E",
"L#.	c #333250",
"M#.	c #3A3E54",
"N#.	c #3F3E5A",
"O#.	c #40405C",
"P#.	c #40415C",
"Q#.	c #41405A",
"R#.	c #3F4059",
"S#.	c #3C3C53",
"T#.	c #37384B",
"U#.	c #2B263C",
"V#.	c #1C192D",
"W#.	c #10041D",
"X#.	c #39394C",
"Y#.	c #3F4257",
"Z#.	c #33354B",
"`#.	c #3D3D54",
" $.	c #2C2C40",
".$.	c #0D0526",
"+$.	c #0E0628",
"@$.	c #0F0527",
"#$.	c #0D0527",
"$$.	c #0D0221",
"%$.	c #0D0220",
"&$.	c #0F0523",
"*$.	c #110725",
"=$.	c #110926",
"-$.	c #29243C",
";$.	c #29253C",
">$.	c #29253A",
",$.	c #221F37",
"'$.	c #1D1834",
")$.	c #18142E",
"!$.	c #0E0725",
"~$.	c #110624",
"{$.	c #110727",
"]$.	c #0E0726",
"^$.	c #0E0828",
"/$.	c #0F0926",
"($.	c #100A26",
"_$.	c #130A28",
":$.	c #161025",
"<$.	c #241D33",
"[$.	c #261F35",
"}$.	c #272233",
"|$.	c #262132",
"1$.	c #211C2E",
"2$.	c #191428",
"3$.	c #0F0727",
"4$.	c #0D0825",
"5$.	c #0D0725",
"6$.	c #120927",
"7$.	c #17102C",
"8$.	c #1A142E",
"9$.	c #1D182F",
"0$.	c #221F33",
"a$.	c #252037",
"b$.	c #282338",
"c$.	c #282339",
"d$.	c #282239",
"e$.	c #262137",
"f$.	c #0D051D",
"g$.	c #0E0724",
"h$.	c #0F0925",
"i$.	c #100927",
"j$.	c #130C29",
"k$.	c #140D28",
"l$.	c #130E2D",
"m$.	c #1B1834",
"n$.	c #24223A",
"o$.	c #28263D",
"p$.	c #2A293F",
"q$.	c #2B2C3F",
"r$.	c #2B2A40",
"s$.	c #28273B",
"t$.	c #282638",
"u$.	c #1F1C30",
"v$.	c #0C041D",
"w$.	c #0C031D",
"x$.	c #201B2A",
"y$.	c #4A464B",
"z$.	c #696666",
"A$.	c #747371",
"B$.	c #83827F",
"C$.	c #8F8E8B",
"D$.	c #989797",
"E$.	c #9D9C9C",
"F$.	c #A09E9F",
"G$.	c #9E9F9F",
"H$.	c #9E9E9C",
"I$.	c #9C9B9A",
"J$.	c #959698",
"K$.	c #959597",
"L$.	c #949192",
"M$.	c #908D8D",
"N$.	c #8C8B8A",
"O$.	c #898888",
"P$.	c #808181",
"Q$.	c #7B7B7B",
"R$.	c #211D39",
"S$.	c #201C31",
"T$.	c #1F1B2E",
"U$.	c #221D30",
"V$.	c #221D31",
"W$.	c #221F31",
"X$.	c #232034",
"Y$.	c #2D2A3A",
"Z$.	c #3F3B49",
"`$.	c #494650",
" %.	c #767479",
".%.	c #8D8A8F",
"+%.	c #9A9B99",
"@%.	c #908F8C",
"#%.	c #90908C",
"$%.	c #90918D",
"%%.	c #8F908E",
"&%.	c #221F3A",
"*%.	c #1B182E",
"=%.	c #1A172A",
"-%.	c #211B2E",
";%.	c #231C30",
">%.	c #231E2F",
",%.	c #221D2E",
"'%.	c #201A2C",
")%.	c #191427",
"!%.	c #423E54",
"~%.	c #434251",
"{%.	c #7D7D7E",
"]%.	c #8C8B8D",
"^%.	c #939292",
"/%.	c #939290",
"(%.	c #908E8D",
"_%.	c #8C8B89",
":%.	c #84857F",
"<%.	c #828281",
"[%.	c #6D6D6F",
"}%.	c #504F5A",
"|%.	c #252139",
"1%.	c #221D2F",
"2%.	c #353341",
"3%.	c #4B4851",
"4%.	c #6B6B6D",
"5%.	c #767777",
"6%.	c #7B787A",
"7%.	c #7D7A7B",
"8%.	c #828182",
"9%.	c #827F7F",
"0%.	c #878585",
"a%.	c #8A8888",
"b%.	c #3C3C45",
"c%.	c #3C3C48",
"d%.	c #353546",
"e%.	c #1A192F",
"f%.	c #201F36",
"g%.	c #222134",
"h%.	c #212034",
"i%.	c #212032",
"j%.	c #201F30",
"k%.	c #211E2E",
"l%.	c #58575F",
"m%.	c #4B4A52",
"n%.	c #43414A",
"o%.	c #393741",
"p%.	c #312E3B",
"q%.	c #140D27",
"r%.	c #170E2B",
"s%.	c #160C2B",
"t%.	c #5E5F60",
"u%.	c #F5F6E2",
"v%.	c #F9F8E6",
"w%.	c #FBFBEB",
"x%.	c #FAFBEB",
"y%.	c #F8F9E7",
"z%.	c #F6F7E6",
"A%.	c #150B2A",
"B%.	c #0E051F",
"C%.	c #343341",
"D%.	c #5C5C62",
"E%.	c #7C7B7F",
"F%.	c #8E8D8E",
"G%.	c #E0E1D7",
"H%.	c #F4F3E9",
"I%.	c #F6F6E9",
"J%.	c #F9FAE8",
"K%.	c #FBFAE8",
"L%.	c #F7F8E3",
"M%.	c #F7F9E1",
"N%.	c #F6F8E1",
"O%.	c #F5F6DF",
"P%.	c #F2F5DD",
"Q%.	c #EFF3DB",
"R%.	c #D2D5C8",
"S%.	c #424563",
"T%.	c #33314D",
"U%.	c #0E031B",
"V%.	c #6C6E8A",
"W%.	c #76778E",
"X%.	c #D4D5CA",
"Y%.	c #DFDED0",
"Z%.	c #E2E3D3",
"`%.	c #EEEFDE",
" &.	c #F9F7E8",
".&.	c #FBF7E9",
"+&.	c #F4F5E0",
"@&.	c #F0F1DD",
"#&.	c #EBECD8",
"$&.	c #0C071C",
"%&.	c #0B061A",
"&&.	c #D2D3C8",
"*&.	c #DBDBD0",
"=&.	c #DFDACE",
"-&.	c #DFDBCF",
";&.	c #E8E5D9",
">&.	c #EEEEE0",
",&.	c #EFEEDF",
"'&.	c #676B70",
")&.	c #555863",
"!&.	c #3C3D55",
"~&.	c #171027",
"{&.	c #0C051D",
"]&.	c #515357",
"^&.	c #C9CCCA",
"/&.	c #C5C8C2",
"(&.	c #B9BCB6",
"_&.	c #9A9C9C",
":&.	c #74737E",
"<&.	c #211E30",
"[&.	c #535356",
"}&.	c #878583",
"|&.	c #CFCDBD",
"1&.	c #EBEBD8",
"2&.	c #F0EFDE",
"3&.	c #F0F1E0",
"4&.	c #F0F0E0",
"5&.	c #EEEFDF",
"6&.	c #F1F1E0",
"7&.	c #F1F1E1",
"8&.	c #F1F2E1",
"9&.	c #F0F2DF",
"0&.	c #F1F3E0",
"a&.	c #F1F2E0",
"b&.	c #F1F2DF",
"c&.	c #343141",
"d&.	c #41414D",
"e&.	c #1E1D2E",
"f&.	c #0D051A",
"g&.	c #1D1D2A",
"h&.	c #1F1D2C",
"i&.	c #41404B",
"j&.	c #727272",
"k&.	c #8F8F8A",
"l&.	c #DCDED1",
"m&.	c #F2F3E0",
"n&.	c #F2F4DE",
"o&.	c #F4F5E2",
"p&.	c #EBEDD8",
"q&.	c #ECEED7",
"r&.	c #ECEDD7",
"s&.	c #E8EAD5",
"t&.	c #E3E5D1",
"u&.	c #DDE0CD",
"v&.	c #BBBEB4",
"w&.	c #676C7A",
"x&.	c #575866",
"y&.	c #10091C",
"z&.	c #5E5F66",
"A&.	c #5A5C61",
"B&.	c #C7C7BC",
"C&.	c #D1D0C1",
"D&.	c #D5D5C6",
"E&.	c #DADACB",
"F&.	c #ECEADB",
"G&.	c #E9E7D9",
"H&.	c #E7E8D9",
"I&.	c #E8E9D8",
"J&.	c #E5E6D2",
"K&.	c #E1E2CF",
"L&.	c #D6D6C4",
"M&.	c #979894",
"N&.	c #555461",
"O&.	c #171325",
"P&.	c #141325",
"Q&.	c #151123",
"R&.	c #434249",
"S&.	c #636269",
"T&.	c #8C8D90",
"U&.	c #C7C6BD",
"V&.	c #CAC7BD",
"W&.	c #CDC9BE",
"X&.	c #D6D4C8",
"Y&.	c #DFDED1",
"Z&.	c #E2E1D4",
"`&.	c #E5E5D6",
" *.	c #EBEADD",
".*.	c #979795",
"+*.	c #3D3B45",
"@*.	c #110928",
"#*.	c #0C041C",
"$*.	c #262535",
"%*.	c #454247",
"&*.	c #565455",
"**.	c #73716F",
"=*.	c #848684",
"-*.	c #B8BBB5",
";*.	c #9C9A98",
">*.	c #686872",
",*.	c #BBBFB2",
"'*.	c #F0F1DB",
")*.	c #EFF1D9",
"!*.	c #ECEDD6",
"~*.	c #D9D7C8",
"{*.	c #CFCCC1",
"]*.	c #C5C3B7",
"^*.	c #BAB8AD",
"/*.	c #B1B0A8",
"(*.	c #B6B5AE",
"_*.	c #D6D8CC",
":*.	c #D4D4C8",
"<*.	c #D5D4C9",
"[*.	c #D6D5C8",
"}*.	c #D5D6CA",
"|*.	c #BEBFB8",
"1*.	c #B1B1AF",
"2*.	c #9F9E9E",
"3*.	c #7B7B82",
"4*.	c #777C83",
"5*.	c #40455C",
"6*.	c #0C0419",
"7*.	c #62686F",
"8*.	c #656A74",
"9*.	c #8C9398",
"0*.	c #C1C2BA",
"a*.	c #DADACA",
"b*.	c #DBDDCC",
"c*.	c #DCDFCC",
"d*.	c #E0E1CC",
"e*.	c #DCDDCB",
"f*.	c #CACABF",
"g*.	c #BCBEB5",
"h*.	c #C8C9BE",
"i*.	c #CDCFC3",
"j*.	c #AFB2AD",
"k*.	c #A2A7A6",
"l*.	c #140D2C",
"m*.	c #818989",
"n*.	c #8B928F",
"o*.	c #AAACA5",
"p*.	c #B0B3AA",
"q*.	c #BEC0B3",
"r*.	c #C5C6B8",
"s*.	c #CACABC",
"t*.	c #CBCCBC",
"u*.	c #CECDBF",
"v*.	c #A0A5A2",
"w*.	c #888F98",
"x*.	c #B2B6AF",
"y*.	c #CFCFC0",
"z*.	c #C8C7BB",
"A*.	c #CBC9BF",
"B*.	c #BBBEB6",
"C*.	c #8F9096",
"D*.	c #151223",
"E*.	c #323443",
"F*.	c #2C3041",
"G*.	c #2C2C3D",
"H*.	c #BDC0B9",
"I*.	c #BDBFBB",
"J*.	c #BBB9B2",
"K*.	c #BFBFB4",
"L*.	c #CBCABE",
"M*.	c #CECCC2",
"N*.	c #D0CDC1",
"O*.	c #A8AEA9",
"P*.	c #8F989A",
"Q*.	c #E9E9E2",
"R*.	c #E6E6D9",
"S*.	c #E1E4D6",
"T*.	c #201D49",
"U*.	c #130D2F",
"V*.	c #0B031A",
"W*.	c #090619",
"X*.	c #585A68",
"Y*.	c #B4B3AB",
"Z*.	c #CBCBBD",
"`*.	c #C3C5B9",
" =.	c #6A717B",
".=.	c #69717E",
"+=.	c #D1D4C4",
"@=.	c #ABAFA4",
"#=.	c #E0E4CD",
"$=.	c #E4E4CF",
"%=.	c #E0E1CB",
"&=.	c #DDD9CD",
"*=.	c #D5D2C8",
"==.	c #C0BFB8",
"-=.	c #BEBEB6",
";=.	c #C3C1B8",
">=.	c #A6A5A0",
",=.	c #ACACA7",
"'=.	c #ADADA7",
")=.	c #B8B9B3",
"!=.	c #C4C5BF",
"~=.	c #C4C5BD",
"{=.	c #C6C7BF",
"]=.	c #B5B5B2",
"^=.	c #ACABAA",
"/=.	c #ACACA9",
"(=.	c #60626E",
"_=.	c #4A4B5F",
":=.	c #525161",
"<=.	c #494858",
"[=.	c #140E23",
"}=.	c #656C75",
"|=.	c #6A717A",
"1=.	c #A0A5A4",
"2=.	c #D0D3C4",
"3=.	c #D5D5C4",
"4=.	c #D2D3C6",
"5=.	c #BABCB0",
"6=.	c #BABDB4",
"7=.	c #B7BAB1",
"8=.	c #ADB1AD",
"9=.	c #A1A6A3",
"0=.	c #9DA3A1",
"a=.	c #939999",
"b=.	c #8F969E",
"c=.	c #8A9195",
"d=.	c #282636",
"e=.	c #2A2A38",
"f=.	c #7C8284",
"g=.	c #A2A69D",
"h=.	c #A6AAA1",
"i=.	c #B5B6AD",
"j=.	c #BCBBB0",
"k=.	c #B8BAAD",
"l=.	c #B8B9AC",
"m=.	c #9FA6A7",
"n=.	c #BBBFB8",
"o=.	c #C2C3BA",
"p=.	c #BDBEB6",
"q=.	c #BBBDB4",
"r=.	c #AFB3AC",
"s=.	c #7C8187",
"t=.	c #1A1630",
"u=.	c #17142A",
"v=.	c #262736",
"w=.	c #3F414E",
"x=.	c #5F606A",
"y=.	c #9EA0A0",
"z=.	c #AFB2AC",
"A=.	c #BFC2BB",
"B=.	c #C6C7C0",
"C=.	c #878A88",
"D=.	c #7C7D7C",
"E=.	c #C9C8BD",
"F=.	c #C9C9BE",
"G=.	c #CCCABE",
"H=.	c #A2A9A4",
"I=.	c #969FA4",
"J=.	c #E7E9DF",
"K=.	c #CDD1C2",
"L=.	c #A5A9A2",
"M=.	c #949594",
"N=.	c #6A696F",
"O=.	c #191328",
"P=.	c #0F0C1D",
"Q=.	c #747879",
"R=.	c #C8C9BD",
"S=.	c #9BA09F",
"T=.	c #DBDECF",
"U=.	c #E2E3D2",
"V=.	c #818485",
"W=.	c #999D93",
"X=.	c #818682",
"Y=.	c #C6C6BE",
"Z=.	c #E0DFD2",
"`=.	c #C1C0BA",
" -.	c #CFCEC6",
".-.	c #969692",
"+-.	c #92938C",
"@-.	c #A4A59D",
"#-.	c #CDCDC3",
"$-.	c #CECEC3",
"%-.	c #585A6C",
"&-.	c #19162A",
"*-.	c #6C737B",
"=-.	c #757B85",
"--.	c #B1B3AD",
";-.	c #C6C9BD",
">-.	c #B4B5AD",
",-.	c #B7B9B0",
"'-.	c #B7B8B1",
")-.	c #B4B6B0",
"!-.	c #67686E",
"~-.	c #9EA3A3",
"{-.	c #98A09C",
"]-.	c #959D99",
"^-.	c #777D80",
"/-.	c #3D425A",
"(-.	c #3F4252",
"_-.	c #494E5B",
":-.	c #989A92",
"<-.	c #999991",
"[-.	c #838588",
"}-.	c #515061",
"|-.	c #4C4B5E",
"1-.	c #2B2744",
"2-.	c #25213E",
"3-.	c #1D1832",
"4-.	c #0F0B1E",
"5-.	c #BCBEBA",
"6-.	c #C9CCC2",
"7-.	c #CCCDC6",
"8-.	c #727173",
"9-.	c #C0C1B8",
"0-.	c #C8C7BC",
"a-.	c #CAC9BE",
"b-.	c #C6C5BC",
"c-.	c #595F68",
"d-.	c #6C747D",
"e-.	c #E5E8DC",
"f-.	c #E4E7D5",
"g-.	c #B8B7AD",
"h-.	c #CDCFC2",
"i-.	c #272338",
"j-.	c #1A1729",
"k-.	c #868B8D",
"l-.	c #757982",
"m-.	c #83868A",
"n-.	c #C6C9BA",
"o-.	c #D4D8C8",
"p-.	c #ECECDC",
"q-.	c #737376",
"r-.	c #9EA39E",
"s-.	c #B8BAAE",
"t-.	c #B8BBB3",
"u-.	c #B0B2AD",
"v-.	c #949692",
"w-.	c #C5C6BF",
"x-.	c #C7C6BC",
"y-.	c #8C8F91",
"z-.	c #696B7C",
"A-.	c #15112B",
"B-.	c #6C7379",
"C-.	c #B4B4AE",
"D-.	c #B1B2AB",
"E-.	c #B4B6AE",
"F-.	c #B1B4AC",
"G-.	c #8F9597",
"H-.	c #898F91",
"I-.	c #818889",
"J-.	c #81868D",
"K-.	c #7B828D",
"L-.	c #1D1730",
"M-.	c #454954",
"N-.	c #9A9D96",
"O-.	c #989895",
"P-.	c #99999C",
"Q-.	c #B3B3B0",
"R-.	c #BBBDB2",
"S-.	c #B0B1A9",
"T-.	c #929493",
"U-.	c #8D8C90",
"V-.	c #74757E",
"W-.	c #6C6D75",
"X-.	c #27223F",
"Y-.	c #201D35",
"Z-.	c #0F0C20",
"`-.	c #515257",
" ;.	c #A4A8A5",
".;.	c #B7BAB3",
"+;.	c #B9BBB5",
"@;.	c #888986",
"#;.	c #C1C0B5",
"$;.	c #8B9193",
"%;.	c #929899",
"&;.	c #D8DBD1",
"*;.	c #B7B8AC",
"=;.	c #CECBC2",
"-;.	c #959595",
";;.	c #393D50",
">;.	c #28253A",
",;.	c #959B98",
"';.	c #8F9595",
");.	c #9A9F9C",
"!;.	c #CBCEC0",
"~;.	c #D7D9C8",
"{;.	c #DDDFD0",
"];.	c #BBBDB1",
"^;.	c #89898A",
"/;.	c #DDE0D4",
"(;.	c #E2E4D2",
"_;.	c #D8D9C7",
":;.	c #51545E",
"<;.	c #B4B4B0",
"[;.	c #929490",
"};.	c #959692",
"|;.	c #C4C3BC",
"1;.	c #CDCEC5",
"2;.	c #A9ABA6",
"3;.	c #B5B7B4",
"4;.	c #70717A",
"5;.	c #120C2A",
"6;.	c #5B606A",
"7;.	c #616571",
"8;.	c #ADAFA7",
"9;.	c #2F324F",
"0;.	c #2E2F53",
"a;.	c #444763",
"b;.	c #7A8188",
"c;.	c #A1A9A8",
"d;.	c #9AA2A1",
"e;.	c #797B82",
"f;.	c #211A33",
"g;.	c #2B2742",
"h;.	c #9B9E97",
"i;.	c #7D7E7C",
"j;.	c #A2A3A1",
"k;.	c #BCBDB9",
"l;.	c #AEAFAC",
"m;.	c #989A99",
"n;.	c #27223D",
"o;.	c #221D38",
"p;.	c #32323B",
"q;.	c #8B8E8A",
"r;.	c #8E908B",
"s;.	c #9FA299",
"t;.	c #95988F",
"u;.	c #929291",
"v;.	c #ACB2AF",
"w;.	c #ACB3AF",
"x;.	c #767B7F",
"y;.	c #939590",
"z;.	c #262238",
"A;.	c #120822",
"B;.	c #9EA5A0",
"C;.	c #A9AFA7",
"D;.	c #DBDFD5",
"E;.	c #DFE3D6",
"F;.	c #E6E8DA",
"G;.	c #E1E4D5",
"H;.	c #939591",
"I;.	c #8B8B8B",
"J;.	c #C1C6BF",
"K;.	c #D0D4C8",
"L;.	c #D3D6C7",
"M;.	c #A2A59D",
"N;.	c #9FA0A0",
"O;.	c #A4A4A3",
"P;.	c #B9BBB4",
"Q;.	c #7E8183",
"R;.	c #A9ADA8",
"S;.	c #70727A",
"T;.	c #130D2B",
"U;.	c #353443",
"V;.	c #444352",
"W;.	c #4C4B5A",
"X;.	c #646567",
"Y;.	c #8C8D89",
"Z;.	c #A6A6A3",
"`;.	c #7B7C83",
" >.	c #707278",
".>.	c #52556B",
"+>.	c #4A4D66",
"@>.	c #5E6276",
"#>.	c #6D757F",
"$>.	c #808689",
"%>.	c #696A73",
"&>.	c #221C34",
"*>.	c #26213D",
"=>.	c #28233E",
"->.	c #8C8F8B",
";>.	c #959790",
">>.	c #888885",
",>.	c #7D7E7D",
"'>.	c #9FA4A2",
")>.	c #8B8E91",
"!>.	c #241F3D",
"~>.	c #211E37",
"{>.	c #17162A",
"]>.	c #2E2E3C",
"^>.	c #8C8D8F",
"/>.	c #93958F",
"(>.	c #919696",
"_>.	c #6F747F",
":>.	c #8A8B8B",
"<>.	c #1B1A2D",
"[>.	c #9FA7A2",
"}>.	c #AEB6AD",
"|>.	c #E4E7E0",
"1>.	c #D7DBD0",
"2>.	c #B3B7AE",
"3>.	c #3F405D",
"4>.	c #CFD2C4",
"5>.	c #ADB0AB",
"6>.	c #9FA09E",
"7>.	c #9FA1A0",
"8>.	c #919292",
"9>.	c #B7B8B3",
"0>.	c #B7B7B1",
"a>.	c #B3B3AE",
"b>.	c #909190",
"c>.	c #76797E",
"d>.	c #656670",
"e>.	c #4A4A60",
"f>.	c #191334",
"g>.	c #211F45",
"h>.	c #1D173A",
"i>.	c #181433",
"j>.	c #1D1835",
"k>.	c #201A39",
"l>.	c #1F1A3D",
"m>.	c #909194",
"n>.	c #7D7E84",
"o>.	c #797A7F",
"p>.	c #5C6274",
"q>.	c #6C7182",
"r>.	c #6A6F7F",
"s>.	c #4B4D67",
"t>.	c #44475E",
"u>.	c #4A4B5E",
"v>.	c #231E39",
"w>.	c #24213A",
"x>.	c #7D8080",
"y>.	c #949891",
"z>.	c #868886",
"A>.	c #696B6C",
"B>.	c #9DA1A0",
"C>.	c #201A36",
"D>.	c #221F36",
"E>.	c #303248",
"F>.	c #727378",
"G>.	c #6B6C71",
"H>.	c #858688",
"I>.	c #989A98",
"J>.	c #9A9F9D",
"K>.	c #454A63",
"L>.	c #909693",
"M>.	c #5F626B",
"N>.	c #201C35",
"O>.	c #A4ABA4",
"P>.	c #B6BEB4",
"Q>.	c #EAEFE4",
"R>.	c #D6D9D2",
"S>.	c #413F4B",
"T>.	c #4D4E54",
"U>.	c #8F8F8F",
"V>.	c #838587",
"W>.	c #72737B",
"X>.	c #49506B",
"Y>.	c #828891",
"Z>.	c #797E86",
"`>.	c #9FA2A0",
" ,.	c #A4A5A3",
".,.	c #808183",
"+,.	c #A6A7A4",
"@,.	c #AAA9A6",
"#,.	c #6C6D76",
"$,.	c #797A80",
"%,.	c #555865",
"&,.	c #434259",
"*,.	c #120D21",
"=,.	c #48495D",
"-,.	c #494857",
";,.	c #595963",
">,.	c #616166",
",,.	c #5A5C62",
"',.	c #272441",
"),.	c #54555C",
"!,.	c #767779",
"~,.	c #858786",
"{,.	c #797C7B",
"],.	c #7B7C85",
"^,.	c #686C77",
"/,.	c #5D5E6F",
"(,.	c #3D3D53",
"_,.	c #3A394F",
":,.	c #25213B",
"<,.	c #26233C",
"[,.	c #848788",
"},.	c #979A9D",
"|,.	c #7E8086",
"1,.	c #1B1430",
"2,.	c #878A8B",
"3,.	c #64656D",
"4,.	c #797B7F",
"5,.	c #86898C",
"6,.	c #8E9492",
"7,.	c #8A928E",
"8,.	c #98A29A",
"9,.	c #C9CEC6",
"0,.	c #C7CAC4",
"a,.	c #787679",
"b,.	c #909191",
"c,.	c #8D8E8E",
"d,.	c #777880",
"e,.	c #4B556F",
"f,.	c #4C536E",
"g,.	c #2B2C44",
"h,.	c #686B73",
"i,.	c #6E6F75",
"j,.	c #74767C",
"k,.	c #78797F",
"l,.	c #878789",
"m,.	c #818285",
"n,.	c #646471",
"o,.	c #2D2B48",
"p,.	c #120B20",
"q,.	c #ABAEAB",
"r,.	c #BEC1B9",
"s,.	c #BCC0B7",
"t,.	c #BCBFB6",
"u,.	c #BBC0B2",
"v,.	c #9FA59C",
"w,.	c #2D283F",
"x,.	c #221933",
"y,.	c #1D162A",
"z,.	c #302E3D",
"A,.	c #929392",
"B,.	c #7B7D7F",
"C,.	c #8D8F92",
"D,.	c #666672",
"E,.	c #77767E",
"F,.	c #444154",
"G,.	c #190E34",
"H,.	c #160B2E",
"I,.	c #160C27",
"J,.	c #26263F",
"K,.	c #292A42",
"L,.	c #787E80",
"M,.	c #797F81",
"N,.	c #818385",
"O,.	c #727782",
"P,.	c #70737E",
"Q,.	c #636574",
"R,.	c #555667",
"S,.	c #575D64",
"T,.	c #4D515E",
"U,.	c #3A394D",
"V,.	c #323348",
"W,.	c #9B9F9D",
"X,.	c #848887",
"Y,.	c #545863",
"Z,.	c #3D4153",
"`,.	c #787A7B",
" '.	c #7B7D7E",
".'.	c #7E7F83",
"+'.	c #464B65",
"@'.	c #444862",
"#'.	c #2B2C45",
"$'.	c #636870",
"%'.	c #787A81",
"&'.	c #797D83",
"*'.	c #7C7E87",
"='.	c #72747E",
"-'.	c #6F747A",
";'.	c #31334F",
">'.	c #120B1F",
",'.	c #959B99",
"''.	c #AAADA8",
")'.	c #B0B4AC",
"!'.	c #B5BBAE",
"~'.	c #B3B8AF",
"{'.	c #AEB3AB",
"]'.	c #61616B",
"^'.	c #5B5A61",
"/'.	c #48464E",
"('.	c #484852",
"_'.	c #71737A",
":'.	c #636371",
"<'.	c #676673",
"['.	c #6C6B75",
"}'.	c #4C4A5B",
"|'.	c #2B2743",
"1'.	c #1B1432",
"2'.	c #25233D",
"3'.	c #585C69",
"4'.	c #7F8385",
"5'.	c #797C7F",
"6'.	c #828589",
"7'.	c #696E7C",
"8'.	c #7F838A",
"9'.	c #6B6E7C",
"0'.	c #686B7C",
"a'.	c #626475",
"b'.	c #555468",
"c'.	c #160F29",
"d'.	c #333648",
"e'.	c #7A8082",
"f'.	c #818685",
"g'.	c #838989",
"h'.	c #585E6A",
"i'.	c #616774",
"j'.	c #565A6A",
"k'.	c #A2A7A2",
"l'.	c #B5BAB0",
"m'.	c #7B8184",
"n'.	c #7D8384",
"o'.	c #71767E",
"p'.	c #4B4E5A",
"q'.	c #2C2E3D",
"r'.	c #6E6F77",
"s'.	c #76787D",
"t'.	c #2E2F47",
"u'.	c #4E5463",
"v'.	c #5F6572",
"w'.	c #575B6E",
"x'.	c #54586B",
"y'.	c #535669",
"z'.	c #717783",
"A'.	c #838A92",
"B'.	c #7F858C",
"C'.	c #80858C",
"D'.	c #646674",
"E'.	c #5D5F6D",
"F'.	c #7E8189",
"G'.	c #6D707D",
"H'.	c #5B5D6C",
"I'.	c #696B79",
"J'.	c #686C79",
"K'.	c #545668",
"L'.	c #313550",
"M'.	c #120B21",
"N'.	c #979C97",
"O'.	c #989F9D",
"P'.	c #979B9C",
"Q'.	c #5B6269",
"R'.	c #747B82",
"S'.	c #6F7281",
"T'.	c #676B7F",
"U'.	c #636478",
"V'.	c #606173",
"W'.	c #606272",
"X'.	c #5F6070",
"Y'.	c #3F4259",
"Z'.	c #373B53",
"`'.	c #23213A",
" ).	c #24233D",
".).	c #73767D",
"+).	c #565A64",
"@).	c #666770",
"#).	c #5F6374",
"$).	c #696C7C",
"%).	c #686C7D",
"&).	c #565569",
"*).	c #61676F",
"=).	c #8C9394",
"-).	c #909799",
";).	c #636979",
">).	c #333756",
",).	c #6A707E",
"').	c #80868D",
")).	c #7E838A",
"!).	c #7B7E86",
"~).	c #4A4C63",
"{).	c #232338",
"]).	c #1C192E",
"^).	c #1D1936",
"/).	c #A5AAAB",
"().	c #A6A9A7",
"_).	c #AAB0AB",
":).	c #999D9F",
"<).	c #646979",
"[).	c #6C717E",
"}).	c #787E89",
"|).	c #787E88",
"1).	c #727681",
"2).	c #575768",
"3).	c #59596B",
"4).	c #3F4057",
"5).	c #52586B",
"6).	c #686D7D",
"7).	c #777B8A",
"8).	c #7A7F89",
"9).	c #7B8186",
"0).	c #5F616F",
"a).	c #5A5D6A",
"b).	c #6C6F7B",
"c).	c #656875",
"d).	c #585A6A",
"e).	c #545865",
"f).	c #3D3F53",
"g).	c #30324B",
"h).	c #676A76",
"i).	c #83888C",
"j).	c #606172",
"k).	c #6D707C",
"l).	c #6A7079",
"m).	c #757A82",
"n).	c #757A81",
"o).	c #606475",
"p).	c #646874",
"q).	c #656775",
"r).	c #636672",
"s).	c #626471",
"t).	c #383B53",
"u).	c #23223A",
"v).	c #222039",
"w).	c #22213A",
"x).	c #676B76",
"y).	c #585B65",
"z).	c #62656E",
"A).	c #6C7078",
"B).	c #70727C",
"C).	c #666877",
"D).	c #5B5E6F",
"E).	c #575869",
"F).	c #636778",
"G).	c #606274",
"H).	c #4D525F",
"I).	c #7A7E85",
"J).	c #606474",
"K).	c #3F445B",
"L).	c #686E7C",
"M).	c #737882",
"N).	c #5D636F",
"O).	c #5D646E",
"P).	c #45485E",
"Q).	c #1F1F34",
"R).	c #1A172C",
"S).	c #1F1A38",
"T).	c #979CA0",
"U).	c #8B9094",
"V).	c #5B5F70",
"W).	c #676D7B",
"X).	c #6D717F",
"Y).	c #6F747E",
"Z).	c #5F6373",
"`).	c #53586D",
" !.	c #505468",
".!.	c #515469",
"+!.	c #6C707C",
"@!.	c #787D83",
"#!.	c #505268",
"$!.	c #676975",
"%!.	c #46445C",
"&!.	c #2B2D3F",
"*!.	c #11081E",
"=!.	c #11091E",
"-!.	c #616272",
";!.	c #4E4E62",
">!.	c #383552",
",!.	c #57596B",
"'!.	c #6E7281",
")!.	c #565A6D",
"!!.	c #55586A",
"~!.	c #4F5365",
"{!.	c #555969",
"]!.	c #676B73",
"^!.	c #666872",
"/!.	c #63676F",
"(!.	c #585B68",
"_!.	c #202037",
":!.	c #222139",
"<!.	c #575A6A",
"[!.	c #70767F",
"}!.	c #717481",
"|!.	c #565969",
"1!.	c #5A5D69",
"2!.	c #434455",
"3!.	c #565867",
"4!.	c #787B87",
"5!.	c #787C86",
"6!.	c #707283",
"7!.	c #4E4F6A",
"8!.	c #494B64",
"9!.	c #2D2A43",
"0!.	c #585C6D",
"a!.	c #54586A",
"b!.	c #616576",
"c!.	c #666B7C",
"d!.	c #626779",
"e!.	c #5B5F71",
"f!.	c #575C6C",
"g!.	c #565B6A",
"h!.	c #535668",
"i!.	c #3E3F55",
"j!.	c #303247",
"k!.	c #19162B",
"l!.	c #201A38",
"m!.	c #292640",
"n!.	c #4C4F65",
"o!.	c #545768",
"p!.	c #4E5162",
"q!.	c #595C6E",
"r!.	c #36364D",
"s!.	c #404254",
"t!.	c #595D70",
"u!.	c #56596E",
"v!.	c #4D5067",
"w!.	c #4E5266",
"x!.	c #636673",
"y!.	c #6E727A",
"z!.	c #52566A",
"A!.	c #4D5066",
"B!.	c #4D4E61",
"C!.	c #525466",
"D!.	c #3E3F58",
"E!.	c #2E2F41",
"F!.	c #28283A",
"G!.	c #13081E",
"H!.	c #585969",
"I!.	c #48475C",
"J!.	c #3D3B56",
"K!.	c #58596C",
"L!.	c #515565",
"M!.	c #60636C",
"N!.	c #5D5F6B",
"O!.	c #5E606C",
"P!.	c #5D616B",
"Q!.	c #535766",
"R!.	c #34364E",
"S!.	c #1D1B32",
"T!.	c #211F38",
"U!.	c #555A68",
"V!.	c #646976",
"W!.	c #656979",
"X!.	c #555869",
"Y!.	c #535667",
"Z!.	c #444557",
"`!.	c #686A7A",
" ~.	c #636779",
".~.	c #4E506C",
"+~.	c #322F49",
"@~.	c #2C2742",
"#~.	c #130F23",
"$~.	c #373849",
"%~.	c #484C5D",
"&~.	c #3C3E51",
"*~.	c #56596D",
"=~.	c #373B4E",
"-~.	c #1E1C34",
";~.	c #1C172F",
">~.	c #26233B",
",~.	c #56596A",
"'~.	c #6C7076",
")~.	c #6C6D78",
"!~.	c #55596D",
"~~.	c #323548",
"{~.	c #404255",
"]~.	c #3B3C4D",
"^~.	c #3E4151",
"/~.	c #34364C",
"(~.	c #3F4157",
"_~.	c #42435A",
":~.	c #3F4055",
"<~.	c #515468",
"[~.	c #4F5265",
"}~.	c #4E5265",
"|~.	c #494B5E",
"1~.	c #424157",
"2~.	c #424155",
"3~.	c #302F48",
"4~.	c #2A2B40",
"5~.	c #2D2D41",
"6~.	c #2B2C3E",
"7~.	c #161125",
"8~.	c #1D1831",
"9~.	c #28223F",
"0~.	c #332D48",
"a~.	c #423F58",
"b~.	c #484A5E",
"c~.	c #494962",
"d~.	c #4E5464",
"e~.	c #4B4D5F",
"f~.	c #494958",
"g~.	c #474756",
"h~.	c #48495A",
"i~.	c #47495A",
"j~.	c #23213B",
"k~.	c #100A24",
"l~.	c #272844",
"m~.	c #2B2C4C",
"n~.	c #3E405D",
"o~.	c #41435F",
"p~.	c #474958",
"q~.	c #3F4150",
"r~.	c #3B3B4E",
"s~.	c #37374A",
"t~.	c #4E556E",
"u~.	c #4B4F69",
"v~.	c #2D2C44",
"w~.	c #2E2D42",
"x~.	c #3E4255",
"y~.	c #3E4153",
"z~.	c #29293D",
"A~.	c #4D505F",
"B~.	c #4D505E",
"C~.	c #36364C",
"D~.	c #27263D",
"E~.	c #1D1930",
"F~.	c #1C172C",
"G~.	c #160F25",
"H~.	c #100D23",
"I~.	c #363960",
"J~.	c #484B5C",
"K~.	c #46475B",
"L~.	c #4A4A5F",
"M~.	c #3A3C4C",
"N~.	c #302F47",
"O~.	c #47485C",
"P~.	c #494A5F",
"Q~.	c #4E4F63",
"R~.	c #424258",
"S~.	c #39364F",
"T~.	c #37354B",
"U~.	c #38374B",
"V~.	c #191327",
"W~.	c #11091C",
"X~.	c #1A142F",
"Y~.	c #1C1534",
"Z~.	c #2C2641",
"`~.	c #464656",
" {.	c #595B66",
".{.	c #44465B",
"+{.	c #444454",
"@{.	c #414051",
"#{.	c #414153",
"${.	c #221E38",
"%{.	c #2D2C48",
"&{.	c #282748",
"*{.	c #383955",
"={.	c #3A3B57",
"-{.	c #404152",
";{.	c #3E3F50",
">{.	c #38394A",
",{.	c #363649",
"'{.	c #353347",
"){.	c #3C3F56",
"!{.	c #474E68",
"~{.	c #464964",
"{{.	c #28243B",
"]{.	c #0D091E",
"^{.	c #232437",
"/{.	c #28293C",
"({.	c #313347",
"_{.	c #3B3D51",
":{.	c #36384B",
"<{.	c #393B50",
"[{.	c #1F1D34",
"}{.	c #19152B",
"|{.	c #181126",
"1{.	c #33345C",
"2{.	c #3B3D5A",
"3{.	c #46495B",
"4{.	c #37384C",
"5{.	c #323146",
"6{.	c #323248",
"7{.	c #37374D",
"8{.	c #2E2B46",
"9{.	c #170F2F",
"0{.	c #2D2B3E",
"a{.	c #181025",
"b{.	c #736F71",
"c{.	c #85817F",
"d{.	c #898380",
"e{.	c #8B8681",
"f{.	c #43404C",
"g{.	c #211E33",
"h{.	c #353549",
"i{.	c #39394B",
"j{.	c #3D3A4B",
"k{.	c #3B394A",
"l{.	c #1C1633",
"m{.	c #585459",
"n{.	c #5B575A",
"o{.	c #5C565A",
"p{.	c #5E5960",
"q{.	c #1E1831",
"r{.	c #150F2E",
"s{.	c #2F2E47",
"t{.	c #2E2D45",
"u{.	c #262039",
"v{.	c #29213C",
"w{.	c #27203A",
"x{.	c #221A33",
"y{.	c #2A2742",
"z{.	c #323451",
"A{.	c #2E2B49",
"B{.	c #11061B",
"C{.	c #12061A",
"D{.	c #18152D",
"E{.	c #241F39",
"F{.	c #26223B",
"G{.	c #3A3B4E",
"H{.	c #37394B",
"I{.	c #36384A",
"J{.	c #35354A",
"K{.	c #150C22",
"L{.	c #2F2933",
"M{.	c #454047",
"N{.	c #47444A",
"O{.	c #37343B",
"P{.	c #191225",
"Q{.	c #130929",
"R{.	c #28213C",
"S{.	c #343448",
"   .  +  @  #  $  %  &  *  =  -  ;  >  ,  '  )  !  ~  {  ]  ^  /  (  _  :  <  [  }  |  1  2  3  4  5  6  7  8  9  0  a  b  c  d  e  f  g  h  i  j  k  l  m  n  o  {  p  q  r  s  t  u  v  w  x  y  z  A  B  C  D  E  F  G  H  I  J  K  L  M  N  O  P  Q  R  S  T  U  V  W  X  Y  Z  `   . .. +. @. #. $. %. &. *. =. -. P  ;. >. ,. '. ). !. ~. {. ]. ^. /. (. _. :. <. [. }. |. 1. 2. 3. 4. 5. ",
"6. 7. 8. 9. 0. a. 0. b. c. d. e. f. g. h. i. i. j. k. l. m. n. o. p. q. r. s. t. u. v. w. x. y. z. A. B. C. D. E. F. G. H. I. J. K. L. M. N. O. P. Q. R. S. T. U. V. W. X. Y. Z. `.  + .+ ++ @+ #+ $+ %+ &+ *+ =+ -+ ;+ >+ ,+ '+ )+ !+ ~+ {+ ]+ ^+ /+ (+ _+ :+ <+ [+ }+ |+ 1+ 2+ 3+ 4+ 5+ 6+ 7+ 8+ 9+ 0+ a+ b+ c+ d+ e+ f+ g+ h+ i+ j+ k+ l+ m+ n+ o+ p+ q+ r+ s+ t+ u+ v+ w+ x+ y+ z+ A+ B+ C+ ",
"D+ E+ F+ G+ H+ I+ J+ K+ L+ M+ N+ O+ P+ Q+ R+ S+ T+ U+ V+ W+ X+ Y+ Z+ `+ N.  @ .@ +@ @@ #@ $@ %@ &@ *@ =@ -@ ;@ >@ ,@ '@ )@ !@ ~@ {@ ]@ ^@ /@ (@ _@ :@ <@ [@ }@ }@ |@ 1@ 2@ 8. `  3@ 4@ 5@ 6@ 7@ 8@ 9@ 0@ a@ b@ c@ d@ e@ f@ g@ h@ i@ j@ k@ l@ m@ n@ o@ p@ q@ r@ s@ t@ u@ v@ w@ x@ y@ z@ A@ N  B@ C@ D@ E@ F@ G@ H@ I@ J@ K@ L@ {  M@ N@ O@ P@ Q@ R@ S@ T@ U@ V@ W@ X@ Y@ Z@ `@  # .# +# @# ## $# ",
"%# &# *# =# -# ;# ># ,# '# )# !# ~# {# ]# ^# /# (# _# :# <# [# }# |# 1# 2# 3# 4# 5# 6# 7# 8# 9# 0# a# b# -@ c# d# e# f# g# h# i# j# k# l# m# n# o# s  g. p# q# r# s# t# u# v# w# x# y# z# A# B# C# D# E# F# G# H# I# J# K# L# M# N# O# P# Q# R# S# T# U# V# W# X# Y# Z# `# ]# ]#  $ .$ +$ @$ #$ $$ %$ &$ *$ =$ -$ ;$ >$ 7# ,$ '$ )$ !$ l. ~$ ~$ {$ ]$ ^$ /$ ($ _$ :$ <$ [$ }$ |$ 1$ 2$ 3$ 4$ 5$ ",
"6$ 7$ 8$ 9$ 0$ a$ b$ c$ d$ e$ f$ g$ {# h$ i$ j$ k$ l$ m$ n$ o$ p$ q$ r$ s$ t$ u$ v$ w$ x$ y$ z$ A$ B$ C$ -@ D$ E$ F$ G$ H$ I$ J$ K$ L$ 7# M$ N$ O$ P$ Q$ Q$ R$ h+ S$ T$ U$ V$ W$ X$ Y$ Z$ `$  % .% +% @% #% $% %% &% *% =% -% ;% >% ,% '% Q# Q# )% !% ~% {% ]% ^% /% (% _% :% <% [% }% |% 1% 2% 3% 4% 5% 6% 7% 8% 9% 3# 0% a% b% c% d% e% f% g% h% i% j% k% l% m% n% o% p% q% q% r% s% t% u% v% ",
"w% x% y% z% A% B% C% D% E% F% G% H% I% J% K% L% M% l$ N% n$ O% P% Q% R% S% T% U% V% W% X% Y% Z% `%  & .& +& @& #& $& %& && *& =& -& ;& >& ,& '& J@ H% )& !& !& ~& {& ]& ^& /& (& _& :& <& [& }& |& 1& 2& 3& 4& 5& 6& 7& 8& 9& 0& a& ,% b& c& d& d& e& f& g& h& i& j& k& l& m& n& o& p& q& r& s& t& u& v& w& x& y& z& A& B& C& D& E& F& G& H& I& J& K& k% L& M& N& O& P& q% x# Q& R& S& T& U& V& ",
"W& X& Y& Z& `&  * .* F& +* @* M$ ,@ !# #* $* M% %* &* ** =* -* ;* >* ,* '* _$ )* !* ~* {* ]* ^* /* (* _* :* <* l& [* }* |* 1* 2* 3* &% o@ 4* 5* 6* ]% 7* 8* 9* 9* I@ 0* R# a* b* c* d* e* f* g* y  h* i* j* k* %# l* m* n* o* p* q* H$ r* s* t* u* v* &% w* x* R% y* z* A* B* C* D* n$ E* F* G* H* I* J* K* L* M* N* O* P* Q* R* S* T* U* V* s% W* X* Y* Z* `* %#  = x* .= Q& += @= #= $= %= &= ",
"*= == -= ;= >= ,= '= h& )= &% 4@ != ~= o$ {= ]= %* ^= ** /= -* p$ (= _= := <= f  [= }= |= 1= 2= 3= (* 4= 5= 6= 7= 8= 9= 0= a= b= G% G% c= d= 1$ e= f= R% g= h= Z$ i= j= k= l= m= n= h# o= p= q= r= s= t= u= v= w= x= y= z= A= B= C= D= E= F= G= H= I= J= K= x* L= M= N= O= P= /= d& Q= R= S= T= U= V= W= X= Y= Z= `=  - .- +- @- #- $- %- &- *- =- -- ;- >- ,- c= '- h& .= )- !- y* ~- {- ]- ^- ",
"/- (- _- :- <- [- }- |- 1- M$ 4@ 2- 3- ** O% 4- 5- 4- 6- /= 7- += 8- 9- S% 0- a- b- c- d- e- f- g- h- i- j- k- l- m- n- o- p- c= q- r- x# s- t- f= u- i= v- w- Z$ j= j= R% x- y- z- A- B- C- D- E- F- G- H- I- J- K- L- M- N- O- P- Q- R- S- T- U- V- &% s- W- X- Y- Z- `-  ; .; R= +; Z$ @; #; $; %; &; *; =; -; ;; >; ,; '; ); !; ~; {; ]; ^; /; (; _; K=  = :; += += <; x- [; }; |; x# 1; 2; ",
"3; 4; 5; 6; 7; 8; g& 6* 9; 0; a; b; c; Q& d; Q& e; f; i= !- )- f; g# g; h; i; j; k; l; m; n; o; p; q; r; s; t; u; v; w; x; y; h& z; A; B; |; C; 9- D; E; F; G; H; r$ I; J; K; B; Q& L; M; N; O; P; Q; R; S; T; U; V; W; X; Y; Z; `;  > .> +> @> #> ;@ S% $> %> &> *> 7; => -> ;> >> ,> '> )> !> ~> {> ]> ^> /> (> _> r$ :> <> [> }> |> 1> 2> 3> 4> 5> _; 6> 7> 8> .= <; 9> 0> a> b> c> d> e> 9% ",
"f> g> h> i> j> k> l> C& m> n> o> p> +& q> C; r> s> t> u> v> w> I@ |; g; x> y> z> A> B> C> D> E> F> q; G> H> I> J> K> L> M> N> k= f; _= O> P> Q> R> S> T> S% U> S% V> W> X> Y> b. Z> `>  , ., +, @, #, $, %, &, *, =, -, ;, >, ,, ', ), !, ~, {, ], ^, /, (, _, :, <, [, }, |, 1, 2, 3, 4, 5, 6, 7, 8, 9, 0, a, b, c, d, e, f, g, h, i, j, k, l, m, ]- _; n, o, p, q, r, s, t, u, v, w, x, y, z, ",
"A, B, C, D, E, F, G, H, I, '# J, K, L, M, N, O, z= <= 0- P, Q, R, S, !* T, U, V, W, X, Y, Z, `,  ' q; .' +' @' #' $' %' &' '* $= *' s> Q> =' #> A& -' g; ], ;' >' ,' '' )' !' ~' {' ]' ^' /' (' _' :' <' [' }' |' 1' 2' 3' 4' 5' 6' 7' 8' 9' 0' a' b' c' d' c. e' f' g' ;$ h' i' j' k' 1= l' m' n' o' p' q' r' s' t' &  u' v' w' x' y' z' A' B' C' D' E' F' G' ]- H' I' J' K' L' M' N' O' P' Q' ",
"R' S' T' y  U' V' W' X' Y' Z' `'  ) .) +) q> @) #) $) %) &) *) =) -) ;) >) ,) ') )) !) ~) {) ]) ^) /) () _) :) <) [) }) |) 1) 2) 3) 4) 5) 6) 7) 8) 8) 9) 0) a) b) c) d) e) f) g) h) i) j) k) l) m) n) o) p) q) r) s) t) u) v) w) x) y) h' z) A) a' B) C) D) E) F) G) H) I) z, M; J) K) K) L) M) N) O) P) Q) R) S) T) U) V) W) X) Y) Z) `)  ! .! +! @! #! $! %! &! *! =! -! ;! >! ,! '! )! !! ~! ",
"{! ]! ^! /! (! _! :! <! [! }! |! 1! 2! 3! H$ 4! 5! 6! F% 7! 8! 9! 0! a! b! i; c! Q' d! 1= e! f! g! h! i! j! k! l! m! n! o! p! q! r! s! t! |) u! v! w! x! ~! y! z! A! B! C! D! E! F! G! H! I! J! K! L! o) M! N! O! P! Q! R! S! T! U! V! W! X! 2) B) C) <= Y! Z! Q! Q' Q' Q' `!  ~ .~ +~ @~ #~ $~ %~ &~ *~ =~ -~ ;~ >~ ,~ '~ )~ !~ ~~ {~ ]~ ^~ /~ X, (~ _~ :~ <~ [~ }~ |~ 1~ 2~ 3~ 4~ 5~ 6~ 7~ 8~ ",
"9~ 0~ a~ b~ c~ d~ e~ f~ g~ h~ i~ j~ k~ T- l~ V) 6! m~ n~ o~ p~ q~ r~ s~ t~ u~ v~ w~ x~ y~ z~ A~ B~ h! C~ D~ E~ F~ G~ H~ I~ J~ K~ L~ M~ N~ O~ P~ v; Q~ R~ S~ T~ U~ V~ W~ X~ Y~ Y~ Z~ `~  { .{ R; +{ `% @{ #{ ${ %{ %{ &{ *{ +' ={ -{ ;{ >{ ,{ >~ <= <= '{ ){ !{ ~{ {{ ]{ ]{ <~ ^{ /{ ({ _{ :{ <{ [{ }{ |{ 1{ 2{ 3{ 4{ 5{ 6{ 7{ 8{ 9{ 0{ 2' a{ 1' b{ c{ {~ d{ e{ `~ f{ g{ h{ i{ j{ k{ l{ m{ n{ o{ ",
"p{ q{ r{ s{ t{ u{ v{ w{ x{ y{ z{ A{ B{ C{ D{ E{ F% F{ G{ H{ I{ J{ K{ L{ M{ N{ O{ P{ Q{ R{ S{ T{ U{ h! V{ W{ X{ Y{ Z{ `{  ] h' .] +] +] @] #] $] %] &] &] *] =] -] ;] >] P' k! ,] =! '] )] !] ~] {] ]] @{ ^] /] (] (] _] :] <] [] }] |] :) H* y! 1] p! 2] 3] 4] 5] 6] 4> 7] 8] 9] 0] a] b] _{ c] [{ d] e] f] g] h] i] j] k] &] l] m] n] o] p] p] q] r] s] t] u] v] w] x] y] z] A] B] C] D] E] F] ",
"G] H] I] J] K] L] M] N] O] P] Q] R] S] T] U] V] W] t] X] ,] Y] Z] `]  ^ .^ +^ @^ #^ $^ %^ &^ *^ =^ -^ ;^ >^ ,^ '^ )^ !^ ~^ &] {^ ]^ 8] ^^ /^ (^ _^ [, c{ :^ <^ [^ }^ |^ ,; ,; 1^ 2^ 3^ 4^ 5^ 6^ (* 7^ 8^ 9^ 0^ a^ b^ u] c^ d^ e^ f^ 4] 9] g^ h^ i^ j^ Q! @] k^ l^ m^ n^ o^ p^ a] q^ k! r^ s^ <{ t^ u^  & v^ w^ x^ y^ z^ A^ B^ C^ D^ E^ F^ G^ F^ H^ I^ J^ K^ L^ M^ N^ O^ .{ P^ Q^ R^ S^ T^ U^ V^ ",
"W^ X^ Y^ Z^ `^  / ./ +/ @/ #/ $/ %/ &/ */ =/ -/ ;/ >/ ,/ '/ )/ !/ ~/ ~/ {/ ]/ x  ^/ // (/ _/ :/ </ </ [/ }/ |/ 1/ 2/ 3/ 4/ 5/ 6/ 7/ 8/ 9/ 0/ a/ a/ b/ c/ d/ 7/ e/ f/ g/ h/ i/ j/ k/ u& l/ m/ n/ o/ p' p/ q/ r/ s/ t/ u/ v/ w/ x/ )] y/ w{ z/ A/ B/ C/ D/ E/ F/ G/ H/ H/ I/ J/ K/ L/ M/ N/ O/ P/ Q/ R/ (* S/ z. T/ U/ V/ W/ ~/ X/ -/ Y/ Z/ `/  ( .( +( @( #( $( %( &( *( =( -; E- -( ;( >( ,( '( ",
")( !( ~( {( ]( ^( /( (( _( :( <( [( }( |( 1( 2( 3( 4( 5( 6( 7(  / 8( 9( 0( a( b( c( d( e( f( g( </ h( i( +{ j( k( l( m( n( o( p( q( r( s( x/ t( u( u( v( w( x( y( z( A( B( -; C( D( E( F( S/ G( H( I( J( K( L( M( o) N( O( P( Q( R( S( T( U( A( V( z( W( X( .% Y( y( A( Z( `( |&  _ ._ +_ @_ #_ $_ %_ &_ 7^ *_ =_ a( =; -_ ;_ >_ ,_ '_ )_ !_ ~_ {_ ]_ ^_ Z( ^_ /_ (_ (_ __ :_ :_ <_ [_ }_ |_ 1_ ",
"2_ 3_ 4_ 5_ 6_ (* 7_ 8_ 9_ 0_ a_ b_ c_ d_ e_ f_ M* g_ h_ i_ j_ k_ l_ m_ n_ o_ p_ q_ q_ r_ s_ t_ u_ v_ r_ w_ x_ y_ z_ A_ B_ C_ i( D_ E_ F_ F_ G_ H_ I_ {] D_ E_ J_ K_ L_ M_ N_ O_ P_ Q_ R_ S_ T_ U_ V_ W_ X_ Y_ Z_ `_  : .: O_ +: @: #: $: $: %: &: *: f_ =: E_ -: ;: >: ,: ': ): !: ~: {: ]: ^: /: (: (: /: _: :: <: [: }: |: f( 1: 2: 3: 4: 5: 6: 5: 7: 8: ;: 9: 0: a: b: 5% -^ c: d: d: e: f: ",
"g: h: i: j: k: l: m: n: o: p: q; q: r: s: t: u: v: w: x: v: =^ y: z: A: B: C: D: E: F: G: H: I: J: J: K: L: M: N: O: P: Q: R: S: T: U: x: 3_ |{ V: W: X: Y: Z: `:  < .< +< @< #< $< %< &< *< =< -< -< ;< >< ,< '< E: )< !< !< ~< {< ]< ^< @: /< x: %: (< (< _< v: :< << [< }< |< 1< 2< 3< 4< 5< 6< 7< 8< 9< 0< a< b< c< d< Y- e< f< g< h< i< j< 5  k< -: l< m< n< o< p< q< r< s< t< u< v< w< x< ",
"y< z< A< k  B< M  C< D< E< F< G< H< I< J< K< L< M< N< O< M< b: 6: P< Q< R< S< T< j  U< V< W< U< W< X< X< Y< Z< `<  [ .[ +[ @[ #[ $[ %[ (< 3_ 3_ a# &[ *[ =[ -[ ;[ _) >[ ,[ '[ )[ ![ ~[ {[ ][ ^[ /[ ([ _[ _[ :[ <[ [[ [[ }[ |[ }[ 1[ 2[ 3[ 4[ a: 5[ 5[ 6[ 7[ O< 8[ f_ J_ 9[ S) 0[ a[ b[ c[ d[ e[ |[ f[ <[ g[ U< h[ i[ j[ k[ l[ m[ n[ j< o[ p[ q[ A. o) r[ s[ t[ I] u[ v[ w[ Z{ x[ y[ z[ A[ B[ C[ ",
"D[ E[ F[ G[ H[ `. I[ J[ K[ L[ M[ N[ O[ P[ Q[ R[ e~ S[ T[ T[ U[ V[ W[ X[ Y[ Z[ `[  } .} s# +} @} #} $} %} &} *} =} -} ;} >} ,} '} )} !} U: U{ (< B$ ~} {} ]} ^} /} (} _} :} <} [} }} |} 1} 1} 2} 3} a. 8. 4} 5} 6} 7} 8} 9} .} 0} a} b} c} d} e} f} e_ g} h} i} j} k} l} @= m} n} o} p} q} r} s} t} ># u} v} w} x} y} z} A} B} C} D} E} F} G} H} I} +, J} K} L} Q~ M} N} O} P} Q} ]# R} S} T} U} ",
"V} W} X} Y} Z} `}  | .| +| @| #| $| %| &| y> *| =| }* 2: -| ;| >| ,| '| )| !| ## .} ~| {| ]| ^| /| Y  (| _| :| <| [| }| || g$ 1| 2| 3| 4| !: 5[ 5| 6| 7| 8| 9| 0| p& P+ p& a| b| c| d| e| f| g| h| i| j| 3- k| l| m| n| o| 7+ p| q| r| s| t| |# u| v| w| x| y| z| A| B| C| D| E| E| /& F| G| H| I| J| K| L| M| N| e. O| P| Q| ~. R| S| T| U| V| W| X| Y| Z| `|  1 .1 +1 @1 #1 $1 %1 &1 *1 =1 -1 ",
";1 >1 ,1 '1 )1 $} ;1 !1 ~1 <+ {1 D$ ]1 C= ^1 /1 )* (1 _1 :1 <1 [1 +* #* }1 o$ |1 11 21 31 41 51 61 71 81 91 01 a1 b1 c1 d1 e1 f1 g1 h1 i1 j1 /< // k1 l1 m1 n1 o1 p1 q1 r1 s1 3- t1 u1 )| v1 w1 w1 x1 v1 y1 z1 A1 [@ B1 C1 D1 E1 F1 G1 H1 I1 J1 K1 L1 w| M1 N1 O1 P1 Q1 R1 ~= S1 ~= T1 U1 V1 {  W1 X1 d@ Y1 Z1 `1  2 .2 +2 @2 R. #2 $2 %2 O< &2 ^1 *2 =2 -2 ;2 >2 ,2 '2 /+ )2 !2 p# ~2 {2 ]2 ^2 ",
"~  /2 (2 _2 :2 <2 [2 }2 |2 12 22 32 42 52 62 72 82 92 _1 02 a2 b2 c2 |- d2 e2 f2 g2 h2 u  i2 j2 k2 71 l2 m2 n2 o2 p2 q2 r2 s2 t2 u2 v2 w2 x2 y2 z2 A2 B2 C2 D2 E2 F2 G2 H2 H2 I2 J2 _& K2 L2 b= M2 3- N2 O2 P2 Q2 Q2 R2 ,1 S2 T2 U2 V2 W2 X2 Y2 Z2 `2  3 .3 +3 @3 #3 $3 %3 &3 *3 =3 -3 :@ ;3 >3 ,3 '3 )3 !3 ~3 {3 ]3 ^3 /3 21 T  (3 _3 1^ B$ :3 <3 [3 }3 |3 13 p% 23 33 43 53 63 73 `. 83 93 03 ",
"c@ a3 b3 b3 n& h$ c3 d3 e3 f3 g3 9< h3 i3 j3 k3 l3 m3 n3 o3 N! p3 q3 r3 s3 t3 5} u3 .} v3 w3 x3 C  y3 )| z3 A3 B3 C3 D3 E3 F3 G3 H3 I3 J3 K3 y2 L3 M3 N3 O3 P3 Q3 m} c% R3 S3 T3 a| U3 c2 1- g& Q= V3 7# W3 X3 {| Y3 Z3 `3  4 .4 +4 @4 #4 $4 Z] %4 &4 6: *4 =4 -4 ;4 >4 ,4 [# '4 )4 !4 ~4 !4 {4 ]4 ^4 /4 (4 _4 :4 <4 [4 }4 |4 14 24 34 44 6: 54 64 74 84 94 04 a4 b4 c4 d4 e4 2$ f4 g4 h4 i4 p| ",
"G% K= G% b= j4 k4 l4 m4 n4 o4 p4 q4 r4 s4 t4 u4 v4 N[ w4 x4 y4 z4 $1 A4 d2 B4 C4 D4 E4 F4 G4 H4 6= B@ D+ I4 J4 K4 L4 M4 N4 O4 P4 Q4 R4 S4 T4 y2 U4 V4 W4 X4 Y4 Z4 `4  5 .5 +5 @5 #5 @* 1- 1- 1- $5 k= %5 C3 &5 *5 =5 -5 ;5 >5 ,5 '5 )5 !5 ~5 {5 ]5 ^5 /5 (5 _5 :5 <5 [5 }5 F| |5 15 [# [# [# 25 x1 35 45 55 65 75 )= 85 95 05 14 {{ a5 b5 c5 d5 0> e5 f5 g5 h5 i5 j5 k5 l5 =  m5 n5 ;# o5 p5 q5 ",
"h& h& h& G% f& 75 r5 )= 4- Q: K= R% s5 t5 u5 v5 w5 x5 ^< y5 z5 W4 A5 B5 C5 D5 E5 F5 V# K@ @* G5 G5 G5 q- q- H5 I5 T> J5 a) K5 X- L5 7] M5 N5 ^< O5 P5 Q5 R5 S5 T5 U5 V5 W5 X5 Y5 f& f& 1- o@ Z5 `5 >&  6 += .6 +6 @6 #6 $6 %6 T> &6 Q1 *6 =6 -6 ;6 >6 /< ,6 '6 )6 !6 ~6 {6 ]6 ^6 '4 /6 (6 _6 |1 :6 ,| <6 [6 c= }6 |6 16 26 36 46 0- P! 56 66 76 86 96 06 a6 b6 c6 d6 e6 f6 g6 p| q| q% h6 i6 j6 ",
"x* x* <; d; &% ,& e# k6 H; l6 ], :& m6 n6 o6 p6 q6 r6 (< s6 t6 '> 43 u6 Q:  =  = w* h& w* 2* W* W* n, p, E; v6 w6 N> x6 b' y6 ]- z6 A6 B6 C6 D6 E6 F6 G6 H6 I6 J6 K6 L6 M6 j= N6 $5 O6 P6 H4 Q6 R6 ^. S6 T6 U6 V6 W6 l6 =5 X6 Y6 Z6 `6  7 H= .7 +7 @7 #7 $7 %7 n# &7 X} *7 =7 -7 ;7 $5 q- c= ^% g& b=  = h& += p, >7 t+ ,7 '7 )7 !7 ~7 {7 P< ]7 ^7 /7 (7 _7 Y+ o^ :7 (. [> ,# <7 [7 }7 _7 |7 17 ",
"27 g# x- r$ !- y# |6 37 ;' I; Y- 47 47 57 67 77 87 97 (* 07 a7 b7 c7 d7 g& w* h& R& R& e7 W* W* f7 g7 h7 K& ^- i7 j7 k7 l7 l7 y6 m7 3) n7 o7 p7 q7 r7 s7 t7 u7 v7 w7 x7 y7 z7 A7 B7 C7 D$ D7 E7 r% F7 m- W6 G7 H7 I7 )* J7 I= )* K7 L7 `! ,{ M7 N7 O7 P7 Q7 R7 S7 T7 L$ w* Q& k= U7 h& h& w* K= K= V7 d; W7 W7 Q3 J& X7 Y7 Z7 `7  8 .8 +8 %_ @8 #8 $8 %8 &8 *8 =8 C& -8 ;8 l7 >8 ,# ^, 0) ,8 K5 ",
"'8 )8 !8 :& Y$ _7 ;' k- ~8 T6 {8 ~8 ]8 ^8 /8 (8 _8 :8 <8 [8 W} B& e= D7 M$ d; <; }8 i% |8 G' 18 l7 k7 k7 28 38 48 Z! ,# l7 l7 l7 &! f  58 68 +% 78 88 98 08 a8 b8 c8 d8 e8 f8 g8 h8 i8 j8 a= n, W- +) a' f  )* 5) k8 l8 F1 q! m8 n8 %] o8 V2 p8 q8 r8 s8 t8 u8 D. v8 w8 1- $5 x8 y8 <; 0* x* x* h& x# x# n, n, J& K& z8 A8 B8 D< C8 D8 E8 F8 G8 H8 ^^ 9/ I8 J8 K8 s$ Q, L8 +) l7 M8 +) #> l> =' ",
"N8 P, O, l> V> =' k- O8 P8 Q8 R8 S8 T8 U8 V8 [~ >2 W8 X8 Y8 Z8 `8  9 j* k% F7 l> s% .9 #> ], ], 37 l> V> l> ^- +9 @9 8) _= #9 &! $9 >' %9 *( D6 &9 *9 =9 -9 ;9 >9 ,9 '9 )9 W} !9 ~9 $! {9 ]9 ^9 >8 8) /9 z[ (9 _9 :9 9% <9  ~ [9 q~ }9 |9 19 29 39 49 59 69 79 q% 8- p, 89 w* .= y8 y8 += += += Q& W- e7 n, g7 $! 99 z) Y' 09 a9 b9 c9 d9 g- e9 f9 g9 h9 i9 j9 k9 l9 m9 n9 o9 p9 q9 B) l> C) W6 ",
"r9 s9 2; t9 u9 *' v9 w9 &6 x9 y9 B) 7) z9 A9 B9 C9 D9 v& E9 F9 G9 H9 N4 I9 F7 =' M= s% l> T8 J9 s> =' K9 3> T8 ,8 L9 0) S> S> 9) M9 L; .{ 9( D6 N9 O9 P9 M6 ;9 Q9 R9 S9 T9 U9 V9 W9 N4 X9 Y9 >8 l7 K5 n9 Z9 `9  0 :9 9% h^ .0 .7 +0 @0 #0 *{ $0 %0 K_ &0 E} *0 p, =0 F; N$ -0 p, p, ;0 ;0 U7 p, B; G' G' G' >0 F7 ,0 '0 )0 !0 ~0 D^ {0 ]0 g- ^0 /0 (0 _0 :0 <0 [0 [0 }0 |0 10 1> 20 30 40 50 60 ",
"3! 70 80 Q' 8| 90 00 a0 b0 c0 d0 L{ e0 f0 g0 h0 i0 j0 q; k0 l0 m0 E{ n0 o0 ]* p0 f7 8) -' 3> f  H7 q0 r0 s0 f  t0 S8 u0 w> o9 v0 w0 x0 y0 z0 k_ A0 B0 .+ C0 .8 o8 D0 E0 F0 G0 H0 I0 J0 x) K0 g; A& M, L0 J9 M0 N0 c' /7 O0 @1 P0 v, q~ Q0 R0 S0 T0 U0 V0 q7 W0 D; u% a) u= ^- l6 H; #= T> I@ X0 Y0 8) 8) K5 9) 8) 0; <0 Z0 6! '# o- `0  a .a +a @a #a $a %a J~ J1 &a *a b; =a -a ;a O0 >a ,a 'a ",
"!! `! )a ~! !a ~a {a ]a Q' ^a /a (a _a :a <a [a }a |a 1a 2a 3a 3a 4a 5a 6a 7a 8a g7 K5 u! 9a 0a Z6 F1 t+ aa q! u0 m8 a! ba ca da ea fa ga ha ia ja ka la ma na oa pa _9 qa ra sa 1' ta ua $) va wa ,) P, P, @) b; xa 57 ya za Aa R! Ba Ca Da Ea Fa Ga Ha Ia Ja 6) /, Ka La Ma 6) V> ^- 0) #= #= M, O> Na +) 7) ^- L8 Oa Pa Qa Ra Sa Ta Ua Va Wa Xa Ya Za `a  b -] [= Ka E1 4> ]{ )a {a .b +b z[ ",
"@b #b $b [~ %b <] &b >] *b =b -b -b ;b >b ,b 'b )b N/ x: !b ~b {b g) ]b ^b /b (b H> R8 -@ _b :b _b <b [b }b |b 1b -@ 2b 3b 4b `a 5b 6b 7b 8b 9b 0b ab bb cb db eb fb gb hb v, ib B^ jb kb lb M{ mb nb Q8 ob pb c0 Z9 qb rb sb tb ub vb wb ]! xb yb zb Ab Bb 3, Q0 Cb Db y[ qb qb Eb c' T& Fb )* Gb O, &= Hb B| Ib -- r~ Jb Kb Lb Mb Nb Ob Pb Qb Rb Sb Sb y, Tb /^ Ub Vb Wb Xb ^^ i' Yb Zb `b  c ",
".c ({ +c @c #c $c ++ %c %| &c *c =c -c ;[ ~^ ;c >c ,c x: 'c )c !c ~c 6b {c ]c <! ^c 19 $b /c (c 3! +] 8] _c :c <c [c }c '0 |c 1c 2c 3c 4c 5c 6c 7c 8c 9c 0c ac bc ~) cc dc ec fc gc ~) M7 hc L1 H* .7 ,' ic jc kc Cb y[ qb lc $@ mc nc oc pc qc rc sc tc uc vc wc A{ 9| xc yc zc Ac <3 Bc Cc Dc Ec Fc P, Gc Hc Ic Jc Kc D^ *] Lc Mc %& Nc n3 Oc Pc Qc Rc Sc Tc .0 Uc Vc Wc Xc Yc Zc `c  d .d +d ",
"+( @d #d Rc $d %d &d *d =d E] -d ;d E= >d ,d 'd )d !d ~d {d ]d ^d /d y/ (d _d :d w] >c >c t] <d [d }d |d 1d 2d 3d 4d 5d 6d 7d 8d 9d 0d ad bd n3 cd dd ed fd *{ gd hd id jd _) kd ld <] md nd od pd qd rd sd Ya td ud vd wd xd yd zd Ad Bd Cd Dd Ed I_ 2: Fd Gd Hd Id Jd Kd Ld Md Nd 8~ >a Od Pd ^{ Qd Rd Sd Td Ud Vd Id Wd ,b Xd Yd Zd `d +:  e  % .e +e 4( od ,; @e #e 7d 7d $e 7d %e &e *e =e ",
"-e -( ;e >e ,e 'e )e !e r^ ~e ~e f/ {e ]e ^e /e M_ (e &_ _e :e <e [e }e 7% |e 1e P^ 2e 3e 4e 5e ga 6e i/ 7e 8e 9e 0e ae be be ce de ee fe ge z: he ie je ke le K^ me ne oe pe qe re se L/ x, te ue ve we xe ye ze Ae Be Ce De De Ee Fe Ge He Ie Je Ke Le Me Ne Oe Pe Qe Re Se Te Ue Ve We Xe Ye Ze `e  f .f +f @f +f #f $f %f %f &f *f =f -f ;f >f ,f 'f )f S4 _{ w{ w{ !f ~f {f ]f ^f '] /f (f ",
":1 _f :f <f [f }f |f 1f 2f 3f 4f B_ 5f ]( %[ 6f 7^ ~d 6: ~d 7f 8f f} 9f 0f af bf cf df ef ff gf hf if jf 'c kf lf mf j( nf of pf k_ y2 x: (* &_ </ qf rf sf tf uf vf wf xf yf zf Af Bf Cf Df ;^ of Ef Ff Gf E_ H_ i( Hf e_ Hf If Jf _e *: I( Le Kf M< b: Lf Mf Nf Of .< Pf Qf Rf Sf Tf Tf Sf Uf Vf Wf Xf Yf Zf `f  g .g 9[ d( +g @g #g $g o[ %g &g g( *g =g -g e_ ;g H_ >g ,g 6| 'g )g !g ~g {g ",
"]g ^g /g (g _g :g P_ /g <g [g }g |g 1g 2g j1 3g 4g cf 5g 6g y  7g 8g 9g 0g ag F8 F8 bg cg n3 dg n3 eg fg <g gg hg ig jg kg lg mg ng og (_ pg $( qg >_ rg ~e sg tg ug vg wg xg yg k_ zg Ag Bg Cg Dg 1: |: f( Eg Fg Nf Gg Hg Ig Jg Jg kf Kg [< mg Lg Mg Ng Og Pg Qg F< Rg Sg Tg Ug Vg Wg Wg Xg Yg Zg `g  h .h +h @h #h $h %h &h rf *h =h -h ;h  g >h He ,h 'h )h 4f !h ~h {h @7 ad ]h 4[ ~d @: (* ",
"^h /h (h Y/ h/ _h :h <h [h }h |h 1h 2h 3h 4h 5h 2h 6h 7h 8h 9h 0h ah bh ch dh eh eh 6^ eh eh fh p; gh T: T: hh ih jh kh lh 1h mh nh oh ph qh 1. rh A< sh sh th uh vh z$ wh xh yh zh g- .a Ah Cg Bh f_ g! Ch Dh Eh Fh Gh Hh Ih Jh Kh Lh Mh Nh Oh Ph Qh Rh Sh Th Uh Vh Wh Xh Yh Zh `h  i .i _' +i @i #i $i %i `^ &i *i =i -i ;i >i ,i 'i )i !i ~i {i ]i ^i /i (i _i :i <i [i }i |i 1i 2i 3i Ah %_ ",
"4i 5i 6i 7i l9 8i 9i 0i ai bi ci di ei fi gi g[ g[ -  l  gi h[ hi ii ji ki li mi Nf ni oi pi Hf qi ri si ti ui vi wi xi yi zi _[ ][ Ai Bi Bi Ci Ci Di Ei Ei Fi Gi Hi Ii Ji Ki Li _1 Mi Ni Oi Pi Qi Ri Si Ti Ui Vi Wi th th {. Xi Yi Zi t< `i  j .j 7h +j @j #j $j O# %j &j xe *j Xf =j -j ;j >j ,j 'j c5 E8 (e )j !j ~j {j !j ]j ^j /j =} (j C< _j Di :j <j [j ]. }j |j 1j 2j 3j 4j 5j 6j 7j 8j ",
"9j 0j aj bj cj :9 dj ej fj gj hj ij jj kj lj mj nj oj pj 0. qj rj sj tj uj vj C6 M] =: wj xj yj @, zj Aj Bj (j Cj Dj Ej Fj Gj I% P= |% Hj Ij #& Ij Jj Kj Lj <* Mj Nj e| Oj Pj Qj Rj Sj Tj Uj Vj Wj Xj Yj Zj `j  k .k +k @k #k $k %k 6+ &k *k =k h6 !< -k ;k >k }i ,k 'k )k !k ~k {k ]k ^k /k (k _k :k <k [k }k |k 1k 2k 3k 4k 5k 6k 7k 8k 9k E5 0k ak bk ck dk ek fk gk hk ik jk kk lk mk nk ok ",
"pk qk rk sk tk uk vk wk -3 xk yk zk Ak Bk 7. Ck Dk Ek Fk Gk Hk Ik Jk Kk Lk Mk Nk Ok S/ Pk Qk Rk Sk Tk Uk Vk Wk Xk Yk Zk 5- a| a| K2 Z3  4 `k  l .l +l @l _& #l $l %l &l *l =l -l ;l >l ,l 'l )l !l ~l {l ]l ^l /l (l _l :l :l f$ <l [l }l |l 1l >} 2l {i 3l 4l 5l 6l 7l 8l 9l 0l al bl cl dl el :k fl gl hl il jl kl ll ml nl K% ol j| Z3 ^4 pl ql rl 75 sl tl ul vl wl q! xl yl zl Al Bl Cl Dl ",
"El Fl Gl Hl Il Jl Kl Ll Ml Nl =+ Ol i| Pl }i Ql z3 Rl Sl Tl Ul Vl Wl Xl t+ Yl Zl `l Hf  m .m +m @m #m J= $m ** *3 %m =* 5- 5- &m j| ^+ *m =m 8& @l _& -m ;m >m ,m H[ 'm )m !m ~m {m ]m ^m +h Pi /m (m _m :m 46 <m [m }m |m 65 1m 2m 3m 4m o+ 5m 6m 7m 8m 9m O  0m am F| Rl Rl bm cm dm %4 em fm gm hm im jm km Q= }1 `3 lm mm nm om pm qm rm sm tm um vm dk ~* wm xm 1) ym zm Am Bm Cm Dm Em Fm ",
"L{ Gm Hm Im Jm L/ Km Lm Mm Nm >} 45 Om 5l Pm Qm |- Rm =* Sm Tm Um Vm Wm #; Xm Ym Zm `m Rg  n .n +n @n #n $n l@ .; %n /= #* #* )4 &n *n )| v1 x1 rl =n -n ;n >n ,n Ml 'n )n !n ~n {n ]n ^n /n (n _n {& <6 :n m: <n `3 [n }n 55 |n 1n 2n T  Mm 3n 4n Gk 5n &  m2 |1 6n a| a| 7n Rm 8n 9n 0n {: an bn cn lj j+ dn en fn gn hn mm in jn w# kn c| ln mn nn y1 r& on pn o^ qn rn sn tn un vn wn xn yn ",
"zn An S  `3 Bn 6) M8 Cn Dn En Fn Gn Hn In Jn Kn )+ Ln Mn -n Nn On H4 Pn $! Qn Rn Sn Tn Un Vn Wn Xn Yn Zn `n  o .o +o Sl '| '4 '4 [# &n ;m K2 Z5 @o K2 B@ #o $o %o &o *o =o -o ;o >o >o ,o 'o )o !o z- ~o {o ]o ^o /o (o _o En 7& :o <o [o }o |o 1o 2o 3o 4o 5o 6o a| 7o 7n b= 8o 9o s$ 0o g! ao bo co do eo fo go ho &n io jo ko lo w# mo no oo po qo ro so tb to uo vo h; wo xo yo zo Ao V# Jj ",
"Bo Co Do *m Eo Fo 8= Go Ho )= 1- z# Io y; W7 ]j ). 8m (m ~6 [> Jo e= M+ X7 M8 97 %( =g dg Ko Lo Mo No Oo Po Qo Ro 91 So To Uo )4 Vo Wo Xo c2 Yo Z5 Zo `o  p .p +p @p #p $p %p &p >o *p =p i! -p ;p +; q$ ]% :6 F5 l. >p ,p 'p )p !p B3 ~p f= 2* '- Z5 d7 (+ {p f$ ]p @* 4- b= ^p /p W7 (p |: g' _p :p <p [p }p |p 1p '4 &n 2p @* <6 _l 3p -n /+ 4p 5p 6p 7p 8p 9p 0p ap bp cp dp X7 ep fp W9 P& ",
"gp hp ip jp kp {- lp mp 1- np c= V7 x# n, g7 l- op -n 89 *0 pp n, Io Y9 qp o9 rp sp F< tp up vp wp xp f  yp zp Ap v1 *n W+ '| Bp '- Cp w% Dp Ep X$ B@ 4*  p Fp }! Gp Hp Ip 4! #] Jp Kp Lp 9( Mp Np e* Op Pp Qp +* Rp Sp To Tp Tp 'p J@ Up Vp 6> W* Wp n* 6* 1- M$ D7 M$ 1- Xp Yp Zp `p  q .q Y' +q @q #q $q %q &q *q ol U3 $5 V7 z# &% 4@ Wp D7 =q -q ;q (+ >q ,q 'q T~ )q !q >0 X7 X7 >8 ~q N~ ",
"{q ]{ ]q ^q 6# d= P# C& 1- @* /q n,  9 >0 F' f7 x# y; G' y6 k7 K5 82 (q _q :q .- <q [q }q |q 1q 2q 3q 4q 5q m5 Tp _6 2p 6o 6o 4- x# +4 Y9 6q 7q 8q 9q 0q aq bq cq dq L7 eq M& fq gq hq iq jq kq lq mq  5 nq oq pq qq rq Yo 1o sq ^% K= '- n, e7 e7 B; tq f7 e= uq <7 8) 9) vq wq xq yq zq Aq Bq Cq Dq Ue U6 y- v* )- Q& 89 x# ]9 X9 Jo f= W* W* n, W7 p- >- Eq #2 Fq Gq Hq  6 Iq Jq D7 f7 Kq :5 ",
"Yb N3 Lq Mq Nq k* 3& hk np P6 89 W7 &! >8 >8 ^9 W- G' ]- &! K5 Oq Pq Qq Rq Sq Tq Uq Vq Wq Xq Yq Zq 90 :, `q  r Gn np g& np @* b= q% .r +r @r N4 #r $r %r &r *r Z{ =r -r 4q ;r t+ >r ,r 'r )r !r ~r @; v- {r ]9 q% P6 M+ Gn )= np G% '- tq ]- j% &! K5 K5 >8 uq >8 ]r v0 ^r x6 /r ]k (r _r :r #a <r u] [r }r |r 1r 2r Q& W* x# ]9 F' f7 n, W- 3r ]- x# &% 4r s0 5r 6r 7r 8r Mn Mn 9r 0r k% ar br ",
"cr dr er fr gr hk a= D7 hk hr ir @) jr ^, 8) l7 l7 l7 l7 kr Y0 #> lr mr N4 l7 K; nr or pr qr rr p8 7~ sr sr tr l7 7> b= 4@ a= q% Jo $! 28 ur vr wr xr yr M_ zr )~ Ar Br Cr Dr Er Fr Gr Hr Ir Jr i0 Kr Lr Y9 W* W* _; *k A& Mr Nr R& u- ]- ]- &! K5 Or Or Y0 l7 A& Pr Qr Rr Sr Tr Ur Vr Wr Lf Xr Yr Zr `r -> Cp u>  s Qn l7 )# F7 h7 F7 ^9 l7 K5 kr e7 uq X7 .s +s J$ 0j b8 @s =- #s $s %s &s l! ",
"*s |~ =s v  -s r% Pn D7 e= ;s >s ,s := va +) r| 8) 8) 8) 's )s 82 w> !s ~s {s w+ ]s ^s h] /s (s _s :s <s [s }s ^, p, |s 1s E3 /q {9 ^9 >8 ~n -] 2s 3s 4s 5s 6s 7s $) 8s 9s 0s M> :c as bs cs ds es T& fs %> vr r% K& gs hs is Wj js g7 y6 &! A& -' L9 L9 ~- 0'  ) w+ ks ls :s n^ ms ns k/ a: os ps qs rs ss ts us Sb vs ws xs ys zs %! As Bs ^- )s l7 ur Cs Tr x! Ds Es Fs Gs Hs Is [~ Js Ks Ks ",
"l~ Ls y/ Ms Ns Os q% a= Ps Qs Rs W) Ss B[ u! T, Ts Us Vs Ws Xs Ys Zs `s  t .t +t @t =[ #t ca $t J~ j^ `! /^ %t &t *t =t 6' -t Fo uq ^9 N> ;t >t ,t 2f 't )t !t ~t /- ca {t ]t Kd ^t /t (t _t x& :t <t [t }t |t *o X7 1t 2t 3t 4t 5t 6t l7 s$ #> 40 V> l> L9 7t 8t 8t 9t 0t fa at bt ct dt 5| .e et Bq #~ ft gt ht it jt kt lt j, mt nt ,7 =6 kc ot pt qt :c rt st tt ut b4 vt y| wt xt yt zt At ",
"h) Bt ye @+ Ct Dt vr J& Et Ft Gt o! Ht <0 It Jt _, Kt Lt Mt Nt Ot Pt ~{ Qt Rt St Tt 6g Ut Vt Wt Xt Yt Zt V2 `t 7{  u .u +u @u #u X* f  $u %u &u *u =u -u :. ;u >u ,u 'u )u !u ea k! -u ~u {u ]u ^u /u e- (u _u :u <u #f [u }u |u K& vr 1u 2u T& Y6 3u Pr Ss Ss 4u Br 5u 6u Bq 7u e^ 8u 9u fh 0u au bu cu du eu fu gu hu iu ju ku ~~ lu mu nu D0 Qa ou #s pu qu ru su ,s tu uu 1, vu wu xu yu zu ",
"Yd Au Bu Xb Cu Du ]q Eu Fu Gu I~ Pt Pc Hu Iu 6! Ju }0 Ku nu x) 6' Lu Mu te !^ Nu Ou @{ Pu Qu Tc #~ Ru Su Tu @0 Uu Vu Wu Xu Yu Zu `u  v j0 .v +v @v #v g5 $v %v &v *v =v -v 34 ;v >v ,v 'v )v !v ~v {v ]v [a Wd I~ n! ^v Iu n! ;l ;l /v &6 (v ($ _v 80 :v <v $] $] [v }v |v Cq 1v w] 2v S( 3v /_ =[ ve 4v ,' Ys qp 5v 6v 7v 8v 9v 0v P0 av x) bv cv n! 9s o! )) j^ dv ev tu fv gv hv iv jv kv lv ",
"mv ^u c^ /c +] 90 8| %s nv ov h' Pt pv qv rv n0 sv d' tv uv j^ vv c! wv xv yv zv 'v Av /d Bv Cv Dv Ev Fv Gv Hv Iv Jv Kv Lv Mv Nv Ov Pv Qv Rv Sv Tv Uv Vv 0< Wv Xv Yv Zv `v  w .w +w 7@ @w k_ #w $w %w &w *w =w Ku -w ,s ;w hs Gt n0 x) =6 >w ,w 'w ov Cr <v )w !w ~w {w ]w ^w Mv /w (w _w :w Ed <w [w }w jc |w 1w 2w C: 3w 4w 5w )w %| 4; ba Gu 1] u; 6w y> x) Q' 7w 8w +~ 9w 0w =w %w aw bw cw ",
"dw ew fw ld gw t] t] hw iw jw kw +~ !{ lw {a mw nw ow p> pw qw Cq rw sw tw uw #d vw ww 68 xw yw zw Aw Bw Cw E, Dw Ew Fw Gw Hw Iw Jw D# d_ Kw Lw Mw Nw Ow Fb Pw Qw ]w Rw Sw Tw Uw Vw Ww p/ 7^ Xw Yw Zw !c `w  x .x +x @x #t #x $x X~ %x &x *x =x -x ;x [. >x *w ,x '! 'x '^ fw )x !x ~x {x 8f Yf ]x <w ^x /x (x _x :x <x ,{ [x }x |x 1x 2x 3x 4x +s r] Ks 5x {w 6x E= 7x 8x 9x 0x zt @d r^ ax bx ",
"cx dx ex fx gx or hx ix jx kx L1 lx +~ +~ mx nx %u ox px %u qx rx sx tx ux vx Rc wx xx vk yx f/ a] zx Ax Ut Bx Cx Cx Dx Ex Fx Gx Hx [< Ix Jx Kx Lx 8| Mx Lq s; Nx Ox Px Qx Rx Sx Tx Ux !:  3 Vx Wx Xx +e Yx Zx `x  y .y +y @y #y $y k; %y 2' o- &y F^ *y =y -y ;y >y '^ ,y 'y )y !y z2 ~y 8f p/ Xg w& {y &d ]y ^y /y (y pr _y :y g> >e au <y [y 4x }y tx |y |, Bx 1y 2y s^ 3y 4y mv 5y 6y 7y =f ",
"8y 9y '_ 0y ay by cy dy ey fy gy ey hy iy jy ky ly my 5y '] ny oy py qy ry S4 wf 8^ Mi sy ty T{ uy vy wy xy yy zy Ay By Cy Dy Ey Fy <8 Gy Hy Iy @e Jy Ky yw 4y Ly My Ny )] Oy |: Py Qy p' Ry Sy Ty Uy Vy Wy Xy Yy Zy `y y/ ,d  z E] .z Te Te ^x +z @z ly x, #z +e $z %z !^ qy &z *z =z -z f_ )g (n ;z >z Pu !^ ,z 'z xy )z !z )z Rt ~z 0x k! es {z {! ]z ^z ^z /z Ux 9( *( (z Vw w& _z !d :z <z ",
"[z }z |z 1z 2z 3z ey 4z 5z 6z 7z 8z 8z 3y 3y 9z 0z Kl az bz cz dz ez fz gz hz Ah g- g- gh iz jz Pu kz @z lz mz nz oz K> pz qz rz sz Q_ tz u[ uz vz `y Ea wz x, xz L/ My w{ yz zz 8f Az 6_ Ry a_ 7f Bz Cz Qe Dz Ez Fz 7z ^; Gz Hz Iz Jz xy Kz Lz Mz Nz Oz Pz Qz qe Rz 5z Sz Tz Uz Vz Wz Gf g! 3v Xz )l Yz Zz `z `z  A .A +A @A #A $A %A cy &A ab *A =A rc x{ -A Sb Nk ;A >A ,d @( ,A &0 'A )A !A ",
"~A {A 8: 9: 9: ]A ^A /A I_ /A (A _A :A >: em <A [A }A |A |: |: ia 9b 1A 2A rf g- g- %_ %_ 3A ^< X: 4A 5A 6A 6A 7A 7A {] _e -g -^ J* 8A 9A 0A fm 'g X: d_ C_ aA bA cA dA x| eA 7f 7f 7^ &_ &_ fA gA hA H( Kg iA }A tz jA qf kA ]( lA lA i( C_ 5: _< mA nA Le Le v& v: 5% N* g( *_ *_ {: {: ^) oA pA )l qA qA rA rA qA &@ 'g sA sA tA `= ^A ;g uA (A ]A I_ vA =h wA he xA yA yA 9f h_ zA AA 5| 2: ",
"BA CA DA EA FA <g c: GA HA IA JA KA LA MA NA OA PA QA RA A[ /v SA x> ,0 TA z8 .# UA C' N& VA WA XA YA ZA v& 8_ `A  B -^ .B +B @B #B $B Q) %B &B *B =B -B ;B >B ,B 'B :r )B !B ~B {B ]B ^B /B (B k_ _B :B <B [B }B |B 1B 2B 3B 4B 5B 6B 7B =^ 8B 9A -^ 9B &g 0B ;h aB bB cB dB eB fB gB hB iB jB kB lB e= mB e# e# Dp nB oB pB qB rB fh /5 q; q; h- v& sB tB uB vB wB xB yB f} n_ zB AB BB CB DB ",
"EB FB 1. GB HB IB JB JB +: KB mp LB MB NB OB PB QB RB `1 i  n+ SB TB UB VB WB XB YB j  ZB `B  C !( .C +C @: @C #C $C %C &C ]j *C =C -C ;C h5 >C ,C 'C )C ]. 0l !C ~C {C ]C ^C /C (C _C :C <C [C }C _: |C 1C 2C 3C di 4C 5C 6C 7C 8C 9C 0C aC bC F- ]: =^ 9_ cC dC eC fC gC hC iC ][ U< <[ jC {. kC lC mC nC P. oC pC qC rC sC tC uC vC /5 a# q; a# wC xC yC zC {v AC BC CC DC EC FC GC r{ HC IC ",
"JC KC LC MC NC OC PC QC (h e; RC SC TC UC W3 VC WC XC e. YC ZC `C  D ,  .D +D @D #D $D %D ;@ &D ^k *D xA </ =D -D ;D >D (b Jj ,D 'D )D !D ~D {D -3 ]D ^D /D (D _D :D <D [D }D |D 1D 2D wm 3D *D 4D 5D 6D 7D 8D 9D 0D aD bD cD j  dD eD fD gD hD iD {d v: 5: jD kD lD mD nD oD pD qD rD sD ~. tD uD vD wD xD 4m yD J  zD AD BD CD DD ED FD A. (< Mi 8b GD gv HD ID !! lc JD KD LD aa Db ^v MD ND ",
"OD PD QD RD SD TD UD N5 VD WD XD S7 YD k# ZD `D  E .E +E  E @E #E $E %E &E *E =E -E ;E >E ,E 'E )E !E ~E {E 29 ]E ^E /E (E 5n i| _E `D :E <E [E }E 0m |E 1E 2E 3E 4E ~l 5E 6E r> 7# 7E 8E _, 9E 0E aE bE cE ;k dE rq k= eE fE gE hE iE h2 jE kE lE mE U{ L( nE 4{ J; %# oE u  V  pE qE SB rE sE tE Z5 /& uE vE 5. wE xE yE 'C zE AE #! BE CE tf DE EE FE GE HE B6 IE JE KE LE ME NE OE D7 PE QE ",
"RE SE TE UE VE WE XE YE ZE `E  F 9& .F +F @F ;1 #F $F %F d3 &F *F =F B4 -F ;F >F ,F 'F *m t1 )F !F ~F {F ]F ^F /F (F _F 7k :F <F [F }F |F 1F %  2F ~4 3F 4F ~o j= >k =  5F 6F 7F |l 8F 9F PD 0F aF bF cF dF eF m* A& fF gF _l hF ,m iF jF kF lF :5 mF Ry nF oF pF qF jp YC 2n rF sF tF =q uF vF wF d# A+ xF yF Vl zF AF yE G[ zE BF 99 BE /) !: iq CF DF EF FF GF HF IF JF KF LF MF NF Dp >8 OF ",
"PF QF RF SF TF UF VF ,_ WF XF YF ZF Z> `F  G 55 G# .G b% +G *n @G #G $G %G &G ,3 L@ *m *G =G -G ;G >G ,G 0g Cd 'G )G !G ~G =' %= 8= {G /% /% ]G 6C ^G ') /G |D (G _G :G q% y8 <G [G }G X! |G 1G 2G 3G 4G 5G 6G 7G 8G Kj 9G +F 0G J4 aG bG {n cG dG eG fG gG 17 hG l7 -q iG jG q  Nm kG lG mG nG ME oG 0< pG qG 6= D7 #9 rG sG tG uG m- w< vG wG xG yG zG AG BG CG DG EG FG GG Ek HG Yk IG JG KG ",
"LG MG NG ~& @o OG PG `l QG RG SG TG UG VG 7m WG XG YG )p ;n ;n )p ZG XG D  `G i.  H H% .H +H @H #H $H %H &H !( *H x< =H U& &' Eb Mq -H ur ;H >H ,H 'H [) )H !H ~H {H ]H 6E ^H /H (H @| `t _H :H <H [H }H |H 1H 2H 3H 4H 5H 6H 7H 8H 9H 0H du aH bH cH 6f dH eH fH gH #o hH hH iH jH kH Op lH u6 @2 mH Gi a= q% x# += _= +4 t@ nH _& 64 oH pH qH (} rH sH tH uH vH E- wH xH yH zH AH BH CH C  DH ",
"za sl (+ x1 EH FH GH HH IH JH KH a@ LH MH NH 4* p@ -n OH %# 5o OH PH -n 4* 35 }E QH RH SH TH UH VH wq WH XH Ux YH ZH `H W6 28 F' K& N4 28 K& E7  I .I D^ +I @I #I $I %I ;@ &I *I =I ;' -I ;I >I ,I 'I 'k )I R> !I ~I {I ]I ^I /I z8 H1 s9 (I &x _I :I <I [I }I M& |I d; :p 1I 2I 3I 4I 5I 8- 6I 7I 8I 8m a= 89 x# += _= ^- 9I 0I aI bI cI dI W( rb eI fI gI U9 hI Pt iI jI kI =& lI mI nI jp oI ",
"b! *% J2 15 OH pI qI ,v rI sI [2 tI uI X} vI p@ -n wI xI 1o 1o 1o %# 5o wI yI Jo vr zI AI BI CI DI EI FI GI P/ HI =b II u0 *k *k X7 K& JI 4q Y7 KI LI MI ~w {q NI OI PI QI H8 RI SI tv qe yv TI UI VI :j WI 6$ }| J4 XI YI N, S% S% u= Gb Y! X! ZI `I  J .J 5E +J  9 @J x* h& 6k G% h& x# x# n, f7 89 f= W* n, G' l7 jr r> #J $J %J 4% &J *J =J -J to d6 ;J >J ,J 'J )J dF !J ~J {J ]J ^J /J 5F ",
"(J _J Ju L0 :J <J [J S% }J |J 1J 2J 3J 4J Dp X$ Yo qq )= )= )= )= rq rq 5J 6J hk N4 ^. 7J 8J 9J 0J aJ bJ cJ dJ +c !a eJ /, fJ z8 z8 N4 FG gJ hJ iJ jJ tt kJ ~m Cr zn lJ P, mJ nJ oJ pJ ef qJ rJ sJ tJ uJ vJ k6 wJ w8 xJ yJ N, ], M, n9 t~ i; vv zJ AJ <I BJ CJ h7 W* d; .= d; G% 2* 89 89 q% W* W* y;  9  9 ]- @= ^, q> T8 DJ EJ FJ GJ HJ IJ JJ KJ LJ MJ NJ OJ mk _. PJ QJ .2 RJ SJ TJ 9! t+ b. ",
"UJ VJ WJ a0 XJ /k YJ V- ZJ `J [n |m dk y8 2% km {p 1- 1- 1- 1- )= )= )= P# >H |7  K $) i^ :~ .K f0 +K @K #K $K %K &K *K n! =K D& @> -K ;r ;K Cl >K ,K 'K )K fJ F7 (7 !K <= ba ~K {K ]K ^K /K (K _K :K `8 h7 l7 iB ^. ^, ~8 #> Oq B) <K [K ot }K  1 YH |K BJ Rj M8 e= q% Q& Q& x# 89 W* W* _; 28 F7 >8 l7 &! 7t 1K /9 U, ~7 2K ND 3K 4K 5K 6K 7K {^ P, 8K 9K /x 0K aK bK cK t) dK eK fK gK Ma hK ",
"iK jK kK lK mK nK |f oK pK {I qK rK UH sK tK e; z# c= ^% g& g& np 6J 6J E7 r% uq 4q uK yo vK wK xK yK zK AK BK CK DK EK  b `B FK a0 GK PF rk Wt HK .p IK JK JI M8 KK LK MK Zt NK OK ,e ]: PK QK RK SK TK 82 *' ^- r| 3> a) H' K9 W6 UK ~m VK W! WK XK YK ZK Xt fq K& o, N$ tq n, Q3 W* J& uq K& )# `K 's J9 ma  L .L +L @L #L $L 8] %L 23 &L *L =L -L }s ;L >L ,L 'L {* U, )L )) !L -] t| I, ~L ",
"{L ]L h' X! v! ^L /L yJ (L _L N8 %t Gu q! oq G; :L Q3 G% b= c= g& 6J E7 f7 28 $! <L [L }L vK |L 1d +K x2 1L 2L 3L 4L 5L 6L 7L 8L 9L `! c. It P~ Nb 0L aL )u bL 8t cL dL eL (J zw fL by gL hL iL jL &> T8 S8 f  s0 s0 )* T& y= T& f  B) 2; cv Fu kL lL 6^ mL nL >~ =' L, Y0 oL W- n, W* W* #> pL xm +9 G9 qL `q rL sL n~ tL &p uL vL wL xL yL zL AL BL CL DL EL FL /7 v0 I~ 1] (v GL Gt u! h; u! ",
"r{ jK Iu HL IL JL 2f rG KL LL ML 2] D0 i^ *= q> .= x# x# $5 q- y6 ^- $! X7 NL OL PL QL RL SL TL GF UL VL WL XL YL ZL `L  M .M +M @M #M I~ .] R! k3 N} n! Ft $M 4u [K p! %M ba &M S' *M 1A =M -M ;M >M t~ f  T& c> ;$ 5) H7 ,M 'M Ht [K 1] 1] )M !M ~M 7^ {M ]M ou ^M 40 1r >7 ]- n, vJ /M y= (M _M J9 Q6 :M <M [M }M |M 1M 2M Pu 3M `7 4M 5M 6M 7M 8M 9M cp 0M aM l8 NI bM bM !* u+ cM B) a- w> ",
"dM eM #^ H/ fM gM 3f Pq hM <0 iM 2] %t 2] jM ^- .= @J p, .= += kM lM G$ ;H ;H mM nM oM pM Vt D0 Ly qM rM sM tM uM ZH vM #r wM xM yM {q zM AM BM e- CM dp ~q I, o! p! DM EM ov FM X' GM HM IM JM ru KM G$ LM 0a =a MM NM =a OM F) >~ p! [K 1] PM QM Rz ag RM SM ou TM UM e5 Y0 K5 y6 B9 Yb /, VM WM -H D& XM u+ 57 UK YM ZM `M E& NM `7  N .N +N @N #N $N %N Qn 6) &6 &N q! *a 3) u0 5> *N c> =N ",
"-N ;N >N ,N 'N )N !N ~N {N ]N ^N v, (- Cb /N m- += Xp =5 Qr Cu )G (N _N ~q uK uv :N 0t <N 6! [N .% }N Wz |N QA pp R> !* 1N 2N 3N 4; 4N #s <~ 5N )a 1] 1] 1] o! p! PF It 7~ 6N s{ 7N 8N 9N 0N aN T] .] 4> c6 bN ,> 7] )> k> cN dN vv L; eN .7 fN Km gN ag hN iN jN Gb =' Oq A& ^, l7 kN lN mN nN oN pN qN [= rN Ys sN tN uN WG r5 fs vN wN xN &4 yN zN AN .d 9% b; @1 a! .] c! BN h' ba CN DN EN ",
"FN *d GF GN HN {d k_ IN 'u JN {w KN LN Q[ xM BN MN NN MN l0 0s Vs ON PN [L .7 U= QN RN SN TN UN C# bf VN |N CK i^ WN XN 5] 3b YN zM ZN (c `N  O xl BN BN %M j^ .O B[ Gt .~ s{ jw t] +O @O #O $O KN %O &O &O *O 2b cN cN cN 0= =O o8 lK .7 -O w{ ;O >O ag ,O 'O 'O $] )O !O ~O z4 {O /- ]O  b  b  b ^O bp /O (O _O :O ;t <O [O #; }O |O 1O 2O 3O 4O 5O 6O 7O 3b 8O 9O 0O %' aO X' bO cO `2 dO eO ",
"fO Zv %e gO hO sc a: -b 3, iO jO kO %| ,{ KJ a! j^ ou %t 7s I0 lO mO nO oO pO qO D^ `> rO sO tO Y( h> VN uO vO wO xO yO tx w] zO #r Lq k> b) AO j7 J; J; BO CO DO EO FO GO jc HO t] IO JO #O X' Pd DL p8 KO LO LO {q CN cN M; MO NO tN Jy OO PO 4e QO 7^ RO SO TO >] UO VO =O WO XO [N H~  b Ra YO ZO h9 `O h9  P .P +P @P #P $P %P 4( x~ &P *P =P Q^ -P ;P >P 1c ,P 'P )P !P ~P Ye G! {P db :5 ",
"]P ^P ^s 6e /P (P h} _P :P <P jx fL [P 19 ~a }P |P c~ iw [P [P 7O 1P id 2P aL 3P 4P l! R' 5P 6P 7P 8P 9P 0P aP bP cP dP eP {K fP gP tu F{ /^ hP W, iP L) )u R0 zC jP i/ +b %b #a kP lP mP Mi OK fL %w nP N' oP pP :I %b d^ qP rP 4] sP tP PO ~M uP vP 7^ wP gx xP #~ O' 7r Nx yP zP AP BP .x .x 6P px CP DP EP i) hd FP g{ GP HP IP JP Ig KP LP MP NP OP PP c^ QP RP +x DP SP TP gx c^ UP VP :d ",
"WP &v XP YP ZP nf /< `P  Q L' )^ .Q fx +Q =A @Q }^ #Q $Q %Q >N gx  f <P &Q *Q =Q -Q ;Q >Q ,Q =Q &: -| <q 'Q )Q !Q ~Q {Q Zw `e ]Q ^Q /Q (Q (Q _Q :Q <Q [Q }Q |Q 1Q T( 2Q kx 3Q 4Q 5Q 6Q ]F %_ =; =e 7Q 8Q 9Q 0Q aQ oe bQ Rw cQ dQ eQ fQ gQ hQ iQ Zl jQ y: <' kQ lQ yd 1g mQ Sz ma (] nQ oQ pQ m' qQ cw rQ sQ n7 tQ uQ vQ `~ wQ xQ yQ zQ 9( AQ BQ CQ DQ EQ FQ 58 v] GQ HQ IQ JQ -i KQ ex LQ v[ lL ",
"#_ MQ Ig NQ OQ H_ x: PQ QQ 0( RQ 'd S0 XL SQ +( TQ UQ VQ WQ XQ uP y/ s^ YQ K/ ZQ `Q  R 8( .R +R #7 66 F_ @R #R $R %R &R *R *$ #d ~z ma =R -R ;R Qz >R ,R 'R )R !R ~R D( {} {R ]R ^R /R ]< 7^ 4g (R _R 0z :R <R b^ [R r( ^f }R s( |R JJ 1R 2R 3R `d 4R U: >g 5R 6R  z -; 7R 6R E- RQ 8R ;A ,d 9R 5y qy 'e _{ ax 0R yb w/ aR bR X| pg )d cR AQ dR eR fR gR hR iR jR kR Kl lR @( u{ ,d ^; 0R Dd gR ",
"Ry Ry (* V: V: mR w: ~: nR oR 8^ pR qR rR sR tR uR vR wR xR xR /_ yR `d zR AR BR (k >j CR S/ z  6^ 6^ 6^ f_ ~: DR DR ER _1 {u ); L] E- wR FR /_ GR HR IR HR JR KR 0N el (A Ke 6: /< q; q; q; GI B~ |: LR ^) )l MR NR %0 OR Gf PR QR  m $h CR ;g Ke g( Kg RR h( << h* ia SR TR UR PC VR WR R( 6g `( JR XR YR ]_ `( `( IR ZR `R  S Vj Mi B~ .S +S 9A ]> ER Q; @S #S MR $S %S &S _1 !: *_ D6 7^ *S ",
"=S -S ;S >S ,S 'S )S 02 )l Mi ~: .i !S ~S ~S {S ]S ^S /S (S _S :S &^ <S [S }S |S Jk Wo U3 1S 6k p$ 7- 2S 2S tF M$ }G 6n 7$ 3S 4S Sf O( ff yf 5S [S [S 6S 6S 7S 8S 0A E8 9S 0S aS bS cS dS eS fS gS hS iS jS kS lS !: !: i( j_ f( a& mS ^2 nS oS pS 27 qS rS sS tS O6 uS vS wS xS yS zS AS Q( BS CS DS ES FS .3 GS ww HS IS JS KS LS |p MS NS OS PS QS RS SS 8r TS B@ US VS WS XS YS ZS bg `S  T ",
".T +T @T #T /% ~= $T %T &T Lf M< *T =T -T ;T >T ,T 'T 'B )T b: 5: -| Gf !T ~T {T w. C< {[ Di :j ]T gi Yi ^T -  ^T Yi /T (T _T :T VD <T 6: w: nA H} Pk @h NQ Lg [T }T |T 1T 2T 3T 4T 5T 6T }l }2 7T mD l+ m+ 8T 9T 0T 9A h( RR Kg aT bT 1D :$ cT dT =  eT nC aD n  fT nC gT xD hT =} iT rq jT :1 ia kT 7: #7 5: hA eh lT mT nT oT pT qT  D rT 51 >  P. }j C< n  {[ Yi :j sT tT uT C. vT wT xT yT ",
"zT AT _[ BT CT DT ET FT GT &h Kf RI HT XO h' IT 9^ JT gm KT M< h} ,j LT MT NT OT PT sD ][ h[ gi kC kC kC kC kC h[ :j Bi QT RT ST TT UT _< VT WT XT q[ {B WA YT ^8 ZT `T  U .U +U @U #U $U %U &U *U >  oE k2 o  =U -U ;U :< >U ,U 'U )U !U ~U {U ]U ^U S  XD /U (U /U /U O. _U :U <U [U =q }U |U 1A ia o/ y2 y2 1U 2U g{ 3U 4U 5U 6U YC 61 7U 8U {+ 0D aD PT nC aD 9U h[ 0U aU ~! O[ bU cU dU eU ",
"fU gU hU iU jU 'n kU R7 lU :9 mU nU oU pU `q qU rU 4S `d sU M< tU 77 uU vU wU xU yU zU G+ AU BU 'D CU DU v3 EU FU T1 GU HU IU JU r+ KU LU MU NU OU PU QU y' RU 8| Iq SU TU UU VU WU XU YU ZU `U  V <@ .V +V !+ Ka @V #V $V %V &V *V =V -V 4} ;V >V ,V ^U 'V )V Z} !V ~V {V ]V ^V /V (V `o w% _V :V <V YK 6^ 5| 8e h{ wt [V }V |V 1V 2V 3V 4V gI 5V 6V 7V G[ 8V N@ 9V Ll 0V aV bV )I cV dV eV iS ",
"fV ,$ gV 5n _4 c@ :4 hV k# iV 7h 6+ }m B3 jV kV lV +O dd mV Le ti nV oV Vl u1 pV 3@  o qV rV +$ sV tV x1 uV vV Rp -5 [m wV D3 xV yV zV >f AV BV CV DV EV FV GV HV IV JV KV LV *U MV NV OV PV qD 3V QV RV SV TV UV VV WV XV YV ZV `V  W .W '3 '3 +W UU O% {4 @W =F #W .$ $W K2 %W @r &W In `F |4 *W =W ia G( &h -W ;W >W ,W 'W )W `T !W ~W {W |5 ]W v1 )| 35 .G ^W 89 6$ /W Y7 (W Mm _W :W <W [W ",
"}W |W QH 1W 2W Ap Z3 f6 F# 3W 4W 5W 6W 7W 8W 9W 0W k1 ds ~y %: aW bW F$ cW =n Op dW N2 _l r5 tI eW fW gW SU hW Jj iW jW kW lW mW 0G 0M nW oW &g V; pW qW rW sW tW uW vW wW xW yW zW AW BW CW MF N@ DW EW FW GW HW IW JW k_ KW El LW MW NW XG 0m $G ak OW V# .  PW |J QW RW O  NG SW wm TW PW UW VW WW XW B~ YW ZW `W  X  X .X +X @X 1- o@ 6- #X $X *n W+ $% ZG ~p .r !7 %X E7 &X .V *X =X -X ;X ",
">X ,X 'X [G @l `[ )X !X ~X {X ]X ^X /X ,) (X _X :X <X [X }X ^< |X 1X [o %> 2X 3X 4X 5X K@ Z5 x# 6X 7o 7X 9< 8X 9X 0X aX $& bX s9 cX dX eX GR BV fX gX hX iX jX kX lX mX nX 6p oX pX qX `E b. 1$ Z> ~9 D$ g# l6 rX sX tX 7f uX :b vX kH wX c= |- &n xX (+ p@ yX zX {  Z# jG AX BX DJ 2) %# CX DX EX Eu [( ]< ~} FX GX HX IX JX ~k KX LX MX NX OX PX Z[ QX RX 3p LH Op w% SX TX UX I. M& VX )a 'w ",
"WX XX YX km ^6 ZX xW U9 `X  Y .Y +Y @Y J9 nw ~w #Y $Y %Y &Y *Y =Y -Y ;Y [> `T >Y X0 5o -n M$ x# x# V7 2$ ,Y 'Y )Y !Y ~Y {Y 57 ]Y ^. qp !f ty -^ ^Y Sa /Y (Y C} J8 _Y :Y <Y [Y }Y |Y T  1Y 2Y z8 3Y F7 4Y 5Y Q& 6Y 7Y 8Y k_ 9Y 0Y C) }7 N$ :; q- Wp Ho 7q fJ aY bY `J cY dY <l eY }I o9 fY 5} gY 6) hY 9S cg Mi iY jY id $@ kY {l lY mY gj nY oY pY qY -n p@ p@ p@ 5) w> za rY sY %F Y7 RN eb a{ ",
"z6 tY V- y- n= uY vY wY xY yY zY AY BY CY DY EY FY mb e] GY HY IY JY KY (+ 9; L& 1- ]% w* 2* 89 89 89 q% @| LY |8 MY NY UM $= 28 OY ;8 dJ Vf H( 8# PY QY RY SY y9 xm TY UY VY vJ s$ 37 6t WY K& 18 y6 e; t- 89 x# LY XY *^ YY ZY =' ;@ o, 7> d; W0 #9 >) `Y pU dp  Z !K wo B& .Z +Z ]Y B) @Z 0o #Z V( $Z %Z &Z *Z =Z -Z ;Z I, >Z I9 ;q ,Z 9; Ep 5J 1o 5o -n 4* `o rb bN )* a' YI #9 V2 Z, 'Z dM ",
"m7 @= X- )Z eE !Z m= ~Z yV {Z ]Z ^Z /Z (Z _Z LI :Z =N (< <Z [Z }Z |Z |% (+ wI Z5 V7 Q& 1Z '- x# x# x# n, y; += j% Y0 e5 #> l> ,# fJ UM 2Z Sf 3Z 4Z Q[ 5Z 6Z 7Z 8Z Pq 9Z DY 0Z aZ ,) za X7 yH _; y6 >8 e; s- Q& LY Y9 bZ -g cZ dZ f  8) N> x# d; [7 +) e' It eZ fZ <C w+ SA qL gZ hZ CJ |0 r0 iZ jZ kZ :' r8 lZ a] o0 mZ nZ oZ ;K pZ qL qZ k% #o o@ o@ =q -n p@ sl rZ sZ &I 7F Ju ]Y tZ Iv uZ vZ ",
"wZ ~- >7 xZ xZ R% xZ yZ -s E7 zZ @> AZ p0 BZ CZ DZ _8 6: EZ FZ <C tq o, Q& Q& W7 <; @J q, @J 8- 8- 8- oL f; GZ Y0 e5 #> l> V> HZ IZ JZ KZ LZ </ 9w MZ IY NZ OZ PZ QZ N, A& u! It RZ SZ TZ aa ]q (9 l7 Q& x# f; ^H <7 UZ *_ tM VZ (9 s$ A& G' WZ u1 XZ YZ ]O ZZ `Z  ` .` +` *N @` #` P, J9 w9 c> c6 $` %` &` *` =` 3u -` ;` >` ,` '` -J )` 2d 3) Jo _; W* K& ;- !` Ju n9 O, $> V> <= 3u ~` {` ]` ",
"wZ 1r 1r D; wX ^` GZ f; kr kr kr %> 2Y %= k8 tv /` jt /5 (` _` `K )s &! W0 Q& += @J q, q, U7 8- 8- f; Y0 L= I@ >7 :` ,8 V> ~8 C- <` [` }` 6/ 9A 9] |` uu 1` 2` 3` 4` T, Q, va It 5` 6` 7` 8` 9` 0` H1 W0 Q& W0 ^H ^9 a` *_ b` c` >4 T, T, #= d` e` f` g` eM h` Zt  ` +I 1] xl i` b0 J9 u= B)  O j` k` %` ~; l` m` |O n` o` p` d- rk q` r` 7d nN ^9 F7 F7 s`  K |7 &> 9) #= t` 50 u` 2u K; 6L !! ",
"L5 l> ;' 2u v` r0 Fb U& u0 H7 s0 c' &a !* xm w` -$ x` /5 y` z` `K := 9) p, p, q, U7 8- 8- 8- ;0 f; I@ Y0 Y0 Y0 #= #> A` UM B` c> C` D` N; E` F` G` H` I` J` K` L` $) 7t 7t 7t M` 0- :~ <0 EM ){ J1 (~  ) E1 Iu N` O` P` LR Q` R` }s 1u _, m- S` Ik T` U` kb -l V` cL ~m +I p! j7 AO xm l8 t+ z) =6 qd W` NR X` Y` Z` ``   .. .+ .@ .# .bM $ .<7 >8 >8 l7 &! 96 eL % .Q, & .y= * .= .t| h^ - .Nz ",
"; .s> > .Nw #s }V jM , .' .a0 a0 ) .z[ /7 0| ! .~ .{ ./5 ] .^ ./ .t` #> f; ^` 5I ,* 8- 8- 8- 1; X0 e5 e5 #= Oq ,8 40 V> l> V> ( ._ .: .< .[ .} .|c Zc .s | .1 .2 .#) 7t M` M` 7t ){ )a BN  b F% 9s hs 3 .4 .5 .6 .7 .Hr *_ 8 .<c fr M8 1u dp bL !s U& 9 .Y' 0 .a .<C b .~n bv 2] &N ks c .d .-$ %s e .f .%S g .h .i .j .k .l .m .'w n ._, o .&> M8 K5 X- M, p .@ .KM q .Ht El r .:c s .t .u .v .",
"w .s| Z6 Db +] 'w x .a0 &' y .jM z .A .B .Gs C .D . ( /5 E .(~ b .B` =' S8 s> k6 ,* U7 8- Oq %= za a' vX LM w> 6) 2) F .ZT aa G .|a 7R H .I .6f BM J .K .RL a7 L .!* bv bv p! g' &N Q' vv 2] y> %t Iu Iv M .N .O .Q^ P .w4 @8 Q .Lq NN v0 R .z) v  P8 S ._u T .Gt U .z, B[ i^ {{ ba _b !} V .W .~{ X .jq Y .Z .` . .....w~ !z +..@..#..$..W6 Q, L0 k8 c' j^ p^ Hu YO .] %..Vb &..*..er =..pe -..",
"p8 ;..+0 $] ba Hp xK >..X! `Z `Z (x ,..'..85 |~ es dJ )..!..~..`Z S8 {..]..eu ^, 5I U7 &! A[ a0 ^../..*K (..R! 2] 2] Iu eO ba !u G! dP _..ef *S 8i :..I^ <..DZ a! 24 V2 kc )> (c kc N3 ;..Fu av [..}..|..1..2..3..4..ZP *S 5..|d 6..7..8...d 9..n[ KJ 0..a..wp b..%( 7L I,  b ]a ;] c..C9 d..e..) .d^ o' f..g.._! h..i..j..k..l..w! m..n..o..p..!) q..r..s..]M Hv /^ t..`b ,[ u..hh v.._..w[ w..",
":5 br x..Ta y..+t z..A..!! 7L B..C..D..E..F..+c ,; $( x: G..H..I..X! <9 vL N; 0a s| Qp LM J..1b ~! LN K..Nb A{ =x hb L..M..N..O..P..Q..R..S..y: hO @' T..U..]a %| Tb LO lc 2b ;s ;s ZZ ~N *O K) =O V..W..X..Y..Z..`..XE p' Mg  +.YT .+.++.n1 #r @+.ou #+.$+.%+.&+.` .*+.'{ ou ,s )w Tb Vn h0 =+.mb xP -+.;+.>+.lQ w] '{ ,+.'+.y^ )+.!+.~+.{+.]+.^+.%s .t ^^ lb Tc lw /+.qv ,b W` :f (+._+.:+.sQ ",
"<+.58  ..G{ %2 [+.[+.F..}+.|+.1+.2+.3+.;b t& 4+.5+.6+.|{ 7+.8+.9+.0+.a+.b+.c+.c+.#b #b e{ 2s }~ o0 d+.e+.T~ =r f+.g+.X' h+.i+.j+.k+.l+.m+.n+. 3 <R u .o+.p+.q+.r+.s+.o0 t+.pr `a H*  1 u+.v+.w+.Zu V2 x+.y+.z+.A+.B+.5g C+.;T D+.H* g9 E+.g{ ,M b .F+.'{ G+.H+.I+.J+.K+.`; i' mJ mJ Q! M> g> 'b [{ L+.+/ M+.N+.vO _+.hd O+.P+.Q+.M..Zu s; }V R+.S+.T+.U+.~a V+.W+.'..Ot #~ 1c >h X+.P^ Y+.Z+.Q] ",
"`+. @.zC 5( OK GF @Q qc Bv &A .@.+@.@@.#@.$@.au %@.&@.|{ gf DO *@.=@.J^ -@.h] Bq Bq ld ;@.>@.,@.'@.'@.Ks )@.!@.~@.{@.]@.^@.UP `x /@.(@._@.lg 0g ~( :@.Nz =A dr %b <@.[@.jc }@.pc |@.a] 1@.2@.(Q 3@.#0 ++.4@.5@.6@.7@.8@.Ry 9@.0@.Z~ =2 a@._+.b@._O c@.a{ d@.e@.f@.g@.h@.i@.j@.k@.+~ rv <d s{ FN &z l@.m@.n@. J &z ry o@.p@.q@.r@.s@.P} Yc rN +t c~ qs Te d^ t@.8d u@.8d #a v@.Uw w@.Y^ N^ I] x@.",
"y@.pe vz iy 5w z@.-[ +y +y Tz A@.,A xz B@.|a C# ;A ww C@.1A D@.E@.F@.G@.'+.H@.!^ I@.uz J@.K@.9d L@.M@.N@.{) ^u O@.zt ma dq P@.dq %9 Q@.R@.Xz Az P7 S@.6z [w IO T@.U@.J@.!z V@.W@.X@.+z V@.!z 'G Y@.Z@.`@. #..#.}e +#.Ry 6_ z: @#.##.$#.%#.&#.*#.=#.-#.;#.>#.,#.'#.)#.!#.X@.iy iy @z 5w ~#.{#.%( ]#.^#.q; /#.x: (#.l@._#.:#.<#.[#.58 }#.ne 2= 2= |#.1#.2#.3#.^! -) CF 4#.5#.J/ 6#.6#.lR 7#.y~ 8#.",
"9#.0#.$( a#.qg b#.c#.d#.e#.!( >z YE f#.f#.'d g#.h#.9S i#.*S j#.k#.l#.m#.q8 n#.o#.'e p#.&p .w ma q#.*f ye r#.s#.ed t#.'; y/ c] P .'e u#.v#.3f w#.x#.s8 y#.w& z#.2y A#.B#.2#.C#.,A :R D#.s^ '; Hr x, x, x, E#.9R F#.G#.H#.H#.<I ~: I#.J#.K#.L#.M#. #.N#.O#.P#.Q#.R#.n' ,R S#.f! /d /d 5y T#.v( |g U#.V#.X8 W#.B$ F#.:q jz X#.{#.{#.#d bQ Y^ aQ E~ E~ Y#.Z#.&p Sz yb *[ +( SQ {e 3y `#.wR }X  $.ly ",
"</ y: U: ]< ^: ^: ^: ^: RR -f -f .$.+$.@$.#$.`A 5B $$.%$.&$.*$.^K hh =$.%h mP uO -$.;$.=f P; =f >$.:_ ]x >$.,$.'$.)$.:f k} >U !$._: 9, D6 8B ~$.*$.{$.F` ]$.^$./$.($._$.dg cg sf :$.9S <$.[$.}$.|$.1$.2$.em em B~ p' Ry Ry 7_ l_ 3$.4$.5$.W= 6$.6$.@O 7$.[g 8$.9$.0$.a$.OC b$.c$.d$.e$.Hf b: 8[ 1a f$.f$.0_ &$./: /: g$.h$.i$.j$.k$.l$.m$.n$.}N @t o$.p$.q$. $.r$.a( s$.t$.u$.E@ 0_ v$.w$.v$.0B ",
"&h cg P< x$.y$.z$.A$.B$.C$.D$.cV E$.F$.G$.H$.I$.~j J$.K$.L$.M$.N$.O$.P$.Q$.B8 R$.Av S$.T$.U$.4B 4B V$.NQ W$.X$.^( Y$.Z$.`$. %..%.6F +%.y8 ,* C; T> R> @%.#%.$%.Op %%.]8 > .j5 &%.*%.=%.-%.;%.>%.,%.'%.)%.!%.~%.G* {%.>> ]%.^%.rG rG /%.(%._%.K# :%.<%.[%.}%.|%. g PQ .g S$.GS @h 1%.iz 2%.3%.4%.5%.6%.7%.eI 8%.8%.9%.0%.a%.b%.c%.d%.|_ e%.f%.lg X$.g%.jf if mV h%.i%.j%.k%.mL l%.m%.n%.o%.p%.2& ",
"q%.r%.s%.t%.m& u%.v%.^[ :[ ET {. -  -  -  w%.w%.x%.{. ]T -  gi y%.z%.n  PT BD A%._$.Ry q; f$.&g %g BV B%.x: C%.lq D%.E%.F%.G%.H%.I%.kC J%.:[ K%.:[ :[ ([ L%.M%.N%.O%.P%.Q%.R%.S%.T%.U%.U%.U%.q;  & (* Kf V%.W%.X%.Y%.Z%.`%.PT  &..&.y%.y%.rD +&.@&.#&.d# }7 _z ~] X8 $&.%&.M< k< q; YK o9 ek &&.*&.=&.-&.;&.5V mD >&.,&.i2 ($ '&.)&.!&.~&.v$.{&.G} h< /) Pk U| X8 N< _< 7f ]&.^&./&.(&._&.:&.pJ ",
"<&.[&.}&./H |&.1&.TB 2&.Xk 3&.4&.5&.6&.7&.8&.8&.6&.9&.0&.Xk a&.b&.Xk ,n o+ R  c&.d&.e&.&^ f&.Pk /) B%.g&.h&.i&.WA j&.k&.Jk l&.7&.m&.n&.o&.4&.Do Ml `%.p&.q&.q&.r&.s&.t&.u&.v&.w&.x&.6_ mR U%.a# y&.z&.A&.@0 /s B&.C&.D&.E&.Y} F&.G&.H&.I&.s  J&.K&.L&.;# M&.N&.^> nA 3: O&.P&.Q&.R&.S&.T&.(E &k U&.V&.W&.X&.Y&.Z&.`&.}Y  *.Y[ .*.J7 d0 +*.@*.GI h< #*.#*.1a $*.k0 %*.&*.**.=*.uj -*.2$ sl ;*.@%.",
">*.,*.'*.)*.!*.~*.{*.]*.X. j+ ^*./*.=m Q  Fj 0$ (*.QT _*.:*.<*.[*.}*.|*.1*.2*.3*.4*.z2 5*.:S 6*.o[ X8 7*.8*.o8 9*.0*.a*.b*.c*.d*.)X e*.k[ f*.g*.JG Kj z} h*.Qm i*.C3 j*.)H k*.'J ]O l*.dg P) O< 'T m*.n*.o*.p*.q*.r*.L@ s*.t*.u*.v*.w*.x*.y*.m& z*... A*.B*.C*.p~ b: D*.E*.F*.G*., .@> H*.YX I*.z8 T> J*.K*.L*.M*.N*.O*.P*.Q*.6V R*.S*.m- T*.U*.o[ V*.V*.W*.X*.m3 Y*.+  Z*.`*. =..=.+=.s  s  {V ",
"$3 @=.#=.$=.%=.&=.*=.==.dk -=.;=.>=.km US LH ,=.'=.)=.!=.~=.~=.{=.`j vH tj ]=.^=./=.(=._=.:=.<=.[=.f$.}=.|=.Oa 1=.F0 F[ gE 2=.3=.## 4=.4` `J @@ gV 5=.|Z 1X 6=.7=.8=.9=.0=.a=.b=.c=.]y ZL ~&.d=.e=.f=.cL g=.h=.dE i=.Om j=.k=.l=.lY m=.n=.hF o=.p=.q=.cY r=.s=..0 t=.u=.v=.w=.x=.y=.z=.A=.B=.f4 C=.D=.-=.VG E=.F=.G=.H=.I=.J=.gU 5m K=.L=.M=.N=.}z O=./) P=.!{ Q=.d7 =% hj R=.dX S=.T=.U=.94 F[ ",
"6] V=.W=.74 X=.Y=.Z=.`=.7# 1|  -.,* F& .-.2% Gn 6= Gn Gn .= +-.c* @-.1V ^j Ej #-.$-.jM %-.}P l! &-.h- *-.=-.--.;-.0% >-.WG Fn j| ;n rq rl Q  7# TW ,-.'-.)-.!-.Pc ~-.{-.]-.^-./-.=y fb pb 2$.(-._-.1K  9 |s |s :-.l= 9o <-.u0 (- <* ,Y gj g6 M=.[5 [-.}-.|-.@K 1-.2-.3-.4-.Ms Ui 5-.K8 6-.7-.I5 J7 8-.9-.0-.F=.a-.b-.c-.d-.e-.f-.1m 3@ g-.h-.yJ Q/ i-.&_ j-.MK k-.l-.m-.n-.o-.dT +V p-.`3 !8 q-.",
"r-.]9 s-.km D` t-.(T $& C& u-.Wv y- lH :& v-.r% P6 p% -s ;0 wX -n ek w-.qk qk x-.B&.y-.z-.ea Qt A-.Kg bt B-.FG 3o C-.X% $% 25 3p 3p _l p@ :l D-.E-.'-.F-.KX R` 9` G-.H-.I-.J-.K-.4{ ou CN L-.@+ M-.,8 :; N-.;0 k= G& r$ y- O-.P-.Q-.|Z R-.S-.s$ T-.U-.V-.eO W-.)G X-.Y-.Z-.`-. ;.eq .;.L4 NW +;.L, @;.}J #;.p=.NW |Z $;.%;.&;.&7 nY c= *;.=;.-;.;;.>;.7^ V#.,;. ) ';.);.!;.~;.{;.{;.-} ];.1- ^;.",
"/;.(;._;.w* :;.aY <;./W w> k8 Pq [; [;.};.|; ]- y; Q3 o, v-.F; |;.1;.2;.bv 2] r~ ZT +2 3;.4;.b] 5;.<< 6;.:..7;..7 '> Fn PH 5o Zo Dp Z5 Ep 8;.qG '-.'-.Eu jZ [q %N 9;.0;.a;.b;.c;.d;.ap e;.f;.g;.0( L, h;.r, wX }6 eE  U i;.j;.k;.l;.e; I@ U> T, M8 N> m;.CZ (3 LL n;.o;.$+ p;.>' q;.r;.r, s;.t;.I& 5- @o c2 WS u;.qp v;.w;.x;.pv > .y;.(4 r} :J ,^ z;.A;.+{ B;.C;.D;.E;.F;.G;.H;.I;.H; X$ )2 7W ",
"J;.K;.L;.M;.Zq N;.1*.O;.u= @) 3> ^, N$ p, 1; X- ]- W7 += -' ,8 .4 P;.kV (I j^ R .Q;.qL R;.S;.Rt T;.*^ U;.V;.W;.G> X;.@; Y;.~W GZ Wl P6 28 qL UG uI Z;.`;. >.~5 P- .>.+>.@>.#>.D{ Wn $>.%>.&>.*>.=>.->.;0 I@ K6 ;>.q$ >>.,>.T, w$ XZ N, ^- +4 L0 q> u! L0 Q, '>.)>.!>.~>.{>.]>.^>.]8 m6 };.oL />.r$ WS LY 89 oV YI &) 0- (>.ND _>.P, D; (+ 5W :>.,^ ^( %_ <>.[>.}>.|>.1>.2>.(&.;8 -;.oK x# X9 28 ",
"3>.Ar 4>.5>.~b 6>.%5 JU 7>.m9 8>.9>.0>.a>.hk s0 b>.o, e7 z6 7) w> c> eL  b c>.d>.wv Qr tr S+.e>.1f !N f>.g>.h>.i>.j>.k>.l>.F= uN O> S% m8 m>.m6 b8 U* n>.p1 o>.o^ {a p>.q>.r>.s>.t>.O{ u>.wg v>.w>.x>.Y0 >7 y>.8; z- z>.pL >Y A>.l8 f  2) Ht |) &= <v ~m b .B>.Ka C>.D>.E>.Km &a u= m- S8 vX UK yp F>.G>.H>.I>.^9 J>.td [{ K>.1e L>.C; Oq '{ M>.yr N>.Ke t= O>.P>.Q>.R>.S>.T>.w> U>.b>.W6 V>.W>.",
"X>.Y>.ck 2Y Z>.`>.>&  ,.&> w> .,.+,.@,..| M, xa ^;.R> #= X- %= Ka NI BN ou *O [k #,.pb $,.%,.&,.g! *,.,e =,.-,.}%.;,.>,.,,.',.),.!,.IZ c .&a T6 {8 xS ~,.;a _b {,.X! ],.rw ^,./,.b] (,._,.Vx :,.<,.+] ^M 50 t9 [;._7 5) [,.l8 T= !* [= m8 {{ Xt >) Gt (I ){ },.|,.1,.sy }( d~ t! K9 C) 2,.r! V& 2) x[ 3,.4,.<= $..,M WN 5,.l! ZI 6,.'* TM F+.$b h#.>h Ke $*.7,.8,.9,.0,.a,.>> 82 b,.c,.r0 #; d,.",
"e,.f,.g,.h,.8t x> 7t 7t Q, Ac 0J i,.j,.k,.ht V>.l,.m,.[O }q rr `t `t 6' eO (c u+ 5= B9 n,.)e o,.zz p,.q,.r,.'7 s,.t,.u,.v,.w,.x,.y,.z,.<d Ht a' A,._7 a' 5) Eb B,.% .C,.)G D,.E,.F,.G,.H,.I,.J,.K,.Pd L,.M,.-a t0 C) ;$  O 64 N,.' .8! c! O,.Ra sE /s QL P,.Q,.R,.u^ mf }( b^ $..Y- 50 S,.`; :v 7t }` dQ T,.$; U,.V,.s,.v' W,.o! [K -r X,.D^ Y,.bR l) {: ww Z,.1/ ne `,.7. }n D; O, u0  '..'.u+ ",
"+'.@'.#'.$'.*x VX %x VX %t %'.W .lc &'.V2 Zt eN  7 1b *'.|G ='.%O v; Tb y$ -'.K< %a .d oJ zv ;'.p; >'.,'.''.)'.!'.~'.{'.L5 ]'.^'./'.('.6~ GK -r Ka 8q /N c>.-$ _'.yM uv :'.<'.['.}'.|'.1'.cg 2'.WP 3'.@p ,a 9| 4'.#` j- 5'.bN C` 6'.m-.Zt 7'.(J j7 8'.9'.0'.a'.b'.c'.nf &( d'.e'.f'.G) yP fv l0 g'.NO c+.h'.i'.j'.ps k'.l'.U~ m'.{O n'.5r o'.p'.+N nf f} q'.Q0 r'.i' NI `o !` S8 G$ K7 dN s'.s'.",
"Pz 2#.t'.u'.v'.l{ w'.x'.y'.z'.A'.B'.Gv C'.-N D'.E'. M F'.G'.H'.~a jc I'.J'.5b mc K'.4] <d u .L'.M'.>'.id ^E a0 N'.$] u, o] O'.P'.Lq Q'.R'.n8 nL S'.T'.U'.V'.W'.W'.X'.}@./w qQ ~^ Y'.Z'.Yv SR `'. ).v[ (Q tu .).h` O[ +).2d @).5'.`Z `Z tE #).kN Rc +c $).%).a'.&).q%.Ga Ux d~ }' h] j'.+x <y >P *).=).-).;).>).,).').)).!).]t o0 aH $y ~@.~).y~ {).]).^).$^ /).()._).:).<).[).}).|).1).c~ 2).3).",
"4).2#.yv ne 7O &M w'.x'.5).6).7).8).9).da _y 0).a).&b b).nx H'.`b j@.c).n; d).48 q^ e).{z f).g).hA {A %b h).v; i).@[ j).k).F% bv ]~ l).m).G^ n).l! o).34 p).q).r).6N s).6  [r |~ I] t).u).YW v).w).`@.cw !P .M x).l~ y).gq z).A).y..y..B).C).D).w] E).*| F).G).b'.3v Ff wR w( 0w tx tx j'.g{ H).O' LN I).J).K).L).0O M).[V p).`{ N).O).R~ P).3/ Q).R).S)..( T).k~ rk U).V).=2 W).X).Y).H* jc mc ",
"uy 2#.2#.oe yC ^@.Z).|y `). !..!.+!.@!.l! #!.a@.qQ kz 8, ,] $!.q` 'w %b %!.z#.Zr PP &!.1q KT YK *!.=!.h .-!.;!.>!.>R V@.,!.[r Qt M).M).'!.)!.!!.~!.{!.]!.G= Fr ', ^!.8~ 8~ /!.(!.v[ Z'._!.^< He :!.<!.#p [!.}!.ID |!.1!.1!.|!.Sc 2!.VQ 3!.4!.5!.5!.6!.7!.8!.Zy 9!.YK ]A 0( C# 0!.a!.G! 9d y{ '/ oe bs 3y b!.c!.d!.e!.f!.g!.%w h!.Sz xw i!.IP j!.P( k!.l!.m!.n!.o!.7N ID p!.GF ;v Xr F{ xM 5= q!.",
"ew r!._R s!.=R G! t!.u!.o; v!.w!.x!.y!.n; z!.[#.A!.uz 0n B!.Cw +~ h,.C!.D!.^P GP Bu E!.F!.<A 3Z G!.G!.D/ H!.I!.J!.p#.wb I> }+.K!.g) *s <r y'.G! ~P L!.^} qv M!.N!.O!.$b $b P!.Q!.GP R!.S!.&_ T!.Yv #Q U!.V!.W!.X!.Y!.es |~ *w -[ Z!.yw &d `!. M pr  ~..~.yy +~.@~.v: #~.xR $~.%w [#.3#. { %~.M5 kQ _{ &~.^@.rx t!.*~.a!.:] :] &e yd t^ =~.P .>z -~.$_ ;~.>~.TP Au nP ,~.)b ]z 4+.%V ', '~.)~.!~.",
"~~.{~.jy Tw ]~.^~.se /~.9i (~._~.:~.bQ +Q <~.[~.}~.[~.cw |~.r^ 1~.2~..A Ok 3~.4~.*Y 5~.6~.7~.6^ =!.=!.8~.9~.0~.a~..@.pv Hp b~.c~.Dy dP Ye ~!.d~.n7 e~.f~.g~.B# iQ +@.Sb Ya h~.i~.pe j~.M* Ry ia k~.l~.m~.n~.o~.~P ^z p~.C/ er q~.#^ WQ r~.^f s~.X#.q#.t~.u~.v~.Qf 5% 1: E#.|( |/ t/ w~.x~.x~.y~.x, z~.0z nd &p lL jy .y A~.#a B~.qe C~.D~.WR E~.F~.G~.VT H~.I~.K> :+.*w 3#.%9 %9 }^ J~.K~.L~.HD ",
"aR #d =R Tw r` M~.r` o7 N~.6% r^ xw xw Iz O~.o+.P~.P~.Q~.R~.le S~.T~.U~.#( ha &Y oW &Y 'N V~.5| c5 W~.X~.Y~.Z~._#.`~.Xc  {.iy X@..{.v[ Rt _+.%~.$d ^s +{.CF @{.#{.au er er 2!.4y ~e ${.k~.B%.Ry GI %{.&{.*{.={.yd tw -{.5#.;{.t( >{.v( ,{.59 59 '{.){.!{.~{.@K {{.5% ]{.^{./{.({.h#.de (+._{.y~.bQ :{.)e 'e qe wz K/ -R te ue 7x Y^ <{.D~.[{.}{.|{.Dg w: J( 1{.2{.fx 3{.Z!.{#.ky Z!.{#.!e yd o+.",
"g%.~y GR 0u pg `( /_ Ed xR 4{.xw ;A 5{.Nk 6{.68 r!.7{.7{.6y 8{.9{.yg 0{.)d '{.2Q 7y NQ a{.b{.c{.d{.e{.f{.^< g{.5{.h{.i{.*[ e#.!f f/ 5y xw ,A r` r` +( j{.k{.X( 59 A( ^_ y  <Z Je l{.hD m{.n{.o{.p{.q{.r{.qM s{.t{.fz bR {_ w~.@w u{.v{.w{.~u f;.x{.y{.z{.A{.kA M'.@: B{.C{.{: D{.Vx `% E{.F{.G{.5y H{.I{.(f J{.%( 9( RQ 59 HN iR &( HP Qf K{.L{.M{.N{.O{.P{.Q{.R{.'] (f S{.gR 7( Cd (z 5{.T{ 1_ "};
