/* XPM */
static char * collectible_xpm[] = {
"64 64 1368 2",
"  	c #785E4E",
". 	c #785E4F",
"+ 	c #775E50",
"@ 	c #775E51",
"# 	c #775F52",
"$ 	c #765E53",
"% 	c #725F5D",
"& 	c #6F5F64",
"* 	c #6F5F65",
"= 	c #6E5F64",
"- 	c #6D5F64",
"; 	c #6C5F64",
"> 	c #6D5F63",
", 	c #715F5D",
"' 	c #73605D",
") 	c #6A6470",
"! 	c #63677D",
"~ 	c #62687F",
"{ 	c #62677E",
"] 	c #63677E",
"^ 	c #64677D",
"/ 	c #6B6470",
"( 	c #765E52",
"_ 	c #73605C",
": 	c #6C6B71",
"< 	c #617A8B",
"[ 	c #58849A",
"} 	c #55869C",
"| 	c #59869C",
"1 	c #68879E",
"2 	c #7789A0",
"3 	c #7D89A1",
"4 	c #7C89A1",
"5 	c #7C879F",
"6 	c #787C8E",
"7 	c #746B72",
"8 	c #735F5B",
"9 	c #735F5C",
"0 	c #5798A7",
"a 	c #4FA9B7",
"b 	c #4BABB9",
"c 	c #58ABB9",
"d 	c #7CADBD",
"e 	c #9BB0C1",
"f 	c #A6B1C3",
"g 	c #A6B0C3",
"h 	c #A5B0C3",
"i 	c #A6B1C4",
"j 	c #A3AFC2",
"k 	c #929CAF",
"l 	c #777B8D",
"m 	c #69636F",
"n 	c #705E5B",
"o 	c #74605A",
"p 	c #6C6069",
"q 	c #60677E",
"r 	c #58879C",
"s 	c #54AEBC",
"t 	c #53C5CE",
"u 	c #50C9D2",
"v 	c #5EC7D1",
"w 	c #83C5D5",
"x 	c #A4C3D9",
"y 	c #B4C3DB",
"z 	c #BAC6DA",
"A 	c #BDC8D9",
"B 	c #BEC9DA",
"C 	c #BBC6D7",
"D 	c #A8B3C6",
"E 	c #8792A9",
"F 	c #73788B",
"G 	c #726971",
"H 	c #75615B",
"I 	c #765E51",
"J 	c #726160",
"K 	c #6B636E",
"L 	c #606278",
"M 	c #546785",
"N 	c #548CA3",
"O 	c #60BBC8",
"P 	c #68D6DF",
"Q 	c #68DCE3",
"R 	c #6BD7E2",
"S 	c #76CBE3",
"T 	c #87BBE4",
"U 	c #9DBAE2",
"V 	c #B4C5DF",
"W 	c #C0CCDD",
"X 	c #C2CDDD",
"Y 	c #C1CCDD",
"Z 	c #C1CCDE",
"` 	c #BFCADB",
" .	c #B4C0D2",
"..	c #A5B0C4",
"+.	c #939CB0",
"@.	c #7D8091",
"#.	c #6F6872",
"$.	c #775D4E",
"%.	c #735E57",
"&.	c #6B626C",
"*.	c #61667E",
"=.	c #546384",
"-.	c #496689",
";.	c #518FA6",
">.	c #66C2CF",
",.	c #74DEE7",
"'.	c #77E5EB",
").	c #73DEEA",
"!.	c #61C8E9",
"~.	c #53ACE8",
"{.	c #78ABE4",
"].	c #A7BEDF",
"^.	c #BECADC",
"/.	c #C1CCDC",
"(.	c #C1CBDC",
"_.	c #C3CDDE",
":.	c #C4CEDE",
"<.	c #C0CBDB",
"[.	c #B8C3D4",
"}.	c #A4B0C3",
"|.	c #838EA4",
"1.	c #666C83",
"2.	c #685F69",
"3.	c #755C50",
"4.	c #6D5853",
"5.	c #65575E",
"6.	c #5F5F72",
"7.	c #5A6683",
"8.	c #516486",
"9.	c #45668A",
"0.	c #4B8CA4",
"a.	c #5EBDCA",
"b.	c #6AD8E1",
"c.	c #6EDFE5",
"d.	c #68D8E4",
"e.	c #4BC1E6",
"f.	c #2AA5E8",
"g.	c #68A5E6",
"h.	c #A3BCE0",
"i.	c #CFD7E4",
"j.	c #D8DEE8",
"k.	c #CDD4DF",
"l.	c #B2BCCC",
"m.	c #95A1B6",
"n.	c #77849D",
"o.	c #5F6B87",
"p.	c #5D5D71",
"q.	c #715A52",
"r.	c #605259",
"s.	c #504F65",
"t.	c #515976",
"u.	c #576584",
"v.	c #526587",
"w.	c #46668A",
"x.	c #44859F",
"y.	c #4EAFBE",
"z.	c #55C8D1",
"A.	c #56CDD4",
"B.	c #53C8D5",
"C.	c #3EB7DD",
"D.	c #35A3E5",
"E.	c #6FA7E5",
"F.	c #A5BDE0",
"G.	c #C2CCDC",
"H.	c #C7D1E0",
"I.	c #DDE3EC",
"J.	c #EAEDF2",
"K.	c #D4D8DF",
"L.	c #A0A8B8",
"M.	c #727F99",
"N.	c #61708D",
"O.	c #596785",
"P.	c #505875",
"Q.	c #705952",
"R.	c #584E5B",
"S.	c #434967",
"T.	c #4A5776",
"U.	c #556484",
"V.	c #546688",
"W.	c #4C6789",
"X.	c #467B97",
"Y.	c #459BAD",
"Z.	c #44ADBB",
"`.	c #43B0BD",
" +	c #48AFC0",
".+	c #55ABCF",
"++	c #6BAADF",
"@+	c #8CB3E3",
"#+	c #AEC2E0",
"$+	c #C3CEDF",
"%+	c #CED6E3",
"&+	c #D7DEE8",
"*+	c #E5E9F1",
"=+	c #E8EBF1",
"-+	c #CCD0D8",
";+	c #9198AA",
">+	c #5C6A89",
",+	c #556585",
"'+	c #566584",
")+	c #705A52",
"!+	c #594E5C",
"~+	c #434A69",
"{+	c #4A5777",
"]+	c #586888",
"^+	c #556889",
"/+	c #4F708E",
"(+	c #467E98",
"_+	c #40879F",
":+	c #3A879F",
"<+	c #4C8CA5",
"[+	c #76A0BE",
"}+	c #99B6D6",
"|+	c #ADC1DF",
"1+	c #B9C8DE",
"2+	c #CAD3E1",
"3+	c #DFE4EC",
"4+	c #EAEEF3",
"5+	c #E6EBF1",
"6+	c #D6DCE7",
"7+	c #B6BECC",
"8+	c #848EA4",
"9+	c #5A6988",
"0+	c #566586",
"a+	c #775F51",
"b+	c #755F58",
"c+	c #6E5F62",
"d+	c #605D6F",
"e+	c #555E79",
"f+	c #556280",
"g+	c #586786",
"h+	c #586B8B",
"i+	c #557090",
"j+	c #537293",
"k+	c #4F7192",
"l+	c #5E7B9A",
"m+	c #869AB3",
"n+	c #A9B7CC",
"o+	c #B6C2D6",
"p+	c #B8C3D6",
"q+	c #C3CDDB",
"r+	c #DBE0E8",
"s+	c #E6E9EE",
"t+	c #DADFE8",
"u+	c #BFC9D8",
"v+	c #A0ABBF",
"w+	c #78859F",
"x+	c #5B6A89",
"y+	c #576786",
"z+	c #596786",
"A+	c #735F59",
"B+	c #6C626A",
"C+	c #6A6A7B",
"D+	c #6E768D",
"E+	c #6F7C97",
"F+	c #687692",
"G+	c #5D6C8A",
"H+	c #586787",
"I+	c #61718F",
"J+	c #6B7D9A",
"K+	c #7284A2",
"L+	c #7285A3",
"M+	c #7789A6",
"N+	c #8A9AB2",
"O+	c #9EABC0",
"P+	c #A4B1C5",
"Q+	c #A4B1C6",
"R+	c #ABB6C9",
"S+	c #BAC2D1",
"T+	c #C1C8D5",
"U+	c #B8C1D0",
"V+	c #A5B2C5",
"W+	c #8D9BB2",
"X+	c #6F7E99",
"Y+	c #576686",
"Z+	c #755F56",
"`+	c #706368",
" @	c #686A7E",
".@	c #6B7791",
"+@	c #7A8AA3",
"@@	c #8291AB",
"#@	c #7887A2",
"$@	c #677693",
"%@	c #7A8AA5",
"&@	c #8696B0",
"*@	c #8899B2",
"=@	c #8898B2",
"-@	c #8B9BB4",
";@	c #8E9EB6",
">@	c #8F9FB7",
",@	c #909FB7",
"'@	c #91A0B8",
")@	c #94A2B9",
"!@	c #96A4BA",
"~@	c #94A3BA",
"{@	c #8F9EB6",
"]@	c #808FA9",
"^@	c #6A7895",
"/@	c #5C6B8A",
"(@	c #785F50",
"_@	c #73605B",
":@	c #6E636B",
"<@	c #6E6E7F",
"[@	c #727C94",
"}@	c #7989A3",
"|@	c #8493AD",
"1@	c #8392AC",
"2@	c #7786A1",
"3@	c #6A7995",
"4@	c #5E6E8C",
"5@	c #667592",
"6@	c #7C8CA6",
"7@	c #8A9AB3",
"8@	c #8D9DB6",
"9@	c #8C9CB5",
"0@	c #8999B3",
"a@	c #899AB3",
"b@	c #8898B1",
"c@	c #7B8AA5",
"d@	c #657592",
"e@	c #755E54",
"f@	c #6D6066",
"g@	c #64677C",
"h@	c #6B7690",
"i@	c #7A89A2",
"j@	c #8594AE",
"k@	c #8999B2",
"l@	c #8595AE",
"m@	c #7A89A3",
"n@	c #6B7A96",
"o@	c #6D7C98",
"p@	c #7E8DA7",
"q@	c #8B9CB5",
"r@	c #6D7C97",
"s@	c #765D4F",
"t@	c #69585B",
"u@	c #615D6E",
"v@	c #5D6782",
"w@	c #657492",
"x@	c #74839F",
"y@	c #8796AF",
"z@	c #8B9AB2",
"A@	c #8D9CB4",
"B@	c #8C9BB3",
"C@	c #8C99B1",
"D@	c #8B96AE",
"E@	c #8A96AD",
"F@	c #8A98B1",
"G@	c #8998B0",
"H@	c #8996AD",
"I@	c #8B99B1",
"J@	c #8C9BB4",
"K@	c #8796B0",
"L@	c #7F8FA9",
"M@	c #735C51",
"N@	c #645458",
"O@	c #545063",
"P@	c #525873",
"Q@	c #576583",
"R@	c #5E6D8B",
"S@	c #657491",
"T@	c #707F9B",
"U@	c #7E8EA8",
"V@	c #8A9BB5",
"W@	c #99A7BE",
"X@	c #A7B3C7",
"Y@	c #99A7BD",
"Z@	c #8D9DB5",
"`@	c #707F9A",
" #	c #725B52",
".#	c #5D515A",
"+#	c #464B67",
"@#	c #495575",
"##	c #556382",
"$#	c #5A6887",
"%#	c #5B6987",
"&#	c #627494",
"*#	c #6F88AD",
"=#	c #7996BF",
"-#	c #7A99C3",
";#	c #7D9BC3",
">#	c #8FACCB",
",#	c #A3C0D4",
"'#	c #A8C2D3",
")#	c #A1B5C8",
"!#	c #9AA9C0",
"~#	c #9AA8BE",
"{#	c #9BAAC0",
"]#	c #A9B6CA",
"^#	c #B8C3D5",
"/#	c #B3C3D5",
"(#	c #9AB5C7",
"_#	c #83A5BA",
":#	c #7F9BB2",
"<#	c #7F91AA",
"[#	c #74829D",
"}#	c #63728F",
"|#	c #556383",
"1#	c #5C505B",
"2#	c #454A67",
"3#	c #5A6886",
"4#	c #597299",
"5#	c #5686BD",
"6#	c #5494D4",
"7#	c #5295DA",
"8#	c #5698D9",
"9#	c #66AAD7",
"0#	c #7CBFD6",
"a#	c #90C6D4",
"b#	c #A3C2D1",
"c#	c #AEBDD0",
"d#	c #B1BCCF",
"e#	c #B0BCCF",
"f#	c #B1BDD0",
"g#	c #B2C8D9",
"h#	c #8FC0CF",
"i#	c #6DB2C1",
"j#	c #689BAE",
"k#	c #6C839C",
"l#	c #677390",
"m#	c #596888",
"n#	c #464A67",
"o#	c #596B8C",
"p#	c #566E95",
"q#	c #4E7AAB",
"r#	c #3D8DCA",
"s#	c #2E9BE0",
"t#	c #2EA1E7",
"u#	c #37A4E6",
"v#	c #3EACDD",
"w#	c #4EB7CF",
"x#	c #77BFCC",
"y#	c #A3C5D3",
"z#	c #BBC9DA",
"A#	c #C0CADB",
"B#	c #BEC9DB",
"C#	c #BCC6D8",
"D#	c #B7C3D5",
"E#	c #A5C3D3",
"F#	c #81C7D3",
"G#	c #5DBFCC",
"H#	c #53A3B9",
"I#	c #577FA2",
"J#	c #586D93",
"K#	c #596A8C",
"L#	c #725A50",
"M#	c #5C4F59",
"N#	c #444865",
"O#	c #485372",
"P#	c #546484",
"Q#	c #53709C",
"R#	c #487CB5",
"S#	c #3C8CC7",
"T#	c #34A0D3",
"U#	c #37B0DC",
"V#	c #49BDE6",
"W#	c #55C2E9",
"X#	c #4FB9DA",
"Y#	c #47A7C0",
"Z#	c #70A9BB",
"`#	c #A3BDCD",
" $	c #BECBDC",
".$	c #C3CEDE",
"+$	c #C0CBDC",
"@$	c #B2BDD0",
"#$	c #9BABC0",
"$$	c #86B0C2",
"%$	c #75C9D4",
"&$	c #65CFDD",
"*$	c #51B5D5",
"=$	c #438DC5",
"-$	c #4876AE",
";$	c #556D95",
">$	c #5A6987",
",$	c #475474",
"'$	c #715D58",
")$	c #5F5662",
"!$	c #4C526D",
"~$	c #4E5976",
"{$	c #556687",
"]$	c #4E76A9",
"^$	c #3687CD",
"/$	c #289BDD",
"($	c #35AFD9",
"_$	c #4AC1D5",
":$	c #60D2E0",
"<$	c #6CD7E6",
"[$	c #63C1D2",
"}$	c #5196AE",
"|$	c #6E8DA7",
"1$	c #9FAFC3",
"2$	c #BAC5D7",
"3$	c #BFC9DB",
"4$	c #BDC8DA",
"5$	c #BAC6D7",
"6$	c #A4B0C5",
"7$	c #7C91AA",
"8$	c #6599AF",
"9$	c #6CC2CF",
"0$	c #6DD2E3",
"a$	c #56BCE4",
"b$	c #3897D9",
"c$	c #3E7FC0",
"d$	c #4D5A79",
"e$	c #765E54",
"f$	c #716060",
"g$	c #6C646E",
"h$	c #696B7E",
"i$	c #657089",
"j$	c #616D88",
"k$	c #5A6B8B",
"l$	c #4A77AD",
"m$	c #2C8AD5",
"n$	c #1CA0E5",
"o$	c #35B5DC",
"p$	c #4CC7D3",
"q$	c #5DD4DA",
"r$	c #67D6DE",
"s$	c #5DBCC9",
"t$	c #4B8BA3",
"u$	c #657D9B",
"v$	c #929FB7",
"w$	c #AAB7CB",
"x$	c #AEBBCE",
"y$	c #ADB9CD",
"z$	c #AEB9CC",
"A$	c #AEB9CD",
"B$	c #AEBACE",
"C$	c #ABB7CB",
"D$	c #98A6BD",
"E$	c #798DA8",
"F$	c #6590A9",
"G$	c #65ACBD",
"H$	c #62B7CB",
"I$	c #52A6CE",
"J$	c #428CC7",
"K$	c #477AB3",
"L$	c #556F97",
"M$	c #596886",
"N$	c #5B6A88",
"O$	c #606E8A",
"P$	c #73605E",
"Q$	c #6A6573",
"R$	c #676F86",
"S$	c #738099",
"T$	c #7C8AA4",
"U$	c #75829B",
"V$	c #637493",
"W$	c #4D77AC",
"X$	c #3089D2",
"Y$	c #229EE1",
"Z$	c #37B3DA",
"`$	c #48C2CF",
" %	c #50C9D0",
".%	c #53C7D0",
"+%	c #4DAFBE",
"@%	c #47869F",
"#%	c #5E7898",
"$%	c #8191AC",
"%%	c #96A5BC",
"&%	c #96A5BD",
"*%	c #95A5BD",
"=%	c #95A6BD",
"-%	c #96A6BD",
";%	c #96A6BC",
">%	c #97A6BC",
",%	c #96A4BC",
"'%	c #8697B0",
")%	c #7791AB",
"!%	c #648DA6",
"~%	c #5387A3",
"{%	c #4F7EA2",
"]%	c #52759F",
"^%	c #596B8D",
"/%	c #647390",
"(%	c #74839E",
"_%	c #755F55",
":%	c #72615F",
"<%	c #6F6771",
"[%	c #6C7287",
"}%	c #707E9A",
"|%	c #7E8DA8",
"1%	c #818FA8",
"2%	c #71829E",
"3%	c #5E7EAB",
"4%	c #4685C3",
"5%	c #3591CE",
"6%	c #3CA2C7",
"7%	c #44ADBF",
"8%	c #44B1BD",
"9%	c #45ADBB",
"0%	c #4C9EB0",
"a%	c #5887A1",
"b%	c #69819F",
"c%	c #7D8FAA",
"d%	c #8A9BB4",
"e%	c #8399BB",
"f%	c #7A99C2",
"g%	c #779DC2",
"h%	c #79A3BE",
"i%	c #7EA5BA",
"j%	c #85A0B6",
"k%	c #8B9AB3",
"l%	c #8294AE",
"m%	c #6F84A2",
"n%	c #5E7696",
"o%	c #5A6E8E",
"p%	c #5A6A89",
"q%	c #596887",
"r%	c #72819C",
"s%	c #818FAA",
"t%	c #7F8DA7",
"u%	c #717E9A",
"v%	c #6D7186",
"w%	c #71605F",
"x%	c #696572",
"y%	c #6B7187",
"z%	c #76829B",
"A%	c #8897B0",
"B%	c #8191AB",
"C%	c #7388AA",
"D%	c #5E7FAB",
"E%	c #4C7BA9",
"F%	c #4482A5",
"G%	c #4188A2",
"H%	c #3E89A0",
"I%	c #4388A1",
"J%	c #598AA3",
"K%	c #708CA7",
"L%	c #7E91AB",
"M%	c #879AB6",
"N%	c #7698C5",
"O%	c #5B97D4",
"P%	c #50A1D6",
"Q%	c #59B0CD",
"R%	c #69B3C3",
"S%	c #7CA8BB",
"T%	c #889CB5",
"U%	c #8B99B3",
"V%	c #8192AD",
"W%	c #7788A4",
"X%	c #6A7A97",
"Y%	c #5E6D8A",
"Z%	c #5B6988",
"`%	c #7685A0",
" &	c #8191AA",
".&	c #8897B1",
"+&	c #8A99B3",
"@&	c #6E6165",
"#&	c #687693",
"$&	c #7C8BA6",
"%&	c #71819E",
"&&	c #607493",
"*&	c #516C8E",
"=&	c #47698C",
"-&	c #486B8E",
";&	c #547394",
">&	c #6A82A0",
",&	c #8092AD",
"'&	c #899BB5",
")&	c #869AB9",
"!&	c #7D9BC1",
"~&	c #699FD2",
"{&	c #4DA7E2",
"]&	c #43B4E4",
"^&	c #4FC2DB",
"/&	c #60C4D0",
"(&	c #73B6C4",
"_&	c #81A6BB",
":&	c #879FB6",
"<&	c #8A9CB5",
"[&	c #8494AE",
"}&	c #73829E",
"|&	c #606F8D",
"1&	c #889BB4",
"2&	c #86A0B7",
"3&	c #82A3B8",
"4&	c #82A4B9",
"5&	c #80A1B7",
"6&	c #7592A9",
"7&	c #657994",
"8&	c #63667D",
"9&	c #6F6065",
"0&	c #785F51",
"a&	c #6E6166",
"b&	c #62677F",
"c&	c #687894",
"d&	c #7D8DA7",
"e&	c #8A9AB4",
"f&	c #8C9DB5",
"g&	c #8797B0",
"h&	c #808FA8",
"i&	c #74839D",
"j&	c #617290",
"k&	c #55688A",
"l&	c #5F7293",
"m&	c #7082A0",
"n&	c #7D8EAA",
"o&	c #8797B1",
"p&	c #8C9CB4",
"q&	c #7598C6",
"r&	c #629CD4",
"s&	c #5BAEE0",
"t&	c #5EC3E9",
"u&	c #62D0EB",
"v&	c #67D7E6",
"w&	c #69D4DE",
"x&	c #69C7D2",
"y&	c #6EB7C6",
"z&	c #7BAABD",
"A&	c #8696AF",
"B&	c #73829D",
"C&	c #60708E",
"D&	c #75849F",
"E&	c #87A1B8",
"F&	c #7AACBE",
"G&	c #6CB3C2",
"H&	c #69B7C5",
"I&	c #69B3C2",
"J&	c #659FB1",
"K&	c #5F7F97",
"L&	c #62677C",
"M&	c #6F6064",
"N&	c #765D4E",
"O&	c #735D54",
"P&	c #6B6067",
"Q&	c #61677F",
"R&	c #8393AC",
"S&	c #8B9BB3",
"T&	c #829ABC",
"U&	c #6496D0",
"V&	c #419DE2",
"W&	c #51BAEA",
"X&	c #6ED7ED",
"Y&	c #79E4EF",
"Z&	c #7AE5EE",
"`&	c #73DEE7",
" *	c #62CED8",
".*	c #5BBCC8",
"+*	c #6FACBD",
"@*	c #85A0B7",
"#*	c #8C9AB4",
"$*	c #707E99",
"%*	c #7786A0",
"&*	c #7FA1B7",
"**	c #6DB5C4",
"=*	c #5AC4CE",
"-*	c #55C8D2",
";*	c #56C4CE",
">*	c #56AEBE",
",*	c #568AA6",
"'*	c #5E6B8A",
")*	c #6A606D",
"!*	c #735D55",
"~*	c #775D4D",
"{*	c #6E5953",
"]*	c #64565B",
"^*	c #5E5B6D",
"/*	c #5C647F",
"(*	c #61708E",
"_*	c #6E7D99",
":*	c #919EB5",
"<*	c #94A0B5",
"[*	c #8099BC",
"}*	c #5B94D3",
"|*	c #2D9CE6",
"1*	c #4BBDEE",
"2*	c #71DDF0",
"3*	c #7FEBF1",
"4*	c #75DEE7",
"5*	c #5CC2CE",
"6*	c #4EA6B6",
"7*	c #689BB0",
"8*	c #829AB3",
"9*	c #909EB5",
"0*	c #93A0B5",
"a*	c #929FB5",
"b*	c #8393AE",
"c*	c #788BA7",
"d*	c #6E99B0",
"e*	c #68BBC9",
"f*	c #65D3DC",
"g*	c #65DAE1",
"h*	c #63D5DE",
"i*	c #5ABFD5",
"j*	c #4C9AC6",
"k*	c #4A78AD",
"l*	c #576387",
"m*	c #645760",
"n*	c #6E5850",
"o*	c #745C50",
"p*	c #504E62",
"q*	c #4D5572",
"r*	c #556381",
"s*	c #5F6E8D",
"t*	c #697894",
"u*	c #A8B4C8",
"v*	c #B0BCCE",
"w*	c #A6B2C7",
"x*	c #8E9DB5",
"y*	c #8F9EB5",
"z*	c #859DBE",
"A*	c #6798D3",
"B*	c #449FE4",
"C*	c #54BBEB",
"D*	c #70D8EB",
"E*	c #7BE5ED",
"F*	c #7BE4EC",
"G*	c #73D5E0",
"H*	c #60B0C0",
"I*	c #588BA4",
"J*	c #708BA6",
"K*	c #8799B2",
"L*	c #A9B5C9",
"M*	c #96A4BB",
"N*	c #7F90AB",
"O*	c #657C9B",
"P*	c #598DA6",
"Q*	c #66BDCB",
"R*	c #73DCE5",
"S*	c #76E4EB",
"T*	c #73DFE9",
"U*	c #61CAE7",
"V*	c #41A7E1",
"W*	c #2C84CB",
"X*	c #39659C",
"Y*	c #4F506A",
"Z*	c #655353",
"`*	c #745C51",
" =	c #474A65",
".=	c #475373",
"+=	c #546281",
"@=	c #5F6E8C",
"#=	c #6D7D98",
"$=	c #8393AD",
"%=	c #91A1B9",
"&=	c #9AA9BF",
"*=	c #A6B3C8",
"==	c #B5C1D4",
"-=	c #BCC7D9",
";=	c #B3BFD2",
">=	c #A5B2C7",
",=	c #9FADC3",
"'=	c #A0ADC3",
")=	c #A0AEC3",
"!=	c #9BADC8",
"~=	c #8CABD6",
"{=	c #7BADE0",
"]=	c #70B6DE",
"^=	c #6BC0D6",
"/=	c #68C6D2",
"(=	c #68C5D2",
"_=	c #6DBDCB",
":=	c #76A8BC",
"<=	c #8298B0",
"[=	c #909EB6",
"}=	c #9CAAC0",
"|=	c #A7B2C7",
"1=	c #B5C0D2",
"2=	c #B7C2D4",
"3=	c #A6B3C7",
"4=	c #4B86A0",
"5=	c #5BB7C6",
"6=	c #6CD8E1",
"7=	c #70E0E7",
"8=	c #6CDBE6",
"9=	c #59C9E9",
"0=	c #34AAE9",
"a=	c #1888D5",
"b=	c #2B67A4",
"c=	c #454E6E",
"d=	c #615054",
"e=	c #5C6B89",
"f=	c #B7C2D5",
"g=	c #B5C1D3",
"h=	c #B6C1D3",
"i=	c #B4C1D5",
"j=	c #B1C1DB",
"k=	c #A7BEDB",
"l=	c #8FAFCC",
"m=	c #6A9BB5",
"n=	c #5091A8",
"o=	c #6B9AB0",
"p=	c #90AABF",
"q=	c #A9B7CB",
"r=	c #B4C0D3",
"s=	c #B6C1D4",
"t=	c #BBC7D9",
"u=	c #BECADB",
"v=	c #BDC9DA",
"w=	c #B6C2D4",
"x=	c #9EABC1",
"y=	c #7186A2",
"z=	c #48829D",
"A=	c #4AABBA",
"B=	c #57C8D2",
"C=	c #5AD0D7",
"D=	c #57CCD7",
"E=	c #48BDDF",
"F=	c #2AA4E4",
"G=	c #1B87D3",
"H=	c #2D67A3",
"I=	c #454E6D",
"J=	c #715A4F",
"K=	c #5E5158",
"L=	c #474A64",
"M=	c #97A5BB",
"N=	c #A5B3C7",
"O=	c #8396AF",
"P=	c #6D85A1",
"Q=	c #BBC7D8",
"R=	c #BCCADB",
"S=	c #B4CAD9",
"T=	c #ADC8D9",
"U=	c #AAC4DC",
"V=	c #ACC1DE",
"W=	c #B5C6DF",
"X=	c #BBC7DB",
"Y=	c #A9B4C8",
"Z=	c #7B8CA6",
"`=	c #4B7B97",
" -	c #4198AB",
".-	c #47B0BE",
"+-	c #47B6C1",
"@-	c #46B3C2",
"#-	c #3EA9CA",
"$-	c #3397D2",
"%-	c #2F80C4",
"&-	c #35639A",
"*-	c #454C6B",
"=-	c #5F4F54",
"--	c #745B4B",
";-	c #6C564D",
">-	c #5A4D57",
",-	c #464864",
"'-	c #5F6F8D",
")-	c #8D99B0",
"!-	c #AFBACC",
"~-	c #C2CCDD",
"{-	c #BFCADA",
"]-	c #A1ADC2",
"^-	c #B6CBDA",
"/-	c #9DC9D6",
"(-	c #85C4D6",
"_-	c #78B7DD",
":-	c #7EAFE2",
"<-	c #9CB9E3",
"[-	c #B5C5DD",
"}-	c #818FA6",
"|-	c #537391",
"1-	c #427E98",
"2-	c #418CA3",
"3-	c #3F8FA5",
"4-	c #408DA5",
"5-	c #4388AA",
"6-	c #477FAE",
"7-	c #4670A3",
"8-	c #405B86",
"9-	c #5B4D55",
"0-	c #765C4D",
"a-	c #715949",
"b-	c #69544C",
"c-	c #594F59",
"d-	c #494D69",
"e-	c #606E8C",
"f-	c #7E8FA6",
"g-	c #A2B5C7",
"h-	c #B6C9D9",
"i-	c #BDCCDC",
"j-	c #BFCBDC",
"k-	c #BDCBDC",
"l-	c #B7CADB",
"m-	c #A6CBD9",
"n-	c #83CBD6",
"o-	c #5EC6D7",
"p-	c #45B8E0",
"q-	c #52ADE6",
"r-	c #81B4E6",
"s-	c #A4BEDF",
"t-	c #A1B0CA",
"u-	c #7E8CA6",
"v-	c #596C8B",
"w-	c #496788",
"x-	c #446A8C",
"y-	c #416B8D",
"z-	c #436B8D",
"A-	c #4B6B8E",
"B-	c #546B8E",
"C-	c #536587",
"D-	c #4A5879",
"E-	c #765C4C",
"F-	c #705849",
"G-	c #69554E",
"H-	c #5D5663",
"I-	c #525A76",
"J-	c #52607F",
"K-	c #576685",
"L-	c #586584",
"M-	c #5B6A87",
"N-	c #6C8BA0",
"O-	c #83B2C1",
"P-	c #9AC7D4",
"Q-	c #B0CCDB",
"R-	c #BFCCDD",
"S-	c #C2CDDE",
"T-	c #BFCCDC",
"U-	c #B3CBDA",
"V-	c #9ECAD7",
"W-	c #89CDD8",
"X-	c #75D3DC",
"Y-	c #65D5E1",
"Z-	c #5BCFE7",
"`-	c #5DC6EB",
" ;	c #6FBDEA",
".;	c #80B3E4",
"+;	c #7D9FCE",
"@;	c #6B82A7",
"#;	c #526383",
"$;	c #4F6386",
"%;	c #4D6387",
"&;	c #4E6386",
"*;	c #536586",
"=;	c #586785",
"-;	c #586583",
";;	c #535F7E",
">;	c #715849",
",;	c #6A564F",
"';	c #625C67",
");	c #5B627C",
"!;	c #5A6989",
"~;	c #59688A",
"{;	c #586F92",
"];	c #588FA7",
"^;	c #5EB4C2",
"/;	c #78C6D2",
"(;	c #9EC8D6",
"_;	c #B7C7D8",
":;	c #BEC8DA",
"<;	c #BAC8D9",
"[;	c #A4C5D4",
"};	c #7DC3CF",
"|;	c #66CAD4",
"1;	c #6ED9E1",
"2;	c #77E2EB",
"3;	c #78E4EE",
"4;	c #74DDEE",
"5;	c #65CAEC",
"6;	c #50ADE6",
"7;	c #4992D2",
"8;	c #517DAF",
"9;	c #576D92",
"0;	c #58698A",
"a;	c #586989",
"b;	c #596988",
"c;	c #6B564D",
"d;	c #665A5F",
"e;	c #626070",
"f;	c #5E657C",
"g;	c #5B6784",
"h;	c #526F9D",
"i;	c #4B7DB1",
"j;	c #4C9DC4",
"k;	c #57C0D3",
"l;	c #6CCBD6",
"m;	c #86BDCC",
"n;	c #9DB1C5",
"o;	c #B0BBCE",
"p;	c #BCC7D8",
"q;	c #BBC6D8",
"r;	c #B2BED1",
"s;	c #ADBACD",
"t;	c #AEBACD",
"u;	c #AAB9CC",
"v;	c #92B1C4",
"w;	c #66ABBB",
"x;	c #53B8C5",
"y;	c #6AD5DE",
"z;	c #7CE7EF",
"A;	c #80EBF2",
"B;	c #7AE5EF",
"C;	c #65D3EA",
"D;	c #41B7E1",
"E;	c #2F9ED5",
"F;	c #3C8BC4",
"G;	c #497BB1",
"H;	c #53719D",
"I;	c #6B5549",
"J;	c #685858",
"K;	c #635E6B",
"L;	c #5E657E",
"M;	c #5B6886",
"N;	c #586C90",
"O;	c #4877B0",
"P;	c #368BD0",
"Q;	c #47ADE1",
"R;	c #65CEE6",
"S;	c #70D2DD",
"T;	c #6BB0C0",
"U;	c #7492AB",
"V;	c #99A6BC",
"W;	c #A2AFC5",
"X;	c #97A5BC",
"Y;	c #94A4BB",
"Z;	c #8097B0",
"`;	c #5F89A3",
" >	c #549EB2",
".>	c #6AC9D5",
"+>	c #7AE2EB",
"@>	c #7DE8F0",
"#>	c #78E4ED",
"$>	c #69D8E4",
"%>	c #4FC5D9",
"&>	c #39B1D6",
"*>	c #2D9DD9",
"=>	c #348ACF",
"->	c #4A79B0",
";>	c #70584A",
">>	c #6B5447",
",>	c #6B5345",
"'>	c #6A544A",
")>	c #67595B",
"!>	c #5E657D",
"~>	c #5B6885",
"{>	c #437BB8",
"]>	c #2991DD",
"^>	c #45B4ED",
"/>	c #6AD5F0",
"(>	c #72D6E1",
"_>	c #5BAABA",
":>	c #567E9B",
"<>	c #A7B4C8",
"[>	c #A7B4C9",
"}>	c #8B9AB4",
"|>	c #7D8EA9",
"1>	c #69809F",
"2>	c #6190A9",
"3>	c #67B3C4",
"4>	c #6DCCD8",
"5>	c #70D8E1",
"6>	c #6EDBE4",
"7>	c #63D6DD",
"8>	c #51CAD4",
"9>	c #3CBAD8",
"0>	c #22A5E3",
"a>	c #2590DC",
"b>	c #447CB9",
"c>	c #6A5345",
"d>	c #6A5347",
"e>	c #69554F",
"f>	c #645E6A",
"g>	c #5B6986",
"h>	c #6AD5EF",
"i>	c #72D5E1",
"j>	c #507A98",
"k>	c #7586A3",
"l>	c #93A2B9",
"m>	c #97A6BD",
"n>	c #8695B0",
"o>	c #7E90AB",
"p>	c #738FA9",
"q>	c #6394AB",
"r>	c #58A2B5",
"s>	c #58B9C7",
"t>	c #5ACBD4",
"u>	c #55CDD4",
"v>	c #4CC7D1",
"w>	c #3DBAD8",
"x>	c #23A5E3",
"y>	c #72594B",
"z>	c #6E5648",
"A>	c #6C5447",
"B>	c #6B5346",
"C>	c #6A5449",
"D>	c #675859",
"E>	c #5D657F",
"F>	c #5C6782",
"G>	c #576C8F",
"H>	c #4878B0",
"I>	c #378BCF",
"J>	c #47A9DE",
"K>	c #64C6E0",
"L>	c #6DC7D5",
"M>	c #61A5B7",
"N>	c #5D809D",
"O>	c #8697B1",
"P>	c #8D9CB5",
"Q>	c #8B9CB4",
"R>	c #889FB6",
"S>	c #84A2B8",
"T>	c #8092AC",
"U>	c #6B82A0",
"V>	c #56839E",
"W>	c #4C9DB0",
"X>	c #49B3C0",
"Y>	c #48BAC4",
"Z>	c #46B8C5",
"`>	c #3FAECC",
" ,	c #319CD5",
".,	c #3589CF",
"+,	c #4A79B1",
"@,	c #755C4C",
"#,	c #725A4B",
"$,	c #6F5749",
"%,	c #67595D",
"&,	c #635F6C",
"*,	c #5F647A",
"=,	c #596A89",
"-,	c #52719D",
";,	c #4B7BB0",
">,	c #4D8CB9",
",,	c #569FBB",
"',	c #61A3B7",
"),	c #6B97AE",
"!,	c #748CA8",
"~,	c #8798B1",
"{,	c #8A9EB6",
"],	c #7FA7BB",
"^,	c #71B0C1",
"/,	c #69B5C4",
"(,	c #71B0C0",
"_,	c #7FA6BA",
":,	c #8A9DB4",
"<,	c #8C9AB3",
"[,	c #7C8DA9",
"},	c #6E88A4",
"|,	c #5A8CA5",
"1,	c #4692A7",
"2,	c #3E95A8",
"3,	c #4194AA",
"4,	c #428FAE",
"5,	c #4485B4",
"6,	c #4A7AB0",
"7,	c #53719E",
"8,	c #72594A",
"9,	c #6C5548",
"0,	c #6A5448",
"a,	c #685857",
"b,	c #625F6D",
"c,	c #5D6680",
"d,	c #526E92",
"e,	c #4B7192",
"f,	c #587B99",
"g,	c #728BA6",
"h,	c #8596B0",
"i,	c #8997B1",
"j,	c #849BB3",
"k,	c #75ACBE",
"l,	c #61BFCB",
"m,	c #55C7D0",
"n,	c #61BFCC",
"o,	c #74AEC4",
"p,	c #839EBB",
"q,	c #889AB7",
"r,	c #8194AE",
"s,	c #6C86A3",
"t,	c #537897",
"u,	c #457191",
"v,	c #436F90",
"w,	c #486E90",
"x,	c #516D91",
"y,	c #5A6A8A",
"z,	c #6A554C",
"A,	c #675A5E",
"B,	c #566585",
"C,	c #4F6385",
"D,	c #5B6F90",
"E,	c #7D8DA9",
"F,	c #708EA8",
"G,	c #69ACBE",
"H,	c #66CCD6",
"I,	c #65D9E1",
"J,	c #65CFDE",
"K,	c #64B6D7",
"L,	c #6A9ECF",
"M,	c #7998C3",
"N,	c #879AB8",
"O,	c #7C8EA9",
"P,	c #6D809F",
"Q,	c #5E7394",
"R,	c #53688B",
"S,	c #6D5548",
"T,	c #6B5347",
"U,	c #576887",
"V,	c #637391",
"W,	c #7989A4",
"X,	c #7183A1",
"Y,	c #5D809E",
"Z,	c #61A8BB",
"`,	c #6FD0DB",
" '	c #75E0E8",
".'	c #6CD4E6",
"+'	c #57B8E4",
"@'	c #4E9DDD",
"#'	c #6A96CD",
"$'	c #839ABB",
"%'	c #8293AD",
"&'	c #7485A0",
"*'	c #576888",
"='	c #745B4C",
"-'	c #5D647B",
";'	c #7A89A4",
">'	c #7688A5",
",'	c #6684A1",
"''	c #649EB3",
")'	c #69BBCA",
"!'	c #6BC7D3",
"~'	c #67BFD4",
"{'	c #5CACD7",
"]'	c #5C9BD5",
"^'	c #7198C9",
"/'	c #859ABA",
"('	c #7A8AA4",
"_'	c #667492",
":'	c #635D6A",
"<'	c #657490",
"['	c #8595AF",
"}'	c #7D91AC",
"|'	c #6E90AA",
"1'	c #5C91A9",
"2'	c #5191A9",
"3'	c #5192A9",
"4'	c #5B93AE",
"5'	c #6C96B9",
"6'	c #7A99C0",
"7'	c #839ABC",
"8'	c #899BB6",
"9'	c #667490",
"0'	c #755B4C",
"a'	c #625F70",
"b'	c #687188",
"c'	c #7B89A1",
"d'	c #8999B1",
"e'	c #798DA9",
"f'	c #647D9C",
"g'	c #577495",
"h'	c #8899B3",
"i'	c #69544D",
"j'	c #6D6B77",
"k'	c #7E869B",
"l'	c #8A98B0",
"m'	c #8494AF",
"n'	c #7B8CA8",
"o'	c #6A5246",
"p'	c #706465",
"q'	c #7D7F8D",
"r'	c #8590A6",
"s'	c #8895AC",
"t'	c #8793AA",
"u'	c #8794AA",
"v'	c #8693A9",
"w'	c #8692A9",
"x'	c #8591A8",
"y'	c #6E5C56",
"z'	c #756D73",
"A'	c #7A7985",
"B'	c #7B7C89",
"C'	c #7B7B89",
"D'	c #7B7C88",
"E'	c #7B7B88",
"F'	c #7C7C88",
"G'	c #7C7D89",
"H'	c #6C564B",
"I'	c #6E5A53",
"J'	c #6F5E59",
"K'	c #6F5E5A",
"L'	c #6E5E5A",
"M'	c #6E5647",
"N'	c #6C5445",
"O'	c #6A5346",
"                                                                                                                                ",
"                                                                                                                                ",
"                                                                                                                                ",
"                                                                                                                                ",
"                                                                                                                                ",
"                                                . + @ # # # # # # # # # # @ + .                                                 ",
"                                                $ % & * & = - ; ; ; ; ; ; > , $                                                 ",
"                                              . ' ) ! ~ { ] ] ] ] ] ] ] ~ ^ / ' .                                               ",
"                                            ( _ : < [ } | 1 2 3 3 4 4 4 4 5 6 7 8 (                                             ",
"                                          . 9 ) < 0 a b c d e f g h h h i j k l m n .                                           ",
"                                      . # o p q r s t u v w x y z A A A B C D E F G H I .                                       ",
"                                      # J K L M N O P Q R S T U V W X Y Z `  ...+.@.#., #                                       ",
"                                    $.%.&.*.=.-.;.>.,.'.).!.~.{.].^./.(._.:.<.[.}.|.1.2.%.$.                                    ",
"                                  3.4.5.6.7.8.9.0.a.b.c.d.e.f.g.h.^.<.X i.j.k.l.m.n.o.p.5.4.3.                                  ",
"                                  q.r.s.t.u.v.w.x.y.z.A.B.C.D.E.F.^.G.H.I.J.K.L.M.N.O.P.s.r.q.                                  ",
"                                  Q.R.S.T.U.V.W.X.Y.Z.`. +.+++@+#+$+%+&+*+=+-+;+>+,+'+T.S.R.Q.                                  ",
"                                  )+!+~+{+'+]+^+/+(+_+:+<+[+}+|+1+2+3+4+5+6+7+8+9+0+'+{+~+!+)+                                  ",
"                              a+b+c+d+e+f+g+9+9+h+i+j+k+l+m+n+o+p+q+r+s+t+u+v+w+x+y+z+f+e+d+c+b+a+                              ",
"                              A+B+C+D+E+F+G+H+9+I+J+K+L+M+N+O+P+Q+R+S+T+U+V+W+X+9+Y+G+F+E+D+C+B+A+                              ",
"                        . + Z+`+ @.@+@@@#@$@G+x+$@%@&@*@=@-@;@>@,@'@)@!@~@{@]@^@>+/@$@#@@@+@.@ @`+Z++ .                         ",
"                        (@_@:@<@[@}@|@=@1@2@3@4@5@6@7@8@9@-@7@7@7@0@*@=@a@b@c@d@4@3@2@1@=@|@}@[@<@:@_@(@                        ",
"                        e@f@g@h@i@j@k@7@k@l@m@n@o@p@7@9@-@-@-@-@-@-@-@-@q@k@p@r@n@m@l@k@7@k@j@i@h@g@f@e@                        ",
"                    s@)+t@u@v@w@x@]@y@z@A@B@C@D@E@F@7@7@7@7@7@7@7@7@7@7@7@7@G@H@E@I@J@9@-@K@L@x@w@v@u@t@)+s@                    ",
"                    M@N@O@P@Q@R@S@T@U@k@V@8@W@X@X@Y@Z@-@-@-@-@-@-@-@-@-@-@Z@Y@X@X@W@8@-@k@U@`@S@R@Q@P@O@N@M@                    ",
"                     #.#+#@###$#%#&#*#=#-#;#>#,#'#)#!#W@~#~#~#~#~#~#~#~#W@{#]#^#/#(#_#:#<#[#}#9+9+|#@#+#.# #                    ",
"                     #1#2#@###3#3#4#5#6#7#8#9#0#a#b#c#d#e#e#e#e#e#e#e#e#e#f#^#B g#h#i#j#k#l#G+m#9+##@#2#1# #                    ",
"                     #.#n#@#|#o#p#q#r#s#t#u#v#w#x#y#z#A#B#B#B#B#B#B#B#B#B#B C#D#E#F#G#H#I#J#K#9+9+##@#n#.# #                    ",
"                    L#M#N#O#P#Q#R#S#T#U#V#W#X#Y#Z#`# $.$X X X X X X X X _.+$@$#$$$%$&$*$=$-$;$9+>$##,$N#M#L#                    ",
"                . a+'$)$!$~${$]$^$/$($_$:$<$[$}$|$1$2$3$4$4$4$4$4$4$4$4$B#5$6$7$8$9$0$a$b$c$Q#9+%#'+d$!$)$'$a+.                 ",
"                e$f$g$h$i$j$k$l$m$n$o$p$q$r$s$t$u$v$w$x$y$y$z$z$z$A$y$y$B$C$D$E$F$G$H$I$J$K$L$$#M$N$O$i$h$g$f$e$                ",
"              + P$Q$R$S$T$U$V$W$X$Y$Z$`$ %.%+%@%#%$%~@D$%%&%&%*%=%-%;%%%>%,%,@'%)%!%~%{%]%L$^%9+N$/%(%T$S$R$Q$P$+               ",
"          . _%:%<%[%}%|%K@1%2%3%4%5%6%7%8%9%0%a%b%c%k@B@d%e%f%g%h%i%j%d%k%-@-@-@l%m%n%o%p%q%9+R@5@r%s%y@t%u%v%<%:%_%.           ",
"          @ w%x%y%z%]@&@7@A%B%C%D%E%F%G%H%I%J%K%L%&@7@B@M%N%O%P%Q%R%S%T%U%7@-@-@=@V%W%X%Y%O.Z%5@`% &.&+&K@]@z%y%x%w%@           ",
"          a+@&! #&$&k@-@-@-@7@B%%&&&*&=&-&;&>&,&7@-@'&)&!&~&{&]&^&/&(&_&:&<&-@-@-@-@[&}&|&/@/%r%B%1&2&3&4&5&6&7&8&9&a+          ",
"          0&a&b&c&d&e&f&-@9@-@g&h&i&j&k&l&m&n&o&p&p&)&q&r&s&t&u&v&w&x&y&z&:&-@-@p&9@A&B&C&w@D&]@b@E&F&G&H&I&J&K&L&M&0&          ",
"        N&O&P&Q&$@}@A&7@-@-@-@-@k@R&`%X+#@[&0@d%S&B@T&U&V&W&X&Y&Z&`& *.*+*@*#*-@-@-@g&m@$*%*R&.&o&&***=*-*;*>*,*'*)*!*~*        ",
"      s@{*]*^*/*(*_*}@R&7@9@-@-@-@A@:*<*:*p&e&7@N+z@[*}*|*1*2*3*3*4*5*6*7*8*7@7@7@a@S&9*0*a*J@b*c*d*e*f*g*h*i*j*k*l*m*n*s@      ",
"      o*N@p*q*r*>+s*t*}@A&-@-@-@Z@%%u*v*w*~@8@8@x*y*z*A*B*C*D*E*F*G*H*I*J*K*;@;@8@8@~@w*v*L*M*N*O*P*Q*R*S*T*U*V*W*X*Y*Z*o*      ",
"      `*r. =.=+=q%m#@=#=c@$=7@%=&=*===-=;=>=,='=)=)=!=~={=]=^=/=(=_=:=<=[=}=)=)='='=|=1=A 2=3=S&O*4=5=6=7=8=9=0=a=b=c=d=`*      ",
"      M@r. =.=+=9+9+e=N.3@2@A&W@C$f=4$` -=D#g=g=g=h=i=j=k=l=m=n=n=o=p=q=@$r=s===g=g=D#t=u=v=w=x=y=z=A=B=C=D=E=F=G=H=I=d=M@      ",
"    ~*J=K=L=.=+=9+9+9+q%R@n@p@M=f#` Y +$+$+$+$+$+$+$+$Y t=N=O=P=P=O=N=Q=Y +$+$+$R=S=T=U=V=W=X=Y=Z=`= -.-+-@-#-$-%-&-*-=-J=~*    ",
"  ~*--;->-,-.=+=9+9+9+q%x+'-o@)-!-A#~-+$+$/.Y Y Y Y Y ~-{-1=u*]-]-u*g=` ~-Y ~-Y ^-/-(-_-:-<-[-R+}-|-1-2-3-4-5-6-7-8-2#9-;---~*  ",
"  0-a-b-c-d-T.##9+9+9+9+9+H+e-f-g-h-i-j-+$+$+$+$+$+$+$+$+$` v=A A v=` +$+$+$k-l-m-n-o-p-q-r-s-t-u-v-w-x-y-z-A-B-C-D-d-c-b-a-0-  ",
"  E-F-G-H-I-J-K-9+9+9+9+9+L-M-N-O-P-Q-R-~-+$+$Y Y Y Y Y Y ~-S-_._.S-~-Y ~-T-U-V-W-X-Y-Z-`- ;.;+;@;9+#;$;%;&;*;=;-;;;I-H-G-F-E-  ",
"  E->;,;';);O.q%9+9+9+9+!;~;{;];^;/;(;_;:;` ` B 4$4$4$4$4$4$4$4$4$4$4$4$:;<;[;};|;1;2;3;4;5;6;7;8;9;0;a;]+]+b;b;q%O.);';,;>;E-  ",
"  0->;c;d;e;f;g;9+9+9+>$o#h;i;j;k;l;m;n;o;p;q;r;s;y$y$y$y$y$y$y$y$y$y$y$t;u;v;w;x;y;z;A;B;C;D;E;F;G;H;o#%#9+9+9+g;f;e;d;c;>;0-  ",
"  0-F-I;G-J;K;L;%#9+9+M;N;O;P;Q;R;S;T;U;V;r=;=W;X;%%X;X;X;X;X;X;X;X;X;X;D$Y;Z;`; >.>+>@>#>$>%>&>*>=>->N;M;9+9+%#L;K;J;G-I;F-0-  ",
"  0-;>>>,>'>)>e;!>g;9+~>9;{>]>^>/>(>_>:>j@<>[>%%-@7@-@-@-@}>k%k%k%k%}>-@-@0@|>1>2>3>4>5>6>7>8>9>0>a>b>9;~>9+g;!>e;)>'>,>>>;>0-  ",
"  0-;>>>c>d>e>)>f>f;g>~>9;{>]>^>h>i>_>j>k>l>m>>@e&7@7@7@7@7@7@7@7@7@7@7@d%7@n>o>p>q>r>s>t>u>v>w>x>a>b>9;~>g>f;f>)>e>d>c>>>;>0-  ",
"  0-y>z>A>>>B>C>D>e;E>F>G>H>I>J>K>L>M>N>K+O>P>p&-@-@-@-@Q>R>S>4&4&S>R>Q>-@-@-@7@T>U>V>W>X>Y>Z>`> ,.,+,G>F>E>e;D>C>B>>>A>z>y>0-  ",
"  $.@,#,$,A>,>,>G-%,&,*,=,-,;,>,,,',),!,N*~,d%-@-@-@-@J@{,],^,/,/,(,_,:,<,-@9@J@g&[,},|,1,2,3,4,5,6,7,=,*,&,%,G-,>,>A>$,#,@,$.  ",
"      0-8,9,d>d>0,'>a,b,c,p%G>d,e,f,g,h,7@-@-@-@-@-@7@i,j,k,l,m,m,n,o,p,q,V@-@-@-@0@r,s,t,u,v,w,x,G>y,c,b,a,'>0,d>d>9,8,0-      ",
"      ~*y>9,d>d>B>,>z,A,b,*,F>B,C,D,W%k@P>-@-@-@-@-@~,E,F,G,H,I,g*J,K,L,M,N,-@-@-@9@=@O,P,Q,R,8.K-F>*,b,A,z,,>B>d>d>9,y>~*      ",
"      ~*y>S,>>T,T,B>0,z,a,&,E>z+U,V,W,b@9@-@-@-@-@J@h,X,Y,Z,`, ' '.'+'@'#'$'B@-@-@-@7@=@%'&'j&*'M$E>&,a,z,0,B>T,T,>>S,y>~*      ",
"      $.=';>z>A>d>d>B>,>'>%,e;-'g;S@;'b@9@-@-@-@-@-@'%>',''')'!'!'~'{']'^'/'B@-@-@-@-@9@k@('_'g;-'e;%,'>,>B>d>d>A>z>;>='$.      ",
"        ~*@,8,S,>>d>T,B>0,G-D>:'!><';'b@9@-@-@-@-@-@a@['}'|'1'2'3'4'5'6'7'8'-@-@-@-@-@9@k@('9'!>:'D>G-0,B>T,d>>>S,8,@,~*        ",
"            0';>S,A>T,d>d>,>C>D>a'b'c'd'9@-@-@-@-@-@-@9@*@e'f'g'g'f'e'h'9@-@-@-@-@-@-@9@d'c'b'a'D>C>,>d>d>T,A>S,;>0'            ",
"            ~*0'8,z>>>d>d>,>B>i')>j'k'l'9@-@-@-@-@-@-@9@-@m'n'>'>'n'[&z@p&-@-@-@-@-@-@9@l'k'j')>i'B>,>d>d>>>z>8,0'~*            ",
"                @,;>S,9,9,A>>>o'C>p'q'r's't't't't't't'u't'v'w'x'x'w'v't'u't't't't't't's'r'q'p'C>o'>>A>9,9,S,;>@,                ",
"                ~*='y>y>8,$,A>c>c>y'z'A'B'C'D'D'D'D'D'E'D'F'G'G'G'G'F'D'E'D'D'D'D'D'C'B'A'z'y'c>c>A>$,8,y>y>='~*                ",
"                  $.~*~*0-#,z>>>>>H'I'J'K'L'L'L'L'L'L'L'L'L'L'L'L'L'L'L'L'L'L'L'L'L'L'K'J'I'H'>>>>z>#,0-~*~*$.                  ",
"                          @,y>;>;>F-F-F-M'N',>,>,>,>,>,>,>,>,>,>,>,>,>,>,>,>,>,>,>,>N'M'F-F-F-;>;>y>@,                          ",
"                          $.0-0-0-0-E-0'F-A>O'O'O'O'O'O'O'O'O'O'O'O'O'O'O'O'O'O'O'O'A>F-0'E-0-0-0-0-$.                          ",
"                                      ~*y>9,d>d>T,T,T,T,T,T,T,T,T,T,T,T,T,T,T,T,d>d>9,y>~*                                      "};
