/* XPM */
static char * enemie_xpm[] = {
"64 64 545 2",
"  	c #A8A7A8",
". 	c #A7A6A7",
"+ 	c #A29F9F",
"@ 	c #98918F",
"# 	c #8C807A",
"$ 	c #816D62",
"% 	c #796050",
"& 	c #785E4E",
"* 	c #A4A1A1",
"= 	c #A5A4A4",
"- 	c #A19D9C",
"; 	c #98908E",
"> 	c #8D807B",
", 	c #827066",
"' 	c #7C6557",
") 	c #7A6152",
"! 	c #796051",
"~ 	c #795F50",
"{ 	c #785F4F",
"] 	c #7A6153",
"^ 	c #9E9B9B",
"/ 	c #999798",
"( 	c #949293",
"_ 	c #9D9896",
": 	c #968E8C",
"< 	c #8E837E",
"[ 	c #877870",
"} 	c #837067",
"| 	c #816D63",
"1 	c #816E63",
"2 	c #806C61",
"3 	c #7E685C",
"4 	c #7B6456",
"5 	c #826E64",
"6 	c #816E64",
"7 	c #918C8B",
"8 	c #787473",
"9 	c #65605F",
"0 	c #948B87",
"a 	c #918782",
"b 	c #8D817B",
"c 	c #8D807A",
"d 	c #8A7C75",
"e 	c #85746C",
"f 	c #806B60",
"g 	c #8E827C",
"h 	c #8E817C",
"i 	c #8D817C",
"j 	c #8F847F",
"k 	c #8E847F",
"l 	c #887F7B",
"m 	c #7D7673",
"n 	c #6F6967",
"o 	c #98918E",
"p 	c #999290",
"q 	c #948B88",
"r 	c #84736A",
"s 	c #7E695E",
"t 	c #999391",
"u 	c #99918F",
"v 	c #978F8C",
"w 	c #6C625E",
"x 	c #6C6563",
"y 	c #878483",
"z 	c #949393",
"A 	c #A29E9E",
"B 	c #A09B9B",
"C 	c #9B9593",
"D 	c #938985",
"E 	c #897B74",
"F 	c #9F9B9A",
"G 	c #A19D9D",
"H 	c #A09C9C",
"I 	c #9D9998",
"J 	c #94908F",
"K 	c #8D8988",
"L 	c #8A8482",
"M 	c #7B7370",
"N 	c #655A55",
"O 	c #736C6A",
"P 	c #989596",
"Q 	c #A9A8A9",
"R 	c #A5A3A3",
"S 	c #A5A3A4",
"T 	c #9C9695",
"U 	c #958C89",
"V 	c #887971",
"W 	c #9B9694",
"X 	c #938F8F",
"Y 	c #767170",
"Z 	c #605957",
"` 	c #5E5654",
" .	c #685F5C",
"..	c #766B66",
"+.	c #877E7B",
"@.	c #9E9A9A",
"#.	c #A4A2A2",
"$.	c #A09C9B",
"%.	c #978F8D",
"&.	c #908480",
"*.	c #918783",
"=.	c #968F8D",
"-.	c #8D8683",
";.	c #79716F",
">.	c #544B47",
",.	c #413630",
"'.	c #534A46",
").	c #6D6460",
"!.	c #857B76",
"~.	c #968D8A",
"{.	c #A29E9F",
"].	c #928884",
"^.	c #908580",
"/.	c #958C88",
"(.	c #928883",
"_.	c #8F837E",
":.	c #827671",
"<.	c #695E59",
"[.	c #50443F",
"}.	c #3F332D",
"|.	c #706561",
"1.	c #847A76",
"2.	c #908783",
"3.	c #8B7D77",
"4.	c #968E8B",
"5.	c #887972",
"6.	c #847269",
"7.	c #7F6D63",
"8.	c #78665C",
"9.	c #68574F",
"0.	c #4C3E36",
"a.	c #3E3029",
"b.	c #63554D",
"c.	c #7F7069",
"d.	c #9C9796",
"e.	c #989696",
"f.	c #959393",
"g.	c #8A7B75",
"h.	c #837167",
"i.	c #766257",
"j.	c #5F4D42",
"k.	c #493A31",
"l.	c #3D2F28",
"m.	c #4A3A32",
"n.	c #66544A",
"o.	c #79685F",
"p.	c #877872",
"q.	c #959291",
"r.	c #7A7776",
"s.	c #7E695D",
"t.	c #86756D",
"u.	c #938A86",
"v.	c #958D8A",
"w.	c #918682",
"x.	c #8E827D",
"y.	c #8B7F7A",
"z.	c #7F716B",
"A.	c #695A52",
"B.	c #4A3C34",
"C.	c #3D2F27",
"D.	c #493930",
"E.	c #604E45",
"F.	c #7A6960",
"G.	c #877973",
"H.	c #867C78",
"I.	c #88817F",
"J.	c #827F7E",
"K.	c #5C5654",
"L.	c #372A23",
"M.	c #7B6457",
"N.	c #8A817E",
"O.	c #4F443E",
"P.	c #3E312A",
"Q.	c #4A3B33",
"R.	c #655248",
"S.	c #897C76",
"T.	c #89807C",
"U.	c #726B69",
"V.	c #615A58",
"W.	c #625C5A",
"X.	c #5B5553",
"Y.	c #453C38",
"Z.	c #34261E",
"`.	c #785E4F",
" +	c #796152",
".+	c #7B6355",
"++	c #7D675B",
"@+	c #87776F",
"#+	c #898381",
"$+	c #5E5653",
"%+	c #4E423C",
"&+	c #63534B",
"*+	c #79675E",
"=+	c #867871",
"-+	c #877E7A",
";+	c #7A7471",
">+	c #58514E",
",+	c #362A23",
"'+	c #352A23",
")+	c #938986",
"!+	c #5D5552",
"~+	c #534945",
"{+	c #706560",
"]+	c #7E7069",
"^+	c #85766F",
"/+	c #837772",
"(+	c #6F6663",
"_+	c #564E4B",
":+	c #423733",
"<+	c #826F65",
"[+	c #7F6A5F",
"}+	c #817067",
"|+	c #81756F",
"1+	c #746B67",
"2+	c #544A46",
"3+	c #5C534F",
"4+	c #817873",
"5+	c #8C817C",
"6+	c #857A75",
"7+	c #736965",
"8+	c #432A23",
"9+	c #562B22",
"0+	c #5F2B22",
"a+	c #7D6659",
"b+	c #756156",
"c+	c #63544D",
"d+	c #40342E",
"e+	c #5B514D",
"f+	c #857C79",
"g+	c #8B8481",
"h+	c #716965",
"i+	c #534A45",
"j+	c #572B22",
"k+	c #7B2D21",
"l+	c #8A2E21",
"m+	c #8B2E21",
"n+	c #6E584B",
"o+	c #504038",
"p+	c #5B504B",
"q+	c #877F7C",
"r+	c #605956",
"s+	c #582B22",
"t+	c #742C22",
"u+	c #902E21",
"v+	c #9C2F20",
"w+	c #6E584C",
"x+	c #504037",
"y+	c #5A504B",
"z+	c #867E7B",
"A+	c #8A8381",
"B+	c #5F5754",
"C+	c #8F2E21",
"D+	c #992F20",
"E+	c #9D2F20",
"F+	c #826F66",
"G+	c #63544C",
"H+	c #534844",
"I+	c #756D69",
"J+	c #776F6C",
"K+	c #564D49",
"L+	c #81746F",
"M+	c #433833",
"N+	c #524843",
"O+	c #524742",
"P+	c #423731",
"Q+	c #97908D",
"R+	c #8C7F79",
"S+	c #8E8886",
"T+	c #554B47",
"U+	c #40352F",
"V+	c #9C9694",
"W+	c #9B9493",
"X+	c #9C9797",
"Y+	c #938E8D",
"Z+	c #78716E",
"`+	c #806C60",
" @	c #85756C",
".@	c #8A7D76",
"+@	c #928985",
"@@	c #A19E9D",
"#@	c #574C47",
"$@	c #452A23",
"%@	c #602B22",
"&@	c #612B22",
"*@	c #837268",
"=@	c #7F6A5E",
"-@	c #9A9391",
";@	c #89827F",
">@	c #584D48",
",@	c #897D77",
"'@	c #8C8582",
")@	c #8D8987",
"!@	c #8D8887",
"~@	c #7E7774",
"{@	c #645954",
"]@	c #4D3F38",
"^@	c #3D3028",
"/@	c #7F726B",
"(@	c #6E6561",
"_@	c #6A625F",
":@	c #776C68",
"<@	c #6C5E57",
"[@	c #7A6458",
"}@	c #6A5B54",
"|@	c #40342F",
"1@	c #6F6662",
"2@	c #837873",
"3@	c #6A5F59",
"4@	c #514640",
"5@	c #41342E",
"6@	c #928783",
"7@	c #85746B",
"8@	c #4B3C34",
"9@	c #857B77",
"0@	c #918885",
"a@	c #938B88",
"b@	c #8C8482",
"c@	c #554C48",
"d@	c #918884",
"e@	c #67564C",
"f@	c #615149",
"g@	c #7C6D66",
"h@	c #999493",
"i@	c #948F8F",
"j@	c #807C7B",
"k@	c #59524F",
"l@	c #A8A6A7",
"m@	c #A6A4A4",
"n@	c #695E58",
"o@	c #4B3D36",
"p@	c #48382E",
"q@	c #614B3F",
"r@	c #725C4F",
"s@	c #806D64",
"t@	c #5D5755",
"u@	c #463D39",
"v@	c #8B7E78",
"w@	c #9D9999",
"x@	c #949090",
"y@	c #7A7370",
"z@	c #514641",
"A@	c #3F312A",
"B@	c #5C473B",
"C@	c #6F5748",
"D@	c #918D8D",
"E@	c #65615F",
"F@	c #777271",
"G@	c #544C48",
"H@	c #624D41",
"I@	c #765C4C",
"J@	c #908C8C",
"K@	c #645F5E",
"L@	c #615A57",
"M@	c #52443C",
"N@	c #6D574A",
"O@	c #7B6356",
"P@	c #8A7D78",
"Q@	c #7E7A78",
"R@	c #5A5452",
"S@	c #5D5653",
"T@	c #52433B",
"U@	c #6F594D",
"V@	c #7A6253",
"W@	c #7C6659",
"X@	c #847873",
"Y@	c #706764",
"Z@	c #574F4C",
"`@	c #433935",
" #	c #847C78",
".#	c #5A504C",
"+#	c #514239",
"@#	c #705B4F",
"##	c #7F6B60",
"$#	c #877972",
"%#	c #796F6A",
"&#	c #685F5B",
"*#	c #413631",
"=#	c #7E726D",
"-#	c #564A44",
";#	c #715E53",
">#	c #786E6A",
",#	c #706661",
"'#	c #7E6F68",
")#	c #62534A",
"!#	c #4F3F36",
"~#	c #726056",
"{#	c #89807D",
"]#	c #797370",
"^#	c #554D4A",
"/#	c #5D5450",
"(#	c #7F746F",
"_#	c #7C6E67",
":#	c #64544C",
"<#	c #663F36",
"[#	c #7E3429",
"}#	c #7B2C20",
"|#	c #57281F",
"1#	c #44271F",
"2#	c #562A21",
"3#	c #78665D",
"4#	c #4A3A31",
"5#	c #514037",
"6#	c #736258",
"7#	c #827670",
"8#	c #716A67",
"9#	c #564F4C",
"0#	c #806E65",
"a#	c #745F53",
"b#	c #6C5146",
"c#	c #653D33",
"d#	c #604F45",
"e#	c #604E44",
"f#	c #78675E",
"g#	c #7E736E",
"h#	c #443A35",
"i#	c #57504D",
"j#	c #726A68",
"k#	c #7E6B61",
"l#	c #735E51",
"m#	c #4C3F38",
"n#	c #463F3B",
"o#	c #5C5755",
"p#	c #715755",
"q#	c #823F38",
"r#	c #7A2A1E",
"s#	c #572920",
"t#	c #887C76",
"u#	c #7A6A61",
"v#	c #766359",
"w#	c #7F6D64",
"x#	c #7D726C",
"y#	c #7E7978",
"z#	c #8D8684",
"A#	c #78655C",
"B#	c #4C3E37",
"C#	c #3F342E",
"D#	c #848181",
"E#	c #8A8282",
"F#	c #725855",
"G#	c #7F6C62",
"H#	c #6F635D",
"I#	c #948D8B",
"J#	c #837771",
"K#	c #6A5A52",
"L#	c #3F322B",
"M#	c #524844",
"N#	c #979394",
"O#	c #979494",
"P#	c #797676",
"Q#	c #625B5A",
"R#	c #574D47",
"S#	c #52433A",
"T#	c #79685E",
"U#	c #62524A",
"V#	c #605855",
"W#	c #8B8380",
"X#	c #6B615C",
"Y#	c #4E423B",
"Z#	c #3E322B",
"`#	c #50453F",
" $	c #766E6A",
".$	c #8F8988",
"+$	c #9A9493",
"@$	c #989392",
"#$	c #949191",
"$$	c #8C8987",
"%$	c #7A6C66",
"&$	c #6B5445",
"*$	c #74635B",
"=$	c #89817D",
"-$	c #847B77",
";$	c #5B514C",
">$	c #746259",
",$	c #695951",
"'$	c #7F716A",
")$	c #8A7E79",
"!$	c #817773",
"~$	c #5B524E",
"{$	c #827974",
"]$	c #897972",
"^$	c #4F3F35",
"/$	c #705C50",
"($	c #807570",
"_$	c #5C5450",
":$	c #7D675A",
"<$	c #736259",
"[$	c #503F36",
"}$	c #503F35",
"|$	c #705C51",
"1$	c #77655C",
"2$	c #5B4A41",
"3$	c #6D5D55",
"4$	c #8A7F79",
"5$	c #867D78",
"6$	c #827874",
"7$	c #7F6C63",
"8$	c #756257",
"9$	c #6E5E56",
"0$	c #635752",
"a$	c #89817E",
"b$	c #877D79",
"c$	c #716762",
"d$	c #514742",
"e$	c #837A77",
"f$	c #7E716A",
"g$	c #726B68",
"h$	c #8D8785",
"i$	c #796B64",
"j$	c #554842",
"k$	c #8F8987",
"l$	c #A19E9E",
"m$	c #958F8C",
"n$	c #75645B",
"o$	c #53453D",
"p$	c #40332D",
"q$	c #524743",
"r$	c #726C69",
"s$	c #938F8E",
"t$	c #A3A0A0",
"u$	c #A6A4A5",
"v$	c #A7A5A6",
"w$	c #746054",
"x$	c #5F4D43",
"y$	c #898280",
"z$	c #786053",
"A$	c #715B4E",
"B$	c #807672",
"C$	c #6F5A4E",
"D$	c #514139",
"E$	c #A29F9E",
"F$	c #54463F",
"G$	c #9D9897",
"H$	c #827570",
"I$	c #635853",
"J$	c #756A65",
"K$	c #857A76",
"L$	c #908683",
"M$	c #958E8C",
"N$	c #8C8583",
"O$	c #69615D",
"P$	c #6E6461",
"Q$	c #928D8C",
"R$	c #736D6A",
"S$	c #6F6763",
"T$	c #9B9796",
"  . + @ # $ % & & & & & & & & & & & & & & & & & & % $ # @ *         * @ # $ % & & & & & & & & & & & & & & & & & & % $ # @ + .   ",
". = - ; > , ' % % ) ) ! ~ { { ~ ! ) ] ] ] ] ) % % ' , > ; ^ / ( ( / ^ ; > , ' % % ) ] ] ] ] ) ! ~ { { ~ ! ) ) % % ' , > ; - = . ",
"+ - _ : < [ } | | 1 2 3 4 ) ) 4 3 2 1 5 5 5 6 | | } [ < : 7 8 9 9 8 7 : < [ } | | 6 5 5 5 1 2 3 4 ) ) 4 3 2 1 | | } [ < : _ - + ",
"@ ; : 0 a < b > b c d e f ' ' f e d c g g h i b i g j k l m n 9 9 n m l k j g i b i h g g c d e f ' ' f e d c b > b < a 0 : ; @ ",
"# > < a 0 : o p p ; q c r s s r c q o t t p p p p u v l w x y z z y x w l v u p p p p t t o q c r s s r c q ; p p o : 0 a < > # ",
"$ , [ < : _ - + A B C D E , , E D C F - G H H I J K L M N O P Q Q P O N M L K J I H H G - F C D E , , E D C B A + - _ : < [ , $ ",
"% ' } b o - R S * - T U i V V h U W F - - H H X Y Z `  ...+.@.Q Q @.+... .` Z Y X H H - - F W U h V V i U T - * S R - o b } ' % ",
"& % | > p + S #.$.C %.0 a j &.*.q : o u p =.-.;.>.,.'.).!.~.{.Q Q {.~.!.).'.,.>.;.-.=.p u o : q *.&.j a 0 %.C $.#.S + p > | % & ",
"& % | b p A * $.p ].^.a q v v /.(._.b c > :.<.[.}.[.|.1.2.C #.    #.C 2.1.|.[.}.[.<.:.> c b _.(./.v v q a ^.].p $.* A p b | % & ",
"& ) 1 c ; B - C ].3.d _.4.C C v j 5.6.7.8.9.0.a.0.b.c.j v d.e.f.f.e.d.v j c.b.0.a.0.9.8.7.6.5.j v C C 4._.d 3.].C - B ; c 1 ) & ",
"& ) 2 d q C T %.&.g.E _.4.C C v &.5.h.i.j.k.l.m.n.o.p.].C q.r.9 9 r.q.C ].p.o.n.m.l.k.j.i.h.5.&.v C C 4._.E g.&.%.T C q d 2 ) & ",
"& ! s.t.i u.v.0 w.x.< w.q : v U ].y.z.A.B.C.D.E.F.G.H.I.K J.K.L.L.K.J.K I.H.G.F.E.D.C.B.A.z.y.].U v : q w.< x.w.0 v.u.i t.s.! & ",
"& ~ M.2 e d g *.0 ~.~.0 *.j &.]./.N.).O.P.Q.R.F.S.T.U.V.W.X.Y.Z.Z.Y.X.W.V.U.T.S.F.R.Q.P.O.).N./.].&.j *.0 ~.~.0 *.g d e 2 M.~ & ",
"& `. +.+++1 @+j v T T : _.5.5.x.~.#+$+,.%+&+*+=+-+;+>+,+'+'+'+'+'+'+'+'+,+>+;+-+=+*+&+%+,.$+#+~.x.5.5._.: T T v j @+1 ++.+ +`.& ",
"& & `.& `.4 } g u F F ; b 6.h.g.)+I.!+~+{+]+^+/+(+_+:+L.L.L.L.L.L.L.L.L.L.:+_+(+/+^+]+{+~+!+I.)+g.h.6.b ; F F u g } 4 `.& `.& & ",
"& & & & & ! | b p - - u c <+[+}+|+1+2+3+4+5+6+7+~+,+'+8+9+0+0+0+0+0+0+9+8+'+,+~+7+6+5+4+3+2+1+|+}+[+<+c u - - p b | ! & & & & & ",
"& & & & & ! | b p - - p > 5 a+b+c+%+d+e+f+g+h+i+d+'+L.j+k+l+m+l+l+m+l+k+j+L.'+d+i+h+g+f+e+d+%+c+b+a+5 > p - - p b | ! & & & & & ",
"& & & & & ) 6 i p H H p b <+M.n+o+L.L.p+q+L r+,+L.8+s+t+u+v+v+v+v+v+v+u+t+s+8+L.,+r+L q+p+L.L.o+n+M.<+b p H H p i 6 ) & & & & & ",
"& & & & & ) 6 i p H H p i <+M.w+x+L.L.y+z+A+B+'+L.9+k+C+D+E+E+E+E+E+E+D+C+k+9+L.'+B+A+z+y+L.L.x+w+M.<+i p H H p i 6 ) & & & & & ",
"& & & & & ! | b p - - p h F+++b+G+%+}.H+I+J+K+'+L.9+k+C+D+E+E+E+E+E+E+D+C+k+9+L.'+K+J+I+H+}.%+G+b+++F+h p - - p b | ! & & & & & ",
"& & & & & ! | b p - - p i } f }+L+1+2+M+N+O+P+,+L.8+s+t+u+v+v+v+v+v+v+u+t+s+8+L.,+P+O+N+M+2+1+L+}+f } i p - - p b | ! & & & & & ",
"& & `.& `.4 } g u F F Q+R+} <+E u.S+O T+U+L.L.L.L.'+L.9+k+l+l+l+l+l+l+k+9+L.'+L.L.L.L.U+T+O S+u.E <+} R+Q+F F u g } 4 `.& `.& & ",
"& `.! .+++1 [ j %.V+W+u.E <+} R+Q+X+Y+Z+[.L.L.L.L.,+'+8+9+0+0+0+0+0+0+9+8+'+,+L.L.L.L.[.Z+Y+X+Q+R+} <+E u.W+V+%.j [ 1 ++.+! `.& ",
"& & .+`+ @.@< ]./.U +@R+r f h.h t @@G I.#@L.L.L.L.,+L.$@s+%@&@%@%@&@%@s+$@L.,+L.L.L.L.#@I.G @@t h h.f r R++@U /.].< .@ @`+.+& & ",
"& `.++ @h 0 4.U (.h E *@=@++, g -@@@G ;@>@L.L.L.L.'+L.9+k+l+l+l+l+l+l+k+9+L.'+L.L.L.L.>@;@G @@-@g , ++=@*@E h (.U 4.0 h  @++`.& ",
"! 4 1 .@0 -@C v &.V F+3 .+M.5 ,@'@)@!@~@{@]@^@L.L.'+L.j+k+l+m+l+l+m+l+k+j+L.'+L.L.^@]@{@~@!@)@'@,@5 M..+3 F+V &.v C -@0 .@1 4 ! ",
"$ , @+< 4.C C v &.V F+3 .+4 2 /@(@$+` _@:@<@]@L.L.,+L.$@s+%@&@%@%@&@%@s+$@L.,+L.L.]@<@:@_@` $+(@/@2 4 .+3 F+V &.v C C 4.< @+, $ ",
"# > _.(./.v v /.*.h E 6.[+[@b+}@[.|@~+1@H.2@3@4@5@L.L.L.L.L.L.L.L.L.L.L.L.L.L.5@4@3@2@H.1@~+|@[.}@b+[@[+6.E h *./.v v /.(._.> # ",
"@ ; : q 6@&.j (.q U D c 7@b+j.8@P.%+{+9@0@a@b@Z+c@L.L.,+'+'+'+'+'+'+'+'+,+L.L.c@Z+b@a@0@9@{+%+P.8@j.b+7@c D U q (.j &.6@q : ; @ ",
"+ - _ 4.x.5.5._.: W C d@/@e@k.C.m.f@g@_.v h@i@j@k@L.L.L.L.L.L.L.L.L.L.L.L.L.L.k@j@i@h@v _.g@f@m.C.k.e@/@d@C W : _.5.5.x.4._ - + ",
"l@m@- %.R+6.r > ; F F '@n@o@C.p@q@r@s@> ; J r.t@u@L.L.L.L.L.L.L.L.L.L.L.L.L.L.u@t@r.J ; > s@r@q@p@C.o@n@'@F F ; > r 6.R+%.- m@l@",
"    + ; v@<+F+R+u w@x@y@z@A@D.B@C@`.2 R+u D@E@L.L.L.L.L.L.L.L.L.L.L.L.L.L.L.L.L.L.E@D@u R+2 `.C@B@D.A@z@y@x@w@u R+F+<+v@; +     ",
"    + ; v@<+F+R+u x@F@G@}.0.H@C@I@`.2 R+u J@K@L.L.L.L.L.L.L.L.L.L.L.L.L.L.L.L.L.L.K@J@u R+2 `.I@C@H@0.}.G@F@x@u R+F+<+v@; +     ",
"l@m@- %.R+6.r > ; K L@L.L.M@N@& & O@, P@g+Q@R@,+'+'+,+L.L.L.L.L.L.L.L.L.L.,+'+'+,+R@Q@g+P@, O@& & N@M@L.L.L@K ; > r 6.R+%.- m@l@",
"+ - _ 4.x.5.5._.: L S@L.L.T@U@V@W@| @+X@Y@Z@`@L.L.L.L.L.L.L.L.L.L.L.L.L.L.L.L.L.L.`@Z@Y@X@@+| W@V@U@T@L.L.S@L : _.5.5.x.4._ - + ",
"@ ; : q 6@&.j (.q  #.#L.L.+#@###r $#/+%#&#>.*#$@s+s+$@,+'+'+,+L.L.,+'+'+,+$@s+s+$@*#>.&#%#/+$#r ##@#+#L.L..# #q (.j &.6@q : ; @ ",
"# > _.(./.v v /.*.=#-#L.L.x+;#e b -+(+ .>#,#4@s+k+k+s+L.'+L.L.L.L.L.L.'+L.s+k+k+s+4@,#># .(+-+b e ;#x+L.L.-#=#*./.v v /.(._.> # ",
"$ , @+< 4.C C v &.'#)#Q.C.!#~#$#{#]#^#/#(#_#:#<#[#}#|#1#2#s+$@,+,+$@s+2#1#|#}#[#<#:#_#(#/#^#]#{#$#~#!#C.Q.)#'#&.v C C 4.< @+, $ ",
"! 4 1 .@0 -@C v &.^+3#R.4#5#6#7#8#9#:+!+=#0#a#b#c#j+$@s+k+k+s+'+'+s+k+k+s+$@j+c#b#a#0#=#!+:+9#8#7#6#5#4#R.3#^+&.v C -@0 .@1 4 ! ",
"& `.++ @h 0 4.U (.h E o.d#e#f#g#B+h#i#j#:.k#l#R.m#n#o#p#q#r#s#'+'+s#r#q#p#o#n#m#R.l#k#:.j#i#h#B+g#f#e#d#o.E h (.U 4.0 h  @++`.& ",
"& & .+`+ @.@< ]./.U +@t#u#v#w#x#!+i#y#z#,@A#d#B#C#o#D#E#F#s+1#,+,+1#s+F#E#D#o#C#B#d#A#,@z#y#i#!+x#w#v#u#t#+@U /.].< .@ @`+.+& & ",
"& `.! .+++1 [ j %.V+W+u.E G#f#H#'.Z !@I#J#K#]@L#M#Y N#O#P#Q#R#S#S#R#Q#P#O#N#Y M#L#]@K#J#I#!@Z '.H#f#G#E u.W+V+%.j [ 1 ++.+! `.& ",
"& & `.& `.4 } g u F F Q+R+T#U#%+,.V#L W#X#Y#Z#`# $.$+$@$#$$$%$&$&$%$$$#$@$+$.$ $`#Z#Y#X#W#L V#,.%+U#T#R+Q+F F u g } 4 `.& `.& & ",
"& & & & & ! | b p - - p i *$S#L#O.).=$-$;$L.L..# #~.)+D p 4.*@& & *@4.p D )+~. #.#L.L.;$-$=$).O.L#S#*$i p - - p b | ! & & & & & ",
"& & & & & ! | b p - - p h >$x+B.,$'$)$!$~$L.L.3+{$x.d [ ]$7@a+& & a+7@]$[ d x.{$3+L.L.~$!$)$'$,$B.x+>$h p - - p b | ! & & & & & ",
"& & & & & ) 6 i p H H p i 6#!#^$/$F+V ($3+L.L._$($5.h.[+:$4 V@ + +V@4 :$[+h.5.($_$L.L.3+($V F+/$^$!#6#i p H H p i 6 ) & & & & & ",
"& & & & & ) 6 i p H H p b <$[$}$|$, 5.($_$L.L._$($5.6.<+6 5 6 6 6 6 5 6 <+6.5.($_$L.L._$($5., |$}$[$<$b p H H p i 6 ) & & & & & ",
"& & & & & ! | b p - - p > 1$j.2$3$z.4$5$1@'.P+3+6$_.> # # c c c c c c # # > _.6$3+P+'.1@5$4$z.3$2$j.1$> p - - p b | ! & & & & & ",
"& & & & & ! | b p - - u c 7$8$9$0$).a$0@b$c$d$y+e$: ; @ @ @ @ @ @ @ @ @ @ ; : e$y+d$c$b$0@a$).0$9$8$7$c u - - p b | ! & & & & & ",
"& & `.& `.4 } g u F F ; b 6.h.f$).g$h$~.x.i$j$[.I+k$d.G l$l$l$l$l$l$l$l$G d.k$I+[.j$i$x.~.h$g$).f$h.6.b ; F F u g } 4 `.& `.& & ",
"& `. +.+++1 @+j v T T : _.5.5.4$a$h$m$)+g.n$o$p$q$r$s$t$R u$v$. . v$u$R t$s$r$q$p$o$n$g.)+m$h$a$4$5.5._.: T T v j @+1 ++.+ +`.& ",
"& ~ M.2 e d g *.0 ~.~.0 *.j &.]./.~.)+R+6.w$x$B#d+~$y$F * v$        v$* F y$~$d+B#x$w$6.R+)+~./.].&.j *.0 ~.~.0 *.g d e 2 M.~ & ",
"& ! s.t.i u.v.0 w.x.< w.q : v U ].x.g.r s z$A$R.m#-#B$u $.S         S $.u B$-#m#R.A$z$s r g.x.].U v : q w.< x.w.0 v.u.i t.s.! & ",
"& ) 2 d q C T %.&.g.E _.4.C C v &.5.h.[+a+M.M.C$D$o$%$].C E$u$    u$E$C ].%$o$D$C$M.M.a+[+h.5.&.v C C 4._.E g.&.%.T C q d 2 ) & ",
"& ) 1 c ; B - C ].3.d _.4.C C v j 5.6.<+5 <+<+>$o$F$i$j v G$- + + - G$v j i$F$o$>$<+<+5 <+6.5.j v C C 4._.d 3.].C - B ; c 1 ) & ",
"& % | b p A * $.p ].^.a q v v /.(._.b c > b b H$n@I$J$K$L$~.%.; ; %.~.L$K$J$I$n@H$b b > c b _.(./.v v q a ^.].p $.* A p b | % & ",
"& % | > p + S #.$.C %.0 a j &.*.q : o u p p p M$N$m O$P$K$x.R+v@v@R+x.K$P$O$m N$M$p p p u o : q *.&.j a 0 %.C $.#.S + p > | % & ",
"% ' } b o - R S * - T U i V V h U W F - - H H - - Q$R$S$2@5.6.<+<+6.5.2@S$R$Q$- - H H - - F W U h V V i U T - * S R - o b } ' % ",
"$ , [ < : _ - + A B C D E , , E D C F - G H H - - T$.$a$y.5.6.<+<+6.5.y.a$.$T$- - H H G - F C D E , , E D C B A + - _ : < [ , $ ",
"# > < a 0 : o p p ; q c r s s r c q o t t p p p p u v q w.x.R+v@v@R+x.w.q v u p p p p t t o q c r s s r c q ; p p o : 0 a < > # ",
"@ ; : 0 a < b > b c d e f ' ' f e d c g g h i b i g j *.0 4.%.; ; %.4.0 *.j g i b i h g g c d e f ' ' f e d c b > b < a 0 : ; @ ",
"+ - _ : < [ } | | 1 2 3 4 ) ) 4 3 2 1 5 5 5 6 | | } [ < : _ - + + - _ : < [ } | | 6 5 5 5 1 2 3 4 ) ) 4 3 2 1 | | } [ < : _ - + ",
". = - ; > , ' % % ) ) ! ~ { { ~ ! ) ] ] ] ] ) % % ' , > ; - m@    m@- ; > , ' % % ) ] ] ] ] ) ! ~ { { ~ ! ) ) % % ' , > ; - = . ",
"  . + @ # $ % & & & & & & & & & & & & & & & & & & % $ # @ + l@    l@+ @ # $ % & & & & & & & & & & & & & & & & & & % $ # @ + .   "};
