/* XPM */
static char * exit_xpm[] = {
"64 64 301 2",
"  	c #55351C",
". 	c #664124",
"+ 	c #6F4728",
"@ 	c #6D4729",
"# 	c #67472E",
"$ 	c #826147",
"% 	c #916E52",
"& 	c #8A674C",
"* 	c #744E31",
"= 	c #6D4627",
"- 	c #6E4728",
"; 	c #3F2612",
"> 	c #52331B",
", 	c #5B391E",
"' 	c #65442B",
") 	c #836147",
"! 	c #8F6C50",
"~ 	c #856349",
"{ 	c #6A4B33",
"] 	c #563820",
"^ 	c #50311A",
"/ 	c #5B391F",
"( 	c #5B3A1F",
"_ 	c #361F0D",
": 	c #492C15",
"< 	c #684830",
"[ 	c #846248",
"} 	c #795A41",
"| 	c #62452E",
"1 	c #5E4129",
"2 	c #593C25",
"3 	c #4C311B",
"4 	c #462A15",
"5 	c #4A2D17",
"6 	c #4A2E17",
"7 	c #51321A",
"8 	c #37210F",
"9 	c #573C27",
"0 	c #72543C",
"a 	c #7E5F46",
"b 	c #71533B",
"c 	c #563A25",
"d 	c #482C17",
"e 	c #553822",
"f 	c #5F4129",
"g 	c #5B3D26",
"h 	c #4F341E",
"i 	c #472C16",
"j 	c #4E3019",
"k 	c #53341B",
"l 	c #56351C",
"m 	c #382211",
"n 	c #614732",
"o 	c #6C5039",
"p 	c #583F2B",
"q 	c #422916",
"r 	c #3C230F",
"s 	c #3E2511",
"t 	c #412814",
"u 	c #4E341F",
"v 	c #5C3F28",
"w 	c #553923",
"x 	c #3C2513",
"y 	c #422915",
"z 	c #442A16",
"A 	c #553D29",
"B 	c #573D2A",
"C 	c #3C2411",
"D 	c #3A220F",
"E 	c #3A2310",
"F 	c #3B2310",
"G 	c #4B321D",
"H 	c #452F1C",
"I 	c #26180C",
"J 	c #2D1C0E",
"K 	c #301D0F",
"L 	c #301D0E",
"M 	c #2B1B0D",
"N 	c #28190B",
"O 	c #27180B",
"P 	c #23160B",
"Q 	c #26170B",
"R 	c #3B240D",
"S 	c #38220E",
"T 	c #442A15",
"U 	c #452A15",
"V 	c #442915",
"W 	c #331F10",
"X 	c #281A0D",
"Y 	c #362111",
"Z 	c #462B16",
"` 	c #422814",
" .	c #341E0D",
"..	c #2F1C0C",
"+.	c #26180B",
"@.	c #2E1C0C",
"#.	c #351F0D",
"$.	c #321E0D",
"%.	c #331E0D",
"&.	c #3A2210",
"*.	c #4D330E",
"=.	c #3F280D",
"-.	c #472B16",
";.	c #342010",
">.	c #3B2412",
",.	c #54341B",
"'.	c #4C2F18",
").	c #422813",
"!.	c #38210F",
"~.	c #341F0D",
"{.	c #2E1B0C",
"].	c #24170B",
"^.	c #27180C",
"/.	c #4E330E",
"(.	c #40280D",
"_.	c #53331B",
":.	c #412713",
"<.	c #54341C",
"[.	c #492D17",
"}.	c #38210E",
"|.	c #2B1A0C",
"1.	c #23170B",
"2.	c #22160B",
"3.	c #25170B",
"4.	c #432814",
"5.	c #54351C",
"6.	c #29190C",
"7.	c #4F340E",
"8.	c #432914",
"9.	c #52331A",
"0.	c #452A14",
"a.	c #39220F",
"b.	c #301C0C",
"c.	c #28190C",
"d.	c #21160B",
"e.	c #432A0E",
"f.	c #3A230D",
"g.	c #37210E",
"h.	c #2D1B0C",
"i.	c #38200E",
"j.	c #341E0C",
"k.	c #3D250E",
"l.	c #37210D",
"m.	c #4B2E18",
"n.	c #321E0C",
"o.	c #301D0C",
"p.	c #432B0E",
"q.	c #3A240D",
"r.	c #25180B",
"s.	c #452D0E",
"t.	c #3B250D",
"u.	c #321D0D",
"v.	c #3D2411",
"w.	c #482C16",
"x.	c #462B15",
"y.	c #3F270D",
"z.	c #4E340E",
"A.	c #311D0D",
"B.	c #462D0E",
"C.	c #3C250D",
"D.	c #432C0E",
"E.	c #472E0E",
"F.	c #442C0E",
"G.	c #402612",
"H.	c #4D3019",
"I.	c #492F0E",
"J.	c #3D260D",
"K.	c #3F270E",
"L.	c #38220D",
"M.	c #38210D",
"N.	c #3E260E",
"O.	c #39210E",
"P.	c #422A0E",
"Q.	c #3D2511",
"R.	c #432813",
"S.	c #27190C",
"T.	c #2E1C0D",
"U.	c #2D1C0D",
"V.	c #2C1B0D",
"W.	c #2F1D0D",
"X.	c #2E1D0D",
"Y.	c #311D0C",
"Z.	c #37200E",
"`.	c #291A0C",
" +	c #472B15",
".+	c #21150B",
"++	c #331E0C",
"@+	c #301D0D",
"#+	c #2A1A0C",
"$+	c #25180C",
"%+	c #35220C",
"&+	c #34200C",
"*+	c #56361D",
"=+	c #6B4527",
"-+	c #5E3B21",
";+	c #311E0D",
">+	c #36200E",
",+	c #2A1A0D",
"'+	c #2D1B0D",
")+	c #4C2F19",
"!+	c #623E23",
"~+	c #432A15",
"{+	c #331F0E",
"]+	c #301E0E",
"^+	c #412915",
"/+	c #684325",
"(+	c #4B2E17",
"_+	c #351F0E",
":+	c #2C1B0C",
"<+	c #452C17",
"[+	c #674225",
"}+	c #342214",
"|+	c #36271C",
"1+	c #493117",
"2+	c #3D2611",
"3+	c #57371D",
"4+	c #623E22",
"5+	c #6E4628",
"6+	c #6B4427",
"7+	c #3B220F",
"8+	c #4B301A",
"9+	c #6A4426",
"0+	c #523D2E",
"a+	c #705848",
"b+	c #6E5545",
"c+	c #513B2C",
"d+	c #57361D",
"e+	c #5F3C21",
"f+	c #6C4527",
"g+	c #59381E",
"h+	c #3C2310",
"i+	c #2C1C0D",
"j+	c #35200F",
"k+	c #56371E",
"l+	c #564031",
"m+	c #775D4D",
"n+	c #36200D",
"o+	c #5E3B20",
"p+	c #6C4627",
"q+	c #412712",
"r+	c #2A1B0D",
"s+	c #5C3A20",
"t+	c #563F31",
"u+	c #50321A",
"v+	c #5D3B20",
"w+	c #694325",
"x+	c #3E2714",
"y+	c #20150A",
"z+	c #2F1C0D",
"A+	c #462C17",
"B+	c #5D3C21",
"C+	c #49301D",
"D+	c #5C4536",
"E+	c #4A3527",
"F+	c #432F22",
"G+	c #554134",
"H+	c #584234",
"I+	c #4F3524",
"J+	c #674125",
"K+	c #5F3D22",
"L+	c #523927",
"M+	c #574234",
"N+	c #422F22",
"O+	c #33200F",
"P+	c #341F0E",
"Q+	c #291B0E",
"R+	c #2E1E0F",
"S+	c #2F1E0F",
"T+	c #322010",
"U+	c #332010",
"V+	c #563B28",
"W+	c #623F23",
"X+	c #4E3423",
"Y+	c #5F483A",
"Z+	c #735A4A",
"`+	c #574032",
" @	c #553F31",
".@	c #785E4E",
"+@	c #624B3C",
"@@	c #573F2F",
"#@	c #614532",
"$@	c #624532",
"%@	c #654733",
"&@	c #704E37",
"*@	c #735037",
"=@	c #755641",
"-@	c #775E4E",
";@	c #644C3D",
">@	c #513C2E",
",@	c #4F3B2E",
"'@	c #4D3A2D",
")@	c #4B392D",
"!@	c #543E2F",
"~@	c #533D2E",
"{@	c #634C3D",
"]@	c #5E4739",
"^@	c #4D3321",
"/@	c #54351D",
"(@	c #785E4D",
"_@	c #6B503F",
":@	c #56371F",
"  . + @ # $ % & * = - + + + + + + + + + + + + + + + + + + + + + + + + + + + + + + + + + + + + + + + + + + - = * & % $ # @ + .   ",
"; > , ' ) ! ~ { ] ^   / / / ( ( ( ( ( ( ( ( ( ( ( ( ( ( ( ( ( ( ( ( ( ( ( ( ( ( ( ( ( ( ( ( ( ( ( ( / / /   ^ ] { ~ ! ) ' , > ; ",
"_ : < [ ! } | 1 2 3 4 5 6 7                                                                         7 6 5 4 3 2 1 | } ! [ < : _ ",
"8 9 0 a b c d e f g h i j k l l l l l l l l l l l l l l l l l l l l l l l l l l l l l l l l l l l l k j i h g f e d c b a 0 9 8 ",
"m n o p q r s t u v w x y z z z z z z z z z z z z z z z z z z z z z z z z z z z z z z z z z z z z z z y x w v u t s r q p o n m ",
"8 A B C D E E E F G H I J K L K K M N O P Q N O P Q N O P Q N N N N Q P O N Q P O N Q P O N M K K L K J I H G F E E E D C B A 8 ",
"R S C T U U U U V W X Y U Z U T ` E  ...+.@.#.$.+.@.#.$.+.@.#.#.#.#.@.+.$.#.@.+.$.#.@.O %.#.&.` T U Z U Y X W V U U U U T C S R ",
"*.=.C -.-.-.-.i Z ;.>.> ,.'.4 ).!.~.{.].P .._ $.+..._ $.+...#.#.#.#...+.$._ ..+.$._ @.^. .#. .!.).4 '.,.> >.;.Z i -.-.-.-.C =.*.",
"/.(.)._.k k k k > :.).<.  k [.}.~.|.1.2.P .._ $.+..._ $.+...#.#.#.#...+.$._ ..+.$._ ..1.3.3.|.~.}.[.k   <.).:.> k k k k _.).(./.",
"/.(.4.5.        5.4.4.<.<.i D %.6.1.2.2.P ..#.$.+.@.#.$.+.@.#.#.#.#.@.+.$.#.@.+.$.#...P 2.2.1.6.%.D i <.<.4.4.5.        5.4.(./.",
"7.(.4.<.        <.4.8.9.0.a.b.c.P d.2.2.2.+.6.c.1.+.6.c.1.+.6.6.6.6.+.1.c.6.+.1.c.6.+.2.2.2.d.P c.b.a.0.9.8.4.<.        <.4.(.7.",
"e.f.8.<.        <.8.F ).g.~.$.{.{.{.{.{.{.h.h.h.{.{.h.h.{.{.h.h.h.h.{.{.h.h.{.{.h.h.h.{.{.{.{.{.{.$.~.g.).F 8.<.        <.8.f.e.",
"i._ 8.<.  7 7   <.8.j.#.#.#.#._ _ _ _ _ _ _ _ _ _ _ _ _ _ _ _ _ _ _ _ _ _ _ _ _ _ _ _ _ _ _ _ _ _ #.#.#.#.j.8.<.        <.8._ i.",
"k.l.8.<.  m.m.  <.8.n.o.b.b.b.b.b.b.b.b.b.b.b.b.b.b.b.b.b.b.b.b.b.b.b.b.b.b.b.b.b.b.b.b.b.b.b.b.b.b.b.b.o.n.8.<.        <.8.l.k.",
"p.q.8.5.  m.m.  <.8.{.].+.O O +.1.3.O O O O r.P 2.2.2.2.2.2.2.2.2.2.2.2.2.2.2.2.P r.O O O O 3.1.+.O O +.].{.8.<.        <.8.q.p.",
"s.t.)._.k 6 m.  <.8.{.+.u.~.~.u.c...~.~.~.%.h.P 2.2.2.2.2.2.2.2.2.2.2.2.2.2.2.2.P h.%.~.~.~...c.u.~.~.u.+.{.8.<.        <.8.t.s.",
"*.=.v.w.w.x.m.  <.8.{.+.$.#.#.#. .~.#.#. .|.1.2.2.2.2.2.2.2.2.2.2.2.2.2.2.2.2.2.2.1.|. .#.#.~. .#.#.#.$.+.{.8.<.        <.4.y.*.",
"z.(.:.7 > 5 m.  <.8.{.+.$.#.#.#.#.#.#.%.6.1.2.2.2.2.2.2.2.2.2.2.2.2.2.2.2.2.2.2.2.2.1.6.%.#.#.#.#.#.#.$.+.{.8.<.        <.4.(.z.",
"/.(.4.5.  m.m.  <.8.{.+.$.#.#.#.#.#.A.c.P 2.2.2.2.2.2.2.2.2.2.2.2.2.2.2.2.2.2.2.2.2.2.P c.A.#.#.#.#.#.$.+.{.8.<.        <.4.(./.",
"/.(.4.<.  7 7   <.8.{.+.$.#.#.#.#.b.c.2.2.2.2.2.2.2.2.2.2.2.2.2.2.2.2.2.2.2.2.2.2.2.2.2.2.c.b.#.#.#.#.$.+.{.8.<.        <.4.(./.",
"/.(.4.<.        <.8.{.+.$.#.#. ...+.d.2.2.2.2.2.2.2.2.2.2.2.2.2.2.2.2.2.2.2.2.2.2.2.2.2.2.d.+... .#.#.$.+.{.8.<.        <.4.(./.",
"/.(.4.<.        <.8.{.+.$.#.#.$.+.d.2.2.2.2.2.2.2.2.2.2.2.2.2.2.2.2.2.2.2.2.2.2.2.2.2.2.2.2.d.+.$.#.#.$.+.{.8.<.        <.4.(./.",
"/.(.4.<.        <.8.{.+.$.#.#.$.+.2.2.2.2.2.2.2.2.2.2.2.2.2.2.2.2.2.2.2.2.2.2.2.2.2.2.2.2.2.2.+.$.#.#.$.+.{.8.<.  k k   <.4.(./.",
"/.(.4.<.        <.8.{.+.$.#.#.$.+.2.2.2.2.2.2.2.2.2.2.2.2.2.2.2.2.2.2.2.2.2.2.2.2.2.2.2.2.2.2.+.$.#.#.$.+.{.8.<.  '.'.  <.4.(./.",
"/.=.4.<.        <.8.{.+.$.#.#.$.+.2.2.2.2.2.2.2.2.2.2.2.2.2.2.2.2.2.2.2.2.2.2.2.2.2.2.2.2.2.2.+.$.#.#.$.+.{.8.<.  m.m.  <.4.(./.",
"B.C.8.<.        <.8.{.+.$.#.#.$.+.2.2.2.2.2.2.2.2.2.2.2.2.2.2.2.2.2.2.2.2.2.2.2.2.2.2.2.2.2.2.+.$.#.#.$.+.{.8.<.  m.m.  <.4.(./.",
"D.q.8.<.        <.8.{.+.$.#.#.$.+.2.2.2.2.2.2.2.2.2.2.2.2.2.2.2.2.2.2.2.2.2.2.2.2.2.2.2.2.2.2.+.$.#.#.$.+.{.8.<.  m.m.  <.8.C.E.",
"F.R 8.<.        <.8.{.+.$.#.#.$.+.2.2.2.2.2.2.2.2.2.2.2.2.2.2.2.2.2.2.2.2.2.2.2.2.2.2.2.2.2.2.+.$.#.#.$.+.{.8.<.  m.m.    8.q.p.",
"F.R 8.<.        <.8.{.+.$.#.#.$.+.2.2.2.2.2.2.2.2.2.2.2.2.2.2.2.2.2.2.2.2.2.2.2.2.2.2.2.2.2.2.+.$.#.#.$.+.{.8.<.  m.w.j j G.R F.",
"F.R 8.<.        <.8.{.+.$.#.#.$.+.2.2.2.2.2.2.2.2.2.2.2.2.2.2.2.2.2.2.2.2.2.2.2.2.2.2.2.2.2.2.+.$.#.#.$.+.{.8.<.  m.-.6 5 s R F.",
"F.q.8.<.        <.8.{.+.$.#.#.$.+.2.2.2.2.2.2.2.2.2.2.2.2.2.2.2.2.2.2.2.2.2.2.2.2.2.2.2.2.2.2.+.$.#.#.$.+.{.8.<.  m.m.5.<.4.R F.",
"s.t.8.<.        <.8.{.+.$.#.#.$.+.2.2.2.2.2.2.2.2.2.2.2.2.2.2.2.2.2.2.2.2.2.2.2.2.2.2.2.2.2.2.+.$.#.#.$.+.{.8.<.  m.m.  <.8.R F.",
"*.y.4.<.  5.5.  <.8.{.+.$.#.#.$.+.2.2.2.2.2.2.2.2.2.2.2.2.2.2.2.2.2.2.2.2.2.2.2.2.2.2.2.2.2.2.+.$.#.#.$.+.{.8.<.  '.'.  <.8.R F.",
"z.(.4.<.  H.H.  <.8.{.+.$.#.#.$.+.2.2.2.2.2.2.2.2.2.2.2.2.2.2.2.2.2.2.2.2.2.2.2.2.2.2.2.2.2.2.+.$.#.#.$.+.{.8.<.  k k   <.8.q.D.",
"z.(.4.<.  m.m.  <.8.{.+.$.#.#.$.+.2.2.2.2.2.2.2.2.2.2.2.2.2.2.2.2.2.2.2.2.2.2.2.2.2.2.2.2.2.2.+.$.#.#.$.+.{.8.<.        <.8.l.k.",
"I.J.4.<.  m.m.  <.8.{.+.$.#.#.$.+.2.2.2.2.2.2.2.2.2.2.2.2.2.2.2.2.2.2.2.2.2.2.2.2.2.2.2.2.2.2.+.$.#.#.$.+.{.8.<.        <.8._ i.",
"K.L.8.<.  m.m.  <.8.{.+.$.#.#.$.+.2.2.2.2.2.2.2.2.2.2.2.2.2.2.2.2.2.2.2.2.2.2.2.2.2.2.2.2.2.2.+.$.#.#.$.+.{.8.<.        <.8.M.N.",
"O._ 8.<.  m.m.  5.8.{.+.$.#.#.$.+.2.2.2.2.2.2.2.2.2.2.2.2.2.2.2.2.2.2.2.2.2.2.2.2.2.2.2.2.2.2.+.$.#.#.$.+.{.8.<.        <.8.R F.",
"#.~.8.<.  m.5 > 7 ).{.+.$.#.#.$.+.2.2.2.2.2.2.2.2.2.2.2.2.2.2.2.2.2.2.2.2.2.2.2.2.2.2.2.2.2.2.+.$.#.#.$.+.{.8.<.        <.8.f.P.",
"].@.8.<.  m.x.w.w.Q.{.+.$.#.#.$.+.2.2.2.2.2.2.2.2.2.2.2.2.2.2.2.2.2.2.2.2.2.2.2.2.2.2.2.2.2.2.+.$.#.#.$.+.{.8.<.        <.8.#.g.",
"P {.8.<.  m.6 k _.R.{.+.$.#.#.$.+.2.2.2.2.2.2.2.2.2.2.2.2.2.2.2.2.2.2.2.2.2.2.2.2.2.2.2.2.2.2.+.$.#.#.$.+.{.8.<.        <.8...+.",
"P {.8.<.  m.m.  5.8.{.+.$.#.#.$.+.2.2.2.2.2.2.2.2.2.2.2.2.2.2.2.2.2.2.2.2.2.2.2.2.2.2.2.2.2.2.+.$.#.#.$.+.{.8.<.        <.8.{.P ",
"P {.8.<.  m.m.  <.8.{.+.$.#.#.$.+.2.2.2.2.2.2.2.2.2.2.2.2.2.2.2.2.2.2.2.2.2.2.2.2.2.2.2.2.2.2.+.$.#.#.$.+.{.8.<.        <.8.{.P ",
"P {.8.<.  7 7   <.8.{.+.$.#.#.$.+.2.2.2.2.2.2.2.2.2.2.2.2.2.2.2.2.2.2.2.2.2.2.2.2.2.2.2.2.2.2.+.$.#.#.$.+.{.8.<.        <.8.{.P ",
"P {.8.<.        <.8.{.+.$.#.#.$.+.2.2.2.2.2.2.2.2.2.2.2.2.2.2.2.2.2.2.2.2.2.2.2.2.2.2.2.2.2.2.+.$.#.#.$.+.{.8.<.        <.8.{.P ",
"P {.8.<.        <.8.{.+.$.#.#.$.+.2.2.2.2.2.2.2.2.2.2.2.2.2.2.2.2.2.2.2.2.2.2.2.2.2.2.2.2.2.2.+.$.#.#.$.+.{.8.<.        <.8.{.P ",
"P {.8.<.        <.8.{.+.$.#.#.$.+.d.2.2.2.2.2.2.2.2.2.2.2.2.2.2.2.2.2.2.2.2.2.2.2.2.2.2.2.2.2.+.$.#.#.$.+.{.8.<.        <.8.{.P ",
"P {.8.<.        <.8.{.S.%.#.#.%.^.1.].1.2.2.2.2.2.2.2.2.2.2.2.2.2.2.2.2.2.2.2.2.2.2.2.2.2.2.2.+.$.#.#.$.+.{.8.<.        <.8.{.P ",
"P {.8.<.        <.8.A.T. .#.#. .U.V.V.M ].2.2.2.2.2.2.2.2.2.2.2.2.2.2.2.2.2.2.2.2.2.2.2.2.2.2.+.$.#.#.$.O {.8.<.        <.8.{.P ",
"P {.8.<.        <.8.A.W.~.#.#.~.X.U.U.U.M I 2.2.2.2.2.2.2.2.2.2.2.2.2.2.2.2.2.2.2.2.2.2.2.2.2.+.$.#.#. .U.Y.8.<.        <.8.{.P ",
"P {.8.<.        <.8.A.T. .#.#.~.X.U.U.U.U.^.2.2.2.2.2.2.2.2.2.2.2.2.2.2.2.2.2.2.2.2.2.2.2.2.d.+.$.#.#.#.#.~.8.<.        <.8.{.P ",
"P {.8.<.        <.8.C T Z.j.#.~.T.U.U.V.c.].2.2.2.2.2.2.2.2.2.2.2.2.2.2.2.2.2.2.2.2.3.c.`.`.I +.$.#.j.}. +s 8.<.        <.8.{.P ",
".+{.8.<.        <.4.8.  5.` ++~.X.@+%.$.T.#+$+2.2.2.2.2.2.2.2.2.2.2.2.2.2.2.2.2.d.d.I U.U.U.M #+%.++` 5.  8.4.<.        <.8.{.P ",
"%+&+8.<.        <.4.; *+=+-+T $.;+>+O.O.O.$.,+I P 2.2.2.2.2.2.2.2.2.2.2.2.2.2.1.6.|.'+@+T.U.U.T.$.T -+=+*+; 4.<.        <.8.{.P ",
"/.=.4.<.        <.8.&.)+. + !+~+D O.O.O.O.{+W.M ].2.P 3.^.c.c.^.3.P 2.2.2.2.].|.>+O.O.i.;+T.V.]+^+!++ . )+&.8.<.        <.8.{.P ",
"*.y.4.<.        <.8.F w.  . - /+(+r O.O.O.O._+V.$+1.c.@+Z.}.}.Z.@+6.].2.2.2.:+i.O.O.O.O.}.A.]+<+[+- .   w.F 8.<.        <.8.}+|+",
"1+2+8.<.        <.8.F i k 3+4+5+6+> 7+O.O.O._+U.V.V.;+i.O.O.O.O.}.Z.@+P P c.;+O.O.O.O.O.}.W.8+9+5+4+3+k i F 8.<.        <.8.0+a+",
"b+c+8.<.        <.8.E i _.  d+e+= f+g+h+O.O.$.^.V.{+i.O.O.O.O.O.O.O.A.].#+i+$.O.O.O.O.Z.j+k+6+= e+d+  _.i E 8.<.        <.8.l+m+",
"m+l+8.<.        <.8.n+G.9.    *+o+6+p+o+q+..^.].V._+O.O.O.O.O.O.O.A.^.P I r+W.$.}.O.#.>.s+f+6+o+*+    9.G.n+8.<.        <.8.t+m+",
"m+t+8.<.        <.8.b.@+` u+l     v+w+- e+x+y+`.U.@+_+O.O.O.O.i.z++..+2.S.M U.T.$.j+A+B+5+w+v+    l ^ C+D+E+8.<.        <.8.t+m+",
"m+t+8.<.        <.8.F+G+H+I+j     5./ J+- K+L+H+M+N+O+P+P+P+%.@.3.Q+R+S+T+U+N+M+H+V+W+- J+/ 5.    j X+Y+Z+`+8.<.        <.8.t+m+",
"m+ @8.<.        <.8. @m+.@+@@@#@$@$@#@%@&@*@=@.@-@;@>@,@,@,@'@)@)@>@!@!@!@~@{@-@.@=@*@&@%@#@$@$@#@@@+@-@m+ @8.<.        <.8. @m+",
"m+]@^@/@        /@^@]@m+.@.@m+(@(@(@(@(@.@.@.@.@.@.@m+m+m+m+m+m+m+m+m+m+m+m+.@.@.@.@.@.@(@(@(@(@(@m+.@.@m+]@^@/@        /@^@]@m+",
".@m+_@:@        :@_@m+.@.@.@.@.@.@.@.@.@.@.@.@.@.@.@.@.@.@.@.@.@.@.@.@.@.@.@.@.@.@.@.@.@.@.@.@.@.@.@.@.@.@m+_@:@        :@_@m+.@"};
