/* XPM */
static char * wall_xpm[] = {
"64 64 192 2",
"  	c #372A23",
". 	c #382B23",
"+ 	c #392B24",
"@ 	c #3A2C24",
"# 	c #3B2C24",
"$ 	c #3B2D25",
"% 	c #382A23",
"& 	c #382B24",
"* 	c #362A23",
"= 	c #3D2E25",
"- 	c #3F2F26",
"; 	c #413027",
"> 	c #423127",
", 	c #423228",
"' 	c #413026",
") 	c #3C2D25",
"! 	c #3E2E26",
"~ 	c #403026",
"{ 	c #403027",
"] 	c #392C24",
"^ 	c #463429",
"/ 	c #49362A",
"( 	c #4B382B",
"_ 	c #4C382C",
": 	c #4B372B",
"< 	c #453328",
"[ 	c #443228",
"} 	c #473529",
"| 	c #48352A",
"1 	c #433128",
"2 	c #3D2E26",
"3 	c #372B23",
"4 	c #362923",
"5 	c #382A24",
"6 	c #413127",
"7 	c #4E3A2C",
"8 	c #523D2E",
"9 	c #553F2F",
"0 	c #564030",
"a 	c #553E2F",
"b 	c #523C2E",
"c 	c #4D382C",
"d 	c #3A2D24",
"e 	c #3E2E25",
"f 	c #503A2D",
"g 	c #513B2E",
"h 	c #4E392C",
"i 	c #4D392C",
"j 	c #543E2F",
"k 	c #594231",
"l 	c #5C4432",
"m 	c #5E4533",
"n 	c #5C4332",
"o 	c #594131",
"p 	c #533D2E",
"q 	c #4C382B",
"r 	c #3E2F26",
"s 	c #3A2B24",
"t 	c #3D2D25",
"u 	c #433127",
"v 	c #4A372B",
"w 	c #563F30",
"x 	c #574030",
"y 	c #4F3A2D",
"z 	c #403127",
"A 	c #5A4231",
"B 	c #614735",
"C 	c #634835",
"D 	c #624835",
"E 	c #604734",
"F 	c #5D4433",
"G 	c #584131",
"H 	c #523C2D",
"I 	c #433228",
"J 	c #503B2D",
"K 	c #5B4332",
"L 	c #5C4333",
"M 	c #433227",
"N 	c #48362A",
"O 	c #644836",
"P 	c #654936",
"Q 	c #644936",
"R 	c #5D4432",
"S 	c #463529",
"T 	c #453329",
"U 	c #5B4232",
"V 	c #5F4533",
"W 	c #604634",
"X 	c #5E4433",
"Y 	c #5A4132",
"Z 	c #543D2F",
"` 	c #3B2D24",
" .	c #3C2E25",
"..	c #49372A",
"+.	c #5A4232",
"@.	c #614634",
"#.	c #634936",
"$.	c #543E2E",
"%.	c #5F4534",
"&.	c #614734",
"*.	c #624735",
"=.	c #563F2F",
"-.	c #4A372A",
";.	c #4F3B2D",
">.	c #644835",
",.	c #3B2C25",
"'.	c #4A362A",
").	c #513C2D",
"!.	c #584031",
"~.	c #5A4131",
"{.	c #4D3A2C",
"].	c #423227",
"^.	c #483529",
"/.	c #4F3A2C",
"(.	c #5F4634",
"_.	c #634836",
":.	c #604735",
"<.	c #443328",
"[.	c #624836",
"}.	c #644937",
"|.	c #654A37",
"1.	c #513C2E",
"2.	c #5E4534",
"3.	c #543D2E",
"4.	c #3A2C25",
"5.	c #47352A",
"6.	c #4E3A2D",
"7.	c #553F30",
"8.	c #453429",
"9.	c #4D392B",
"0.	c #513B2D",
"a.	c #473429",
"b.	c #463329",
"c.	c #573F30",
"d.	c #3F3026",
"e.	c #49372B",
"f.	c #423128",
"g.	c #503B2E",
"h.	c #3D2F25",
"i.	c #403126",
"j.	c #4A362B",
"k.	c #362922",
"l.	c #362A22",
"m.	c #453428",
"n.	c #352922",
"o.	c #4C392C",
"p.	c #584030",
"q.	c #644935",
"r.	c #533D2F",
"s.	c #624734",
"t.	c #57402F",
"u.	c #654A36",
"v.	c #4C392B",
"w.	c #634935",
"x.	c #5D4533",
"y.	c #644A36",
"z.	c #604635",
"A.	c #604633",
"B.	c #4F3B2C",
"C.	c #433328",
"D.	c #483629",
"E.	c #5B4231",
"F.	c #3C2D24",
"G.	c #3E2F25",
"H.	c #392B23",
"I.	c #533E2F",
"J.	c #5E4434",
"K.	c #624736",
"L.	c #5C4433",
"M.	c #614635",
"N.	c #594232",
"O.	c #644A37",
"P.	c #654937",
"Q.	c #574031",
"R.	c #584130",
"S.	c #4D382B",
"T.	c #372A22",
"U.	c #372923",
"V.	c #362921",
"W.	c #352821",
"X.	c #362821",
"Y.	c #352820",
"Z.	c #342720",
"`.	c #34271F",
" +	c #342820",
".+	c #352720",
"++	c #34271E",
"@+	c #35261E",
"#+	c #33261D",
"$+	c #33261E",
"%+	c #34261D",
"&+	c #34251D",
"                                                                                                                                ",
"                                                . + @ @ # $ $ # @ @ + .                           % & + @ @ @ + .               ",
"                                        * *   . @ = - ; > , , > ' - ) @ .   * *             *     + $ ! ~ { - = @ &   *         ",
"                                        * *   ] = > ^ / ( _ _ : / < ; ) +   * *             *   % # - [ } | ^ 1 2 ] 3 *         ",
"                                        4   5 ) 6 } 7 8 9 0 0 a b c ^ ~ d   * 4             4   + e < : f g h / > ) & *         ",
"                                        % + $ { ^ i j k l m m n o p q < r @ &             % 5 s t u v g w x a y } { $ + . %     ",
"                                * *   . @ = z ^ i p A m B C D E F G H : < ~ ) s %   4   5 + $ r I / J w K L A a i ^ 6 = # + %   ",
"                                * *   @ r M N i p o m B O P Q C E R x H q S 6 = +   4   + ) { T v J w U V W X Y Z h N I - ` .   ",
"                                4   &  ., ..J 9 +.X @.C Q P Q #.D W R o $.7 } ; $ % 4   @ - ^ q b x n %.&.*.W m +.=.J -.I = +   ",
"                              % 5 + ) 6 N ;.w K %.B C >.Q P Q Q C D E m A j i ^ { ,.. . $ 6 '.).!.F W *.C C *.W F ~.$.{.^ - @   ",
"                    * * *   & + $ r ].^./.a K (.*._.Q Q Q Q Q Q Q #.C B m A p i ^ ; ) $ = I q a n :._.Q Q _.*.W F ~.$.{.^ - @   ",
"                    * * *   + ) { <...y a A %.*._.Q Q Q Q Q Q Q Q Q Q _.B m o Z h | > - - < h w X [.}.|.Q C &.m A =.J -.I = +   ",
"                      * 4   ] r T ( 1.0 K 2.B _.Q Q Q Q Q Q Q Q Q Q Q Q C @.X +.9 J N I 6 T h w X [.}.|.Q *.m o 3.h N I - ` .   ",
"              . + @ @ @ & & 4.{ 5.6.7.+.m :.[._.Q Q Q Q Q Q Q Q Q Q Q Q C *.W F o p q 8.> < c j n W D D B m A j 9.^ 6 = # + %   ",
"        *   & @ = - { - = $ ) { 5.6.7.+.m B [._.Q Q Q Q Q Q Q Q Q Q Q Q C *.W F o j q ^ > I '.0.x n X m l k a 7 a.~ $ + . %     ",
"        * 3 ] 2 1 ^ | a.I - = - <.v 1.x K %.B _.Q Q Q Q Q Q Q Q Q Q Q Q C @.X +.9 J / I ~ { b.: 0.a =.c.9 8 7 | 6 ) & *         ",
"        * & ) > / h g y v <.- = d.<...y a A %.*._.Q Q Q Q Q Q Q Q Q Q _.B m o Z h N I -  .= ; <.^.: q q ( e.^ f.2 ] 3 *         ",
"    % . + $ { } y a x w g.v I r = - ].| /.a K (.*._.Q Q Q Q Q Q Q #.C B m A p i ^ 6 = # @ ` = ~ M < < <.I 6 -  .@ &   *         ",
"  % + # = 6 ^ i a A L K w J / I - = r > | y w K %.B C >.Q P Q Q C D E m A j i ^ { $ .   . @ h.i.M I > ~ ! $ ] & .               ",
"  . ` - I N h Z Y X W V U w J j.<.d.= r I / J 9 +.X @.C Q P Q #.D W R o $.7 } ; $ % k.l.. $ { <.^.^.m.6 ) +   *                 ",
"  + = I -.J =.+.m W *.&.%.n x b ( m.d.= r > 5.i p o m B O P Q C E R x H q S 6 = +   n.* ] - ^ ( J J q ^ d.@   4                 ",
"  @ - ^ i $.o F W *.C C *.W F G b ( <.- = r 6 ^ i p A m B C D E F G H : < ~ ) @ & 3 . @ e [ q b w x p o.<.r @ & . %             ",
"  @ - b.i 3.o F W D _.Q O C @.F x ).-.<.~ 2 = ; a.i j o l m m n o p q < r @ & 5 & ]  .d.[ -.b p.n n G p ( <.~  .@ + %           ",
"  + = I '.J 9 k F E C Q P Q C W n x ).: 8.{ = e 6 } h b 9 0 0 a b c ^ ~ d   4   ] = 6 ^ ( ).x n V (.F G b _ } > e @ .           ",
"  . # - I N h p o m *.q.P P #.D (.n G r.i S { 2 r 6 ^ / ( _ _ : / < ; ) & * 4 5 $ 6 } h r.G R W s.*.W F o j y | > ) & *         ",
"  % s ) d.<./ J t.l &.q.u.u.Q #.D W m A j i ^ ; r r { 6 > , , > ' - ) @ 3 * 4 &  .I q p o m &.D C C D B m +.j i < = & * *       ",
"  % + ) d.<./ J t.l B Q u.u.Q Q Q C *.m k p v.^ > - = ) $ $ $ # @ @ + .   * 4 & 2 T /.x F B w.Q Q Q Q w.*.m !.J a.- + 4 * *     ",
"  . # r I N h p o m *.Q P u.Q Q u.P q.B x.o p h N I r @ .                   4 + ! ^ J o (.w.y.u.Q Q u.u.q.W A 1.^.- + 4 * *     ",
"  + = I '.J 9 k F :._.Q Q Q Q Q Q Q Q C E x.A 9 ;./ ].) & 4 4 4 * *         4 + ! ^ J o (.w.y.u.Q Q u.u.q.W A 1.^.- + 4 * *     ",
"  @ - a./.=.U m W B *.D *.*.*.*.*.*.*.B z.2.l G p q <.= & 4 4 4 * *       4 4 & 2 T /.x F B w.Q Q Q Q w.*.m !.J a.- + 4 * *     ",
"  @ { / p ~.m W W (.m F F F F F F F F F F l +.x p q <.= & 4 4 4 * * * * 4 4 4 &  .I q p o m &.D C C D B m +.j i < = & * *       ",
"  @ 6 v j K %.W m K G w 7.7.7.7.7.7.7.w w w a p /./ > ) 5 4 4 4 * * * * 4 4 4 5 $ 6 } h r.G R A.s.*.W F o j y | > ) & *         ",
"  @ 6 v j U 2.X k a J i _ ( ( q q q q q q q q v } I r @ %                     % ] = 6 ^ ( ).x n V (.F G b _ } > e @ .           ",
"  @ { / p o n U w J v } ^ 8.^ ^ ^ ^ ^ ^ ^ ^ ^ T I 6 r = ) $ $ $ $ $ $ # @ @ + & & ]  .d.[ -.b p.n n G p ( < ~  .@ + %           ",
"  @ d.} B.a p.x p 7 ..} ^ ^ ^ ^ ^ ^ ^ ^ ^ ^ ^ 8.T <.I I I , , , , , , > ; - = @ + 3 . @ e <.q 8 c.x p i < - # & . %             ",
"  + = I -.B.8 p 1.;.i q q q q q q q q q q q q q q q q q q q q q q _ q ( / ^ > = ]   n.* ] - ^ _ J J _ } ~ @   4                 ",
"  . # r I ^.q /.).p a =.w w w 7.7.7.7.7.7.7.7.w w w w w w 0 0 0 0 0 0 9 8 7 } 6 $ % k.l.. ) z m.| | m.6 t +   *                 ",
"  % + ) d.C.D.9.8 x E.R F F F F F F F F F F F F F F F F F x.x.x.x.m x.l k j i ^ { $ .   3 ] F.G.~ 6 ~ r = $ @ + . %             ",
"  % + ) d.<./ /.9 E.V &.*.*.*.*.*.*.*.*.*.*.*.*.*.*.*.*.D D D D D D D B m A p i ^ z = @ .   . H.@ ) ! - ; ; d.= ` + %           ",
"  . # r I N h 3.o m &.>.Q Q Q Q Q Q Q Q Q Q Q Q Q Q Q Q Q Q Q Q Q Q Q _.B m o p i N M r @   k.k.% # - I } | ^ I r @ .           ",
"  + = I '.J =.A X E C Q P P Q Q Q Q Q Q Q Q Q Q Q Q Q Q Q Q Q Q Q Q Q Q C @.X +.9 J ..I  .. k.k.. = <.v y g 7 / > ) & *         ",
"  @ - a./.=.K %.B C Q Q P P Q Q Q Q Q Q Q Q Q Q Q Q Q Q Q Q Q Q Q Q Q Q C C B %.K w ;.N > = @ @ = ].v g.w x Z h < = & * *       ",
"  @ { / 8 k %.*._.Q Q Q Q Q Q Q Q Q Q Q Q Q Q Q Q Q Q Q Q Q Q Q Q Q Q Q Q Q _.*.(.K a y / <.> > <./ J w K K x J a.- + 4 * *     ",
"  @ 6 -.I.K :.Q P P Q Q Q Q Q Q Q Q Q Q Q Q Q Q Q Q Q Q Q Q Q Q Q Q Q Q Q Q Q _.*.%.A a 0.i q q h ).w U m m o 1.^.- + 4 * *     ",
"  @ 6 -.I.K B Q u.u.Q Q Q Q Q Q Q Q Q Q Q Q Q Q Q Q Q Q Q Q Q Q Q Q Q Q Q Q Q Q _.B J.U G 0 w w x o n %.W %.o 1.^.- + 4 * *     ",
"  @ 6 -.I.K :.Q u.u.Q Q Q Q Q Q Q Q Q Q Q Q Q Q Q Q Q Q Q Q Q Q Q Q Q Q Q Q Q Q _.K.z.2.L.K K L F V W *.*.%.o 1.^.- + 4 * *     ",
"  @ 6 -.I.K :.Q P P Q Q Q Q Q Q Q Q Q Q Q Q Q Q Q Q Q Q Q Q Q Q Q Q Q Q Q Q Q Q _.K.z.2.F L.x.(.M.*.w.w.C (.o 1.} - + 4 * *     ",
"  @ 6 -.I.K z.O P P Q Q Q Q Q Q Q Q Q Q Q Q Q Q Q Q Q Q Q Q Q Q Q Q Q Q Q Q Q Q _.M.J.K N.+.L.%.B #.y.y.w.(.o 1.} r + 4 * *     ",
"  @ 6 -.I.K z.O P P Q Q Q Q Q Q Q Q Q Q Q Q Q Q Q Q Q Q Q Q Q Q Q Q Q Q Q Q Q _.*.2.A 7.r.I.x n E #.y.y.w.(.o 1.} r + 4 * *     ",
"  @ 6 -.I.K :.Q P P Q Q Q Q Q Q Q Q Q Q Q Q Q Q Q Q Q Q Q Q Q Q Q Q Q Q Q Q _.*.(.U j ;.q i p o (._.O.|.#.(.o 1.} - + 4 * *     ",
"  @ 6 -.I.K :.Q u.u.Q Q Q Q Q Q Q Q Q Q Q Q Q Q Q Q Q Q Q Q Q Q Q Q Q Q C C B %.K =././ ^ | y x m [.P.|.Q W o 1.} - + 4 * *     ",
"  @ 6 -.I.K B Q u.u.Q Q Q Q Q Q Q Q Q Q Q Q Q Q Q Q Q Q Q Q Q Q Q Q Q Q C @.X +.9 ;.N I 6 T i w F [.P.|.Q W A 1.^.- + 4 * *     ",
"  @ 6 -.I.K :.Q P P Q Q Q Q Q Q Q Q Q Q Q Q Q Q Q Q Q Q Q Q Q Q Q Q Q _.B m o p i 5.> - - <.i 7.F [.}.|.#.(.o 1.} - + 4 * *     ",
"  @ { / 8 k 2.B *.D D D D D D D D D D D *.*.D D C C #.Q Q _.C D D D D B m A p i ^ { ) $ = I q j K z.D D B x.!.J ^ r + 4 * *     ",
"  @ d.} B.9 A F F m m x.x.x.x.x.x.x.x.F F F F m W &.D C C *.W %.m m x.l k j i ^ { ,.. . $ 6 / 1.Q.n X m R A j i <.= & * *       ",
"  + = I -.J $.=.w 0 0 0 0 0 0 0 0 0 0 w w w 0 R.E.X W B B %.n o x 0 0 9 8 7 } 6 ) % 4   @ - ^ q 1.a w c.=.p 6.| > ) & *         ",
"  . # - [ ^.v q q q q q q q q q q q q q q q v.B.$.o F (.2.K w 1.h _ q ( / ^ > = ]   4   + ) z < / : q S.q v a.1 ! @ .           ",
"  % + # e ~ > , I , , , , , , , , , , , f., I } i 3.~.L K 0 J j.T , ].> ; - = @ .   4   5 @  .r ' > u M > 6 - = @ .             ",
"    % . + @ # $ $ $ $ $ $ $ $ $ $ $ $ ,.4.,.) { } 7 a x w 1.-.I r $ d @ @ @ + .           . + ] @ # ` # @ @ H.. % T.k.k.k.k.k.k.",
"                                        4 U.5 ) > D.h J y : <.G.]   * *                           T.T.k.V.W.W.W.W.W.W.V.V.X.X.X.",
"            * * * * * * * * * * * * * * 4 4   @ e > ^ | a.<.d.` . * 4 4 * *                     k.k.V.W.Y.Z.`.`.Z. +Y.Y.Y..+.+.+",
"            * * * * * * * * * * * * * * 4 4   . @ = - { ~ G.` ] 3 * 4 4 * *                     k.k.W.Y.`.++++++++++++++++@+@+@+",
"                                                . + @ @ @ ] . .                                   k.W.Y.`.++#+#+#+#+$+%+%+&+&+&+",
"                                                                                                  k.V.Y.++++#+#+#+#+#+#+&+&+&+&+"};
